Fotico/Resources/LUTs/algodon.cube
# Algodon
LUT_3D_SIZE 5
0.164459 0.140096 0.124717
0.289614 0.155632 0.140254
0.424101 0.172327 0.156949
0.563823 0.189672 0.174294
0.688936 0.205204 0.189825
0.216712 0.301942 0.176971
0.341868 0.317478 0.192507
0.476355 0.334173 0.209202
0.616077 0.351518 0.226547
0.741190 0.367049 0.242079
0.272090 0.473464 0.232348
0.397246 0.489000 0.247885
0.531732 0.505695 0.264580
0.671455 0.523040 0.281925
0.796567 0.538571 0.297456
0.329113 0.650081 0.289371
0.454268 0.665618 0.304908
0.588755 0.682313 0.321603
0.728477 0.699658 0.338948
0.853590 0.715189 0.354479
0.387283 0.830252 0.347541
0.512438 0.845789 0.363078
0.646925 0.862484 0.379773
0.786647 0.879829 0.397118
0.911760 0.895360 0.412649
0.169748 0.145385 0.239900
0.294904 0.160922 0.255437
0.429391 0.177617 0.272132
0.569113 0.194962 0.289477
0.694226 0.210493 0.305008
0.222002 0.307231 0.292154
0.347157 0.322768 0.307690
0.481644 0.339463 0.324385
0.621366 0.356808 0.341730
0.746479 0.372339 0.357262
0.277379 0.478753 0.347531
0.402535 0.494290 0.363068
0.537022 0.510985 0.379763
0.676744 0.528330 0.397108
0.801857 0.543861 0.412639
0.334402 0.655371 0.404554
0.459558 0.670908 0.420091
0.594045 0.687603 0.436786
0.733767 0.704947 0.454131
0.858880 0.720479 0.469662
0.392572 0.835542 0.462724
0.517728 0.851078 0.478261
0.652215 0.867773 0.494956
0.791937 0.885118 0.512301
0.917050 0.900650 0.527832
0.175148 0.150785 0.357493
0.300304 0.166322 0.373030
0.434791 0.183017 0.389725
0.574513 0.200362 0.407070
0.699626 0.215893 0.422601
0.227402 0.312631 0.409747
0.352558 0.328168 0.425283
0.487044 0.344863 0.441978
0.626767 0.362208 0.459323
0.751879 0.377739 0.474854
0.282780 0.484153 0.465124
0.407935 0.499690 0.480661
0.542422 0.516385 0.497356
0.682144 0.533730 0.514701
0.807257 0.549261 0.530232
0.339803 0.660771 0.522147
0.464958 0.676308 0.537684
0.599445 0.693003 0.554379
0.739167 0.710348 0.571724
0.864280 0.725879 0.587255
0.397973 0.840942 0.580317
0.523128 0.856479 0.595854
0.657615 0.873174 0.612549
0.797337 0.890519 0.629894
0.922450 0.906050 0.645425
0.180602 0.156239 0.476242
0.305757 0.171775 0.491778
0.440244 0.188470 0.508473
0.579966 0.205815 0.525818
0.705079 0.221347 0.541350
0.232855 0.318085 0.528495
0.358011 0.333621 0.544032
0.492498 0.350316 0.560727
0.632220 0.367661 0.578072
0.757333 0.383192 0.593603
0.288233 0.489607 0.583873
0.413389 0.505143 0.599410
0.547875 0.521838 0.616105
0.687598 0.539183 0.633449
0.812710 0.554715 0.648981
0.345256 0.666224 0.640896
0.470411 0.681761 0.656432
0.604898 0.698456 0.673127
0.744620 0.715801 0.690472
0.869733 0.731332 0.706004
0.403426 0.846395 0.699066
0.528581 0.861932 0.714602
0.663068 0.878627 0.731297
0.802790 0.895972 0.748642
0.927903 0.911503 0.764174
0.186091 0.161728 0.595771
0.311247 0.177265 0.611308
0.445733 0.193960 0.628003
0.585455 0.211304 0.645348
0.710568 0.226836 0.660879
0.238344 0.323574 0.648025
0.363500 0.339110 0.663562
0.497987 0.355805 0.680257
0.637709 0.373150 0.697601
0.762822 0.388682 0.713133
0.293722 0.495096 0.703403
0.418878 0.510632 0.718939
0.553364 0.527327 0.735634
0.693087 0.544672 0.752979
0.818199 0.560204 0.768510
0.350745 0.671714 0.760425
0.475901 0.687250 0.775962
0.610387 0.703945 0.792657
0.750110 0.721290 0.810002
0.875222 0.736821 0.825533
0.408915 0.851884 0.818595
0.534071 0.867421 0.834132
0.668557 0.884116 0.850827
0.808280 0.901461 0.868172
0.933392 0.916992 0.883703
