Fotico/Resources/LUTs/algodon.cube
# Algodon
LUT_3D_SIZE 17
0.164459 0.140096 0.124717
0.194324 0.143803 0.128425
0.225329 0.147652 0.132273
0.257151 0.151602 0.136224
0.289614 0.155632 0.140254
0.322609 0.159728 0.144350
0.356057 0.163880 0.148502
0.389902 0.168082 0.152703
0.424101 0.172327 0.156949
0.458618 0.176612 0.161234
0.493426 0.180933 0.165555
0.528501 0.185287 0.169909
0.563823 0.189672 0.174294
0.599376 0.194086 0.178707
0.635144 0.198526 0.183147
0.671115 0.202991 0.187613
0.688936 0.205204 0.189825
0.177012 0.178977 0.137270
0.206877 0.182684 0.140978
0.237882 0.186533 0.144827
0.269704 0.190484 0.148777
0.302168 0.194514 0.152807
0.335162 0.198610 0.156903
0.368610 0.202762 0.161055
0.402456 0.206963 0.165257
0.436654 0.211209 0.169502
0.471172 0.215494 0.173787
0.505979 0.219815 0.178108
0.541054 0.224169 0.182462
0.576377 0.228554 0.186847
0.611929 0.232967 0.191260
0.647697 0.237407 0.195701
0.683668 0.241873 0.200166
0.701489 0.244085 0.202378
0.189986 0.219161 0.150244
0.219851 0.222869 0.153952
0.250856 0.226718 0.157801
0.282678 0.230668 0.161751
0.315141 0.234698 0.165781
0.348136 0.238794 0.169877
0.381584 0.242946 0.174029
0.415430 0.247148 0.178231
0.449628 0.251393 0.182476
0.484146 0.255678 0.186761
0.518953 0.259999 0.191082
0.554028 0.264353 0.195436
0.589350 0.268738 0.199821
0.624903 0.273151 0.204234
0.660671 0.277591 0.208675
0.696642 0.282057 0.213140
0.714463 0.284269 0.215352
0.203242 0.260220 0.163500
0.233107 0.263927 0.167208
0.264112 0.267776 0.171057
0.295934 0.271726 0.175007
0.328398 0.275756 0.179037
0.361392 0.279852 0.183133
0.394840 0.284004 0.187285
0.428686 0.288206 0.191487
0.462884 0.292451 0.195732
0.497402 0.296736 0.200017
0.532209 0.301057 0.204338
0.567284 0.305411 0.208692
0.602607 0.309796 0.213077
0.638159 0.314210 0.217490
0.673927 0.318650 0.221931
0.709898 0.323115 0.226396
0.727719 0.325327 0.228608
0.216712 0.301942 0.176971
0.246577 0.305649 0.180678
0.277582 0.309498 0.184527
0.309404 0.313448 0.188477
0.341868 0.317478 0.192507
0.374862 0.321574 0.196603
0.408311 0.325726 0.200755
0.442156 0.329928 0.204957
0.476355 0.334173 0.209202
0.510872 0.338458 0.213487
0.545680 0.342779 0.217808
0.580755 0.347133 0.222162
0.616077 0.351518 0.226547
0.651629 0.355932 0.230961
0.687397 0.360372 0.235401
0.723368 0.364837 0.239866
0.741190 0.367049 0.242079
0.230356 0.344201 0.190615
0.260221 0.347908 0.194322
0.291226 0.351757 0.198171
0.323048 0.355707 0.202121
0.355512 0.359737 0.206151
0.388506 0.363833 0.210247
0.421955 0.367986 0.214399
0.455800 0.372187 0.218601
0.489998 0.376432 0.222846
0.524516 0.380717 0.227131
0.559324 0.385038 0.231452
0.594399 0.389392 0.235806
0.629721 0.393777 0.240191
0.665273 0.398191 0.244605
0.701041 0.402631 0.249045
0.737012 0.407096 0.253510
0.754833 0.409309 0.255722
0.244146 0.386912 0.204404
0.274011 0.390620 0.208112
0.305016 0.394469 0.211961
0.336838 0.398419 0.215911
0.369302 0.402449 0.219941
0.402296 0.406545 0.224037
0.435744 0.410697 0.228189
0.469590 0.414899 0.232391
0.503788 0.419144 0.236636
0.538306 0.423429 0.240921
0.573114 0.427750 0.245242
0.608188 0.432104 0.249596
0.643511 0.436489 0.253981
0.679063 0.440902 0.258394
0.714831 0.445343 0.262835
0.750802 0.449808 0.267300
0.768623 0.452020 0.269512
0.258062 0.430015 0.218321
0.287927 0.433723 0.222028
0.318932 0.437572 0.225877
0.350754 0.441522 0.229827
0.383218 0.445552 0.233857
0.416212 0.449648 0.237953
0.449661 0.453800 0.242105
0.483506 0.458002 0.246307
0.517705 0.462247 0.250552
0.552222 0.466532 0.254837
0.587030 0.470853 0.259158
0.622105 0.475207 0.263512
0.657427 0.479592 0.267897
0.692979 0.484005 0.272311
0.728747 0.488446 0.276751
0.764718 0.492911 0.281216
0.782540 0.495123 0.283429
0.272090 0.473464 0.232348
0.301955 0.477171 0.236056
0.332960 0.481020 0.239905
0.364782 0.484970 0.243855
0.397246 0.489000 0.247885
0.430240 0.493096 0.251981
0.463688 0.497248 0.256133
0.497534 0.501450 0.260335
0.531732 0.505695 0.264580
0.566250 0.509980 0.268865
0.601057 0.514301 0.273186
0.636132 0.518655 0.277540
0.671455 0.523040 0.281925
0.707007 0.527454 0.286338
0.742775 0.531894 0.290779
0.778746 0.536359 0.295244
0.796567 0.538571 0.297456
0.286217 0.517221 0.246476
0.316083 0.520928 0.250183
0.347087 0.524777 0.254032
0.378909 0.528728 0.257983
0.411373 0.532758 0.262013
0.444368 0.536853 0.266108
0.477816 0.541006 0.270261
0.511661 0.545207 0.274462
0.545860 0.549453 0.278708
0.580377 0.553737 0.282992
0.615185 0.558058 0.287313
0.650260 0.562413 0.291668
0.685582 0.566797 0.296052
0.721135 0.571211 0.300466
0.756903 0.575651 0.304906
0.792874 0.580116 0.309371
0.810695 0.582329 0.311584
0.300435 0.561258 0.260694
0.330301 0.564966 0.264401
0.361305 0.568815 0.268250
0.393127 0.572765 0.272200
0.425591 0.576795 0.276230
0.458585 0.580891 0.280326
0.492034 0.585043 0.284479
0.525879 0.589245 0.288680
0.560078 0.593490 0.292925
0.594595 0.597775 0.297210
0.629403 0.602096 0.301531
0.664478 0.606450 0.305886
0.699800 0.610835 0.310270
0.735352 0.615248 0.314684
0.771121 0.619688 0.319124
0.807091 0.624154 0.323589
0.824913 0.626366 0.325802
0.314736 0.605552 0.274994
0.344601 0.609259 0.278702
0.375606 0.613108 0.282551
0.407428 0.617058 0.286501
0.439892 0.621088 0.290531
0.472886 0.625184 0.294627
0.506334 0.629337 0.298779
0.540180 0.633538 0.302981
0.574378 0.637783 0.307226
0.608896 0.642068 0.311511
0.643704 0.646389 0.315832
0.678778 0.650744 0.320186
0.714101 0.655128 0.324571
0.749653 0.659542 0.328984
0.785421 0.663982 0.333425
0.821392 0.668447 0.337890
0.839213 0.670660 0.340102
0.329113 0.650081 0.289371
0.358978 0.653789 0.293079
0.389983 0.657638 0.296928
0.421805 0.661588 0.300878
0.454268 0.665618 0.304908
0.487263 0.669714 0.309004
0.520711 0.673866 0.313156
0.554557 0.678068 0.317358
0.588755 0.682313 0.321603
0.623272 0.686598 0.325888
0.658080 0.690919 0.330209
0.693155 0.695273 0.334563
0.728477 0.699658 0.338948
0.764030 0.704071 0.343361
0.799798 0.708512 0.347801
0.835769 0.712977 0.352267
0.853590 0.715189 0.354479
0.343560 0.694830 0.303819
0.373426 0.698537 0.307526
0.404430 0.702386 0.311375
0.436252 0.706337 0.315325
0.468716 0.710367 0.319355
0.501710 0.714462 0.323451
0.535159 0.718615 0.327604
0.569004 0.722816 0.331805
0.603203 0.727062 0.336050
0.637720 0.731347 0.340335
0.672528 0.735668 0.344656
0.707603 0.740022 0.349011
0.742925 0.744407 0.353395
0.778477 0.748820 0.357809
0.814246 0.753260 0.362249
0.850216 0.757726 0.366714
0.868038 0.759938 0.368927
0.358074 0.739783 0.318332
0.387939 0.743490 0.322040
0.418944 0.747339 0.325889
0.450766 0.751290 0.329839
0.483229 0.755320 0.333869
0.516224 0.759415 0.337965
0.549672 0.763568 0.342117
0.583518 0.767769 0.346319
0.617716 0.772015 0.350564
0.652234 0.776299 0.354849
0.687041 0.780620 0.359170
0.722116 0.784975 0.363524
0.757438 0.789359 0.367909
0.792991 0.793773 0.372322
0.828759 0.798213 0.376763
0.864730 0.802679 0.381228
0.882551 0.804891 0.383440
0.372649 0.784927 0.332908
0.402514 0.788635 0.336615
0.433519 0.792484 0.340464
0.465341 0.796434 0.344414
0.497805 0.800464 0.348444
0.530799 0.804560 0.352540
0.564248 0.808712 0.356692
0.598093 0.812914 0.360894
0.632292 0.817159 0.365139
0.666809 0.821444 0.369424
0.701617 0.825765 0.373745
0.736692 0.830119 0.378099
0.772014 0.834504 0.382484
0.807566 0.838917 0.386898
0.843334 0.843358 0.391338
0.879305 0.847823 0.395803
0.897127 0.850035 0.398016
0.387283 0.830252 0.347541
0.417148 0.833960 0.351249
0.448153 0.837809 0.355098
0.479975 0.841759 0.359048
0.512438 0.845789 0.363078
0.545433 0.849885 0.367174
0.578881 0.854037 0.371326
0.612727 0.858239 0.375528
0.646925 0.862484 0.379773
0.681443 0.866769 0.384058
0.716250 0.871090 0.388379
0.751325 0.875444 0.392733
0.786647 0.879829 0.397118
0.822200 0.884242 0.401531
0.857968 0.888683 0.405971
0.893939 0.893148 0.410437
0.911760 0.895360 0.412649
0.165761 0.141398 0.153078
0.195626 0.145106 0.156786
0.226631 0.148954 0.160635
0.258453 0.152905 0.164585
0.290917 0.156935 0.168615
0.323911 0.161031 0.172711
0.357360 0.165183 0.176863
0.391205 0.169384 0.181065
0.425403 0.173630 0.185310
0.459921 0.177915 0.189595
0.494729 0.182236 0.193916
0.529804 0.186590 0.198270
0.565126 0.190975 0.202655
0.600678 0.195388 0.207068
0.636446 0.199828 0.211509
0.672417 0.204294 0.215974
0.690239 0.206506 0.218186
0.178314 0.180279 0.165632
0.208180 0.183987 0.169339
0.239184 0.187836 0.173188
0.271006 0.191786 0.177138
0.303470 0.195816 0.181168
0.336465 0.199912 0.185264
0.369913 0.204064 0.189416
0.403758 0.208266 0.193618
0.437957 0.212511 0.197863
0.472474 0.216796 0.202148
0.507282 0.221117 0.206469
0.542357 0.225471 0.210823
0.577679 0.229856 0.215208
0.613231 0.234269 0.219622
0.649000 0.238710 0.224062
0.684970 0.243175 0.228527
0.702792 0.245387 0.230740
0.191288 0.220464 0.178605
0.221153 0.224171 0.182313
0.252158 0.228020 0.186162
0.283980 0.231970 0.190112
0.316444 0.236000 0.194142
0.349438 0.240096 0.198238
0.382887 0.244248 0.202390
0.416732 0.248450 0.206592
0.450931 0.252695 0.210837
0.485448 0.256980 0.215122
0.520256 0.261301 0.219443
0.555331 0.265655 0.223797
0.590653 0.270040 0.228182
0.626205 0.274454 0.232596
0.661973 0.278894 0.237036
0.697944 0.283359 0.241501
0.715766 0.285572 0.243713
0.204544 0.261522 0.191862
0.234410 0.265229 0.195569
0.265414 0.269078 0.199418
0.297236 0.273029 0.203368
0.329700 0.277059 0.207398
0.362694 0.281155 0.211494
0.396143 0.285307 0.215646
0.429988 0.289508 0.219848
0.464187 0.293754 0.224093
0.498704 0.298039 0.228378
0.533512 0.302360 0.232699
0.568587 0.306714 0.237053
0.603909 0.311099 0.241438
0.639461 0.315512 0.245852
0.675230 0.319952 0.250292
0.711200 0.324418 0.254757
0.729022 0.326630 0.256969
0.218015 0.303244 0.205332
0.247880 0.306951 0.209039
0.278885 0.310800 0.212888
0.310707 0.314751 0.216839
0.343170 0.318781 0.220869
0.376165 0.322876 0.224964
0.409613 0.327029 0.229117
0.443458 0.331230 0.233318
0.477657 0.335476 0.237564
0.512174 0.339761 0.241849
0.546982 0.344082 0.246170
0.582057 0.348436 0.250524
0.617379 0.352821 0.254909
0.652932 0.357234 0.259322
0.688700 0.361674 0.263762
0.724671 0.366140 0.268228
0.742492 0.368352 0.270440
0.231659 0.345503 0.218976
0.261524 0.349211 0.222683
0.292529 0.353059 0.226532
0.324350 0.357010 0.230482
0.356814 0.361040 0.234512
0.389809 0.365136 0.238608
0.423257 0.369288 0.242761
0.457102 0.373489 0.246962
0.491301 0.377735 0.251207
0.525818 0.382020 0.255492
0.560626 0.386341 0.259813
0.595701 0.390695 0.264167
0.631023 0.395080 0.268552
0.666576 0.399493 0.272966
0.702344 0.403933 0.277406
0.738315 0.408399 0.281871
0.756136 0.410611 0.284084
0.245448 0.388215 0.232766
0.275314 0.391922 0.236473
0.306318 0.395771 0.240322
0.338140 0.399721 0.244272
0.370604 0.403751 0.248302
0.403599 0.407847 0.252398
0.437047 0.412000 0.256550
0.470892 0.416201 0.260752
0.505091 0.420446 0.264997
0.539608 0.424731 0.269282
0.574416 0.429052 0.273603
0.609491 0.433407 0.277957
0.644813 0.437791 0.282342
0.680366 0.442205 0.286756
0.716134 0.446645 0.291196
0.752105 0.451110 0.295661
0.769926 0.453323 0.297874
0.259365 0.431318 0.246682
0.289230 0.435025 0.250389
0.320235 0.438874 0.254238
0.352057 0.442824 0.258189
0.384520 0.446854 0.262219
0.417515 0.450950 0.266314
0.450963 0.455103 0.270467
0.484808 0.459304 0.274668
0.519007 0.463549 0.278914
0.553524 0.467834 0.283198
0.588332 0.472155 0.287519
0.623407 0.476510 0.291874
0.658729 0.480894 0.296258
0.694282 0.485308 0.300672
0.730050 0.489748 0.305112
0.766021 0.494213 0.309577
0.783842 0.496426 0.311790
0.273392 0.474766 0.260710
0.303258 0.478473 0.264417
0.334262 0.482322 0.268266
0.366084 0.486273 0.272216
0.398548 0.490303 0.276246
0.431543 0.494399 0.280342
0.464991 0.498551 0.284494
0.498836 0.502752 0.288696
0.533035 0.506998 0.292941
0.567552 0.511283 0.297226
0.602360 0.515604 0.301547
0.637435 0.519958 0.305901
0.672757 0.524343 0.310286
0.708309 0.528756 0.314700
0.744078 0.533196 0.319140
0.780048 0.537662 0.323605
0.797870 0.539874 0.325818
0.287520 0.518523 0.274837
0.317385 0.522231 0.278544
0.348390 0.526080 0.282393
0.380212 0.530030 0.286344
0.412675 0.534060 0.290374
0.445670 0.538156 0.294470
0.479118 0.542308 0.298622
0.512964 0.546510 0.302823
0.547162 0.550755 0.307069
0.581680 0.555040 0.311354
0.616487 0.559361 0.315675
0.651562 0.563715 0.320029
0.686884 0.568100 0.324414
0.722437 0.572513 0.328827
0.758205 0.576954 0.333267
0.794176 0.581419 0.337733
0.811997 0.583631 0.339945
0.301738 0.562561 0.289055
0.331603 0.566268 0.292762
0.362608 0.570117 0.296611
0.394430 0.574067 0.300562
0.426893 0.578097 0.304592
0.459888 0.582193 0.308688
0.493336 0.586345 0.312840
0.527181 0.590547 0.317041
0.561380 0.594792 0.321287
0.595897 0.599077 0.325572
0.630705 0.603398 0.329893
0.665780 0.607752 0.334247
0.701102 0.612137 0.338632
0.736655 0.616551 0.343045
0.772423 0.620991 0.347485
0.808394 0.625456 0.351951
0.826215 0.627669 0.354163
0.316038 0.606854 0.303356
0.345904 0.610562 0.307063
0.376908 0.614410 0.310912
0.408730 0.618361 0.314862
0.441194 0.622391 0.318892
0.474189 0.626487 0.322988
0.507637 0.630639 0.327140
0.541482 0.634840 0.331342
0.575681 0.639086 0.335587
0.610198 0.643371 0.339872
0.645006 0.647692 0.344193
0.680081 0.652046 0.348547
0.715403 0.656431 0.352932
0.750955 0.660844 0.357346
0.786724 0.665284 0.361786
0.822694 0.669750 0.366251
0.840516 0.671962 0.368464
0.330415 0.651384 0.317732
0.360280 0.655091 0.321440
0.391285 0.658940 0.325289
0.423107 0.662890 0.329239
0.455571 0.666920 0.333269
0.488565 0.671016 0.337365
0.522014 0.675169 0.341517
0.555859 0.679370 0.345719
0.590058 0.683615 0.349964
0.624575 0.687900 0.354249
0.659383 0.692221 0.358570
0.694458 0.696576 0.362924
0.729780 0.700960 0.367309
0.765332 0.705374 0.371722
0.801100 0.709814 0.376163
0.837071 0.714279 0.380628
0.854893 0.716492 0.382840
0.344863 0.696132 0.332180
0.374728 0.699840 0.335887
0.405733 0.703689 0.339736
0.437555 0.707639 0.343687
0.470018 0.711669 0.347717
0.503013 0.715765 0.351813
0.536461 0.719917 0.355965
0.570306 0.724119 0.360166
0.604505 0.728364 0.364412
0.639022 0.732649 0.368697
0.673830 0.736970 0.373018
0.708905 0.741324 0.377372
0.744227 0.745709 0.381757
0.779780 0.750122 0.386170
0.815548 0.754563 0.390610
0.851519 0.759028 0.395076
0.869340 0.761240 0.397288
0.359376 0.741085 0.346693
0.389241 0.744793 0.350401
0.420246 0.748642 0.354250
0.452068 0.752592 0.358200
0.484532 0.756622 0.362230
0.517526 0.760718 0.366326
0.550975 0.764870 0.370478
0.584820 0.769072 0.374680
0.619019 0.773317 0.378925
0.653536 0.777602 0.383210
0.688344 0.781923 0.387531
0.723419 0.786277 0.391885
0.758741 0.790662 0.396270
0.794293 0.795075 0.400684
0.830061 0.799516 0.405124
0.866032 0.803981 0.409589
0.883854 0.806193 0.411801
0.373952 0.786230 0.361269
0.403817 0.789937 0.364976
0.434822 0.793786 0.368825
0.466644 0.797736 0.372776
0.499107 0.801766 0.376806
0.532102 0.805862 0.380901
0.565550 0.810015 0.385054
0.599395 0.814216 0.389255
0.633594 0.818462 0.393501
0.668111 0.822746 0.397785
0.702919 0.827067 0.402106
0.737994 0.831422 0.406461
0.773316 0.835806 0.410845
0.808869 0.840220 0.415259
0.844637 0.844660 0.419699
0.880608 0.849125 0.424164
0.898429 0.851338 0.426377
0.388585 0.831555 0.375902
0.418450 0.835262 0.379610
0.449455 0.839111 0.383459
0.481277 0.843061 0.387409
0.513741 0.847091 0.391439
0.546735 0.851187 0.395535
0.580184 0.855339 0.399687
0.614029 0.859541 0.403889
0.648228 0.863786 0.408134
0.682745 0.868071 0.412419
0.717553 0.872392 0.416740
0.752628 0.876746 0.421094
0.787950 0.881131 0.425479
0.823502 0.885545 0.429892
0.859270 0.889985 0.434333
0.895241 0.894450 0.438798
0.913063 0.896663 0.441010
0.167081 0.142718 0.181814
0.196946 0.146425 0.185521
0.227951 0.150274 0.189370
0.259773 0.154224 0.193320
0.292236 0.158254 0.197350
0.325231 0.162350 0.201446
0.358679 0.166503 0.205598
0.392524 0.170704 0.209800
0.426723 0.174949 0.214045
0.461240 0.179234 0.218330
0.496048 0.183555 0.222651
0.531123 0.187909 0.227005
0.566445 0.192294 0.231390
0.601998 0.196708 0.235804
0.637766 0.201148 0.240244
0.673737 0.205613 0.244709
0.691558 0.207826 0.246922
0.179634 0.181599 0.194367
0.209499 0.185306 0.198074
0.240504 0.189155 0.201923
0.272326 0.193106 0.205873
0.304790 0.197136 0.209903
0.337784 0.201232 0.213999
0.371232 0.205384 0.218152
0.405078 0.209585 0.222353
0.439276 0.213831 0.226598
0.473794 0.218116 0.230883
0.508602 0.222437 0.235204
0.543676 0.226791 0.239559
0.578999 0.231176 0.243943
0.614551 0.235589 0.248357
0.650319 0.240029 0.252797
0.686290 0.244495 0.257262
0.704111 0.246707 0.259475
0.192608 0.221783 0.207341
0.222473 0.225491 0.211048
0.253478 0.229340 0.214897
0.285300 0.233290 0.218847
0.317763 0.237320 0.222877
0.350758 0.241416 0.226973
0.384206 0.245568 0.231125
0.418052 0.249770 0.235327
0.452250 0.254015 0.239572
0.486768 0.258300 0.243857
0.521575 0.262621 0.248178
0.556650 0.266975 0.252532
0.591972 0.271360 0.256917
0.627525 0.275773 0.261331
0.663293 0.280214 0.265771
0.699264 0.284679 0.270236
0.717085 0.286891 0.272449
0.205864 0.262842 0.220597
0.235729 0.266549 0.224304
0.266734 0.270398 0.228153
0.298556 0.274348 0.232103
0.331020 0.278378 0.236133
0.364014 0.282474 0.240229
0.397462 0.286626 0.244382
0.431308 0.290828 0.248583
0.465506 0.295073 0.252828
0.500024 0.299358 0.257113
0.534832 0.303679 0.261434
0.569906 0.308033 0.265789
0.605229 0.312418 0.270173
0.640781 0.316832 0.274587
0.676549 0.321272 0.279027
0.712520 0.325737 0.283492
0.730341 0.327950 0.285705
0.219334 0.304564 0.234067
0.249200 0.308271 0.237775
0.280204 0.312120 0.241623
0.312026 0.316070 0.245574
0.344490 0.320100 0.249604
0.377484 0.324196 0.253700
0.410933 0.328348 0.257852
0.444778 0.332550 0.262053
0.478977 0.336795 0.266299
0.513494 0.341080 0.270584
0.548302 0.345401 0.274905
0.583377 0.349755 0.279259
0.618699 0.354140 0.283644
0.654251 0.358554 0.288057
0.690020 0.362994 0.292497
0.725990 0.367459 0.296963
0.743812 0.369671 0.299175
0.232978 0.346823 0.247711
0.262843 0.350530 0.251418
0.293848 0.354379 0.255267
0.325670 0.358329 0.259218
0.358134 0.362359 0.263248
0.391128 0.366455 0.267344
0.424577 0.370608 0.271496
0.458422 0.374809 0.275697
0.492621 0.379054 0.279943
0.527138 0.383339 0.284228
0.561946 0.387660 0.288549
0.597021 0.392015 0.292903
0.632343 0.396399 0.297288
0.667895 0.400813 0.301701
0.703663 0.405253 0.306141
0.739634 0.409718 0.310607
0.757456 0.411931 0.312819
0.246768 0.389534 0.261501
0.276633 0.393242 0.265208
0.307638 0.397091 0.269057
0.339460 0.401041 0.273008
0.371924 0.405071 0.277038
0.404918 0.409167 0.281133
0.438366 0.413319 0.285286
0.472212 0.417521 0.289487
0.506410 0.421766 0.293733
0.540928 0.426051 0.298017
0.575736 0.430372 0.302338
0.610810 0.434726 0.306693
0.646133 0.439111 0.311077
0.681685 0.443524 0.315491
0.717453 0.447965 0.319931
0.753424 0.452430 0.324396
0.771245 0.454642 0.326609
0.260684 0.432637 0.275417
0.290549 0.436345 0.279125
0.321554 0.440194 0.282973
0.353376 0.444144 0.286924
0.385840 0.448174 0.290954
0.418834 0.452270 0.295050
0.452283 0.456422 0.299202
0.486128 0.460624 0.303403
0.520327 0.464869 0.307649
0.554844 0.469154 0.311934
0.589652 0.473475 0.316255
0.624727 0.477829 0.320609
0.660049 0.482214 0.324994
0.695601 0.486627 0.329407
0.731369 0.491068 0.333847
0.767340 0.495533 0.338313
0.785162 0.497745 0.340525
0.274712 0.476086 0.289445
0.304577 0.479793 0.293152
0.335582 0.483642 0.297001
0.367404 0.487592 0.300951
0.399868 0.491622 0.304981
0.432862 0.495718 0.309077
0.466310 0.499870 0.313230
0.500156 0.504072 0.317431
0.534354 0.508317 0.321676
0.568872 0.512602 0.325961
0.603680 0.516923 0.330282
0.638754 0.521277 0.334637
0.674077 0.525662 0.339021
0.709629 0.530076 0.343435
0.745397 0.534516 0.347875
0.781368 0.538981 0.352340
0.799189 0.541194 0.354553
0.288839 0.519843 0.303572
0.318705 0.523550 0.307280
0.349710 0.527399 0.311129
0.381531 0.531350 0.315079
0.413995 0.535380 0.319109
0.446990 0.539475 0.323205
0.480438 0.543628 0.327357
0.514283 0.547829 0.331559
0.548482 0.552075 0.335804
0.582999 0.556360 0.340089
0.617807 0.560681 0.344410
0.652882 0.565035 0.348764
0.688204 0.569420 0.353149
0.723757 0.573833 0.357562
0.759525 0.578273 0.362003
0.795496 0.582739 0.366468
0.813317 0.584951 0.368680
0.303057 0.563880 0.317790
0.332923 0.567588 0.321498
0.363927 0.571437 0.325347
0.395749 0.575387 0.329297
0.428213 0.579417 0.333327
0.461208 0.583513 0.337423
0.494656 0.587665 0.341575
0.528501 0.591867 0.345776
0.562700 0.596112 0.350022
0.597217 0.600397 0.354307
0.632025 0.604718 0.358628
0.667100 0.609072 0.362982
0.702422 0.613457 0.367367
0.737974 0.617870 0.371780
0.773743 0.622311 0.376220
0.809713 0.626776 0.380686
0.827535 0.628988 0.382898
0.317358 0.608174 0.332091
0.347223 0.611881 0.335798
0.378228 0.615730 0.339647
0.410050 0.619680 0.343597
0.442514 0.623710 0.347627
0.475508 0.627806 0.351723
0.508956 0.631959 0.355876
0.542802 0.636160 0.360077
0.577000 0.640405 0.364322
0.611518 0.644690 0.368607
0.646326 0.649011 0.372928
0.681400 0.653366 0.377283
0.716723 0.657750 0.381667
0.752275 0.662164 0.386081
0.788043 0.666604 0.390521
0.824014 0.671069 0.394986
0.841835 0.673282 0.397199
0.331735 0.652703 0.346468
0.361600 0.656411 0.350175
0.392605 0.660260 0.354024
0.424427 0.664210 0.357974
0.456890 0.668240 0.362004
0.489885 0.672336 0.366100
0.523333 0.676488 0.370252
0.557179 0.680690 0.374454
0.591377 0.684935 0.378699
0.625895 0.689220 0.382984
0.660702 0.693541 0.387305
0.695777 0.697895 0.391659
0.731099 0.702280 0.396044
0.766652 0.706693 0.400458
0.802420 0.711134 0.404898
0.838391 0.715599 0.409363
0.856212 0.717811 0.411576
0.346182 0.697452 0.360915
0.376048 0.701159 0.364623
0.407052 0.705008 0.368472
0.438874 0.708959 0.372422
0.471338 0.712989 0.376452
0.504333 0.717085 0.380548
0.537781 0.721237 0.384700
0.571626 0.725438 0.388901
0.605825 0.729684 0.393147
0.640342 0.733969 0.397432
0.675150 0.738290 0.401753
0.710225 0.742644 0.406107
0.745547 0.747029 0.410492
0.781099 0.751442 0.414905
0.816868 0.755882 0.419345
0.852838 0.760348 0.423811
0.870660 0.762560 0.426023
0.360696 0.742405 0.375429
0.390561 0.746112 0.379136
0.421566 0.749961 0.382985
0.453388 0.753912 0.386935
0.485852 0.757942 0.390965
0.518846 0.762037 0.395061
0.552294 0.766190 0.399213
0.586140 0.770391 0.403415
0.620338 0.774637 0.407660
0.654856 0.778922 0.411945
0.689663 0.783243 0.416266
0.724738 0.787597 0.420620
0.760060 0.791982 0.425005
0.795613 0.796395 0.429419
0.831381 0.800835 0.433859
0.867352 0.805301 0.438324
0.885173 0.807513 0.440537
0.375271 0.787549 0.390004
0.405136 0.791257 0.393712
0.436141 0.795106 0.397560
0.467963 0.799056 0.401511
0.500427 0.803086 0.405541
0.533421 0.807182 0.409637
0.566870 0.811334 0.413789
0.600715 0.815536 0.417990
0.634914 0.819781 0.422236
0.669431 0.824066 0.426521
0.704239 0.828387 0.430842
0.739314 0.832741 0.435196
0.774636 0.837126 0.439581
0.810188 0.841539 0.443994
0.845956 0.845980 0.448434
0.881927 0.850445 0.452900
0.899749 0.852657 0.455112
0.389905 0.832874 0.404638
0.419770 0.836582 0.408345
0.450775 0.840431 0.412194
0.482597 0.844381 0.416144
0.515060 0.848411 0.420174
0.548055 0.852507 0.424270
0.581503 0.856659 0.428422
0.615349 0.860861 0.432624
0.649547 0.865106 0.436869
0.684065 0.869391 0.441154
0.718872 0.873712 0.445475
0.753947 0.878066 0.449829
0.789269 0.882451 0.454214
0.824822 0.886864 0.458628
0.860590 0.891305 0.463068
0.896561 0.895770 0.467533
0.914382 0.897982 0.469746
0.168411 0.144048 0.210775
0.198276 0.147755 0.214482
0.229281 0.151604 0.218331
0.261103 0.155554 0.222282
0.293566 0.159584 0.226312
0.326561 0.163680 0.230408
0.360009 0.167832 0.234560
0.393854 0.172034 0.238761
0.428053 0.176279 0.243007
0.462570 0.180564 0.247292
0.497378 0.184885 0.251613
0.532453 0.189239 0.255967
0.567775 0.193624 0.260352
0.603328 0.198038 0.264765
0.639096 0.202478 0.269205
0.675067 0.206943 0.273671
0.692888 0.209156 0.275883
0.180964 0.182929 0.223328
0.210829 0.186636 0.227036
0.241834 0.190485 0.230885
