Fotico/Resources/LUTs/algodon.cube
# Algodon
LUT_3D_SIZE 9
0.164459 0.140096 0.124717
0.225329 0.147652 0.132273
0.289614 0.155632 0.140254
0.356057 0.163880 0.148502
0.424101 0.172327 0.156949
0.493426 0.180933 0.165555
0.563823 0.189672 0.174294
0.635144 0.198526 0.183147
0.688936 0.205204 0.189825
0.189986 0.219161 0.150244
0.250856 0.226718 0.157801
0.315141 0.234698 0.165781
0.381584 0.242946 0.174029
0.449628 0.251393 0.182476
0.518953 0.259999 0.191082
0.589350 0.268738 0.199821
0.660671 0.277591 0.208675
0.714463 0.284269 0.215352
0.216712 0.301942 0.176971
0.277582 0.309498 0.184527
0.341868 0.317478 0.192507
0.408311 0.325726 0.200755
0.476355 0.334173 0.209202
0.545680 0.342779 0.217808
0.616077 0.351518 0.226547
0.687397 0.360372 0.235401
0.741190 0.367049 0.242079
0.244146 0.386912 0.204404
0.305016 0.394469 0.211961
0.369302 0.402449 0.219941
0.435744 0.410697 0.228189
0.503788 0.419144 0.236636
0.573114 0.427750 0.245242
0.643511 0.436489 0.253981
0.714831 0.445343 0.262835
0.768623 0.452020 0.269512
0.272090 0.473464 0.232348
0.332960 0.481020 0.239905
0.397246 0.489000 0.247885
0.463688 0.497248 0.256133
0.531732 0.505695 0.264580
0.601057 0.514301 0.273186
0.671455 0.523040 0.281925
0.742775 0.531894 0.290779
0.796567 0.538571 0.297456
0.300435 0.561258 0.260694
0.361305 0.568815 0.268250
0.425591 0.576795 0.276230
0.492034 0.585043 0.284479
0.560078 0.593490 0.292925
0.629403 0.602096 0.301531
0.699800 0.610835 0.310270
0.771121 0.619688 0.319124
0.824913 0.626366 0.325802
0.329113 0.650081 0.289371
0.389983 0.657638 0.296928
0.454268 0.665618 0.304908
0.520711 0.673866 0.313156
0.588755 0.682313 0.321603
0.658080 0.690919 0.330209
0.728477 0.699658 0.338948
0.799798 0.708512 0.347801
0.853590 0.715189 0.354479
0.358074 0.739783 0.318332
0.418944 0.747339 0.325889
0.483229 0.755320 0.333869
0.549672 0.763568 0.342117
0.617716 0.772015 0.350564
0.687041 0.780620 0.359170
0.757438 0.789359 0.367909
0.828759 0.798213 0.376763
0.882551 0.804891 0.383440
0.387283 0.830252 0.347541
0.448153 0.837809 0.355098
0.512438 0.845789 0.363078
0.578881 0.854037 0.371326
0.646925 0.862484 0.379773
0.716250 0.871090 0.388379
0.786647 0.879829 0.397118
0.857968 0.888683 0.405971
0.911760 0.895360 0.412649
0.167081 0.142718 0.181814
0.227951 0.150274 0.189370
0.292236 0.158254 0.197350
0.358679 0.166503 0.205598
0.426723 0.174949 0.214045
0.496048 0.183555 0.222651
0.566445 0.192294 0.231390
0.637766 0.201148 0.240244
0.691558 0.207826 0.246922
0.192608 0.221783 0.207341
0.253478 0.229340 0.214897
0.317763 0.237320 0.222877
0.384206 0.245568 0.231125
0.452250 0.254015 0.239572
0.521575 0.262621 0.248178
0.591972 0.271360 0.256917
0.663293 0.280214 0.265771
0.717085 0.286891 0.272449
0.219334 0.304564 0.234067
0.280204 0.312120 0.241623
0.344490 0.320100 0.249604
0.410933 0.328348 0.257852
0.478977 0.336795 0.266299
0.548302 0.345401 0.274905
0.618699 0.354140 0.283644
0.690020 0.362994 0.292497
0.743812 0.369671 0.299175
0.246768 0.389534 0.261501
0.307638 0.397091 0.269057
0.371924 0.405071 0.277038
0.438366 0.413319 0.285286
0.506410 0.421766 0.293733
0.575736 0.430372 0.302338
0.646133 0.439111 0.311077
0.717453 0.447965 0.319931
0.771245 0.454642 0.326609
0.274712 0.476086 0.289445
0.335582 0.483642 0.297001
0.399868 0.491622 0.304981
0.466310 0.499870 0.313230
0.534354 0.508317 0.321676
0.603680 0.516923 0.330282
0.674077 0.525662 0.339021
0.745397 0.534516 0.347875
0.799189 0.541194 0.354553
0.303057 0.563880 0.317790
0.363927 0.571437 0.325347
0.428213 0.579417 0.333327
0.494656 0.587665 0.341575
0.562700 0.596112 0.350022
0.632025 0.604718 0.358628
0.702422 0.613457 0.367367
0.773743 0.622311 0.376220
0.827535 0.628988 0.382898
0.331735 0.652703 0.346468
0.392605 0.660260 0.354024
0.456890 0.668240 0.362004
0.523333 0.676488 0.370252
0.591377 0.684935 0.378699
0.660702 0.693541 0.387305
0.731099 0.702280 0.396044
0.802420 0.711134 0.404898
0.856212 0.717811 0.411576
0.360696 0.742405 0.375429
0.421566 0.749961 0.382985
0.485852 0.757942 0.390965
0.552294 0.766190 0.399213
0.620338 0.774637 0.407660
0.689663 0.783243 0.416266
0.760060 0.791982 0.425005
0.831381 0.800835 0.433859
0.885173 0.807513 0.440537
0.389905 0.832874 0.404638
0.450775 0.840431 0.412194
0.515060 0.848411 0.420174
0.581503 0.856659 0.428422
0.649547 0.865106 0.436869
0.718872 0.873712 0.445475
0.789269 0.882451 0.454214
0.860590 0.891305 0.463068
0.914382 0.897982 0.469746
0.169748 0.145385 0.239900
0.230618 0.152942 0.247456
0.294904 0.160922 0.255437
0.361347 0.169170 0.263685
0.429391 0.177617 0.272132
0.498716 0.186223 0.280738
0.569113 0.194962 0.289477
0.640433 0.203815 0.298330
0.694226 0.210493 0.305008
0.195275 0.224451 0.265427
0.256145 0.232007 0.272984
0.320431 0.239987 0.280964
0.386874 0.248236 0.289212
0.454918 0.256682 0.297659
0.524243 0.265288 0.306265
0.594640 0.274027 0.315004
0.665961 0.282881 0.323858
0.719753 0.289559 0.330535
0.222002 0.307231 0.292154
0.282872 0.314787 0.299710
0.347157 0.322768 0.307690
0.413600 0.331016 0.315938
0.481644 0.339463 0.324385
0.550969 0.348069 0.332991
0.621366 0.356808 0.341730
0.692687 0.365661 0.350584
0.746479 0.372339 0.357262
0.249436 0.392202 0.319587
0.310306 0.399758 0.327144
0.374591 0.407739 0.335124
0.441034 0.415987 0.343372
0.509078 0.424434 0.351819
0.578403 0.433040 0.360425
0.648800 0.441779 0.369164
0.720121 0.450632 0.378018
0.773913 0.457310 0.384695
0.277379 0.478753 0.347531
0.338250 0.486309 0.355088
0.402535 0.494290 0.363068
0.468978 0.502538 0.371316
0.537022 0.510985 0.379763
0.606347 0.519591 0.388369
0.676744 0.528330 0.397108
0.748065 0.537183 0.405962
0.801857 0.543861 0.412639
0.305725 0.566548 0.375877
0.366595 0.574104 0.383433
0.430881 0.582084 0.391413
0.497323 0.590333 0.399662
0.565367 0.598779 0.408108
0.634692 0.607385 0.416714
0.705089 0.616124 0.425453
0.776410 0.624978 0.434307
0.830202 0.631656 0.440985
0.334402 0.655371 0.404554
0.395272 0.662927 0.412111
0.459558 0.670908 0.420091
0.526001 0.679156 0.428339
0.594045 0.687603 0.436786
0.663370 0.696208 0.445392
0.733767 0.704947 0.454131
0.805088 0.713801 0.462984
0.858880 0.720479 0.469662
0.363363 0.745072 0.433515
0.424233 0.752629 0.441072
0.488519 0.760609 0.449052
0.554962 0.768857 0.457300
0.623006 0.777304 0.465747
0.692331 0.785910 0.474353
0.762728 0.794649 0.483092
0.834049 0.803503 0.491946
0.887841 0.810180 0.498623
0.392572 0.835542 0.462724
0.453442 0.843098 0.470281
0.517728 0.851078 0.478261
0.584171 0.859327 0.486509
0.652215 0.867773 0.494956
0.721540 0.876379 0.503562
0.791937 0.885118 0.512301
0.863258 0.893972 0.521155
0.917050 0.900650 0.527832
0.172440 0.148077 0.298514
0.233310 0.155633 0.306070
0.297596 0.163614 0.314050
0.364038 0.171862 0.322299
0.432082 0.180309 0.330745
0.501408 0.188915 0.339351
0.571805 0.197654 0.348090
0.643125 0.206507 0.356944
0.696917 0.213185 0.363622
0.197967 0.227142 0.324041
0.258837 0.234699 0.331597
0.323123 0.242679 0.339578
0.389566 0.250927 0.347826
0.457609 0.259374 0.356273
0.526935 0.267980 0.364879
0.597332 0.276719 0.373618
0.668652 0.285573 0.382471
0.722444 0.292250 0.389149
0.224694 0.309923 0.350767
0.285564 0.317479 0.358324
0.349849 0.325459 0.366304
0.416292 0.333708 0.374552
0.484336 0.342154 0.382999
0.553661 0.350760 0.391605
0.624058 0.359499 0.400344
0.695379 0.368353 0.409198
0.749171 0.375031 0.415875
0.252127 0.394894 0.378201
0.312997 0.402450 0.385757
0.377283 0.410430 0.393738
0.443726 0.418678 0.401986
0.511770 0.427125 0.410433
0.581095 0.435731 0.419039
0.651492 0.444470 0.427778
0.722812 0.453324 0.436631
0.776605 0.460002 0.443309
0.280071 0.481445 0.406145
0.340941 0.489001 0.413701
0.405227 0.496981 0.421682
0.471670 0.505230 0.429930
0.539714 0.513676 0.438377
0.609039 0.522282 0.446983
0.679436 0.531021 0.455722
0.750756 0.539875 0.464575
0.804549 0.546553 0.471253
0.308417 0.569239 0.434490
0.369287 0.576796 0.442047
0.433572 0.584776 0.450027
0.500015 0.593024 0.458275
0.568059 0.601471 0.466722
0.637384 0.610077 0.475328
0.707781 0.618816 0.484067
0.779102 0.627670 0.492921
0.832894 0.634347 0.499598
0.337094 0.658063 0.463168
0.397964 0.665619 0.470724
0.462250 0.673599 0.478705
0.528692 0.681847 0.486953
0.596736 0.690294 0.495400
0.666062 0.698900 0.504005
0.736459 0.707639 0.512744
0.807779 0.716493 0.521598
0.861571 0.723171 0.528276
0.366055 0.747764 0.492129
0.426925 0.755320 0.499685
0.491211 0.763301 0.507666
0.557654 0.771549 0.515914
0.625697 0.779996 0.524361
0.695023 0.788602 0.532967
0.765420 0.797341 0.541706
0.836740 0.806194 0.550559
0.890532 0.812872 0.557237
0.395264 0.838233 0.521338
0.456134 0.845790 0.528894
0.520420 0.853770 0.536875
0.586862 0.862018 0.545123
0.654906 0.870465 0.553570
0.724232 0.879071 0.562175
0.794629 0.887810 0.570914
0.865949 0.896664 0.579768
0.919741 0.903341 0.586446
0.175148 0.150785 0.357493
0.236019 0.158342 0.365049
0.300304 0.166322 0.373030
0.366747 0.174570 0.381278
0.434791 0.183017 0.389725
0.504116 0.191623 0.398331
0.574513 0.200362 0.407070
0.645834 0.209216 0.415923
0.699626 0.215893 0.422601
0.200676 0.229851 0.383020
0.261546 0.237407 0.390576
0.325831 0.245388 0.398557
0.392274 0.253636 0.406805
0.460318 0.262083 0.415252
0.529643 0.270689 0.423858
0.600040 0.279428 0.432597
0.671361 0.288281 0.441450
0.725153 0.294959 0.448128
0.227402 0.312631 0.409747
0.288272 0.320188 0.417303
0.352558 0.328168 0.425283
0.419000 0.336416 0.433531
0.487044 0.344863 0.441978
0.556370 0.353469 0.450584
0.626767 0.362208 0.459323
0.698087 0.371062 0.468177
0.751879 0.377739 0.474854
0.254836 0.397602 0.437180
0.315706 0.405158 0.444737
0.379991 0.413139 0.452717
0.446434 0.421387 0.460965
0.514478 0.429834 0.469412
0.583803 0.438440 0.478018
0.654200 0.447179 0.486757
0.725521 0.456032 0.495610
0.779313 0.462710 0.502288
0.282780 0.484153 0.465124
0.343650 0.491710 0.472680
0.407935 0.499690 0.480661
0.474378 0.507938 0.488909
0.542422 0.516385 0.497356
0.611747 0.524991 0.505962
0.682144 0.533730 0.514701
0.753465 0.542584 0.523554
0.807257 0.549261 0.530232
0.311125 0.571948 0.493470
0.371995 0.579504 0.501026
0.436281 0.587485 0.509006
0.502724 0.595733 0.517254
0.570767 0.604180 0.525701
0.640093 0.612786 0.534307
0.710490 0.621525 0.543046
0.781810 0.630378 0.551900
0.835602 0.637056 0.558578
0.339803 0.660771 0.522147
0.400673 0.668327 0.529703
0.464958 0.676308 0.537684
0.531401 0.684556 0.545932
0.599445 0.693003 0.554379
0.668770 0.701609 0.562985
0.739167 0.710348 0.571724
0.810488 0.719201 0.580577
0.864280 0.725879 0.587255
0.368764 0.750473 0.551108
0.429634 0.758029 0.558664
0.493919 0.766009 0.566645
0.560362 0.774257 0.574893
0.628406 0.782704 0.583340
0.697731 0.791310 0.591946
0.768128 0.800049 0.600685
0.839449 0.808903 0.609538
0.893241 0.815581 0.616216
0.397973 0.840942 0.580317
0.458843 0.848498 0.587873
0.523128 0.856479 0.595854
0.589571 0.864727 0.604102
0.657615 0.873174 0.612549
0.726940 0.881780 0.621155
0.797337 0.890519 0.629894
0.868658 0.899372 0.638747
0.922450 0.906050 0.645425
0.177870 0.153507 0.416753
0.238740 0.161063 0.424309
0.303025 0.169043 0.432290
0.369468 0.177292 0.440538
0.437512 0.185738 0.448985
0.506837 0.194344 0.457591
0.577234 0.203083 0.466330
0.648555 0.211937 0.475183
0.702347 0.218615 0.481861
0.203397 0.232572 0.442280
0.264267 0.240129 0.449836
0.328553 0.248109 0.457817
0.394995 0.256357 0.466065
0.463039 0.264804 0.474512
0.532365 0.273410 0.483118
0.602762 0.282149 0.491857
0.674082 0.291003 0.500710
0.727874 0.297680 0.507388
0.230123 0.315353 0.469007
0.290993 0.322909 0.476563
0.355279 0.330889 0.484543
0.421722 0.339137 0.492791
0.489766 0.347584 0.501238
0.559091 0.356190 0.509844
0.629488 0.364929 0.518583
0.700809 0.373783 0.527437
0.754601 0.380461 0.534115
0.257557 0.400323 0.496440
0.318427 0.407880 0.503997
0.382713 0.415860 0.511977
0.449156 0.424108 0.520225
0.517199 0.432555 0.528672
0.586525 0.441161 0.537278
0.656922 0.449900 0.546017
0.728242 0.458754 0.554871
0.782035 0.465431 0.561548
0.285501 0.486875 0.524384
0.346371 0.494431 0.531941
0.410657 0.502411 0.539921
0.477099 0.510659 0.548169
0.545143 0.519106 0.556616
0.614469 0.527712 0.565222
0.684866 0.536451 0.573961
0.756186 0.545305 0.582814
0.809978 0.551983 0.589492
0.313847 0.574669 0.552730
0.374717 0.582226 0.560286
0.439002 0.590206 0.568266
0.505445 0.598454 0.576514
0.573489 0.606901 0.584961
0.642814 0.615507 0.593567
0.713211 0.624246 0.602306
0.784532 0.633100 0.611160
0.838324 0.639777 0.617838
0.342524 0.663492 0.581407
0.403394 0.671049 0.588963
0.467680 0.679029 0.596944
0.534122 0.687277 0.605192
0.602166 0.695724 0.613639
0.671491 0.704330 0.622245
0.741889 0.713069 0.630984
0.813209 0.721923 0.639837
0.867001 0.728600 0.646515
0.371485 0.753194 0.610368
0.432355 0.760750 0.617924
0.496641 0.768731 0.625905
0.563083 0.776979 0.634153
0.631127 0.785426 0.642600
0.700453 0.794032 0.651206
0.770850 0.802771 0.659945
0.842170 0.811624 0.668798
0.895962 0.818302 0.675476
0.400694 0.843663 0.639577
0.461564 0.851220 0.647133
0.525850 0.859200 0.655114
0.592292 0.867448 0.663362
0.660336 0.875895 0.671809
0.729662 0.884501 0.680415
0.800059 0.893240 0.689154
0.871379 0.902094 0.698007
0.925171 0.908771 0.704685
0.180602 0.156239 0.476242
0.241472 0.163795 0.483798
0.305757 0.171775 0.491778
0.372200 0.180023 0.500026
0.440244 0.188470 0.508473
0.509569 0.197076 0.517079
0.579966 0.205815 0.525818
0.651287 0.214669 0.534672
0.705079 0.221347 0.541350
0.206129 0.235304 0.501769
0.266999 0.242861 0.509325
0.331284 0.250841 0.517305
0.397727 0.259089 0.525554
0.465771 0.267536 0.534000
0.535096 0.276142 0.542606
0.605493 0.284881 0.551345
0.676814 0.293735 0.560199
0.730606 0.300412 0.566877
0.232855 0.318085 0.528495
0.293725 0.325641 0.536052
0.358011 0.333621 0.544032
0.424454 0.341869 0.552280
0.492498 0.350316 0.560727
0.561823 0.358922 0.569333
0.632220 0.367661 0.578072
0.703541 0.376515 0.586925
0.757333 0.383192 0.593603
0.260289 0.403055 0.555929
0.321159 0.410612 0.563485
0.385445 0.418592 0.571466
0.451887 0.426840 0.579714
0.519931 0.435287 0.588161
0.589257 0.443893 0.596767
0.659654 0.452632 0.605506
0.730974 0.461486 0.614359
0.784766 0.468163 0.621037
0.288233 0.489607 0.583873
0.349103 0.497163 0.591429
0.413389 0.505143 0.599410
0.479831 0.513391 0.607658
0.547875 0.521838 0.616105
0.617201 0.530444 0.624710
0.687598 0.539183 0.633449
0.758918 0.548037 0.642303
0.812710 0.554715 0.648981
0.316578 0.577401 0.612218
0.377448 0.584958 0.619775
0.441734 0.592938 0.627755
0.508177 0.601186 0.636003
0.576221 0.609633 0.644450
0.645546 0.618239 0.653056
0.715943 0.626978 0.661795
0.787264 0.635832 0.670649
0.841056 0.642509 0.677326
0.345256 0.666224 0.640896
0.406126 0.673781 0.648452
0.470411 0.681761 0.656432
0.536854 0.690009 0.664680
0.604898 0.698456 0.673127
0.674223 0.707062 0.681733
0.744620 0.715801 0.690472
0.815941 0.724655 0.699326
0.869733 0.731332 0.706004
0.374217 0.755926 0.669857
0.435087 0.763482 0.677413
0.499373 0.771463 0.685393
0.565815 0.779711 0.693642
0.633859 0.788158 0.702088
0.703184 0.796764 0.710694
0.773581 0.805503 0.719433
0.844902 0.814356 0.728287
0.898694 0.821034 0.734965
0.403426 0.846395 0.699066
0.464296 0.853952 0.706622
0.528581 0.861932 0.714602
0.595024 0.870180 0.722851
0.663068 0.878627 0.731297
0.732393 0.887233 0.739903
0.802790 0.895972 0.748642
0.874111 0.904826 0.757496
0.927903 0.911503 0.764174
0.183343 0.158979 0.535923
0.244213 0.166536 0.543479
0.308498 0.174516 0.551460
0.374941 0.182764 0.559708
0.442985 0.191211 0.568155
0.512310 0.199817 0.576761
0.582707 0.208556 0.585500
0.654028 0.217410 0.594353
0.707820 0.224087 0.601031
0.208870 0.238045 0.561450
0.269740 0.245601 0.569006
0.334025 0.253582 0.576987
0.400468 0.261830 0.585235
0.468512 0.270277 0.593682
0.537837 0.278883 0.602288
0.608234 0.287622 0.611027
0.679555 0.296475 0.619880
0.733347 0.303153 0.626558
0.235596 0.320825 0.588177
0.296466 0.328382 0.595733
0.360752 0.336362 0.603713
0.427194 0.344610 0.611961
0.495238 0.353057 0.620408
0.564564 0.361663 0.629014
0.634961 0.370402 0.637753
0.706281 0.379256 0.646607
0.760073 0.385933 0.653285
0.263030 0.405796 0.615610
0.323900 0.413352 0.623167
0.388185 0.421333 0.631147
0.454628 0.429581 0.639395
0.522672 0.438028 0.647842
0.591997 0.446634 0.656448
0.662394 0.455373 0.665187
0.733715 0.464226 0.674041
0.787507 0.470904 0.680718
0.290974 0.492347 0.643554
0.351844 0.499904 0.651111
0.416129 0.507884 0.659091
0.482572 0.516132 0.667339
0.550616 0.524579 0.675786
0.619941 0.533185 0.684392
0.690338 0.541924 0.693131
0.761659 0.550778 0.701985
0.815451 0.557455 0.708662
0.319319 0.580142 0.671900
0.380189 0.587698 0.679456
0.444475 0.595679 0.687436
0.510918 0.603927 0.695684
0.578961 0.612374 0.704131
0.648287 0.620980 0.712737
0.718684 0.629719 0.721476
0.790004 0.638572 0.730330
0.843797 0.645250 0.737008
0.347997 0.668965 0.700577
0.408867 0.676521 0.708133
0.473152 0.684502 0.716114
0.539595 0.692750 0.724362
0.607639 0.701197 0.732809
0.676964 0.709803 0.741415
0.747361 0.718542 0.750154
0.818682 0.727395 0.759007
0.872474 0.734073 0.765685
0.376958 0.758667 0.729538
0.437828 0.766223 0.737095
0.502113 0.774203 0.745075
0.568556 0.782451 0.753323
0.636600 0.790898 0.761770
0.705925 0.799504 0.770376
0.776322 0.808243 0.779115
0.847643 0.817097 0.787968
0.901435 0.823775 0.794646
0.406167 0.849136 0.758747
0.467037 0.856692 0.766303
0.531322 0.864673 0.774284
0.597765 0.872921 0.782532
0.665809 0.881368 0.790979
0.735134 0.889974 0.799585
0.805531 0.898713 0.808324
0.876852 0.907566 0.817177
0.930644 0.914244 0.823855
0.186091 0.161728 0.595771
0.246961 0.169284 0.603328
0.311247 0.177265 0.611308
0.377689 0.185513 0.619556
0.445733 0.193960 0.628003
0.515058 0.202565 0.636609
0.585455 0.211304 0.645348
0.656776 0.220158 0.654202
0.710568 0.226836 0.660879
0.211618 0.240793 0.621298
0.272488 0.248350 0.628855
0.336774 0.256330 0.636835
0.403216 0.264578 0.645083
0.471260 0.273025 0.653530
0.540586 0.281631 0.662136
0.610983 0.290370 0.670875
0.682303 0.299224 0.679729
0.736095 0.305901 0.686406
0.238344 0.323574 0.648025
0.299215 0.331130 0.655581
0.363500 0.339110 0.663562
0.429943 0.347358 0.671810
0.497987 0.355805 0.680257
0.567312 0.364411 0.688862
0.637709 0.373150 0.697601
0.709030 0.382004 0.706455
0.762822 0.388682 0.713133
0.265778 0.408545 0.675459
0.326648 0.416101 0.683015
0.390934 0.424081 0.690995
0.457377 0.432329 0.699243
0.525421 0.440776 0.707690
0.594746 0.449382 0.716296
0.665143 0.458121 0.725035
0.736463 0.466975 0.733889
0.790256 0.473652 0.740567
0.293722 0.495096 0.703403
0.354592 0.502652 0.710959
0.418878 0.510632 0.718939
0.485321 0.518880 0.727187
0.553364 0.527327 0.735634
0.622690 0.535933 0.744240
0.693087 0.544672 0.752979
0.764407 0.553526 0.761833
0.818199 0.560204 0.768510
0.322068 0.582890 0.731748
0.382938 0.590447 0.739304
0.447223 0.598427 0.747285
0.513666 0.606675 0.755533
0.581710 0.615122 0.763980
0.651035 0.623728 0.772586
0.721432 0.632467 0.781325
0.792753 0.641321 0.790178
0.846545 0.647998 0.796856
0.350745 0.671714 0.760425
0.411615 0.679270 0.767982
0.475901 0.687250 0.775962
0.542343 0.695498 0.784210
0.610387 0.703945 0.792657
0.679713 0.712551 0.801263
0.750110 0.721290 0.810002
0.821430 0.730144 0.818856
0.875222 0.736821 0.825533
0.379706 0.761415 0.789386
0.440576 0.768971 0.796943
0.504862 0.776952 0.804923
0.571304 0.785200 0.813171
0.639348 0.793647 0.821618
0.708674 0.802253 0.830224
0.779071 0.810992 0.838963
0.850391 0.819845 0.847817
0.904183 0.826523 0.854494
0.408915 0.851884 0.818595
0.469785 0.859441 0.826152
0.534071 0.867421 0.834132
0.600513 0.875669 0.842380
0.668557 0.884116 0.850827
0.737883 0.892722 0.859433
0.808280 0.901461 0.868172
0.879600 0.910315 0.877026
0.933392 0.916992 0.883703
