Fotico/Resources/LUTs/atardecer.cube
# Atardecer
LUT_3D_SIZE 17
0.074658 0.005561 0.108421
0.126192 0.005561 0.106056
0.187962 0.005561 0.103697
0.258561 0.005561 0.101345
0.336326 0.005561 0.099000
0.419382 0.005561 0.096661
0.505668 0.005561 0.094330
0.592959 0.005561 0.092005
0.678887 0.005561 0.089687
0.760952 0.005561 0.087376
0.836533 0.005561 0.085072
0.902897 0.005561 0.082775
0.957210 0.005561 0.080485
0.996539 0.005561 0.078203
1.000000 0.005561 0.075927
1.000000 0.005561 0.073658
1.000000 0.005561 0.071396
0.068600 0.046184 0.100490
0.118673 0.046184 0.098147
0.179148 0.046184 0.095811
0.248656 0.046184 0.093482
0.325567 0.046184 0.091160
0.408030 0.046184 0.088845
0.494009 0.046184 0.086537
0.581300 0.046184 0.084235
0.667553 0.046184 0.081941
0.750284 0.046184 0.079654
0.826889 0.046184 0.077373
0.894649 0.046184 0.075100
0.950743 0.046184 0.072834
0.992251 0.046184 0.070575
1.000000 0.046184 0.068323
1.000000 0.046184 0.066078
1.000000 0.046184 0.063840
0.062748 0.095104 0.092636
0.111341 0.095104 0.090316
0.170497 0.095104 0.088004
0.238885 0.095104 0.085698
0.314907 0.095104 0.083399
0.396742 0.095104 0.081107
0.482374 0.095104 0.078823
0.569623 0.095104 0.076545
0.656156 0.095104 0.074274
0.739507 0.095104 0.072011
0.817087 0.095104 0.069754
0.886192 0.095104 0.067505
0.944015 0.095104 0.065263
0.987648 0.095104 0.063027
1.000000 0.095104 0.060799
1.000000 0.095104 0.058578
1.000000 0.095104 0.056365
0.057103 0.151076 0.084860
0.104198 0.151076 0.082564
0.162011 0.151076 0.080275
0.229250 0.151076 0.077992
0.304352 0.151076 0.075717
0.385521 0.151076 0.073449
0.470768 0.151076 0.071188
0.557933 0.151076 0.068934
0.644702 0.151076 0.066688
0.728626 0.151076 0.064448
0.807133 0.151076 0.062215
0.877533 0.151076 0.059990
0.937033 0.151076 0.057772
0.982737 0.151076 0.055560
1.000000 0.151076 0.053356
1.000000 0.151076 0.051159
1.000000 0.151076 0.048968
0.051669 0.212992 0.077163
0.097248 0.212992 0.074891
0.153694 0.212992 0.072625
0.219757 0.212992 0.070367
0.293906 0.212992 0.068116
0.374374 0.212992 0.065871
0.459197 0.212992 0.063634
0.546236 0.212992 0.061404
0.633197 0.212992 0.059182
0.717649 0.212992 0.056966
0.797034 0.212992 0.054757
0.868679 0.212992 0.052555
0.929804 0.212992 0.050361
0.977526 0.212992 0.048173
1.000000 0.212992 0.045992
1.000000 0.212992 0.043818
1.000000 0.212992 0.041650
0.046447 0.279740 0.069546
0.090493 0.279740 0.067298
0.145551 0.279740 0.065056
0.210409 0.279740 0.062822
0.283573 0.279740 0.060594
0.363305 0.279740 0.058374
0.447666 0.279740 0.056161
0.534538 0.279740 0.053955
0.621647 0.279740 0.051755
0.706581 0.279740 0.049563
0.786797 0.279740 0.047378
0.859637 0.279740 0.045199
0.922334 0.279740 0.043028
0.972021 0.279740 0.040863
1.000000 0.279740 0.038704
1.000000 0.279740 0.036552
1.000000 0.279740 0.034406
0.041438 0.350192 0.062010
0.083936 0.350192 0.059785
0.137583 0.350192 0.057567
0.201211 0.350192 0.055357
0.273358 0.350192 0.053153
0.352320 0.350192 0.050957
0.436180 0.350192 0.048767
0.522844 0.350192 0.046584
0.610059 0.350192 0.044408
0.695428 0.350192 0.042239
0.776427 0.350192 0.040076
0.850413 0.350192 0.037920
0.914632 0.350192 0.035770
0.966230 0.350192 0.033626
1.000000 0.350192 0.031488
1.000000 0.350192 0.029356
1.000000 0.350192 0.027229
0.036645 0.423202 0.054554
0.077579 0.423202 0.052353
0.129794 0.423202 0.050159
0.192165 0.423202 0.047971
0.263266 0.423202 0.045791
0.341422 0.423202 0.043617
0.424744 0.423202 0.041451
0.511161 0.423202 0.039290
0.598437 0.423202 0.037136
0.684197 0.423202 0.034989
0.765932 0.423202 0.032847
0.841014 0.423202 0.030711
0.906704 0.423202 0.028581
0.960160 0.423202 0.026456
0.998445 0.423202 0.024336
1.000000 0.423473 0.022219
1.000000 0.424019 0.020107
0.032069 0.497609 0.047177
0.071425 0.497609 0.044999
0.122188 0.497609 0.042828
0.183276 0.497609 0.040663
0.253301 0.497609 0.038505
0.330618 0.497609 0.036354
0.413365 0.497609 0.034208
0.499493 0.497609 0.032069
0.586789 0.497609 0.029935
0.672895 0.497609 0.027807
0.755318 0.497609 0.025683
0.831541 0.497656 0.023565
0.899331 0.498061 0.021450
0.955256 0.498681 0.019339
0.995937 0.499458 0.017230
1.000000 0.500364 0.015337
1.000000 0.501383 0.015337
0.027712 0.572240 0.039877
0.065476 0.572240 0.037721
0.114768 0.572240 0.035572
0.174547 0.572240 0.033429
0.243466 0.572240 0.031291
0.319910 0.572240 0.029160
0.402046 0.572240 0.027033
0.487846 0.572240 0.024912
0.575513 0.572401 0.022794
0.663083 0.572893 0.020681
0.747588 0.573571 0.018571
0.826116 0.574393 0.016462
0.896784 0.575336 0.015337
0.955768 0.576388 0.015337
0.997807 0.577536 0.015337
1.000000 0.578775 0.015337
1.000000 0.580097 0.015337
0.023576 0.645906 0.032650
0.059733 0.645906 0.030515
0.107535 0.645906 0.028385
0.165983 0.645906 0.026260
0.233767 0.645907 0.024140
0.309999 0.646214 0.022025
0.392861 0.646770 0.019912
0.480146 0.647488 0.017803
0.569502 0.648337 0.015695
0.661203 0.649300 0.015337
0.749929 0.650364 0.015337
0.831841 0.651520 0.015337
0.903501 0.652761 0.015337
0.961296 0.654081 0.015337
1.000000 0.655476 0.015337
1.000000 0.656942 0.015337
1.000000 0.658474 0.015337
0.019663 0.717413 0.025488
0.054281 0.717479 0.023370
0.101219 0.717882 0.021255
0.159557 0.718478 0.019144
0.228020 0.719217 0.017035
0.305609 0.720075 0.015337
0.392591 0.721037 0.015337
0.484268 0.722093 0.015337
0.577965 0.723234 0.015337
0.670772 0.724454 0.015337
0.759565 0.725748 0.015337
0.841020 0.727112 0.015337
0.911626 0.728542 0.015337
0.967697 0.730035 0.015337
1.000000 0.731587 0.015337
1.000000 0.733197 0.015337
1.000000 0.734861 0.015337
0.017031 0.786796 0.018376
0.051338 0.787535 0.016268
0.099335 0.788381 0.015337
0.160520 0.789321 0.015337
0.232717 0.790345 0.015337
0.314053 0.791447 0.015337
0.402320 0.792621 0.015337
0.495019 0.793863 0.015337
0.589394 0.795169 0.015337
0.682457 0.796535 0.015337
0.771006 0.797958 0.015337
0.851639 0.799436 0.015337
0.920773 0.800966 0.015337
0.974646 0.802546 0.015337
1.000000 0.804174 0.015337
1.000000 0.805848 0.015337
1.000000 0.807566 0.015337
0.017959 0.852911 0.015337
0.054700 0.853880 0.015337
0.105095 0.854918 0.015337
0.168006 0.856020 0.015337
0.241861 0.857182 0.015337
0.324698 0.858401 0.015337
0.414224 0.859674 0.015337
0.507857 0.860997 0.015337
0.602761 0.862369 0.015337
0.695868 0.863786 0.015337
0.783900 0.865248 0.015337
0.863381 0.866752 0.015337
0.930650 0.868297 0.015337
0.981876 0.869880 0.015337
1.000000 0.871501 0.015337
1.000000 0.873158 0.015337
1.000000 0.874849 0.015337
0.021410 0.913398 0.015337
0.060054 0.914451 0.015337
0.112397 0.915554 0.015337
0.177215 0.916702 0.015337
0.252844 0.917893 0.015337
0.337233 0.919126 0.015337
0.428004 0.920398 0.015337
0.522493 0.921707 0.015337
0.617786 0.923052 0.015337
0.710736 0.924431 0.015337
0.797988 0.925842 0.015337
0.875991 0.927284 0.015337
0.941010 0.928756 0.015337
0.989139 0.930256 0.015337
1.000000 0.931784 0.015337
1.000000 0.933337 0.015337
1.000000 0.934915 0.015337
0.025787 0.966355 0.015337
0.066604 0.967382 0.015337
0.121112 0.968442 0.015337
0.187996 0.969533 0.015337
0.265498 0.970654 0.015337
0.351477 0.971803 0.015337
0.443469 0.972978 0.015337
0.538731 0.974179 0.015337
0.634266 0.975403 0.015337
0.726850 0.976650 0.015337
0.813052 0.977919 0.015337
0.889246 0.979207 0.015337
0.951622 0.980515 0.015337
0.996202 0.981840 0.015337
1.000000 0.983183 0.015337
1.000000 0.984541 0.015337
1.000000 0.985914 0.015337
0.031104 1.000000 0.015337
0.074329 1.000000 0.015337
0.131190 1.000000 0.015337
0.200274 1.000000 0.015337
0.279724 1.000000 0.015337
0.367311 1.000000 0.015337
0.460484 1.000000 0.015337
0.556417 1.000000 0.015337
0.652031 1.000000 0.015337
0.744028 1.000000 0.015337
0.828896 1.000000 0.015337
0.902936 1.000000 0.015337
0.962264 1.000000 0.015337
1.000000 1.000000 0.015337
1.000000 1.000000 0.015337
1.000000 1.000000 0.015337
1.000000 1.000000 0.015337
0.074037 0.005561 0.160654
0.125425 0.005561 0.158156
0.187065 0.005561 0.155664
0.257555 0.005561 0.153177
0.335235 0.005561 0.150696
0.418233 0.005561 0.148221
0.504490 0.005561 0.145752
0.591783 0.005561 0.143289
0.677746 0.005561 0.140832
0.759880 0.005561 0.138381
0.835566 0.005561 0.135936
0.902074 0.005561 0.133497
0.956569 0.005561 0.131064
0.996120 0.005561 0.128638
1.000000 0.005561 0.126217
1.000000 0.005561 0.123804
1.000000 0.005561 0.121396
0.068000 0.046184 0.152273
0.117924 0.046184 0.149794
0.178267 0.046184 0.147322
0.247664 0.046184 0.144855
0.324486 0.046184 0.142394
0.406888 0.046184 0.139939
0.492833 0.046184 0.137490
0.580122 0.046184 0.135047
0.666405 0.046184 0.132610
0.749201 0.046184 0.130180
0.825906 0.046184 0.127756
0.893805 0.046184 0.125338
0.950075 0.046184 0.122926
0.991800 0.046184 0.120521
1.000000 0.046184 0.118122
1.000000 0.046184 0.115730
1.000000 0.046184 0.113345
0.062168 0.095104 0.143958
0.110611 0.095104 0.141499
0.169632 0.095104 0.139046
0.237906 0.095104 0.136600
0.313837 0.095104 0.134159
0.395606 0.095104 0.131725
0.481201 0.095104 0.129297
0.568443 0.095104 0.126875
0.655002 0.095104 0.124459
0.738413 0.095104 0.122050
0.816089 0.095104 0.119647
0.885327 0.095104 0.117251
0.943321 0.095104 0.114861
0.987166 0.095104 0.112478
1.000000 0.095104 0.110101
1.000000 0.095104 0.107731
1.000000 0.095104 0.105367
0.056545 0.151076 0.135710
0.103488 0.151076 0.133272
0.161164 0.151076 0.130840
0.228286 0.151076 0.128414
0.303292 0.151076 0.125995
0.384392 0.151076 0.123581
0.469599 0.151076 0.121174
0.556752 0.151076 0.118774
0.643542 0.151076 0.116380
0.727522 0.151076 0.113993
0.806120 0.151076 0.111612
0.876648 0.151076 0.109237
0.936314 0.151076 0.106870
0.982225 0.151076 0.104508
1.000000 0.151076 0.102154
1.000000 0.151076 0.099807
1.000000 0.151076 0.097466
0.051132 0.212992 0.127533
0.096557 0.212992 0.125115
0.152864 0.212992 0.122704
0.218807 0.212992 0.120300
0.292857 0.212992 0.117902
0.373253 0.212992 0.115510
0.458031 0.212992 0.113125
0.545055 0.212992 0.110746
0.632033 0.212992 0.108374
0.716535 0.212992 0.106009
0.796007 0.212992 0.103651
0.867775 0.212992 0.101299
0.929060 0.212992 0.098954
0.976983 0.212992 0.096615
1.000000 0.212992 0.094284
1.000000 0.212992 0.091959
1.000000 0.212992 0.089642
0.045932 0.279740 0.119426
0.089822 0.279740 0.117030
0.144738 0.279740 0.114641
0.209474 0.279740 0.112258
0.282536 0.279740 0.109882
0.362193 0.279740 0.107513
0.446504 0.279740 0.105150
0.533357 0.279740 0.102794
0.620479 0.279740 0.100444
0.705458 0.279740 0.098102
0.785756 0.279740 0.095766
0.858714 0.279740 0.093437
0.921567 0.279740 0.091115
0.971449 0.279740 0.088800
1.000000 0.279740 0.086491
1.000000 0.279740 0.084190
1.000000 0.279740 0.081896
0.040945 0.350192 0.111392
0.083285 0.350192 0.109019
0.136788 0.350192 0.106652
0.200290 0.350192 0.104291
0.272334 0.350192 0.101937
0.351216 0.350192 0.099591
0.435023 0.350192 0.097250
0.521664 0.350192 0.094917
0.608887 0.350192 0.092591
0.694298 0.350192 0.090271
0.775373 0.350192 0.087958
0.849472 0.350192 0.085653
0.913842 0.350192 0.083354
0.965630 0.350192 0.081062
1.000000 0.350192 0.078778
1.000000 0.350192 0.076500
1.000000 0.350192 0.074230
0.036173 0.423202 0.103433
0.076949 0.423202 0.101082
0.129018 0.423202 0.098738
0.191260 0.423202 0.096400
0.262254 0.423202 0.094069
0.340327 0.423202 0.091745
0.423593 0.423202 0.089428
0.509982 0.423202 0.087118
0.597263 0.423202 0.084815
0.683060 0.423202 0.082519
0.764866 0.423202 0.080230
0.840056 0.423202 0.077948
0.905891 0.423202 0.075673
0.959533 0.423202 0.073405
0.998076 0.423242 0.071144
1.000000 0.423636 0.068890
1.000000 0.424245 0.066644
0.031619 0.497609 0.095551
0.070815 0.497609 0.093222
0.121431 0.497609 0.090901
0.182387 0.497609 0.088586
0.252302 0.497609 0.086279
0.329532 0.497609 0.083978
0.412219 0.497609 0.081685
0.498316 0.497609 0.079398
0.585612 0.497609 0.077119
0.671750 0.497609 0.074846
0.754240 0.497609 0.072581
0.830779 0.497762 0.070323
0.898826 0.498252 0.068072
0.954938 0.498929 0.065827
0.995770 0.499752 0.063591
1.000000 0.500698 0.062345
1.000000 0.501753 0.062345
0.027285 0.572240 0.087746
0.064887 0.572240 0.085441
0.114029 0.572240 0.083143
0.173675 0.572240 0.080851
0.242481 0.572240 0.078568
0.318835 0.572240 0.076291
0.400906 0.572240 0.074021
0.486672 0.572240 0.071758
0.574680 0.572543 0.069502
0.662438 0.573106 0.067254
0.747096 0.573836 0.065012
0.825759 0.574701 0.062778
0.897383 0.575682 0.062345
0.956275 0.576767 0.062345
0.998152 0.577947 0.062345
1.000000 0.579214 0.062345
1.000000 0.580564 0.062345
0.023171 0.645906 0.080019
0.059165 0.645906 0.077738
0.106816 0.645906 0.075463
0.165128 0.645906 0.073196
0.232924 0.645969 0.070936
0.309311 0.646382 0.068683
0.392273 0.646997 0.066437
0.479655 0.647763 0.064198
0.569699 0.648652 0.062345
0.662057 0.649650 0.062345
0.750807 0.650746 0.062345
0.832691 0.651932 0.062345
0.904265 0.653201 0.062345
0.961908 0.654547 0.062345
1.000000 0.655966 0.062345
1.000000 0.657455 0.062345
1.000000 0.659010 0.062345
0.019280 0.717413 0.072372
0.053865 0.717589 0.070115
0.100801 0.718066 0.067864
0.159153 0.718715 0.065621
0.227648 0.719496 0.063385
0.306347 0.720391 0.062345
0.393462 0.721386 0.062345
0.485247 0.722471 0.062345
0.579020 0.723640 0.062345
0.671864 0.724885 0.062345
0.760645 0.726204 0.062345
0.842033 0.727591 0.062345
0.912508 0.729042 0.062345
0.968378 0.730555 0.062345
1.000000 0.732127 0.062345
1.000000 0.733756 0.062345
1.000000 0.735439 0.062345
0.016869 0.787034 0.064806
0.051148 0.787811 0.062572
0.099839 0.788690 0.062345
0.161190 0.789659 0.062345
0.233550 0.790711 0.062345
0.315035 0.791838 0.062345
0.403429 0.793036 0.062345
0.496226 0.794300 0.062345
0.590661 0.795626 0.062345
0.683738 0.797012 0.062345
0.772246 0.798454 0.062345
0.852778 0.799950 0.062345
0.921741 0.801497 0.062345
0.975368 0.803093 0.062345
1.000000 0.804737 0.062345
1.000000 0.806426 0.062345
1.000000 0.808160 0.062345
0.018265 0.853232 0.062345
0.055185 0.854225 0.062345
0.105765 0.855285 0.062345
0.168861 0.856408 0.062345
0.242890 0.857590 0.062345
0.325882 0.858827 0.062345
0.415534 0.860117 0.062345
0.509256 0.861457 0.062345
0.604206 0.862845 0.062345
0.697307 0.864278 0.062345
0.785272 0.865754 0.062345
0.864618 0.867272 0.062345
0.931678 0.868830 0.062345
0.982611 0.870427 0.062345
1.000000 0.872060 0.062345
1.000000 0.873728 0.062345
1.000000 0.875431 0.062345
0.021810 0.913750 0.062345
0.060662 0.914820 0.062345
0.113214 0.915939 0.062345
0.178234 0.917102 0.062345
0.254047 0.918307 0.062345
0.338595 0.919554 0.062345
0.429491 0.920839 0.062345
0.524063 0.922160 0.062345
0.619387 0.923517 0.062345
0.712309 0.924907 0.062345
0.799468 0.926329 0.062345
0.877303 0.927781 0.062345
0.942074 0.929263 0.062345
0.989865 0.930772 0.062345
1.000000 0.932308 0.062345
1.000000 0.933870 0.062345
1.000000 0.935456 0.062345
0.026281 0.966700 0.062345
0.067331 0.967738 0.062345
0.122068 0.968809 0.062345
0.189169 0.969910 0.062345
0.266864 0.971041 0.062345
0.353005 0.972199 0.062345
0.445119 0.973383 0.062345
0.540453 0.974592 0.062345
0.636003 0.975824 0.062345
0.728539 0.977079 0.062345
0.814619 0.978354 0.062345
0.890611 0.979649 0.062345
0.952699 0.980963 0.062345
0.996894 0.982295 0.062345
1.000000 0.983642 0.062345
1.000000 0.985006 0.062345
1.000000 0.986383 0.062345
0.031694 1.000000 0.062345
0.075174 1.000000 0.062345
0.132282 1.000000 0.062345
0.201594 1.000000 0.062345
0.281245 1.000000 0.062345
0.368994 1.000000 0.062345
0.462284 1.000000 0.062345
0.558277 1.000000 0.062345
0.653890 1.000000 0.062345
0.745814 1.000000 0.062345
0.830532 1.000000 0.062345
0.904334 1.000000 0.062345
0.963332 1.000000 0.062345
1.000000 1.000000 0.062345
1.000000 1.000000 0.062345
1.000000 1.000000 0.062345
1.000000 1.000000 0.062345
0.073418 0.005561 0.215480
0.124659 0.005561 0.212872
0.186170 0.005561 0.210268
0.256550 0.005561 0.207670
0.334146 0.005561 0.205076
0.417085 0.005561 0.202486
0.503312 0.005561 0.199902
0.590607 0.005561 0.197322
0.676604 0.005561 0.194748
0.758807 0.005561 0.192178
0.834599 0.005561 0.189613
0.901249 0.005561 0.187053
0.955925 0.005561 0.184499
0.995699 0.005561 0.181949
1.000000 0.005561 0.179405
1.000000 0.005561 0.176866
1.000000 0.005561 0.174333
0.067401 0.046184 0.206725
0.117177 0.046184 0.204132
0.177388 0.046184 0.201545
0.246672 0.046184 0.198962
0.323406 0.046184 0.196384
0.405746 0.046184 0.193811
0.491658 0.046184 0.191243
0.578944 0.046184 0.188681
0.665257 0.046184 0.186123
0.748117 0.046184 0.183570
0.824922 0.046184 0.181023
0.892958 0.046184 0.178480
0.949405 0.046184 0.175943
0.991347 0.046184 0.173412
1.000000 0.046184 0.170886
1.000000 0.046184 0.168365
1.000000 0.046184 0.165849
0.061591 0.095104 0.198023
0.109883 0.095104 0.195447
0.168770 0.095104 0.192876
0.236928 0.095104 0.190310
0.312767 0.095104 0.187749
0.394470 0.095104 0.185193
0.480028 0.095104 0.182642
0.567263 0.095104 0.180096
0.653847 0.095104 0.177556
0.737318 0.095104 0.175021
0.815089 0.095104 0.172491
0.884460 0.095104 0.169967
0.942625 0.095104 0.167448
0.986681 0.095104 0.164935
1.000000 0.095104 0.162427
1.000000 0.095104 0.159925
1.000000 0.095104 0.157429
0.055989 0.151076 0.189377
0.102779 0.151076 0.186818
0.160318 0.151076 0.184264
0.227322 0.151076 0.181715
0.302234 0.151076 0.179171
0.383265 0.151076 0.176633
0.468429 0.151076 0.174099
0.555571 0.151076 0.171572
0.642383 0.151076 0.169050
0.726417 0.151076 0.166533
0.805105 0.151076 0.164021
0.875761 0.151076 0.161516
0.935593 0.151076 0.159016
0.981709 0.151076 0.156521
1.000000 0.151076 0.154033
1.000000 0.151076 0.151550
1.000000 0.151076 0.149073
0.050598 0.212992 0.180788
0.095868 0.212992 0.178246
0.152036 0.212992 0.175710
0.217858 0.212992 0.173179
0.291810 0.212992 0.170653
0.372133 0.212992 0.168133
0.456866 0.212992 0.165618
0.543874 0.212992 0.163109
0.630868 0.212992 0.160605
0.715421 0.212992 0.158107
0.794978 0.212992 0.155615
0.866869 0.212992 0.153128
0.928315 0.212992 0.150647
0.976438 0.212992 0.148173
1.000000 0.212992 0.145704
1.000000 0.212992 0.143241
1.000000 0.212992 0.140784
0.045418 0.279740 0.172258
0.089153 0.279740 0.169735
0.143928 0.279740 0.167216
0.208540 0.279740 0.164704
0.281501 0.279740 0.162196
0.361081 0.279740 0.159695
0.445343 0.279740 0.157199
0.532176 0.279740 0.154709
0.619310 0.279740 0.152224
0.704335 0.279740 0.149746
0.784713 0.279740 0.147273
0.857789 0.279740 0.144806
0.920798 0.279740 0.142345
0.970875 0.279740 0.139891
1.000000 0.279740 0.137442
1.000000 0.279740 0.134999
1.000000 0.279740 0.132563
0.040453 0.350192 0.163790
0.082636 0.350192 0.161285
0.135996 0.350192 0.158786
0.199372 0.350192 0.156292
0.271311 0.350192 0.153804
0.350112 0.350192 0.151321
0.433867 0.350192 0.148845
0.520484 0.350192 0.146374
0.607715 0.350192 0.143910
0.693167 0.350192 0.141451
0.774318 0.350192 0.138998
0.848529 0.350192 0.136552
0.913049 0.350192 0.134111
0.965027 0.350192 0.131677
1.000000 0.350192 0.129249
1.000000 0.350192 0.126827
1.000000 0.350192 0.124412
0.035704 0.423202 0.155385
0.076320 0.423202 0.152899
0.128244 0.423202 0.150419
0.190357 0.423202 0.147945
0.261244 0.423202 0.145476
0.339233 0.423202 0.143014
0.422442 0.423202 0.140557
0.508803 0.423202 0.138107
0.596088 0.423202 0.135663
0.681921 0.423202 0.133224
0.763799 0.423202 0.130792
0.839096 0.423202 0.128367
0.905076 0.423202 0.125947
0.958902 0.423202 0.123534
0.997757 0.423344 0.121127
1.000000 0.423823 0.118727
1.000000 0.424489 0.116333
0.031172 0.497609 0.147045
0.070207 0.497609 0.144579
0.120675 0.497609 0.142119
0.181501 0.497609 0.139665
0.251304 0.497609 0.137216
0.328448 0.497609 0.134774
0.411074 0.497609 0.132338
0.497139 0.497609 0.129909
0.584435 0.497609 0.127485
0.670605 0.497609 0.125068
0.753161 0.497609 0.122657
0.830086 0.497903 0.120253
0.898356 0.498464 0.117855
0.954643 0.499194 0.115463
0.995616 0.500060 0.113078
1.000000 0.501045 0.112558
1.000000 0.502134 0.112558
0.026859 0.572240 0.138773
0.064300 0.572240 0.136327
0.113292 0.572240 0.133887
0.172805 0.572240 0.131453
0.241497 0.572240 0.129026
0.317761 0.572240 0.126604
0.399768 0.572240 0.124189
0.485638 0.572297 0.121781
0.573914 0.572712 0.119379
0.661838 0.573337 0.116983
0.746639 0.574115 0.114594
0.825851 0.575021 0.112558
0.898002 0.576039 0.112558
0.956795 0.577158 0.112558
0.998502 0.578368 0.112558
1.000000 0.579664 0.112558
1.000000 0.581039 0.112558
0.022768 0.645906 0.130569
0.058599 0.645906 0.128143
0.106098 0.645906 0.125724
0.164274 0.645906 0.123312
0.232181 0.646080 0.120906
0.308674 0.646572 0.118506
0.391726 0.647242 0.116113
0.479200 0.648052 0.113726
0.570516 0.648980 0.112558
0.662938 0.650012 0.112558
0.751707 0.651139 0.112558
0.833559 0.652354 0.112558
0.905042 0.653649 0.112558
0.962529 0.655021 0.112558
1.000000 0.656464 0.112558
1.000000 0.657976 0.112558
1.000000 0.659552 0.112558
0.018903 0.717416 0.122435
0.053486 0.717728 0.120031
0.100414 0.718270 0.117634
0.158777 0.718966 0.115243
0.227304 0.719788 0.112859
0.307113 0.720718 0.112558
0.394359 0.721745 0.112558
0.486251 0.722859 0.112558
0.580099 0.724054 0.112558
0.672976 0.725325 0.112558
0.761743 0.726667 0.112558
0.843060 0.728076 0.112558
0.913400 0.729549 0.112558
0.969065 0.731083 0.112558
1.000000 0.732674 0.112558
1.000000 0.734321 0.112558
1.000000 0.736022 0.112558
0.016718 0.787286 0.114374
0.051347 0.788099 0.112558
0.100362 0.789010 0.112558
0.161881 0.790007 0.112558
0.234403 0.791085 0.112558
0.316038 0.792237 0.112558
0.404560 0.793458 0.112558
0.497454 0.794743 0.112558
0.591948 0.796090 0.112558
0.685036 0.797496 0.112558
0.773501 0.798956 0.112558
0.853928 0.800470 0.112558
0.922717 0.802034 0.112558
0.976092 0.803646 0.112558
1.000000 0.805306 0.112558
1.000000 0.807010 0.112558
1.000000 0.808758 0.112558
0.018580 0.853561 0.112558
0.055682 0.854578 0.112558
0.106451 0.855660 0.112558
0.169733 0.856803 0.112558
0.243937 0.858004 0.112558
0.327084 0.859260 0.112558
0.416862 0.860567 0.112558
0.510674 0.861923 0.112558
0.605668 0.863327 0.112558
0.698760 0.864775 0.112558
0.786656 0.866265 0.112558
0.865864 0.867797 0.112558
0.932711 0.869368 0.112558
0.983347 0.870977 0.112558
1.000000 0.872623 0.112558
1.000000 0.874303 0.112558
1.000000 0.876017 0.112558
0.022220 0.914108 0.112558
0.061282 0.915195 0.112558
0.114045 0.916329 0.112558
0.179268 0.917507 0.112558
0.255268 0.918726 0.112558
0.339975 0.919986 0.112558
0.430995 0.921283 0.112558
0.525648 0.922617 0.112558
0.621002 0.923985 0.112558
0.713895 0.925386 0.112558
0.800957 0.926818 0.112558
0.878622 0.928281 0.112558
0.943140 0.929772 0.112558
0.990589 0.931291 0.112558
1.000000 0.932836 0.112558
1.000000 0.934406 0.112558
1.000000 0.936000 0.112558
0.026784 0.967049 0.112558
0.068069 0.968098 0.112558
0.123038 0.969179 0.112558
0.190356 0.970291 0.112558
0.268246 0.971431 0.112558
0.354549 0.972598 0.112558
0.446784 0.973791 0.112558
0.542190 0.975008 0.112558
0.637754 0.976248 0.112558
0.730238 0.977510 0.112558
0.816194 0.978792 0.112558
0.891981 0.980094 0.112558
0.953775 0.981413 0.112558
0.997582 0.982750 0.112558
1.000000 0.984104 0.112558
1.000000 0.985472 0.112558
1.000000 0.986854 0.112558
0.032295 1.000000 0.112558
0.076031 1.000000 0.112558
0.133388 1.000000 0.112558
0.202930 1.000000 0.112558
0.282781 1.000000 0.112558
0.370693 1.000000 0.112558
0.464097 1.000000 0.112558
0.560151 1.000000 0.112558
0.655761 1.000000 0.112558
0.747610 1.000000 0.112558
0.832173 1.000000 0.112558
0.905735 1.000000 0.112558
0.964397 1.000000 0.112558
1.000000 1.000000 0.112558
1.000000 1.000000 0.112558
1.000000 1.000000 0.112558
1.000000 1.000000 0.112558
0.072801 0.005561 0.272395
0.123895 0.005561 0.269701
0.185276 0.005561 0.267010
0.255547 0.005561 0.264323
0.333057 0.005561 0.261640
0.415938 0.005561 0.258960
0.502135 0.005561 0.256284
0.589430 0.005561 0.253611
0.675462 0.005561 0.250943
0.757733 0.005561 0.248278
0.833629 0.005561 0.245617
0.900422 0.005561 0.242960
0.955279 0.005561 0.240307
0.995274 0.005561 0.237658
1.000000 0.005561 0.235014
1.000000 0.005561 0.232373
1.000000 0.005561 0.229737
0.066806 0.046184 0.263346
0.116432 0.046184 0.260664
0.176511 0.046184 0.257985
