Fotico/Resources/LUTs/atardecer.cube
# Atardecer
LUT_3D_SIZE 9
0.074658 0.005561 0.108421
0.187962 0.005561 0.103697
0.336326 0.005561 0.099000
0.505668 0.005561 0.094330
0.678887 0.005561 0.089687
0.836533 0.005561 0.085072
0.957210 0.005561 0.080485
1.000000 0.005561 0.075927
1.000000 0.005561 0.071396
0.062748 0.095104 0.092636
0.170497 0.095104 0.088004
0.314907 0.095104 0.083399
0.482374 0.095104 0.078823
0.656156 0.095104 0.074274
0.817087 0.095104 0.069754
0.944015 0.095104 0.065263
1.000000 0.095104 0.060799
1.000000 0.095104 0.056365
0.051669 0.212992 0.077163
0.153694 0.212992 0.072625
0.293906 0.212992 0.068116
0.459197 0.212992 0.063634
0.633197 0.212992 0.059182
0.797034 0.212992 0.054757
0.929804 0.212992 0.050361
1.000000 0.212992 0.045992
1.000000 0.212992 0.041650
0.041438 0.350192 0.062010
0.137583 0.350192 0.057567
0.273358 0.350192 0.053153
0.436180 0.350192 0.048767
0.610059 0.350192 0.044408
0.776427 0.350192 0.040076
0.914632 0.350192 0.035770
1.000000 0.350192 0.031488
1.000000 0.350192 0.027229
0.032069 0.497609 0.047177
0.122188 0.497609 0.042828
0.253301 0.497609 0.038505
0.413365 0.497609 0.034208
0.586789 0.497609 0.029935
0.755318 0.497609 0.025683
0.899331 0.498061 0.021450
0.995937 0.499458 0.017230
1.000000 0.501383 0.015337
0.023576 0.645906 0.032650
0.107535 0.645906 0.028385
0.233767 0.645907 0.024140
0.392861 0.646770 0.019912
0.569502 0.648337 0.015695
0.749929 0.650364 0.015337
0.903501 0.652761 0.015337
1.000000 0.655476 0.015337
1.000000 0.658474 0.015337
0.017031 0.786796 0.018376
0.099335 0.788381 0.015337
0.232717 0.790345 0.015337
0.402320 0.792621 0.015337
0.589394 0.795169 0.015337
0.771006 0.797958 0.015337
0.920773 0.800966 0.015337
1.000000 0.804174 0.015337
1.000000 0.807566 0.015337
0.021410 0.913398 0.015337
0.112397 0.915554 0.015337
0.252844 0.917893 0.015337
0.428004 0.920398 0.015337
0.617786 0.923052 0.015337
0.797988 0.925842 0.015337
0.941010 0.928756 0.015337
1.000000 0.931784 0.015337
1.000000 0.934915 0.015337
0.031104 1.000000 0.015337
0.131190 1.000000 0.015337
0.279724 1.000000 0.015337
0.460484 1.000000 0.015337
0.652031 1.000000 0.015337
0.828896 1.000000 0.015337
0.962264 1.000000 0.015337
1.000000 1.000000 0.015337
1.000000 1.000000 0.015337
0.073418 0.005561 0.215480
0.186170 0.005561 0.210268
0.334146 0.005561 0.205076
0.503312 0.005561 0.199902
0.676604 0.005561 0.194748
0.834599 0.005561 0.189613
0.955925 0.005561 0.184499
1.000000 0.005561 0.179405
1.000000 0.005561 0.174333
0.061591 0.095104 0.198023
0.168770 0.095104 0.192876
0.312767 0.095104 0.187749
0.480028 0.095104 0.182642
0.653847 0.095104 0.177556
0.815089 0.095104 0.172491
0.942625 0.095104 0.167448
1.000000 0.095104 0.162427
1.000000 0.095104 0.157429
0.050598 0.212992 0.180788
0.152036 0.212992 0.175710
0.291810 0.212992 0.170653
0.456866 0.212992 0.165618
0.630868 0.212992 0.160605
0.794978 0.212992 0.155615
0.928315 0.212992 0.150647
1.000000 0.212992 0.145704
1.000000 0.212992 0.140784
0.040453 0.350192 0.163790
0.135996 0.350192 0.158786
0.271311 0.350192 0.153804
0.433867 0.350192 0.148845
0.607715 0.350192 0.143910
0.774318 0.350192 0.138998
0.913049 0.350192 0.134111
1.000000 0.350192 0.129249
1.000000 0.350192 0.124412
0.031172 0.497609 0.147045
0.120675 0.497609 0.142119
0.251304 0.497609 0.137216
0.411074 0.497609 0.132338
0.584435 0.497609 0.127485
0.753161 0.497609 0.122657
0.898356 0.498464 0.117855
0.995616 0.500060 0.113078
1.000000 0.502134 0.112558
0.022768 0.645906 0.130569
0.106098 0.645906 0.125724
0.232181 0.646080 0.120906
0.391726 0.647242 0.116113
0.570516 0.648980 0.112558
0.751707 0.651139 0.112558
0.905042 0.653649 0.112558
1.000000 0.656464 0.112558
1.000000 0.659552 0.112558
0.016718 0.787286 0.114374
0.100362 0.789010 0.112558
0.234403 0.791085 0.112558
0.404560 0.793458 0.112558
0.591948 0.796090 0.112558
0.773501 0.798956 0.112558
0.922717 0.802034 0.112558
1.000000 0.805306 0.112558
1.000000 0.808758 0.112558
0.022220 0.914108 0.112558
0.114045 0.916329 0.112558
0.255268 0.918726 0.112558
0.430995 0.921283 0.112558
0.621002 0.923985 0.112558
0.800957 0.926818 0.112558
0.943140 0.929772 0.112558
1.000000 0.932836 0.112558
1.000000 0.936000 0.112558
0.032295 1.000000 0.112558
0.133388 1.000000 0.112558
0.282781 1.000000 0.112558
0.464097 1.000000 0.112558
0.655761 1.000000 0.112558
0.832173 1.000000 0.112558
0.964397 1.000000 0.112558
1.000000 1.000000 0.112558
1.000000 1.000000 0.112558
0.072187 0.005561 0.330888
0.184384 0.005561 0.325378
0.331970 0.005561 0.319877
0.500957 0.005561 0.314387
0.674318 0.005561 0.308907
0.832658 0.005561 0.303438
0.954630 0.005561 0.297980
1.000000 0.005561 0.292534
1.000000 0.005561 0.287100
0.060443 0.095104 0.312390
0.167050 0.095104 0.306914
0.310632 0.095104 0.301449
0.477684 0.095104 0.295996
0.651537 0.095104 0.290554
0.813085 0.095104 0.285125
0.941226 0.095104 0.279709
1.000000 0.095104 0.274306
1.000000 0.095104 0.268916
0.049535 0.212992 0.294013
0.150385 0.212992 0.288576
0.289719 0.212992 0.283152
0.454536 0.212992 0.277740
0.628538 0.212992 0.272342
0.792916 0.212992 0.266957
0.926816 0.212992 0.261587
1.000000 0.212992 0.256231
1.000000 0.212992 0.250890
0.039477 0.350192 0.275773
0.134416 0.350192 0.270380
0.269268 0.350192 0.265001
0.431556 0.350192 0.259636
0.605370 0.350192 0.254285
0.772204 0.350192 0.248950
0.911458 0.350192 0.243630
1.000000 0.350192 0.238326
1.000000 0.350192 0.233039
0.030283 0.497609 0.257686
0.119169 0.497609 0.252341
0.249313 0.497609 0.247011
0.408786 0.497609 0.241697
0.582079 0.497609 0.236399
0.751356 0.497769 0.231118
0.897512 0.498943 0.225854
0.995915 0.500717 0.221813
1.000000 0.502928 0.221813
0.021969 0.645906 0.239767
0.104669 0.645906 0.234475
0.230882 0.646392 0.229199
0.390746 0.647778 0.223941
0.572241 0.649670 0.221813
0.753574 0.651955 0.221813
0.906637 0.654573 0.221813
1.000000 0.657483 0.221813
1.000000 0.660659 0.221813
0.016449 0.787827 0.222031
0.101461 0.789678 0.221813
0.236173 0.791860 0.221813
0.406885 0.794324 0.221813
0.594576 0.797039 0.221813
0.776053 0.799978 0.221813
0.924688 0.803124 0.221813
1.000000 0.806459 0.221813
1.000000 0.809969 0.221813
0.023066 0.914841 0.221813
0.115750 0.917124 0.221813
0.257759 0.919578 0.221813
0.434054 0.922185 0.221813
0.624276 0.924933 0.221813
0.803965 0.927809 0.221813
0.945277 0.930801 0.221813
1.000000 0.933899 0.221813
1.000000 0.937095 0.221813
0.033526 1.000000 0.221813
0.135641 1.000000 0.221813
0.285899 1.000000 0.221813
0.467768 1.000000 0.221813
0.659535 1.000000 0.221813
0.835473 1.000000 0.221813
0.966520 1.000000 0.221813
1.000000 1.000000 0.221813
1.000000 1.000000 0.221813
0.070964 0.005561 0.450589
0.182604 0.005561 0.444967
0.329797 0.005561 0.439347
0.498603 0.005561 0.433728
0.672030 0.005561 0.428110
0.830711 0.005561 0.422496
0.953324 0.005561 0.416884
1.000000 0.005561 0.411275
1.000000 0.005561 0.405669
0.059304 0.095104 0.431682
0.165337 0.095104 0.426066
0.308501 0.095104 0.420452
0.475341 0.095104 0.414841
0.649224 0.095104 0.409233
0.811075 0.095104 0.403629
0.939816 0.095104 0.398029
1.000000 0.095104 0.392433
1.000000 0.095104 0.386843
0.048481 0.212992 0.412799
0.148741 0.212992 0.407193
0.287633 0.212992 0.401590
0.452208 0.212992 0.395991
0.626206 0.212992 0.390397
0.790849 0.212992 0.384808
0.925308 0.212992 0.379225
1.000000 0.212992 0.373647
1.000000 0.212992 0.368075
0.038509 0.350192 0.393954
0.132844 0.350192 0.388362
0.267231 0.350192 0.382775
0.429247 0.350192 0.377193
0.603023 0.350192 0.371618
0.770085 0.350192 0.366048
0.909857 0.350192 0.360486
0.999987 0.350192 0.354930
1.000000 0.350328 0.349383
0.029404 0.497609 0.375163
0.117671 0.497609 0.369589
0.247328 0.497609 0.364022
0.406501 0.497609 0.358462
0.579723 0.497609 0.352910
0.749887 0.498081 0.347365
0.896780 0.499490 0.341828
0.996525 0.501423 0.339449
1.000000 0.503765 0.339449
0.021179 0.645906 0.356440
0.103252 0.645910 0.350890
0.229771 0.646794 0.345348
0.389903 0.648371 0.339814
0.574078 0.650406 0.339449
0.755526 0.652809 0.339449
0.908282 0.655530 0.339449
1.000000 0.658533 0.339449
1.000000 0.661793 0.339449
0.016861 0.788415 0.339449
0.102628 0.790385 0.339449
0.238023 0.792667 0.339449
0.409293 0.795219 0.339449
0.597279 0.798013 0.339449
0.778660 0.801024 0.339449
0.926685 0.804236 0.339449
1.000000 0.807632 0.339449
1.000000 0.811199 0.339449
0.023951 0.915596 0.339449
0.117511 0.917939 0.339449
0.260316 0.920447 0.339449
0.437180 0.923103 0.339449
0.627606 0.925896 0.339449
0.807009 0.928812 0.339449
0.947422 0.931842 0.339449
1.000000 0.934974 0.339449
1.000000 0.938201 0.339449
0.034798 1.000000 0.339449
0.137949 1.000000 0.339449
0.289077 1.000000 0.339449
0.471496 1.000000 0.339449
0.663354 1.000000 0.339449
0.838794 1.000000 0.339449
0.968632 1.000000 0.339449
1.000000 1.000000 0.339449
1.000000 1.000000 0.339449
0.069749 0.005561 0.570625
0.180832 0.005561 0.565074
0.327629 0.005561 0.559515
0.496250 0.005561 0.553950
0.669739 0.005561 0.548378
0.828757 0.005561 0.542800
0.952008 0.005561 0.537217
1.000000 0.005561 0.531628
1.000000 0.005561 0.526034
0.058173 0.095104 0.551922
0.163630 0.095104 0.546348
0.306374 0.095104 0.540768
0.472999 0.095104 0.535183
0.646909 0.095104 0.529592
0.809059 0.095104 0.523997
0.938396 0.095104 0.518397
1.000000 0.095104 0.512793
1.000000 0.095104 0.507185
0.047435 0.212992 0.533148
0.147104 0.212992 0.527555
0.285552 0.212992 0.521958
0.449881 0.212992 0.516357
0.623872 0.212992 0.510752
0.788777 0.212992 0.505143
0.923790 0.212992 0.499531
1.000000 0.212992 0.493917
1.000000 0.212992 0.488300
0.037551 0.350192 0.514317
0.131279 0.350192 0.508710
0.265198 0.350192 0.503100
0.426940 0.350192 0.497487
0.600676 0.350192 0.491872
0.767961 0.350192 0.486254
0.908247 0.350192 0.480635
0.999204 0.350192 0.475014
1.000000 0.350621 0.469392
0.028533 0.497609 0.495443
0.116181 0.497609 0.489827
0.245348 0.497609 0.484209
0.404218 0.497609 0.478589
0.577366 0.497609 0.472968
0.748628 0.498488 0.467346
0.896148 0.500095 0.461723
0.997167 0.502177 0.461214
1.000000 0.504641 0.461214
0.020398 0.645906 0.476542
0.102114 0.646095 0.470921
0.228812 0.647270 0.465299
0.391009 0.649017 0.461214
0.576020 0.651184 0.461214
0.757558 0.653700 0.461214
0.909973 0.656520 0.461214
1.000000 0.659613 0.461214
1.000000 0.662954 0.461214
0.017404 0.789046 0.461214
0.103860 0.791127 0.461214
0.239952 0.793505 0.461214
0.411781 0.796142 0.461214
0.600053 0.799012 0.461214
0.781319 0.802094 0.461214
0.928705 0.805369 0.461214
1.000000 0.808824 0.461214
1.000000 0.812447 0.461214
0.024873 0.916372 0.461214
0.119329 0.918773 0.461214
0.262939 0.921333 0.461214
0.440370 0.924037 0.461214
0.630990 0.926873 0.461214
0.810087 0.929829 0.461214
0.949571 0.932894 0.461214
1.000000 0.936060 0.461214
1.000000 0.939317 0.461214
0.036111 1.000000 0.461214
0.140312 1.000000 0.461214
0.292315 1.000000 0.461214
0.475281 1.000000 0.461214
0.667215 1.000000 0.461214
0.842134 1.000000 0.461214
0.970730 1.000000 0.461214
1.000000 1.000000 0.461214
1.000000 1.000000 0.461214
0.068543 0.005561 0.687172
0.179065 0.005561 0.681867
0.325465 0.005561 0.676546
0.493898 0.005561 0.671211
0.667445 0.005561 0.665861
0.826796 0.005561 0.660497
0.950680 0.005561 0.655119
1.000000 0.005561 0.649728
1.000000 0.005561 0.644323
0.057051 0.095104 0.669265
0.161931 0.095104 0.663910
0.304252 0.095104 0.658541
0.470658 0.095104 0.653158
0.644592 0.095104 0.647761
0.807038 0.095104 0.642352
0.936965 0.095104 0.636931
1.000000 0.095104 0.631497
1.000000 0.095104 0.626051
0.046398 0.212992 0.651195
0.145474 0.212992 0.645794
0.283475 0.212992 0.640380
0.447557 0.212992 0.634954
0.621537 0.212992 0.629515
0.786699 0.212992 0.624065
0.922262 0.212992 0.618604
1.000000 0.212992 0.613132
1.000000 0.212992 0.607649
0.036601 0.350192 0.632975
0.129721 0.350192 0.627533
0.263171 0.350192 0.622079
0.424636 0.350192 0.616613
0.598327 0.350192 0.611137
0.765832 0.350192 0.605651
0.906628 0.350192 0.600154
0.998407 0.350192 0.594648
1.000000 0.351007 0.589133
0.027672 0.497609 0.614621
0.114698 0.497609 0.609141
0.243373 0.497609 0.603651
0.401938 0.497609 0.598151
0.575431 0.497783 0.592641
0.747540 0.498972 0.587123
0.896840 0.500755 0.582973
0.997839 0.502974 0.582973
1.000000 0.505556 0.582973
0.019626 0.645906 0.596146
0.101178 0.646412 0.590633
0.227984 0.647810 0.585111
0.392672 0.649710 0.582973
0.578063 0.652001 0.582973
0.759666 0.654625 0.582973
0.911708 0.657541 0.582973
1.000000 0.660721 0.582973
1.000000 0.664142 0.582973
0.017987 0.789717 0.582973
0.105157 0.791904 0.582973
0.241957 0.794373 0.582973
0.414346 0.797092 0.582973
0.602896 0.800036 0.582973
0.784029 0.803185 0.582973
0.930747 0.806523 0.582973
1.000000 0.810036 0.582973
1.000000 0.813713 0.582973
0.025834 0.917169 0.582973
0.121202 0.919625 0.582973
0.265626 0.922236 0.582973
0.443624 0.924986 0.582973
0.634429 0.927864 0.582973
0.813199 0.930858 0.582973
0.951723 0.933959 0.582973
1.000000 0.937156 0.582973
1.000000 0.940442 0.582973
0.037466 1.000000 0.582973
0.142729 1.000000 0.582973
0.295614 1.000000 0.582973
0.479120 1.000000 0.582973
0.671118 1.000000 0.582973
0.845493 1.000000 0.582973
0.972814 1.000000 0.582973
1.000000 1.000000 0.582973
1.000000 1.000000 0.582973
0.067345 0.005561 0.796523
0.177306 0.005561 0.791635
0.323305 0.005561 0.786723
0.491547 0.005561 0.781789
0.665148 0.005561 0.776832
0.824830 0.005561 0.771853
0.949342 0.005561 0.766852
1.000000 0.005561 0.761830
1.000000 0.005561 0.756787
0.055937 0.095104 0.779987
0.160238 0.095104 0.775021
0.302134 0.095104 0.770035
0.468319 0.095104 0.765026
0.642273 0.095104 0.759996
0.805010 0.095104 0.754946
0.935525 0.095104 0.749874
1.000000 0.095104 0.744783
1.000000 0.095104 0.739672
0.045370 0.212992 0.763197
0.143851 0.212992 0.758160
0.281404 0.212992 0.753102
0.445234 0.212992 0.748023
0.619200 0.212992 0.742925
0.784615 0.212992 0.737807
0.920725 0.212992 0.732669
1.000000 0.212992 0.727513
1.000000 0.212992 0.722338
0.035660 0.350192 0.746169
0.128171 0.350192 0.741064
0.261149 0.350192 0.735939
0.422334 0.350192 0.730794
0.595977 0.350192 0.725631
0.763698 0.350192 0.720450
0.905000 0.350192 0.715250
0.997728 0.350341 0.710033
1.000000 0.351468 0.704799
0.026819 0.497609 0.728917
0.113223 0.497609 0.723747
0.241404 0.497609 0.718559
0.399661 0.497609 0.713353
0.573845 0.498101 0.708130
0.746598 0.499522 0.702889
0.898061 0.501464 0.700729
0.998536 0.503813 0.700729
1.000000 0.506507 0.700729
0.018870 0.645914 0.711453
0.100379 0.646819 0.706224
0.227273 0.648406 0.700977
0.394445 0.650448 0.700729
0.580202 0.652857 0.700729
0.761847 0.655584 0.700729
0.913485 0.658592 0.700729
1.000000 0.661857 0.700729
1.000000 0.665356 0.700729
0.018610 0.790425 0.700729
0.106516 0.792713 0.700729
0.244037 0.795270 0.700729
0.416988 0.798068 0.700729
0.605806 0.801083 0.700729
0.786786 0.804298 0.700729
0.932808 0.807697 0.700729
1.000000 0.811267 0.700729
1.000000 0.814996 0.700729
0.026832 0.917985 0.700729
0.123130 0.920495 0.700729
0.268377 0.923155 0.700729
0.446941 0.925950 0.700729
0.637920 0.928868 0.700729
0.816343 0.931900 0.700729
0.953877 0.935034 0.700729
1.000000 0.938263 0.700729
1.000000 0.941577 0.700729
0.038863 1.000000 0.700729
0.145202 1.000000 0.700729
0.298971 1.000000 0.700729
0.483015 1.000000 0.700729
0.675062 1.000000 0.700729
0.848868 1.000000 0.700729
0.974880 1.000000 0.700729
1.000000 1.000000 0.700729
1.000000 1.000000 0.700729
0.066156 0.005561 0.895071
0.175553 0.005561 0.890765
0.321149 0.005561 0.886429
0.489197 0.005561 0.882062
0.662850 0.005561 0.877665
0.822856 0.005561 0.873238
0.947993 0.005561 0.868782
1.000000 0.005561 0.864296
1.000000 0.005561 0.859782
0.054832 0.095104 0.880464
0.158553 0.095104 0.876056
0.300021 0.095104 0.871619
0.465981 0.095104 0.867152
0.639952 0.095104 0.862656
0.802976 0.095104 0.858132
0.934074 0.095104 0.853579
1.000000 0.095104 0.848999
1.000000 0.095104 0.844391
0.044351 0.212992 0.865519
0.142236 0.212992 0.861012
0.279337 0.212992 0.856478
0.442913 0.212992 0.851915
0.616862 0.212992 0.847324
0.782526 0.212992 0.842706
0.919179 0.212992 0.838062
1.000000 0.212992 0.833390
1.000000 0.212992 0.828692
0.034728 0.350192 0.850247
0.126628 0.350192 0.845646
0.259132 0.350192 0.841019
0.420034 0.350192 0.836364
0.593626 0.350192 0.831683
0.761559 0.350192 0.826975
0.903363 0.350192 0.822242
0.997171 0.350640 0.817484
1.000000 0.351993 0.812700
0.025976 0.497609 0.834663
0.111755 0.497609 0.829972
0.239441 0.497609 0.825255
0.397392 0.497612 0.820513
0.572487 0.498513 0.815745
0.745787 0.500130 0.810952
0.899357 0.502220 0.810607
0.999255 0.504691 0.810607
1.000000 0.507493 0.810607
0.018272 0.646109 0.818780
0.099689 0.647298 0.814003
0.228326 0.649054 0.810607
0.396321 0.651228 0.810607
0.582431 0.653750 0.810607
0.764098 0.656576 0.810607
0.915300 0.659673 0.810607
1.000000 0.663019 0.810607
1.000000 0.666595 0.810607
0.019272 0.791169 0.810607
0.107936 0.793552 0.810607
0.246189 0.796194 0.810607
0.419704 0.799068 0.810607
0.608782 0.802153 0.810607
0.789591 0.805433 0.810607
0.934887 0.808891 0.810607
1.000000 0.812516 0.810607
1.000000 0.816297 0.810607
0.027869 0.918820 0.810607
0.125114 0.921382 0.810607
0.271191 0.924089 0.810607
0.450321 0.926928 0.810607
0.641461 0.929886 0.810607
0.819517 0.932953 0.810607
0.956030 0.936121 0.810607
1.000000 0.939379 0.810607
1.000000 0.942720 0.810607
0.040303 1.000000 0.810607
0.147730 1.000000 0.810607
0.302388 1.000000 0.810607
0.486963 1.000000 0.810607
0.679045 1.000000 0.810607
0.852259 1.000000 0.810607
0.976928 1.000000 0.810607
1.000000 1.000000 0.810607
1.000000 1.000000 0.810607
0.064975 0.005561 0.979292
0.173806 0.005561 0.975731
0.318997 0.005561 0.972133
0.486848 0.005561 0.968497
0.660548 0.005561 0.964823
0.820877 0.005561 0.961111
0.946634 0.005561 0.957363
1.000000 0.005561 0.953578
1.000000 0.005561 0.949757
0.053735 0.095104 0.967163
0.156874 0.095104 0.963476
0.297912 0.095104 0.959751
0.463645 0.095104 0.955989
0.637629 0.095104 0.952191
0.800937 0.095104 0.948357
0.932614 0.095104 0.944487
1.000000 0.095104 0.940581
1.000000 0.095104 0.936640
0.043340 0.212992 0.954611
0.140628 0.212992 0.950799
0.277275 0.212992 0.946952
0.440594 0.212992 0.943069
0.614522 0.212992 0.939151
0.780432 0.212992 0.935197
0.917623 0.212992 0.931209
1.000000 0.212992 0.927187
1.000000 0.212992 0.923131
0.033804 0.350192 0.941646
0.125093 0.350192 0.937715
0.257120 0.350192 0.933749
0.417736 0.350192 0.929749
0.591274 0.350192 0.925714
0.759416 0.350192 0.921646
0.901717 0.350192 0.917544
0.996689 0.351031 0.913410
1.000000 0.352576 0.909242
0.025141 0.497609 0.928284
0.110296 0.497609 0.924237
0.237483 0.497609 0.920157
0.395555 0.497798 0.916043
0.571313 0.499001 0.911896
0.746810 0.500793 0.908840
0.900723 0.503019 0.908840
0.999993 0.505607 0.908840
1.000000 0.508513 0.908840
0.017779 0.646432 0.914537
0.099095 0.647841 0.910378
0.229748 0.649750 0.908840
0.398297 0.652048 0.908840
0.584748 0.654677 0.908840
0.766415 0.657598 0.908840
0.917152 0.660783 0.908840
1.000000 0.664209 0.908840
1.000000 0.667858 0.908840
0.019972 0.791948 0.908840
0.109415 0.794422 0.908840
0.248413 0.797145 0.908840
0.422493 0.800093 0.908840
0.611822 0.803246 0.908840
0.792440 0.806588 0.908840
0.936982 0.810104 0.908840
1.000000 0.813783 0.908840
1.000000 0.817614 0.908840
0.028945 0.919673 0.908840
0.127152 0.922286 0.908840
0.274069 0.925039 0.908840
0.453761 0.927919 0.908840
0.645053 0.930916 0.908840
0.822719 0.934018 0.908840
0.958180 0.937217 0.908840
1.000000 0.940505 0.908840
1.000000 0.943873 0.908840
0.041786 1.000000 0.908840
0.150313 1.000000 0.908840
0.305864 1.000000 0.908840
0.490965 1.000000 0.908840
0.683066 1.000000 0.908840
0.855663 1.000000 0.908840
0.978954 1.000000 0.908840
1.000000 1.000000 0.908840
1.000000 1.000000 0.908840
