Fotico/Resources/LUTs/atardecer.cube
# Atardecer
LUT_3D_SIZE 5
0.074658 0.005561 0.108421
0.336326 0.005561 0.099000
0.678887 0.005561 0.089687
0.957210 0.005561 0.080485
1.000000 0.005561 0.071396
0.051669 0.212992 0.077163
0.293906 0.212992 0.068116
0.633197 0.212992 0.059182
0.929804 0.212992 0.050361
1.000000 0.212992 0.041650
0.032069 0.497609 0.047177
0.253301 0.497609 0.038505
0.586789 0.497609 0.029935
0.899331 0.498061 0.021450
1.000000 0.501383 0.015337
0.017031 0.786796 0.018376
0.232717 0.790345 0.015337
0.589394 0.795169 0.015337
0.920773 0.800966 0.015337
1.000000 0.807566 0.015337
0.031104 1.000000 0.015337
0.279724 1.000000 0.015337
0.652031 1.000000 0.015337
0.962264 1.000000 0.015337
1.000000 1.000000 0.015337
0.072187 0.005561 0.330888
0.331970 0.005561 0.319877
0.674318 0.005561 0.308907
0.954630 0.005561 0.297980
1.000000 0.005561 0.287100
0.049535 0.212992 0.294013
0.289719 0.212992 0.283152
0.628538 0.212992 0.272342
0.926816 0.212992 0.261587
1.000000 0.212992 0.250890
0.030283 0.497609 0.257686
0.249313 0.497609 0.247011
0.582079 0.497609 0.236399
0.897512 0.498943 0.225854
1.000000 0.502928 0.221813
0.016449 0.787827 0.222031
0.236173 0.791860 0.221813
0.594576 0.797039 0.221813
0.924688 0.803124 0.221813
1.000000 0.809969 0.221813
0.033526 1.000000 0.221813
0.285899 1.000000 0.221813
0.659535 1.000000 0.221813
0.966520 1.000000 0.221813
1.000000 1.000000 0.221813
0.069749 0.005561 0.570625
0.327629 0.005561 0.559515
0.669739 0.005561 0.548378
0.952008 0.005561 0.537217
1.000000 0.005561 0.526034
0.047435 0.212992 0.533148
0.285552 0.212992 0.521958
0.623872 0.212992 0.510752
0.923790 0.212992 0.499531
1.000000 0.212992 0.488300
0.028533 0.497609 0.495443
0.245348 0.497609 0.484209
0.577366 0.497609 0.472968
0.896148 0.500095 0.461723
1.000000 0.504641 0.461214
0.017404 0.789046 0.461214
0.239952 0.793505 0.461214
0.600053 0.799012 0.461214
0.928705 0.805369 0.461214
1.000000 0.812447 0.461214
0.036111 1.000000 0.461214
0.292315 1.000000 0.461214
0.667215 1.000000 0.461214
0.970730 1.000000 0.461214
1.000000 1.000000 0.461214
0.067345 0.005561 0.796523
0.323305 0.005561 0.786723
0.665148 0.005561 0.776832
0.949342 0.005561 0.766852
1.000000 0.005561 0.756787
0.045370 0.212992 0.763197
0.281404 0.212992 0.753102
0.619200 0.212992 0.742925
0.920725 0.212992 0.732669
1.000000 0.212992 0.722338
0.026819 0.497609 0.728917
0.241404 0.497609 0.718559
0.573845 0.498101 0.708130
0.898061 0.501464 0.700729
1.000000 0.506507 0.700729
0.018610 0.790425 0.700729
0.244037 0.795270 0.700729
0.605806 0.801083 0.700729
0.932808 0.807697 0.700729
1.000000 0.814996 0.700729
0.038863 1.000000 0.700729
0.298971 1.000000 0.700729
0.675062 1.000000 0.700729
0.974880 1.000000 0.700729
1.000000 1.000000 0.700729
0.064975 0.005561 0.979292
0.318997 0.005561 0.972133
0.660548 0.005561 0.964823
0.946634 0.005561 0.957363
1.000000 0.005561 0.949757
0.043340 0.212992 0.954611
0.277275 0.212992 0.946952
0.614522 0.212992 0.939151
0.917623 0.212992 0.931209
1.000000 0.212992 0.923131
0.025141 0.497609 0.928284
0.237483 0.497609 0.920157
0.571313 0.499001 0.911896
0.900723 0.503019 0.908840
1.000000 0.508513 0.908840
0.019972 0.791948 0.908840
0.248413 0.797145 0.908840
0.611822 0.803246 0.908840
0.936982 0.810104 0.908840
1.000000 0.817614 0.908840
0.041786 1.000000 0.908840
0.305864 1.000000 0.908840
0.683066 1.000000 0.908840
0.978954 1.000000 0.908840
1.000000 1.000000 0.908840
