Fotico/Resources/LUTs/blush.cube
TITLE "Blush"
LUT_3D_SIZE 9
0.115171 0.074724 0.106195
0.193134 0.064123 0.101906
0.319891 0.057750 0.094691
0.453134 0.051995 0.089510
0.574364 0.047489 0.085774
0.685452 0.043917 0.082980
0.796442 0.040845 0.080717
0.900160 0.038401 0.079045
0.919672 0.037142 0.078343
0.113257 0.121905 0.103278
0.180643 0.122435 0.103495
0.306647 0.119665 0.100739
0.440859 0.115316 0.097112
0.563024 0.111819 0.094496
0.674993 0.109090 0.092627
0.786877 0.106822 0.091235
0.891437 0.105108 0.090344
0.914881 0.104314 0.090114
0.117894 0.204818 0.106373
0.179163 0.195846 0.118284
0.304401 0.213185 0.107010
0.433977 0.216650 0.111657
0.552032 0.220449 0.116493
0.663939 0.222331 0.117785
0.777481 0.223077 0.117843
0.883601 0.223765 0.118290
0.909866 0.224088 0.118929
0.128931 0.302511 0.115688
0.197362 0.291125 0.132237
0.301903 0.303990 0.129516
0.445066 0.324403 0.121169
0.565142 0.330048 0.127807
0.675274 0.335696 0.134336
0.785372 0.341772 0.141268
0.888298 0.347824 0.148102
0.910633 0.349969 0.150766
0.145140 0.402374 0.130112
0.217016 0.392155 0.147760
0.319523 0.387907 0.166231
0.448629 0.421502 0.148978
0.584052 0.441598 0.144167
0.696101 0.448872 0.152297
0.809157 0.456132 0.161321
0.914016 0.462554 0.169387
0.926495 0.464090 0.171991
0.164763 0.498833 0.147982
0.238987 0.489655 0.166691
0.349294 0.473638 0.200661
0.463042 0.505079 0.189003
0.595733 0.536992 0.176172
0.720855 0.553560 0.172424
0.832744 0.559710 0.180379
0.936498 0.565105 0.187452
0.940589 0.565665 0.189095
0.190644 0.602538 0.171561
0.267229 0.593560 0.191380
0.384271 0.576907 0.226199
0.489593 0.590403 0.230103
0.604753 0.620642 0.214395
0.729440 0.647904 0.202258
0.852863 0.662772 0.196450
0.954608 0.667066 0.202457
0.954589 0.666836 0.203328
0.217571 0.702992 0.195429
0.294090 0.693137 0.214542
0.413485 0.675051 0.248049
0.517017 0.670724 0.267122
0.619958 0.699680 0.250186
0.730488 0.725689 0.234350
0.855365 0.750802 0.221824
0.967959 0.763778 0.213700
0.967852 0.762962 0.214005
0.235402 0.775838 0.211040
0.311694 0.765343 0.229594
0.432156 0.746194 0.262092
0.537149 0.728442 0.292594
0.632855 0.756429 0.274743
0.734963 0.781558 0.258088
0.851215 0.806736 0.241892
0.967093 0.826703 0.230374
0.967153 0.825650 0.230044
0.116105 0.075318 0.156138
0.190688 0.068110 0.160907
0.331874 0.047871 0.150240
0.465267 0.042259 0.141302
0.586634 0.037876 0.136003
0.697847 0.034413 0.132372
0.808962 0.031448 0.129566
0.912797 0.029100 0.127547
0.930947 0.027932 0.126903
0.114063 0.122900 0.153132
0.186978 0.118190 0.155246
0.317723 0.109985 0.146678
0.452151 0.105348 0.142380
0.574510 0.101836 0.139601
0.686655 0.099161 0.137707
0.798713 0.096976 0.136350
0.903437 0.095355 0.135524
0.925338 0.094650 0.135419
0.114654 0.210435 0.151926
0.186371 0.205381 0.159872
0.306415 0.214167 0.157465
0.436552 0.217566 0.161846
0.560632 0.217509 0.160982
0.674385 0.217192 0.160697
0.788068 0.217012 0.160873
0.894319 0.217086 0.161437
0.918652 0.217293 0.162162
0.121183 0.313291 0.156370
0.199481 0.304549 0.170409
0.306997 0.307794 0.177680
0.447672 0.325897 0.171965
0.567912 0.331663 0.178761
0.678188 0.337420 0.185444
0.788428 0.343603 0.192536
0.892564 0.349188 0.198457
0.913654 0.350710 0.200119
0.137466 0.413959 0.169247
0.217319 0.405911 0.186207
0.328124 0.392078 0.214690
0.454097 0.425852 0.197684
0.587230 0.443583 0.195510
0.699759 0.450944 0.204029
0.812751 0.458125 0.213076
0.917547 0.464474 0.221152
0.927436 0.465827 0.223619
0.157515 0.510828 0.186698
0.238573 0.503748 0.205481
0.358379 0.487876 0.239685
0.469706 0.509621 0.238030
0.601714 0.541250 0.225275
0.724230 0.555382 0.224050
0.836051 0.561452 0.231998
0.939739 0.566774 0.239056
0.941498 0.567179 0.240577
0.183962 0.614800 0.210287
0.266530 0.607684 0.230517
0.391597 0.590946 0.265346
0.497526 0.594689 0.278996
0.610479 0.624846 0.263264
0.735069 0.651708 0.251166
0.855873 0.664252 0.247851
0.955487 0.668382 0.253730
0.955463 0.668119 0.254588
0.210800 0.715168 0.233734
0.292751 0.707036 0.253510
0.419184 0.688856 0.286995
0.526194 0.674750 0.315805
0.626231 0.703622 0.298820
0.735745 0.729553 0.282932
0.860628 0.754172 0.270415
0.968800 0.764844 0.264678
0.968691 0.764016 0.264979
0.228569 0.787935 0.249064
0.309935 0.779058 0.268393
0.436826 0.759810 0.300849
0.546749 0.739097 0.334181
0.639727 0.760171 0.323155
0.740280 0.785221 0.306432
0.856251 0.810339 0.290229
0.970196 0.829322 0.278815
0.970257 0.828261 0.278486
0.118252 0.075855 0.245836
0.186177 0.075481 0.245982
0.325638 0.057440 0.257568
0.484140 0.027708 0.248954
0.608579 0.020763 0.237129
0.720019 0.017484 0.229929
0.830135 0.015900 0.225318
0.931955 0.015900 0.222981
0.946627 0.015900 0.222930
0.116547 0.123759 0.242972
0.184795 0.123946 0.243743
0.323123 0.108826 0.252999
0.474195 0.088384 0.241913
0.596812 0.085080 0.234140
0.709192 0.082590 0.229720
0.821483 0.080586 0.226764
0.926424 0.079129 0.224923
0.945522 0.078550 0.224846
0.117721 0.211873 0.242065
0.186621 0.213093 0.243929
0.319569 0.206615 0.245412
0.456179 0.204032 0.241531
0.580585 0.202348 0.240386
0.694633 0.201322 0.240107
0.808606 0.200766 0.240389
0.915126 0.200651 0.241099
0.936051 0.200868 0.241992
0.124888 0.315381 0.246930
0.194691 0.317779 0.250004
0.317114 0.314646 0.264204
0.452327 0.328601 0.263185
0.572851 0.334578 0.270234
0.688425 0.337341 0.272158
0.804255 0.339543 0.274199
0.912514 0.341620 0.276493
0.929468 0.342818 0.278253
0.137424 0.420969 0.257312
0.208327 0.424524 0.261557
0.343087 0.413241 0.288002
0.463864 0.433610 0.285175
0.592884 0.447145 0.287661
0.706135 0.454554 0.296709
0.819014 0.461596 0.305709
0.923698 0.467816 0.313734
0.929109 0.468856 0.315928
0.153679 0.522719 0.271666
0.227048 0.526139 0.277723
0.369375 0.513387 0.310123
0.482201 0.517653 0.325910
0.612249 0.548533 0.313199
0.730109 0.558553 0.316413
0.841810 0.564483 0.324289
0.943061 0.569573 0.331170
0.943113 0.569820 0.332561
0.176301 0.631288 0.291770
0.255619 0.630134 0.301778
0.399027 0.616044 0.335451
0.513250 0.602264 0.366531
0.620667 0.632276 0.350697
0.744984 0.658178 0.338619
0.861111 0.666825 0.339714
0.957049 0.670668 0.345340
0.957018 0.670354 0.346165
0.198216 0.735628 0.310563
0.281563 0.729210 0.323542
0.424015 0.713527 0.356693
0.543094 0.693706 0.390976
0.637883 0.710592 0.385815
0.745015 0.736385 0.369809
0.869899 0.759888 0.357285
0.970295 0.766696 0.355796
0.970184 0.765850 0.356087
0.215075 0.808633 0.323942
0.298537 0.801010 0.337675
0.440087 0.784148 0.370205
0.561500 0.763253 0.403399
0.652810 0.766794 0.409779
0.749818 0.791703 0.392921
0.865128 0.816686 0.376694
0.975750 0.833758 0.365450
0.975811 0.832682 0.365130
0.120642 0.076529 0.342916
0.188756 0.076297 0.343174
0.310497 0.075895 0.345171
0.467548 0.048413 0.363250
0.611915 0.022403 0.359348
0.727085 0.015900 0.349538
0.836021 0.015900 0.342699
0.938242 0.015900 0.338517
0.950387 0.015900 0.338284
0.119297 0.124777 0.340286
0.187750 0.125108 0.341178
0.309874 0.126442 0.343498
0.466473 0.101136 0.360106
0.611828 0.076019 0.354263
0.733651 0.064707 0.344035
0.846193 0.062892 0.336912
0.951366 0.061609 0.332338
0.967401 0.061151 0.332143
0.121093 0.213510 0.339830
0.190231 0.214877 0.341830
0.313989 0.218004 0.346062
0.469067 0.197883 0.357069
0.605486 0.184922 0.348217
0.719799 0.184089 0.343452
0.834034 0.183722 0.341122
0.940796 0.183782 0.340252
0.957982 0.184073 0.341113
0.128943 0.317714 0.345261
0.199023 0.320260 0.348489
0.324775 0.325423 0.354834
0.467898 0.321284 0.356820
0.594671 0.321654 0.357138
0.710897 0.322480 0.358663
0.827048 0.323750 0.360805
0.935602 0.325324 0.363260
0.948121 0.326422 0.365218
0.142143 0.423978 0.356263
0.213360 0.427685 0.360681
0.341239 0.434839 0.369065
0.474460 0.441801 0.380175
0.599125 0.451041 0.387750
0.713544 0.458002 0.396457
0.831898 0.461137 0.399822
0.941666 0.463003 0.402602
0.942568 0.463540 0.404311
0.159023 0.526352 0.371254
0.231493 0.531139 0.376770
0.363187 0.539137 0.388031
0.498176 0.526245 0.421147
0.623496 0.555570 0.408440
0.736316 0.561889 0.416424
0.847890 0.567670 0.424191
0.944810 0.572437 0.430782
0.944851 0.572602 0.432106
0.182259 0.634934 0.391877
0.255830 0.639400 0.397804
0.391778 0.641501 0.411678
0.530791 0.624607 0.446968
0.631812 0.640223 0.445372
0.755564 0.664467 0.433290
0.866637 0.669524 0.439135
0.958729 0.673065 0.444477
0.958691 0.672707 0.445266
0.203722 0.738801 0.410254
0.276752 0.742449 0.415350
0.415997 0.738671 0.431891
0.556114 0.720177 0.466289
0.651772 0.718049 0.480009
0.754924 0.743693 0.463860
0.879793 0.765461 0.451316
0.971905 0.768631 0.454419
0.971792 0.767777 0.454704
0.217449 0.814179 0.421629
0.289974 0.817210 0.426099
0.431580 0.809044 0.444807
0.571716 0.789363 0.478327
0.668957 0.773881 0.503584
0.760367 0.798640 0.486572
0.874604 0.823414 0.470313
0.981424 0.837872 0.459579
0.981258 0.836661 0.459502
0.122982 0.077253 0.435292
0.191275 0.077154 0.435668
0.312821 0.077739 0.437100
0.451462 0.067569 0.451242
0.596467 0.042363 0.464806
0.728892 0.019342 0.463966
0.841747 0.015900 0.455372
0.944347 0.015900 0.449406
0.954027 0.015900 0.449111
0.121976 0.125826 0.432923
0.190624 0.126291 0.433937
0.313053 0.127853 0.436472
0.450829 0.120636 0.449768
0.596783 0.096295 0.463075
0.730146 0.074080 0.461180
0.863305 0.052450 0.453326
0.975153 0.044998 0.444665
0.988229 0.044644 0.444334
0.124358 0.215142 0.432951
0.193721 0.216646 0.435085
0.317810 0.220005 0.439549
0.454208 0.218014 0.451394
0.601867 0.195243 0.463227
0.736920 0.174494 0.458527
0.858282 0.167555 0.450668
0.965272 0.167778 0.446201
0.978864 0.168129 0.446920
0.132853 0.320000 0.438965
0.203194 0.322687 0.442341
0.329306 0.328085 0.448939
0.464441 0.331870 0.459230
0.614015 0.310842 0.466306
0.735650 0.306801 0.460646
0.852058 0.308249 0.459024
0.960849 0.309985 0.459390
0.969148 0.310917 0.461712
0.146682 0.426900 0.450580
0.218190 0.430749 0.455159
0.346456 0.438142 0.463818
0.481692 0.446576 0.473564
0.616479 0.443961 0.476258
0.735863 0.445503 0.479496
0.854209 0.446661 0.482653
0.960042 0.447423 0.485344
0.960370 0.447795 0.487083
0.164150 0.529862 0.466179
0.236935 0.534793 0.471868
0.368521 0.543453 0.483053
0.508056 0.549672 0.495954
0.629627 0.558937 0.503431
0.742101 0.564983 0.511531
0.856927 0.568563 0.515841
0.954544 0.569446 0.517489
0.954758 0.569375 0.518572
0.187830 0.638320 0.487137
0.261472 0.642689 0.492993
0.391974 0.649929 0.502762
0.534777 0.650119 0.518975
0.643020 0.647700 0.535408
0.761585 0.667534 0.527198
0.871779 0.672019 0.533661
0.960317 0.675279 0.538731
0.960274 0.674886 0.539491
0.208864 0.741741 0.505098
0.281935 0.745291 0.510113
0.411156 0.751118 0.518432
0.556953 0.745303 0.537886
0.667775 0.726538 0.568098
0.764267 0.750570 0.553294
0.885605 0.768184 0.544179
0.973427 0.770410 0.548192
0.973315 0.769556 0.548478
0.222261 0.816784 0.516137
0.294810 0.819715 0.520519
0.422987 0.824479 0.527752
0.570898 0.814151 0.549562
0.684967 0.794434 0.578777
0.770952 0.805169 0.575635
0.883511 0.829631 0.559342
0.982896 0.839325 0.552971
0.982734 0.838140 0.552918
0.125288 0.078020 0.523973
0.193755 0.078047 0.524466
0.315580 0.078846 0.526102
0.443623 0.080538 0.528697
0.581702 0.061582 0.552070
0.714359 0.038722 0.563020
0.846794 0.016456 0.564257
0.950322 0.015900 0.556738
0.957576 0.015900 0.556490
0.124606 0.126902 0.521873
0.193441 0.127495 0.523010
0.316163 0.129274 0.525756
0.445260 0.131971 0.529483
0.582398 0.115820 0.551840
0.715998 0.093769 0.562640
0.849389 0.072302 0.563243
0.973961 0.052729 0.558765
0.985709 0.050935 0.558857
0.127547 0.216774 0.522394
0.197125 0.218408 0.524660
0.321531 0.221987 0.529350
0.452553 0.226529 0.535059
0.588140 0.215316 0.555620
0.723436 0.194735 0.565496
0.858542 0.174714 0.564356
0.984728 0.156476 0.558446
0.996228 0.155502 0.559117
0.136658 0.322255 0.528991
0.207247 0.325075 0.532509
0.333703 0.330697 0.539350
0.466976 0.337324 0.547250
0.601006 0.331537 0.565747
0.738252 0.312599 0.572942
0.875315 0.294193 0.568622
0.985739 0.295162 0.564519
0.989327 0.295971 0.566935
0.151087 0.429761 0.541206
0.222872 0.433745 0.545937
0.351506 0.441365 0.554855
0.487076 0.450027 0.564868
0.620908 0.448989 0.581671
0.760486 0.430486 0.582773
0.878727 0.431503 0.579658
0.980192 0.432150 0.579393
0.980512 0.432428 0.581261
0.169118 0.533281 0.557391
0.242629 0.538308 0.563538
0.374275 0.546809 0.574649
0.511497 0.555044 0.585516
0.641916 0.555377 0.595105
0.760929 0.554765 0.594174
0.877966 0.554678 0.595632
0.971744 0.554323 0.597068
0.972011 0.554122 0.598242
0.193100 0.641501 0.578534
0.266800 0.645777 0.584315
0.397266 0.652853 0.593946
0.533081 0.659632 0.603302
0.656867 0.657018 0.619529
0.766549 0.670001 0.617974
0.876621 0.674350 0.624311
0.965529 0.675051 0.625459
0.965686 0.674482 0.625993
0.213722 0.744498 0.596083
0.286825 0.747953 0.601015
0.415990 0.753615 0.609185
0.550334 0.758951 0.617050
0.679266 0.750441 0.636608
0.773212 0.757104 0.639069
0.889959 0.770084 0.634361
0.974880 0.772064 0.638124
0.974768 0.771217 0.638417
0.226803 0.819221 0.606797
0.299369 0.822057 0.611091
0.427476 0.826655 0.618166
0.560670 0.830906 0.624915
0.692272 0.818012 0.646934
0.782403 0.811372 0.661058
0.891970 0.835316 0.644730
0.984302 0.840669 0.642545
0.984144 0.839515 0.642522
0.127866 0.078931 0.620470
0.196521 0.079093 0.621096
0.318649 0.080123 0.622959
0.446995 0.082049 0.625788
0.567532 0.079149 0.634414
0.698620 0.059869 0.658195
0.831302 0.037775 0.670207
0.955198 0.017621 0.673785
0.960958 0.016430 0.674228
0.127532 0.128148 0.618677
0.196571 0.128878 0.619951
0.319611 0.130892 0.622932
0.449020 0.133826 0.626901
0.569101 0.133757 0.634597
0.700671 0.115254 0.659203
0.834314 0.093963 0.671276
0.959117 0.074552 0.674554
0.967055 0.073448 0.675346
0.131078 0.218620 0.619756
0.200890 0.220395 0.622167
0.325641 0.224213 0.627105
0.456990 0.228995 0.633070
0.576610 0.233923 0.639163
0.708824 0.216821 0.665162
0.844188 0.196979 0.676908
0.970609 0.178907 0.679243
0.977536 0.178688 0.680621
0.140857 0.324774 0.627003
0.211714 0.327738 0.630675
0.338543 0.333602 0.637779
0.472162 0.340473 0.645950
0.593846 0.347302 0.653967
0.724421 0.335360 0.677728
0.861749 0.317137 0.688150
0.988897 0.300545 0.689344
0.988601 0.301884 0.691825
0.155937 0.432935 0.639879
0.228019 0.437066 0.644773
0.357052 0.444930 0.653970
0.493176 0.453834 0.664397
0.618006 0.461855 0.674819
0.747441 0.453047 0.695867
0.885873 0.433995 0.702015
0.999258 0.418256 0.698980
0.999000 0.418999 0.700989
0.174586 0.537059 0.656706
0.248812 0.542059 0.663263
0.380439 0.550384 0.674228
0.517566 0.558439 0.684940
0.641144 0.565206 0.694047
0.766750 0.557864 0.709607
0.903976 0.537702 0.707764
0.993606 0.537188 0.703941
0.993868 0.536930 0.705336
0.198754 0.644888 0.677900
0.272508 0.649064 0.683594
0.402931 0.655962 0.693068
0.538635 0.662558 0.702257
0.660865 0.668026 0.710008
0.782413 0.662259 0.716501
0.898450 0.660482 0.713287
0.984448 0.658953 0.712935
0.984662 0.658258 0.713655
0.218928 0.747427 0.694991
0.292059 0.750780 0.699830
0.421159 0.756263 0.707833
0.555381 0.761415 0.715521
0.676232 0.765597 0.721937
0.783348 0.764142 0.732298
0.894606 0.772089 0.732376
0.977457 0.773247 0.734873
0.977568 0.772284 0.734964
0.231666 0.821805 0.705349
0.304244 0.824538 0.709545
0.432273 0.828956 0.716445
0.565335 0.833023 0.723011
0.685121 0.836239 0.728428
0.797915 0.824962 0.746930
0.901079 0.840737 0.737540
0.985822 0.842075 0.739908
0.985671 0.840963 0.739926
0.130513 0.079918 0.716994
0.199358 0.080216 0.717754
0.321791 0.081475 0.719850
0.450438 0.083632 0.722917
0.567478 0.086249 0.726396
0.683438 0.078040 0.741335
0.815884 0.059158 0.765132
0.940007 0.039162 0.777532
0.942324 0.038619 0.778187
0.130527 0.129469 0.715518
0.199771 0.130337 0.716930
0.323129 0.132583 0.720150
0.452849 0.135752 0.724364
0.570902 0.139276 0.728864
0.686150 0.133802 0.742794
0.819308 0.115688 0.767391
0.944341 0.096439 0.779992
0.948400 0.096022 0.781095
0.134675 0.220539 0.717170
0.204722 0.222454 0.719727
0.329816 0.226509 0.724915
0.461492 0.231530 0.731137
0.581371 0.236709 0.737422
0.695547 0.236047 0.749615
0.829896 0.219308 0.775550
0.956553 0.201401 0.788219
0.958842 0.201932 0.789797
0.145121 0.327363 0.725078
0.216244 0.330470 0.728904
0.343444 0.336574 0.736272
0.477408 0.343688 0.744713
0.599387 0.350732 0.752971
0.712728 0.355360 0.763302
0.848649 0.340080 0.790844
0.970102 0.324246 0.803231
0.969814 0.325444 0.805330
0.160850 0.436174 0.738621
0.233226 0.440450 0.743677
0.362656 0.448558 0.753149
0.499644 0.457603 0.764173
0.624367 0.465464 0.774455
0.737682 0.472213 0.783365
0.872488 0.456457 0.809165
0.980495 0.441393 0.817451
0.980242 0.442040 0.819116
0.180602 0.540833 0.756439
0.254908 0.545736 0.762913
0.386511 0.553886 0.773725
0.523540 0.561760 0.784275
0.647001 0.568367 0.793234
0.759128 0.573984 0.800950
0.890063 0.559725 0.821619
0.990310 0.544656 0.825668
0.990087 0.544821 0.826967
0.204331 0.648203 0.777185
0.278131 0.652279 0.782789
0.408505 0.659001 0.792100
0.544097 0.665415 0.801118
0.666203 0.670720 0.808714
0.777066 0.675164 0.815200
0.903902 0.662519 0.829550
1.000000 0.646744 0.827764
1.000000 0.646438 0.828727
0.224057 0.750286 0.793815
0.297210 0.753538 0.798557
0.426240 0.758843 0.806388
0.560338 0.763812 0.813898
0.681056 0.767830 0.820151
0.790638 0.771114 0.825428
0.913335 0.760126 0.829978
0.996777 0.757077 0.825361
0.996949 0.755999 0.825783
0.236452 0.824322 0.803814
0.309037 0.826953 0.807910
0.436983 0.831191 0.814631
0.569914 0.835074 0.821012
0.689562 0.838127 0.826261
0.798162 0.840540 0.830635
0.905706 0.842598 0.834607
0.990292 0.841279 0.834246
0.990378 0.839998 0.834087
0.132238 0.080587 0.778561
0.201204 0.080971 0.779408
0.323832 0.082376 0.781652
0.452671 0.084680 0.784874
0.569881 0.087426 0.788491
0.678109 0.089136 0.793658
0.805364 0.071529 0.819261
0.930359 0.052930 0.838678
0.930442 0.052800 0.839229
0.132473 0.130350 0.777291
0.201848 0.131305 0.778793
0.325409 0.133699 0.782165
0.455327 0.137018 0.786537
0.573554 0.140674 0.791178
0.681905 0.144518 0.795949
0.809098 0.128319 0.821870
0.934956 0.110429 0.841866
0.936505 0.110448 0.842897
0.137004 0.221800 0.779314
0.207200 0.223804 0.781964
0.332513 0.228009 0.787313
0.464398 0.233182 0.793698
0.584457 0.238496 0.800131
0.694505 0.243839 0.806516
0.820230 0.232407 0.830713
0.947124 0.215854 0.851544
0.946921 0.216785 0.852935
0.147874 0.329050 0.787648
0.219166 0.332247 0.791573
0.346603 0.338504 0.799108
0.480785 0.345771 0.807720
0.602952 0.352952 0.816133
0.714936 0.359981 0.824302
0.839954 0.353611 0.847159
0.958122 0.339314 0.867955
0.957838 0.340428 0.869815
0.164017 0.438274 0.801618
0.236579 0.442642 0.806778
0.366261 0.450904 0.816424
0.503720 0.459969 0.827753
0.628375 0.467727 0.837944
0.741618 0.474385 0.846770
0.863527 0.469864 0.865996
0.968535 0.456102 0.883364
0.968285 0.456693 0.884815
0.184400 0.543202 0.819996
0.258752 0.548042 0.826414
0.390337 0.556082 0.837126
0.527302 0.563842 0.847571
0.650689 0.570345 0.856434
0.762739 0.575870 0.864062
0.880866 0.573002 0.879309
0.978371 0.559030 0.893782
0.978149 0.559165 0.894887
0.207848 0.650281 0.840452
0.281674 0.654293 0.845997
0.412014 0.660903 0.855203
0.547535 0.667202 0.864110
0.669560 0.672404 0.871605
0.780343 0.676754 0.877999
0.894481 0.675647 0.889084
0.988771 0.660770 0.900345
0.988576 0.660461 0.901124
0.227288 0.752074 0.856785
0.300452 0.755262 0.861465
0.429436 0.760454 0.869186
0.563454 0.765306 0.876580
0.684087 0.769221 0.882728
0.793586 0.772411 0.887910
0.903754 0.773093 0.894838
0.999264 0.756650 0.901263
0.999095 0.755929 0.901763
0.239466 0.825893 0.866556
0.312052 0.828459 0.870586
0.439945 0.832583 0.877194
0.572790 0.836350 0.883455
0.692349 0.839298 0.888596
0.800864 0.841617 0.892872
0.908319 0.843582 0.896746
1.000000 0.829565 0.896037
1.000000 0.828260 0.896292
