Fotico/Resources/LUTs/blush.cube
TITLE "Blush"
LUT_3D_SIZE 33
0.115171 0.074724 0.106195
0.135701 0.070656 0.107459
0.155274 0.066665 0.105827
0.173095 0.065225 0.103729
0.193134 0.064123 0.101906
0.217753 0.062808 0.100111
0.248303 0.061230 0.098251
0.283146 0.059500 0.096416
0.319891 0.057750 0.094691
0.356044 0.056100 0.093143
0.389392 0.054638 0.091819
0.421534 0.053281 0.090621
0.453134 0.051995 0.089510
0.484201 0.050777 0.088477
0.514751 0.049623 0.087514
0.544798 0.048528 0.086615
0.574364 0.047489 0.085774
0.603172 0.046513 0.084995
0.631111 0.045600 0.084277
0.658447 0.044738 0.083608
0.685452 0.043917 0.082980
0.712406 0.043126 0.082383
0.739590 0.042358 0.081813
0.767471 0.041600 0.081259
0.796442 0.040845 0.080717
0.825414 0.040122 0.080208
0.853157 0.039459 0.079751
0.878430 0.038880 0.079361
0.900160 0.038401 0.079045
0.918830 0.038004 0.078787
0.919668 0.037703 0.078625
0.919669 0.037423 0.078481
0.919672 0.037142 0.078343
0.114208 0.086578 0.104954
0.134508 0.082684 0.105327
0.151792 0.080984 0.103428
0.169163 0.080038 0.102052
0.189227 0.078973 0.100795
0.213881 0.077703 0.099478
0.244479 0.076181 0.098029
0.279380 0.074513 0.096529
0.316189 0.072828 0.095070
0.352408 0.071242 0.093731
0.385819 0.069837 0.092569
0.418023 0.068536 0.091509
0.449684 0.067305 0.090521
0.480813 0.066140 0.089598
0.511423 0.065037 0.088736
0.541531 0.063993 0.087929
0.571156 0.063005 0.087176
0.600024 0.062077 0.086478
0.628019 0.061211 0.085835
0.655412 0.060395 0.085238
0.682473 0.059619 0.084678
0.709483 0.058873 0.084148
0.736723 0.058150 0.083643
0.764662 0.057439 0.083156
0.793694 0.056732 0.082680
0.822727 0.056057 0.082237
0.850528 0.055440 0.081842
0.875854 0.054903 0.081507
0.897630 0.054461 0.081238
0.916339 0.054094 0.081020
0.918269 0.053818 0.080884
0.918273 0.053565 0.080767
0.918280 0.053315 0.080662
0.113635 0.097474 0.104205
0.131687 0.095828 0.103373
0.148189 0.094938 0.102499
0.165578 0.094024 0.101699
0.185667 0.092995 0.100831
0.210354 0.091768 0.099815
0.240996 0.090299 0.098615
0.275952 0.088691 0.097317
0.312822 0.087070 0.096021
0.349103 0.085544 0.094815
0.382573 0.084196 0.093760
0.414834 0.082949 0.092794
0.446553 0.081770 0.091891
0.477739 0.080657 0.091047
0.508407 0.079604 0.090258
0.538572 0.078610 0.089522
0.568253 0.077669 0.088834
0.597175 0.076789 0.088200
0.625225 0.075968 0.087616
0.652670 0.075197 0.087076
0.679784 0.074464 0.086571
0.706846 0.073762 0.086095
0.734139 0.073083 0.085644
0.762132 0.072417 0.085211
0.791221 0.071757 0.084791
0.820310 0.071128 0.084403
0.848167 0.070556 0.084060
0.873542 0.070060 0.083773
0.895361 0.069652 0.083543
0.914107 0.069316 0.083360
0.916963 0.069064 0.083248
0.916971 0.068838 0.083158
0.916981 0.068616 0.083082
0.113138 0.108997 0.103520
0.129639 0.108917 0.103602
0.145337 0.108864 0.103701
0.162351 0.108544 0.103361
0.182457 0.107761 0.102552
0.207167 0.106707 0.101593
0.237843 0.105374 0.100453
0.272842 0.103877 0.099216
0.309759 0.102347 0.097981
0.346090 0.100899 0.096833
0.379608 0.099615 0.095831
0.411916 0.098424 0.094914
0.443682 0.097299 0.094058
0.474916 0.096236 0.093260
0.505631 0.095232 0.092517
0.535842 0.094283 0.091824
0.565571 0.093387 0.091180
0.594539 0.092549 0.090586
0.622633 0.091769 0.090043
0.650123 0.091037 0.089541
0.677280 0.090343 0.089075
0.704387 0.089679 0.088637
0.731725 0.089038 0.088224
0.759764 0.088411 0.087830
0.788901 0.087791 0.087451
0.818038 0.087203 0.087103
0.845941 0.086669 0.086798
0.871359 0.086207 0.086545
0.893214 0.085829 0.086346
0.911992 0.085518 0.086189
0.915713 0.085287 0.086096
0.915717 0.085083 0.086027
0.915724 0.084885 0.085976
0.113257 0.121905 0.103278
0.128771 0.119322 0.106102
0.144792 0.122323 0.103245
0.161493 0.122405 0.103280
0.180643 0.122435 0.103495
0.204185 0.122507 0.103791
0.234589 0.121937 0.103046
0.269655 0.120876 0.101890
0.306647 0.119665 0.100739
0.343054 0.118455 0.099672
0.376643 0.117351 0.098744
0.409022 0.116310 0.097898
0.440859 0.115316 0.097112
0.472162 0.114370 0.096382
0.502946 0.113473 0.095705
0.533227 0.112623 0.095077
0.563024 0.111819 0.094496
0.592059 0.111067 0.093964
0.620219 0.110367 0.093480
0.647772 0.109711 0.093036
0.674993 0.109090 0.092627
0.702163 0.108497 0.092246
0.729565 0.107927 0.091890
0.757671 0.107370 0.091554
0.786877 0.106822 0.091235
0.816083 0.106304 0.090947
0.844052 0.105837 0.090700
0.869530 0.105435 0.090499
0.891437 0.105108 0.090344
0.910259 0.104841 0.090225
0.914863 0.104644 0.090165
0.914871 0.104476 0.090129
0.914881 0.104314 0.090114
0.113756 0.137834 0.103438
0.130469 0.134635 0.107034
0.142777 0.135018 0.106864
0.160108 0.138470 0.103874
0.180392 0.139407 0.103062
0.203986 0.139546 0.103430
0.233287 0.139769 0.103933
0.266731 0.140085 0.104565
0.303007 0.139933 0.104318
0.339507 0.139215 0.103352
0.373186 0.138469 0.102516
0.405652 0.137715 0.101758
0.437576 0.136964 0.101057
0.468967 0.136229 0.100411
0.499837 0.135518 0.099815
0.530203 0.134836 0.099267
0.560084 0.134185 0.098765
0.589202 0.133573 0.098309
0.617442 0.133002 0.097898
0.645074 0.132465 0.097525
0.672374 0.131957 0.097186
0.699622 0.131473 0.096875
0.727104 0.131008 0.096589
0.755291 0.130557 0.096324
0.784582 0.130114 0.096080
0.813873 0.129700 0.095866
0.841924 0.129329 0.095689
0.867477 0.129014 0.095552
0.889447 0.128760 0.095453
0.908325 0.128554 0.095380
0.913831 0.128403 0.095360
0.913843 0.128278 0.095366
0.913858 0.128161 0.095395
0.114648 0.157624 0.103962
0.131948 0.154478 0.107634
0.145060 0.151400 0.111075
0.158188 0.154094 0.108747
0.177895 0.158227 0.105252
0.204028 0.160702 0.103256
0.233416 0.161028 0.103865
0.266964 0.161462 0.104618
0.302368 0.161986 0.105475
0.337221 0.162566 0.106379
0.369386 0.163155 0.107264
0.401816 0.162978 0.106756
0.433847 0.162645 0.106160
0.465345 0.162267 0.105616
0.496321 0.161867 0.105121
0.526792 0.161461 0.104671
0.556777 0.161057 0.104264
0.585996 0.160667 0.103901
0.614336 0.160296 0.103580
0.642065 0.159944 0.103295
0.669462 0.159609 0.103041
0.696806 0.159290 0.102816
0.724386 0.158984 0.102616
0.752673 0.158688 0.102439
0.782068 0.158402 0.102285
0.811465 0.158138 0.102162
0.839616 0.157906 0.102072
0.865260 0.157714 0.102013
0.887310 0.157564 0.101981
0.906255 0.157445 0.101967
0.912591 0.157356 0.101996
0.912607 0.157285 0.102053
0.912628 0.157222 0.102134
0.116023 0.180362 0.104932
0.133635 0.177275 0.108666
0.147993 0.174269 0.112169
0.160705 0.172137 0.114853
0.176488 0.176273 0.111337
0.200711 0.181442 0.107113
0.233939 0.185435 0.104140
0.267607 0.186002 0.105029
0.303144 0.186667 0.106028
0.338132 0.187383 0.107070
0.370422 0.188097 0.108081
0.401557 0.188833 0.109100
0.432176 0.189599 0.110143
0.462288 0.190393 0.111207
0.492732 0.190775 0.111472
0.523322 0.190770 0.111133
0.553426 0.190724 0.110834
0.582761 0.190652 0.110576
0.611213 0.190566 0.110356
0.639054 0.190474 0.110170
0.666560 0.190380 0.110013
0.694014 0.190288 0.109884
0.721704 0.190199 0.109781
0.750106 0.190115 0.109704
0.779620 0.190039 0.109653
0.809135 0.189976 0.109632
0.837400 0.189930 0.109639
0.863148 0.189901 0.109670
0.885287 0.189887 0.109714
0.904309 0.189882 0.109765
0.911219 0.189872 0.109852
0.911242 0.189862 0.109966
0.911268 0.189857 0.110104
0.117894 0.204818 0.106373
0.135692 0.201793 0.110163
0.150794 0.198863 0.113729
0.164823 0.195792 0.117508
0.179163 0.195846 0.118284
0.199509 0.201058 0.114103
0.230536 0.207705 0.109173
0.268722 0.212371 0.105861
0.304401 0.213185 0.107010
0.339533 0.214047 0.108198
0.371960 0.214895 0.109342
0.403226 0.215759 0.110489
0.433977 0.216650 0.111657
0.464220 0.217567 0.112843
0.493966 0.218508 0.114045
0.523231 0.219469 0.115263
0.552032 0.220449 0.116493
0.580101 0.221436 0.117722
0.608358 0.221877 0.117921
0.636316 0.222118 0.117839
0.663939 0.222331 0.117785
0.691510 0.222526 0.117758
0.719319 0.222710 0.117758
0.747841 0.222892 0.117785
0.777481 0.223077 0.117843
0.807123 0.223263 0.117930
0.835508 0.223444 0.118041
0.861367 0.223614 0.118165
0.883601 0.223765 0.118290
0.902705 0.223899 0.118409
0.909805 0.223979 0.118559
0.909834 0.224033 0.118733
0.909866 0.224088 0.118929
0.120183 0.229662 0.108226
0.138102 0.226699 0.112067
0.153687 0.223845 0.115698
0.168593 0.220853 0.119546
0.183855 0.217416 0.124015
0.201952 0.221128 0.121555
0.228875 0.227765 0.116541
0.265905 0.235536 0.111426
0.306101 0.240098 0.108394
0.341380 0.241107 0.109727
0.373944 0.242089 0.111005
0.405345 0.243081 0.112279
0.436229 0.244099 0.113571
0.466603 0.245139 0.114878
0.496479 0.246200 0.116200
0.525873 0.247279 0.117533
0.554801 0.248375 0.118877
0.582994 0.249476 0.120217
0.610341 0.250572 0.121545
0.637101 0.251673 0.122870
0.663543 0.252788 0.124205
0.689937 0.253927 0.125563
0.717394 0.254664 0.126130
0.746038 0.255152 0.126262
0.775805 0.255638 0.126428
0.805573 0.256108 0.126623
0.834080 0.256549 0.126837
0.860050 0.256945 0.127055
0.882379 0.257283 0.127260
0.901565 0.257574 0.127449
0.908430 0.257747 0.127661
0.908465 0.257866 0.127896
0.908503 0.257978 0.128147
0.122746 0.253689 0.110367
0.140751 0.250784 0.114255
0.156667 0.248001 0.117948
0.172166 0.245083 0.121862
0.188424 0.241730 0.126407
0.206224 0.240615 0.129018
0.230588 0.247370 0.124127
0.263639 0.255130 0.118602
0.304319 0.263269 0.113854
0.343548 0.267248 0.111553
0.376245 0.268359 0.112957
0.407775 0.269474 0.114351
0.438788 0.270612 0.115761
0.469289 0.271770 0.117184
0.499291 0.272946 0.118618
0.528808 0.274139 0.120062
0.557858 0.275345 0.121514
0.586171 0.276553 0.122959
0.613633 0.277753 0.124388
0.640508 0.278956 0.125813
0.667062 0.280170 0.127245
0.693568 0.281408 0.128699
0.720304 0.282683 0.130190
0.747728 0.284018 0.131745
0.776229 0.285433 0.133388
0.804733 0.286877 0.135059
0.833147 0.287700 0.135579
0.859222 0.288336 0.135886
0.881643 0.288874 0.136167
0.900907 0.289330 0.136422
0.907156 0.289590 0.136696
0.907196 0.289768 0.136989
0.907239 0.289932 0.137290
0.125656 0.277882 0.112849
0.143730 0.275034 0.116782
0.159902 0.272322 0.120537
0.175850 0.269477 0.124517
0.192854 0.266207 0.129140
0.211634 0.262215 0.134851
0.234261 0.267184 0.132003
0.264532 0.275079 0.126613
0.301739 0.283463 0.120989
0.342792 0.291265 0.116985
0.378922 0.294784 0.115245
0.410583 0.296021 0.116759
0.441724 0.297279 0.118286
0.472352 0.298554 0.119823
0.502480 0.299845 0.121369
0.532121 0.301150 0.122922
0.561294 0.302467 0.124481
0.589726 0.303781 0.126030
0.617304 0.305085 0.127559
0.644292 0.306388 0.129082
0.670959 0.307702 0.130611
0.697577 0.309039 0.132161
0.724427 0.310413 0.133749
0.751967 0.311849 0.135402
0.780589 0.313370 0.137148
0.809214 0.314919 0.138920
0.836628 0.316429 0.140642
0.861603 0.317826 0.142233
0.883078 0.319045 0.143616
0.901531 0.320104 0.144817
0.906547 0.320562 0.145397
0.906584 0.320803 0.145755
0.906619 0.321022 0.146117
0.128931 0.302511 0.115688
0.147073 0.299725 0.119673
0.163456 0.297084 0.123491
0.179765 0.294312 0.127538
0.197362 0.291125 0.132237
0.217127 0.287233 0.138044
0.239361 0.287431 0.140256
0.267528 0.295462 0.135001
0.301903 0.303990 0.129516
0.340647 0.312675 0.124545
0.378758 0.319488 0.121104
0.413794 0.323025 0.119525
0.445066 0.324403 0.121169
0.475824 0.325796 0.122820
0.506079 0.327203 0.124478
0.535845 0.328620 0.126140
0.565142 0.330048 0.127807
0.593695 0.331470 0.129460
0.621391 0.332878 0.131090
0.648494 0.334283 0.132711
0.675274 0.335696 0.134336
0.702006 0.337133 0.135983
0.728970 0.338607 0.137667
0.756628 0.340145 0.139420
0.785372 0.341772 0.141268
0.814119 0.343426 0.143143
0.841650 0.345037 0.144963
0.866731 0.346527 0.146643
0.888298 0.347824 0.148102
0.906830 0.348951 0.149368
0.910545 0.349409 0.149947
0.910591 0.349707 0.150359
0.910633 0.349969 0.150766
0.132542 0.327424 0.118856
0.150763 0.324714 0.122907
0.167327 0.322143 0.126789
0.183936 0.319443 0.130903
0.202017 0.316338 0.135681
0.222580 0.312546 0.141583
0.245532 0.307991 0.148835
0.272073 0.316160 0.143713
0.304249 0.324832 0.138368
0.340101 0.333416 0.133164
0.377148 0.341685 0.129113
0.414029 0.348102 0.125959
0.448793 0.351825 0.124391
0.479681 0.353336 0.126156
0.510065 0.354858 0.127925
0.539958 0.356389 0.129697
0.569379 0.357927 0.131471
0.598054 0.359457 0.133228
0.625868 0.360969 0.134959
0.653086 0.362475 0.136677
0.679981 0.363988 0.138399
0.706827 0.365524 0.140142
0.733905 0.367098 0.141923
0.761682 0.368739 0.143775
0.790548 0.370471 0.145725
0.819418 0.372232 0.147702
0.847066 0.373943 0.149620
0.872254 0.375524 0.151388
0.893913 0.376900 0.152924
0.912523 0.378095 0.154256
0.914586 0.378539 0.154817
0.914641 0.378893 0.155284
0.914689 0.379196 0.155733
0.136473 0.352481 0.122340
0.154773 0.349845 0.126458
0.171495 0.347343 0.130404
0.188360 0.344715 0.134585
0.206847 0.341691 0.139441
0.228073 0.337997 0.145438
0.252095 0.333448 0.152924
0.277781 0.337043 0.152692
0.308220 0.345859 0.147484
0.341972 0.354584 0.142414
0.376450 0.362676 0.137785
0.412953 0.370803 0.134356
0.449358 0.377069 0.131410
0.483895 0.381004 0.129804
0.514407 0.382641 0.131684
0.544427 0.384284 0.133564
0.573973 0.385933 0.135444
0.602769 0.387570 0.137305
0.630701 0.389185 0.139135
0.658035 0.390792 0.140951
0.685043 0.392404 0.142769
0.712003 0.394039 0.144607
0.739197 0.395712 0.146484
0.767091 0.397454 0.148434
0.796080 0.399292 0.150486
0.825071 0.401157 0.152565
0.852837 0.402969 0.154579
0.878246 0.404640 0.156504
0.900275 0.406072 0.158276
0.918574 0.407263 0.159760
0.918629 0.407611 0.160364
0.918682 0.407940 0.160944
0.918725 0.408204 0.161468
0.140688 0.377521 0.126106
0.159066 0.374958 0.130291
0.175932 0.372523 0.134301
0.193018 0.369964 0.138549
0.211853 0.367021 0.143482
0.233639 0.363423 0.149574
0.258559 0.358992 0.157177
0.284365 0.357974 0.161870
0.313414 0.366932 0.156796
0.345479 0.375798 0.151857
0.378120 0.384017 0.147348
0.412358 0.391976 0.143044
0.448807 0.400065 0.140127
0.484739 0.406225 0.137379
0.519064 0.410374 0.135719
0.549211 0.412128 0.137706
0.578881 0.413886 0.139691
0.607798 0.415628 0.141653
0.635847 0.417345 0.143582
0.663296 0.419052 0.145493
0.690417 0.420762 0.147406
0.717490 0.422494 0.149338
0.744798 0.424266 0.151310
0.772808 0.426108 0.153357
0.802215 0.428037 0.155684
0.831662 0.429942 0.158046
0.859806 0.431740 0.160282
0.885397 0.433356 0.162296
0.907363 0.434730 0.164012
0.922535 0.435737 0.165312
0.922584 0.436042 0.165876
0.922631 0.436330 0.166415
0.922668 0.436555 0.166902
0.145140 0.402374 0.130112
0.163597 0.399881 0.134363
0.180595 0.397511 0.138436
0.197879 0.395021 0.142751
0.217016 0.392155 0.147760
0.239282 0.388652 0.153946
0.264966 0.384335 0.161665
0.291592 0.379457 0.170517
0.319523 0.387907 0.166231
0.350218 0.396910 0.161420
0.381363 0.405256 0.157028
0.413948 0.413335 0.152836
0.448629 0.421502 0.148978
0.484693 0.429321 0.146338
0.520161 0.435396 0.143778
0.554259 0.439734 0.142079
0.584052 0.441598 0.144167
0.613089 0.443444 0.146228
0.641254 0.445261 0.148254
0.668816 0.447065 0.150260
0.696101 0.448872 0.152297
0.723636 0.450673 0.154526
0.751355 0.452464 0.156750
0.779730 0.454276 0.159005
0.809157 0.456132 0.161321
0.838524 0.457960 0.163609
0.866591 0.459686 0.165774
0.892110 0.461237 0.167725
0.914016 0.462554 0.169387
0.926380 0.463392 0.170518
0.926423 0.463655 0.171041
0.926463 0.463902 0.171541
0.926495 0.464090 0.171991
0.149766 0.426803 0.134298
0.168304 0.424378 0.138615
0.185424 0.422071 0.142750
0.202885 0.419647 0.147130
0.222287 0.416856 0.152214
0.244970 0.413443 0.158492
0.271310 0.409238 0.166323
0.298872 0.404485 0.175304
0.326278 0.408578 0.175684
0.355855 0.417715 0.170997
0.385774 0.426184 0.166718
0.417001 0.434382 0.162635
0.449987 0.442474 0.158660
0.484990 0.450826 0.155329
0.520585 0.458345 0.152870
0.555601 0.464337 0.150486
0.589415 0.468807 0.148809
0.618709 0.470752 0.151054
0.647337 0.472625 0.153374
0.675295 0.474431 0.155619
0.702863 0.476191 0.157811
0.730327 0.477922 0.159973
0.757973 0.479644 0.162130
0.786273 0.481384 0.164316
0.815622 0.483166 0.166560
0.844910 0.484920 0.168777
0.872902 0.486575 0.170874
0.898352 0.488061 0.172763
0.920199 0.489323 0.174371
0.930077 0.490008 0.175349
0.930114 0.490230 0.175833
0.930149 0.490438 0.176294
0.930176 0.490592 0.176712
0.154554 0.450851 0.138649
0.173174 0.448490 0.143032
0.190408 0.446245 0.147228
0.208030 0.443884 0.151672
0.227670 0.441165 0.156830
0.250721 0.437841 0.163198
0.277634 0.433744 0.171139
0.306009 0.429113 0.180245
0.333535 0.428976 0.185155
0.362183 0.438244 0.180588
0.391082 0.446833 0.176420
0.421178 0.455147 0.172442
0.452908 0.463352 0.168570
0.486172 0.471448 0.164800
0.521433 0.479917 0.162031
0.557035 0.487212 0.159887
0.591999 0.493058 0.157751
0.625243 0.497306 0.156399
0.653800 0.499108 0.158652
0.681687 0.500845 0.160830
0.709185 0.502537 0.162956
0.736579 0.504200 0.165054
0.764153 0.505854 0.167144
0.792380 0.507524 0.169263
0.821652 0.509234 0.171438
0.850864 0.510916 0.173585
0.878781 0.512502 0.175616
0.904165 0.513926 0.177444
0.925953 0.515134 0.179000
0.933642 0.515680 0.179839
0.933673 0.515862 0.180284
0.933702 0.516031 0.180708
0.933724 0.516153 0.181094
0.159537 0.474772 0.143196
0.178240 0.472474 0.147644
0.195586 0.470288 0.151901
0.213358 0.467989 0.156409
0.233216 0.465341 0.161640
0.256599 0.462103 0.168097
0.284026 0.458112 0.176148
0.313123 0.453601 0.185377
0.341262 0.449313 0.194732
0.369124 0.458711 0.190284
0.397156 0.467419 0.186224
0.426287 0.475846 0.182350
0.457317 0.484230 0.178708
0.489811 0.492446 0.175121
0.523626 0.500484 0.171564
0.559101 0.508816 0.169296
0.593992 0.515585 0.167088
0.627926 0.521025 0.164911
0.659910 0.524931 0.163632
0.687727 0.526600 0.165744
0.715156 0.528224 0.167806
0.742480 0.529821 0.169839
0.769984 0.531408 0.171865
0.798138 0.533010 0.173918
0.827335 0.534648 0.176024
0.856470 0.536259 0.178102
0.884315 0.537778 0.180068
0.909631 0.539140 0.181837
0.931362 0.540295 0.183341
0.937115 0.540712 0.184053
0.937140 0.540855 0.184460
0.937163 0.540986 0.184847
0.937181 0.541078 0.185204
0.164763 0.498833 0.147982
0.183554 0.496597 0.152495
0.201009 0.494470 0.156815
0.218925 0.492232 0.161387
0.238987 0.489655 0.166691
0.262678 0.486502 0.173237
0.290574 0.482617 0.181398
0.320327 0.478224 0.190751
0.349294 0.473638 0.200661
0.376784 0.479377 0.200246
0.404428 0.488251 0.196421
0.433037 0.496758 0.192697
0.463042 0.505079 0.189003
0.494360 0.513217 0.185339
0.526912 0.521179 0.181707
0.560916 0.529254 0.178453
0.595733 0.536992 0.176172
0.629595 0.543254 0.173926
0.662372 0.548324 0.171724
0.693496 0.552002 0.170427
0.720855 0.553560 0.172424
0.748109 0.555090 0.174394
0.775542 0.556609 0.176355
0.803624 0.558143 0.178342
0.832744 0.559710 0.180379
0.861804 0.561251 0.182389
0.889575 0.562702 0.184289
0.914824 0.564003 0.185999
0.936498 0.565105 0.187452
0.940539 0.565405 0.188047
0.940558 0.565509 0.188416
0.940576 0.565602 0.188767
0.940589 0.565665 0.189095
0.170295 0.523318 0.153062
0.189178 0.521145 0.157643
0.206742 0.519076 0.162025
0.224798 0.516899 0.166663
0.245055 0.514392 0.172042
0.269036 0.511326 0.178678
0.297371 0.507545 0.186950
0.327931 0.503252 0.196586
0.357989 0.498673 0.206894
0.385574 0.500386 0.210649
0.412387 0.509175 0.206739
0.440090 0.517602 0.202934
0.469104 0.525842 0.199160
0.499349 0.533902 0.195419
0.530751 0.541787 0.191712
0.563245 0.549504 0.188040
0.597244 0.557532 0.185111
0.631032 0.564665 0.182795
0.663737 0.570480 0.180525
0.695676 0.575280 0.178284
0.726349 0.578840 0.176865
0.753532 0.580303 0.178770
0.780893 0.581755 0.180666
0.808901 0.583220 0.182586
0.837944 0.584716 0.184554
0.866927 0.586185 0.186496
0.894624 0.587568 0.188330
0.919806 0.588807 0.189979
0.941421 0.589857 0.191382
0.943954 0.590047 0.191868
0.943967 0.590111 0.192199
0.943979 0.590166 0.192513
0.943988 0.590202 0.192814
0.176208 0.548524 0.158506
0.195188 0.546413 0.163157
0.212863 0.544404 0.167604
0.231058 0.542289 0.172309
0.251579 0.539850 0.177818
0.276136 0.536823 0.184762
0.305165 0.533023 0.193347
0.336288 0.528636 0.203090
0.366789 0.523956 0.213307
0.394512 0.521550 0.221030
0.420552 0.530254 0.217034
0.447413 0.538597 0.213146
0.475507 0.546756 0.209292
0.504757 0.554736 0.205473
0.535095 0.562542 0.201689
0.566457 0.570182 0.197941
0.598788 0.577662 0.194229
0.632246 0.585477 0.191614
0.664876 0.592088 0.189276
0.696743 0.597582 0.186967
0.728166 0.602198 0.184666
0.758804 0.605749 0.183012
0.786092 0.607132 0.184842
0.814024 0.608526 0.186694
0.842988 0.609949 0.188591
0.871892 0.611346 0.190463
0.899513 0.612660 0.192230
0.924626 0.613836 0.193818
0.946182 0.614831 0.195168
0.947398 0.614920 0.195554
0.947406 0.614944 0.195846
0.947412 0.614960 0.196122
0.947416 0.614969 0.196397
0.182804 0.574919 0.164558
0.202105 0.572833 0.169432
0.220075 0.570822 0.174064
0.238570 0.568680 0.178938
0.259350 0.566182 0.184556
0.283998 0.563080 0.191439
0.313202 0.559190 0.199945
0.344610 0.554702 0.209598
0.375516 0.549917 0.219720
0.403688 0.545162 0.229619
0.429033 0.551851 0.227476
0.455095 0.560108 0.223503
0.482317 0.568182 0.219566
0.510626 0.576078 0.215665
0.539957 0.583802 0.211801
0.570249 0.591362 0.207976
0.601452 0.598763 0.204188
0.633239 0.605989 0.200526
0.665792 0.613467 0.198117
0.697582 0.619716 0.195739
0.728929 0.625000 0.193370
0.760158 0.629512 0.190986
0.791213 0.633182 0.188941
0.819065 0.634504 0.190722
0.847948 0.635851 0.192547
0.876769 0.637173 0.194345
0.904312 0.638414 0.196043
0.929353 0.639525 0.197568
0.950846 0.640465 0.198864
0.950932 0.640458 0.199155
0.950933 0.640441 0.199407
0.950933 0.640417 0.199645
0.950934 0.640399 0.199894
0.190644 0.602538 0.171561
0.209936 0.600390 0.176394
0.227905 0.598322 0.180985
0.246413 0.596123 0.185814
0.267229 0.593560 0.191380
0.291957 0.590381 0.198196
0.321319 0.586395 0.206620
0.352989 0.581802 0.216178
0.384271 0.576907 0.226199
0.412914 0.572046 0.235999
0.437917 0.574253 0.238191
0.463210 0.582419 0.234128
0.489593 0.590403 0.230103
0.516999 0.598212 0.226117
0.545363 0.605850 0.222170
0.574631 0.613324 0.218263
0.604753 0.620642 0.214395
0.635366 0.627738 0.210604
0.666464 0.634803 0.207150
0.698172 0.641883 0.204699
0.729440 0.647904 0.202258
0.760588 0.653080 0.199803
0.791942 0.657563 0.197308
0.824039 0.661488 0.194729
0.852863 0.662772 0.196450
0.881597 0.664014 0.198172
0.909056 0.665180 0.199797
0.934021 0.666222 0.201256
0.954608 0.667066 0.202457
0.954604 0.667008 0.202698
0.954598 0.666947 0.202908
0.954592 0.666880 0.203105
0.954589 0.666836 0.203328
0.198313 0.630200 0.178390
0.217590 0.627990 0.183180
0.235553 0.625867 0.187728
0.254068 0.623610 0.192511
0.274911 0.620981 0.198022
0.299706 0.617723 0.204771
0.329203 0.613642 0.213111
0.361106 0.608942 0.222571
0.392722 0.603937 0.232489
0.421787 0.598968 0.242188
0.446851 0.596635 0.248773
0.471427 0.604708 0.244619
0.497031 0.612601 0.240505
0.523598 0.620321 0.236432
0.551067 0.627871 0.232401
0.579385 0.635260 0.228412
0.608506 0.642493 0.224463
0.638081 0.649507 0.220593
0.667891 0.656276 0.216821
0.698469 0.663199 0.213506
0.729654 0.670001 0.210992
0.760720 0.675881 0.208465
0.791992 0.681008 0.205897
0.824003 0.685531 0.203245
0.857201 0.689539 0.200468
0.886178 0.690885 0.201785
0.913552 0.691975 0.203335
0.938440 0.692947 0.204727
0.958289 0.693702 0.205842
0.958277 0.693595 0.206036
0.958265 0.693490 0.206203
0.958252 0.693381 0.206358
0.958245 0.693311 0.206557
0.205513 0.656816 0.184780
0.224771 0.654548 0.189526
0.242724 0.652370 0.194032
0.261239 0.650057 0.198770
0.282101 0.647366 0.204227
0.306948 0.644032 0.210910
0.336558 0.639859 0.219166
0.368656 0.635055 0.228532
0.400560 0.629943 0.238349
0.429991 0.624870 0.247948
0.455414 0.620155 0.256751
0.479385 0.626099 0.254567
0.504289 0.633904 0.250367
0.530103 0.641536 0.246210
0.556769 0.649002 0.242097
0.584238 0.656306 0.238028
0.612465 0.663458 0.234000
0.641111 0.670391 0.230055
0.669969 0.677083 0.226209
0.699228 0.683599 0.222428
0.729573 0.690446 0.219233
0.760558 0.697041 0.216636
0.791749 0.702822 0.213998
0.823676 0.707955 0.211274
0.856787 0.712538 0.208423
0.889830 0.716446 0.205551
0.917630 0.717744 0.206527
0.942442 0.718649 0.207853
0.961828 0.719329 0.208894
