Fotico/Resources/LUTs/blush.cube
TITLE "Blush"
LUT_3D_SIZE 5
0.115171 0.074724 0.106195
0.319891 0.057750 0.094691
0.574364 0.047489 0.085774
0.796442 0.040845 0.080717
0.919672 0.037142 0.078343
0.117894 0.204818 0.106373
0.304401 0.213185 0.107010
0.552032 0.220449 0.116493
0.777481 0.223077 0.117843
0.909866 0.224088 0.118929
0.145140 0.402374 0.130112
0.319523 0.387907 0.166231
0.584052 0.441598 0.144167
0.809157 0.456132 0.161321
0.926495 0.464090 0.171991
0.190644 0.602538 0.171561
0.384271 0.576907 0.226199
0.604753 0.620642 0.214395
0.852863 0.662772 0.196450
0.954589 0.666836 0.203328
0.235402 0.775838 0.211040
0.432156 0.746194 0.262092
0.632855 0.756429 0.274743
0.851215 0.806736 0.241892
0.967153 0.825650 0.230044
0.118252 0.075855 0.245836
0.325638 0.057440 0.257568
0.608579 0.020763 0.237129
0.830135 0.015900 0.225318
0.946627 0.015900 0.222930
0.117721 0.211873 0.242065
0.319569 0.206615 0.245412
0.580585 0.202348 0.240386
0.808606 0.200766 0.240389
0.936051 0.200868 0.241992
0.137424 0.420969 0.257312
0.343087 0.413241 0.288002
0.592884 0.447145 0.287661
0.819014 0.461596 0.305709
0.929109 0.468856 0.315928
0.176301 0.631288 0.291770
0.399027 0.616044 0.335451
0.620667 0.632276 0.350697
0.861111 0.666825 0.339714
0.957018 0.670354 0.346165
0.215075 0.808633 0.323942
0.440087 0.784148 0.370205
0.652810 0.766794 0.409779
0.865128 0.816686 0.376694
0.975811 0.832682 0.365130
0.122982 0.077253 0.435292
0.312821 0.077739 0.437100
0.596467 0.042363 0.464806
0.841747 0.015900 0.455372
0.954027 0.015900 0.449111
0.124358 0.215142 0.432951
0.317810 0.220005 0.439549
0.601867 0.195243 0.463227
0.858282 0.167555 0.450668
0.978864 0.168129 0.446920
0.146682 0.426900 0.450580
0.346456 0.438142 0.463818
0.616479 0.443961 0.476258
0.854209 0.446661 0.482653
0.960370 0.447795 0.487083
0.187830 0.638320 0.487137
0.391974 0.649929 0.502762
0.643020 0.647700 0.535408
0.871779 0.672019 0.533661
0.960274 0.674886 0.539491
0.222261 0.816784 0.516137
0.422987 0.824479 0.527752
0.684967 0.794434 0.578777
0.883511 0.829631 0.559342
0.982734 0.838140 0.552918
0.127866 0.078931 0.620470
0.318649 0.080123 0.622959
0.567532 0.079149 0.634414
0.831302 0.037775 0.670207
0.960958 0.016430 0.674228
0.131078 0.218620 0.619756
0.325641 0.224213 0.627105
0.576610 0.233923 0.639163
0.844188 0.196979 0.676908
0.977536 0.178688 0.680621
0.155937 0.432935 0.639879
0.357052 0.444930 0.653970
0.618006 0.461855 0.674819
0.885873 0.433995 0.702015
0.999000 0.418999 0.700989
0.198754 0.644888 0.677900
0.402931 0.655962 0.693068
0.660865 0.668026 0.710008
0.898450 0.660482 0.713287
0.984662 0.658258 0.713655
0.231666 0.821805 0.705349
0.432273 0.828956 0.716445
0.685121 0.836239 0.728428
0.901079 0.840737 0.737540
0.985671 0.840963 0.739926
0.132238 0.080587 0.778561
0.323832 0.082376 0.781652
0.569881 0.087426 0.788491
0.805364 0.071529 0.819261
0.930442 0.052800 0.839229
0.137004 0.221800 0.779314
0.332513 0.228009 0.787313
0.584457 0.238496 0.800131
0.820230 0.232407 0.830713
0.946921 0.216785 0.852935
0.164017 0.438274 0.801618
0.366261 0.450904 0.816424
0.628375 0.467727 0.837944
0.863527 0.469864 0.865996
0.968285 0.456693 0.884815
0.207848 0.650281 0.840452
0.412014 0.660903 0.855203
0.669560 0.672404 0.871605
0.894481 0.675647 0.889084
0.988576 0.660461 0.901124
0.239466 0.825893 0.866556
0.439945 0.832583 0.877194
0.692349 0.839298 0.888596
0.908319 0.843582 0.896746
1.000000 0.828260 0.896292
