Fotico/Resources/LUTs/brisa.cube
# Brisa
LUT_3D_SIZE 5
0.133674 0.146902 0.156499
0.303894 0.152220 0.156499
0.491265 0.157391 0.156499
0.688210 0.162269 0.156499
0.892000 0.166721 0.156499
0.133674 0.335659 0.156499
0.303894 0.339923 0.156499
0.491265 0.343595 0.156499
0.688210 0.346571 0.156499
0.892000 0.348770 0.156499
0.133674 0.539603 0.156499
0.303894 0.541502 0.156499
0.491265 0.542546 0.156499
0.688210 0.542706 0.156499
0.892000 0.541977 0.156499
0.133674 0.746529 0.156499
0.303894 0.745480 0.156499
0.491265 0.743576 0.156499
0.688210 0.740869 0.156499
0.892000 0.737436 0.156499
0.133674 0.924961 0.156499
0.303894 0.921286 0.156499
0.491265 0.917019 0.156499
0.688210 0.912278 0.156499
0.892000 0.907196 0.156499
0.133674 0.148715 0.332064
0.303894 0.154000 0.332064
0.491265 0.159087 0.332064
0.688210 0.163835 0.332064
0.892000 0.168113 0.332064
0.133674 0.337167 0.332064
0.303894 0.341242 0.332064
0.491265 0.344688 0.332064
0.688210 0.347409 0.332064
0.892000 0.349329 0.332064
0.133674 0.540341 0.332064
0.303894 0.541955 0.332064
0.491265 0.542701 0.332064
0.688210 0.542558 0.332064
0.892000 0.541530 0.332064
0.133674 0.746271 0.332064
0.303894 0.744927 0.332064
0.491265 0.742743 0.332064
0.688210 0.739781 0.332064
0.892000 0.736121 0.332064
0.133674 0.923786 0.332064
0.303894 0.919898 0.332064
0.491265 0.915456 0.332064
0.688210 0.910584 0.332064
0.892000 0.905418 0.332064
0.133674 0.150523 0.524495
0.303894 0.155757 0.524495
0.491265 0.160745 0.524495
0.688210 0.165347 0.524495
0.892000 0.169437 0.524495
0.133674 0.338615 0.524495
0.303894 0.342488 0.524495
0.491265 0.345698 0.524495
0.688210 0.348154 0.524495
0.892000 0.349788 0.524495
0.133674 0.540984 0.524495
0.303894 0.542307 0.524495
0.491265 0.542752 0.524495
0.688210 0.542307 0.524495
0.892000 0.540984 0.524495
0.133674 0.745911 0.524495
0.303894 0.744277 0.524495
0.491265 0.741821 0.524495
0.688210 0.738611 0.524495
0.892000 0.734738 0.524495
0.133674 0.922535 0.524495
0.303894 0.918445 0.524495
0.491265 0.913843 0.524495
0.688210 0.908855 0.524495
0.892000 0.903621 0.524495
0.133674 0.152319 0.726546
0.303894 0.157486 0.726546
0.491265 0.162358 0.726546
0.688210 0.166799 0.726546
0.892000 0.170688 0.726546
0.133674 0.339998 0.726546
0.303894 0.343658 0.726546
0.491265 0.346620 0.726546
0.688210 0.348804 0.726546
0.892000 0.350148 0.726546
0.133674 0.541530 0.726546
0.303894 0.542558 0.726546
0.491265 0.542701 0.726546
0.688210 0.541955 0.726546
0.892000 0.540341 0.726546
0.133674 0.745452 0.726546
0.303894 0.743532 0.726546
0.491265 0.740811 0.726546
0.688210 0.737365 0.726546
0.892000 0.733290 0.726546
0.133674 0.921211 0.726546
0.303894 0.916934 0.726546
0.491265 0.912185 0.726546
0.688210 0.907098 0.726546
0.892000 0.901814 0.726546
0.133674 0.154098 0.926400
0.303894 0.159180 0.926400
0.491265 0.163921 0.926400
0.688210 0.168188 0.926400
0.892000 0.171863 0.926400
0.133674 0.341313 0.926400
0.303894 0.344746 0.926400
0.491265 0.347453 0.926400
0.688210 0.349357 0.926400
0.892000 0.350406 0.926400
0.133674 0.541977 0.926400
0.303894 0.542706 0.926400
0.491265 0.542546 0.926400
0.688210 0.541502 0.926400
0.892000 0.539603 0.926400
0.133674 0.744893 0.926400
0.303894 0.742694 0.926400
0.491265 0.739718 0.926400
0.688210 0.736046 0.926400
0.892000 0.731782 0.926400
0.133674 0.919819 0.926400
0.303894 0.915368 0.926400
0.491265 0.910489 0.926400
0.688210 0.905318 0.926400
0.892000 0.900000 0.926400
