Fotico/Resources/LUTs/brisa.cube
# Brisa
LUT_3D_SIZE 17
0.133674 0.146902 0.156499
0.173578 0.148237 0.156499
0.215619 0.149570 0.156499
0.259168 0.150899 0.156499
0.303894 0.152220 0.156499
0.349590 0.153532 0.156499
0.396116 0.154833 0.156499
0.443368 0.156120 0.156499
0.491265 0.157391 0.156499
0.539744 0.158643 0.156499
0.588756 0.159875 0.156499
0.638256 0.161085 0.156499
0.688210 0.162269 0.156499
0.738586 0.163427 0.156499
0.789358 0.164557 0.156499
0.840503 0.165655 0.156499
0.892000 0.166721 0.156499
0.133674 0.191270 0.156499
0.173578 0.192589 0.156499
0.215619 0.193897 0.156499
0.259168 0.195193 0.156499
0.303894 0.196474 0.156499
0.349590 0.197738 0.156499
0.396116 0.198984 0.156499
0.443368 0.200208 0.156499
0.491265 0.201409 0.156499
0.539744 0.202584 0.156499
0.588756 0.203731 0.156499
0.638256 0.204850 0.156499
0.688210 0.205936 0.156499
0.738586 0.206990 0.156499
0.789358 0.208008 0.156499
0.840503 0.208989 0.156499
0.892000 0.209932 0.156499
0.133674 0.237962 0.156499
0.173578 0.239237 0.156499
0.215619 0.240495 0.156499
0.259168 0.241733 0.156499
0.303894 0.242948 0.156499
0.349590 0.244140 0.156499
0.396116 0.245305 0.156499
0.443368 0.246443 0.156499
0.491265 0.247550 0.156499
0.539744 0.248624 0.156499
0.588756 0.249665 0.156499
0.638256 0.250670 0.156499
0.688210 0.251637 0.156499
0.738586 0.252565 0.156499
0.789358 0.253453 0.156499
0.840503 0.254297 0.156499
0.892000 0.255098 0.156499
0.133674 0.286239 0.156499
0.173578 0.287446 0.156499
0.215619 0.288628 0.156499
0.259168 0.289784 0.156499
0.303894 0.290910 0.156499
0.349590 0.292006 0.156499
0.396116 0.293068 0.156499
0.443368 0.294096 0.156499
0.491265 0.295088 0.156499
0.539744 0.296041 0.156499
0.588756 0.296954 0.156499
0.638256 0.297826 0.156499
0.688210 0.298655 0.156499
0.738586 0.299439 0.156499
0.789358 0.300178 0.156499
0.840503 0.300870 0.156499
0.892000 0.301513 0.156499
0.133674 0.335659 0.156499
0.173578 0.336775 0.156499
0.215619 0.337858 0.156499
0.259168 0.338909 0.156499
0.303894 0.339923 0.156499
0.349590 0.340901 0.156499
0.396116 0.341840 0.156499
0.443368 0.342739 0.156499
0.491265 0.343595 0.156499
0.539744 0.344408 0.156499
0.588756 0.345176 0.156499
0.638256 0.345897 0.156499
0.688210 0.346571 0.156499
0.738586 0.347197 0.156499
0.789358 0.347773 0.156499
0.840503 0.348297 0.156499
0.892000 0.348770 0.156499
0.133674 0.385915 0.156499
0.173578 0.386917 0.156499
0.215619 0.387881 0.156499
0.259168 0.388805 0.156499
0.303894 0.389688 0.156499
0.349590 0.390529 0.156499
0.396116 0.391326 0.156499
0.443368 0.392077 0.156499
0.491265 0.392781 0.156499
0.539744 0.393438 0.156499
0.588756 0.394045 0.156499
0.638256 0.394603 0.156499
0.688210 0.395109 0.156499
0.738586 0.395563 0.156499
0.789358 0.395964 0.156499
0.840503 0.396312 0.156499
0.892000 0.396605 0.156499
0.133674 0.436774 0.156499
0.173578 0.437642 0.156499
0.215619 0.438467 0.156499
0.259168 0.439247 0.156499
0.303894 0.439982 0.156499
0.349590 0.440669 0.156499
0.396116 0.441307 0.156499
0.443368 0.441897 0.156499
0.491265 0.442435 0.156499
0.539744 0.442923 0.156499
0.588756 0.443358 0.156499
0.638256 0.443739 0.156499
0.688210 0.444067 0.156499
0.738586 0.444341 0.156499
0.789358 0.444560 0.156499
0.840503 0.444724 0.156499
0.892000 0.444832 0.156499
0.133674 0.488052 0.156499
0.173578 0.488770 0.156499
0.215619 0.489439 0.156499
0.259168 0.490060 0.156499
0.303894 0.490631 0.156499
0.349590 0.491151 0.156499
0.396116 0.491619 0.156499
0.443368 0.492035 0.156499
0.491265 0.492397 0.156499
0.539744 0.492706 0.156499
0.588756 0.492960 0.156499
0.638256 0.493159 0.156499
0.688210 0.493302 0.156499
0.738586 0.493390 0.156499
0.789358 0.493423 0.156499
0.840503 0.493399 0.156499
0.892000 0.493320 0.156499
0.133674 0.539603 0.156499
0.173578 0.540156 0.156499
0.215619 0.540657 0.156499
0.259168 0.541106 0.156499
0.303894 0.541502 0.156499
0.349590 0.541845 0.156499
0.396116 0.542134 0.156499
0.443368 0.542368 0.156499
0.491265 0.542546 0.156499
0.539744 0.542670 0.156499
0.588756 0.542738 0.156499
0.638256 0.542750 0.156499
0.688210 0.542706 0.156499
0.738586 0.542607 0.156499
0.789358 0.542452 0.156499
0.840503 0.542242 0.156499
0.892000 0.541977 0.156499
0.133674 0.591309 0.156499
0.173578 0.591685 0.156499
0.215619 0.592009 0.156499
0.259168 0.592277 0.156499
0.303894 0.592491 0.156499
0.349590 0.592650 0.156499
0.396116 0.592753 0.156499
0.443368 0.592801 0.156499
0.491265 0.592792 0.156499
0.539744 0.592728 0.156499
0.588756 0.592609 0.156499
0.638256 0.592434 0.156499
0.688210 0.592204 0.156499
0.738586 0.591919 0.156499
0.789358 0.591580 0.156499
0.840503 0.591187 0.156499
0.892000 0.590742 0.156499
0.133674 0.643076 0.156499
0.173578 0.643269 0.156499
0.215619 0.643408 0.156499
0.259168 0.643491 0.156499
0.303894 0.643518 0.156499
0.349590 0.643490 0.156499
0.396116 0.643405 0.156499
0.443368 0.643266 0.156499
0.491265 0.643071 0.156499
0.539744 0.642821 0.156499
0.588756 0.642516 0.156499
0.638256 0.642157 0.156499
0.688210 0.641745 0.156499
0.738586 0.641281 0.156499
0.789358 0.640764 0.156499
0.840503 0.640197 0.156499
0.892000 0.639579 0.156499
0.133674 0.694833 0.156499
0.173578 0.694840 0.156499
0.215619 0.694791 0.156499
0.259168 0.694687 0.156499
0.303894 0.694527 0.156499
0.349590 0.694311 0.156499
0.396116 0.694041 0.156499
0.443368 0.693717 0.156499
0.491265 0.693339 0.156499
0.539744 0.692908 0.156499
0.588756 0.692424 0.156499
0.638256 0.691889 0.156499
0.688210 0.691303 0.156499
0.738586 0.690668 0.156499
0.789358 0.689984 0.156499
0.840503 0.689253 0.156499
0.892000 0.688476 0.156499
0.133674 0.746529 0.156499
0.173578 0.746349 0.156499
0.215619 0.746114 0.156499
0.259168 0.745824 0.156499
0.303894 0.745480 0.156499
0.349590 0.745082 0.156499
0.396116 0.744632 0.156499
0.443368 0.744129 0.156499
0.491265 0.743576 0.156499
0.539744 0.742972 0.156499
0.588756 0.742319 0.156499
0.638256 0.741617 0.156499
0.688210 0.740869 0.156499
0.738586 0.740076 0.156499
0.789358 0.739238 0.156499
0.840503 0.738358 0.156499
0.892000 0.737436 0.156499
0.133674 0.798130 0.156499
0.173578 0.797767 0.156499
0.215619 0.797350 0.156499
0.259168 0.796881 0.156499
0.303894 0.796359 0.156499
0.349590 0.795787 0.156499
0.396116 0.795165 0.156499
0.443368 0.794495 0.156499
0.491265 0.793776 0.156499
0.539744 0.793011 0.156499
0.588756 0.792202 0.156499
0.638256 0.791348 0.156499
0.688210 0.790453 0.156499
0.738586 0.789517 0.156499
0.789358 0.788541 0.156499
0.840503 0.787529 0.156499
0.892000 0.786481 0.156499
0.133674 0.849622 0.156499
0.173578 0.849082 0.156499
0.215619 0.848492 0.156499
0.259168 0.847852 0.156499
0.303894 0.847164 0.156499
0.349590 0.846428 0.156499
0.396116 0.845647 0.156499
0.443368 0.844821 0.156499
0.491265 0.843952 0.156499
0.539744 0.843042 0.156499
0.588756 0.842091 0.156499
0.638256 0.841102 0.156499
0.688210 0.840077 0.156499
0.738586 0.839017 0.156499
0.789358 0.837923 0.156499
0.840503 0.836799 0.156499
0.892000 0.835646 0.156499
0.133674 0.901003 0.156499
0.173578 0.900298 0.156499
0.215619 0.899545 0.156499
0.259168 0.898748 0.156499
0.303894 0.897906 0.156499
0.349590 0.897022 0.156499
0.396116 0.896097 0.156499
0.443368 0.895132 0.156499
0.491265 0.894130 0.156499
0.539744 0.893091 0.156499
0.588756 0.892019 0.156499
0.638256 0.890914 0.156499
0.688210 0.889779 0.156499
0.738586 0.888615 0.156499
0.789358 0.887425 0.156499
0.840503 0.886211 0.156499
0.892000 0.884975 0.156499
0.133674 0.924961 0.156499
0.173578 0.924104 0.156499
0.215619 0.923204 0.156499
0.259168 0.922265 0.156499
0.303894 0.921286 0.156499
0.349590 0.920270 0.156499
0.396116 0.919219 0.156499
0.443368 0.918135 0.156499
0.491265 0.917019 0.156499
0.539744 0.915873 0.156499
0.588756 0.914700 0.156499
0.638256 0.913501 0.156499
0.688210 0.912278 0.156499
0.738586 0.911034 0.156499
0.789358 0.909771 0.156499
0.840503 0.908491 0.156499
0.892000 0.907196 0.156499
0.133674 0.147355 0.197848
0.173578 0.148690 0.197848
0.215619 0.150022 0.197848
0.259168 0.151348 0.197848
0.303894 0.152667 0.197848
0.349590 0.153976 0.197848
0.396116 0.155272 0.197848
0.443368 0.156553 0.197848
0.491265 0.157818 0.197848
0.539744 0.159064 0.197848
0.588756 0.160289 0.197848
0.638256 0.161490 0.197848
0.688210 0.162666 0.197848
0.738586 0.163814 0.197848
0.789358 0.164933 0.197848
0.840503 0.166021 0.197848
0.892000 0.167075 0.197848
0.133674 0.191719 0.197848
0.173578 0.193034 0.197848
0.215619 0.194339 0.197848
0.259168 0.195630 0.197848
0.303894 0.196905 0.197848
0.349590 0.198164 0.197848
0.396116 0.199402 0.197848
0.443368 0.200618 0.197848
0.491265 0.201811 0.197848
0.539744 0.202977 0.197848
0.588756 0.204115 0.197848
0.638256 0.205222 0.197848
0.688210 0.206298 0.197848
0.738586 0.207340 0.197848
0.789358 0.208345 0.197848
0.840503 0.209314 0.197848
0.892000 0.210243 0.197848
0.133674 0.238397 0.197848
0.173578 0.239666 0.197848
0.215619 0.240917 0.197848
0.259168 0.242148 0.197848
0.303894 0.243356 0.197848
0.349590 0.244539 0.197848
0.396116 0.245695 0.197848
0.443368 0.246822 0.197848
0.491265 0.247918 0.197848
0.539744 0.248982 0.197848
0.588756 0.250011 0.197848
0.638256 0.251003 0.197848
0.688210 0.251957 0.197848
0.738586 0.252871 0.197848
0.789358 0.253744 0.197848
0.840503 0.254574 0.197848
0.892000 0.255360 0.197848
0.133674 0.286651 0.197848
0.173578 0.287850 0.197848
0.215619 0.289024 0.197848
0.259168 0.290170 0.197848
0.303894 0.291286 0.197848
0.349590 0.292370 0.197848
0.396116 0.293421 0.197848
0.443368 0.294437 0.197848
0.491265 0.295416 0.197848
0.539744 0.296355 0.197848
0.588756 0.297255 0.197848
0.638256 0.298112 0.197848
0.688210 0.298926 0.197848
0.738586 0.299695 0.197848
0.789358 0.300418 0.197848
0.840503 0.301093 0.197848
0.892000 0.301720 0.197848
0.133674 0.336042 0.197848
0.173578 0.337146 0.197848
0.215619 0.338219 0.197848
0.259168 0.339257 0.197848
0.303894 0.340260 0.197848
0.349590 0.341224 0.197848
0.396116 0.342150 0.197848
0.443368 0.343034 0.197848
0.491265 0.343876 0.197848
0.539744 0.344674 0.197848
0.588756 0.345426 0.197848
0.638256 0.346132 0.197848
0.688210 0.346789 0.197848
0.738586 0.347398 0.197848
0.789358 0.347956 0.197848
0.840503 0.348464 0.197848
0.892000 0.348919 0.197848
0.133674 0.386260 0.197848
0.173578 0.387249 0.197848
0.215619 0.388199 0.197848
0.259168 0.389110 0.197848
0.303894 0.389979 0.197848
0.349590 0.390805 0.197848
0.396116 0.391586 0.197848
0.443368 0.392321 0.197848
0.491265 0.393010 0.197848
0.539744 0.393650 0.197848
0.588756 0.394240 0.197848
0.638256 0.394780 0.197848
0.688210 0.395269 0.197848
0.738586 0.395705 0.197848
0.789358 0.396088 0.197848
0.840503 0.396417 0.197848
0.892000 0.396693 0.197848
0.133674 0.437074 0.197848
0.173578 0.437927 0.197848
0.215619 0.438737 0.197848
0.259168 0.439502 0.197848
0.303894 0.440220 0.197848
0.349590 0.440891 0.197848
0.396116 0.441513 0.197848
0.443368 0.442085 0.197848
0.491265 0.442607 0.197848
0.539744 0.443076 0.197848
0.588756 0.443493 0.197848
0.638256 0.443857 0.197848
0.688210 0.444167 0.197848
0.738586 0.444422 0.197848
0.789358 0.444622 0.197848
0.840503 0.444767 0.197848
0.892000 0.444856 0.197848
0.133674 0.488301 0.197848
0.173578 0.489002 0.197848
0.215619 0.489656 0.197848
0.259168 0.490260 0.197848
0.303894 0.490813 0.197848
0.349590 0.491316 0.197848
0.396116 0.491767 0.197848
0.443368 0.492164 0.197848
0.491265 0.492508 0.197848
0.539744 0.492798 0.197848
0.588756 0.493033 0.197848
0.638256 0.493214 0.197848
0.688210 0.493338 0.197848
0.738586 0.493408 0.197848
0.789358 0.493421 0.197848
0.840503 0.493379 0.197848
0.892000 0.493281 0.197848
0.133674 0.539796 0.197848
0.173578 0.540332 0.197848
0.215619 0.540815 0.197848
0.259168 0.541247 0.197848
0.303894 0.541625 0.197848
0.349590 0.541949 0.197848
0.396116 0.542219 0.197848
0.443368 0.542435 0.197848
0.491265 0.542595 0.197848
0.539744 0.542699 0.197848
0.588756 0.542748 0.197848
0.638256 0.542741 0.197848
0.688210 0.542679 0.197848
0.738586 0.542560 0.197848
0.789358 0.542387 0.197848
0.840503 0.542158 0.197848
0.892000 0.541875 0.197848
0.133674 0.591442 0.197848
0.173578 0.591801 0.197848
0.215619 0.592106 0.197848
0.259168 0.592356 0.197848
0.303894 0.592551 0.197848
0.349590 0.592691 0.197848
0.396116 0.592775 0.197848
0.443368 0.592804 0.197848
0.491265 0.592777 0.197848
0.539744 0.592694 0.197848
0.588756 0.592556 0.197848
0.638256 0.592362 0.197848
0.688210 0.592113 0.197848
0.738586 0.591810 0.197848
0.789358 0.591453 0.197848
0.840503 0.591042 0.197848
0.892000 0.590579 0.197848
0.133674 0.643148 0.197848
0.173578 0.643323 0.197848
0.215619 0.643442 0.197848
0.259168 0.643506 0.197848
0.303894 0.643515 0.197848
0.349590 0.643467 0.197848
0.396116 0.643364 0.197848
0.443368 0.643206 0.197848
0.491265 0.642992 0.197848
0.539744 0.642723 0.197848
0.588756 0.642400 0.197848
0.638256 0.642023 0.197848
0.688210 0.641593 0.197848
0.738586 0.641111 0.197848
0.789358 0.640577 0.197848
0.840503 0.639993 0.197848
0.892000 0.639358 0.197848
0.133674 0.694841 0.197848
0.173578 0.694829 0.197848
0.215619 0.694762 0.197848
0.259168 0.694638 0.197848
0.303894 0.694460 0.197848
0.349590 0.694226 0.197848
0.396116 0.693937 0.197848
0.443368 0.693595 0.197848
0.491265 0.693199 0.197848
0.539744 0.692749 0.197848
0.588756 0.692248 0.197848
0.638256 0.691696 0.197848
0.688210 0.691093 0.197848
0.738586 0.690441 0.197848
0.789358 0.689741 0.197848
0.840503 0.688994 0.197848
0.892000 0.688202 0.197848
0.133674 0.746474 0.197848
0.173578 0.746275 0.197848
0.215619 0.746021 0.197848
0.259168 0.745713 0.197848
0.303894 0.745351 0.197848
0.349590 0.744935 0.197848
0.396116 0.744467 0.197848
0.443368 0.743947 0.197848
0.491265 0.743376 0.197848
0.539744 0.742755 0.197848
0.588756 0.742086 0.197848
0.638256 0.741369 0.197848
0.688210 0.740605 0.197848
0.738586 0.739796 0.197848
0.789358 0.738944 0.197848
0.840503 0.738049 0.197848
0.892000 0.737114 0.197848
0.133674 0.798013 0.197848
0.173578 0.797631 0.197848
0.215619 0.797197 0.197848
0.259168 0.796709 0.197848
0.303894 0.796171 0.197848
0.349590 0.795582 0.197848
0.396116 0.794943 0.197848
0.443368 0.794256 0.197848
0.491265 0.793522 0.197848
0.539744 0.792741 0.197848
0.588756 0.791917 0.197848
0.638256 0.791049 0.197848
0.688210 0.790139 0.197848
0.738586 0.789190 0.197848
0.789358 0.788202 0.197848
0.840503 0.787177 0.197848
0.892000 0.786118 0.197848
0.133674 0.849444 0.197848
0.173578 0.848887 0.197848
0.215619 0.848280 0.197848
0.259168 0.847623 0.197848
0.303894 0.846919 0.197848
0.349590 0.846168 0.197848
0.396116 0.845371 0.197848
0.443368 0.844531 0.197848
0.491265 0.843648 0.197848
0.539744 0.842723 0.197848
0.588756 0.841760 0.197848
0.638256 0.840758 0.197848
0.688210 0.839721 0.197848
0.738586 0.838649 0.197848
0.789358 0.837545 0.197848
0.840503 0.836410 0.197848
0.892000 0.835248 0.197848
0.133674 0.900769 0.197848
0.173578 0.900047 0.197848
0.215619 0.899280 0.197848
0.259168 0.898467 0.197848
0.303894 0.897611 0.197848
0.349590 0.896712 0.197848
0.396116 0.895773 0.197848
0.443368 0.894796 0.197848
0.491265 0.893781 0.197848
0.539744 0.892731 0.197848
0.588756 0.891647 0.197848
0.638256 0.890532 0.197848
0.688210 0.889387 0.197848
0.738586 0.888214 0.197848
0.789358 0.887016 0.197848
0.840503 0.885794 0.197848
0.892000 0.884550 0.197848
0.133674 0.924675 0.197848
0.173578 0.923803 0.197848
0.215619 0.922890 0.197848
0.259168 0.921937 0.197848
0.303894 0.920945 0.197848
0.349590 0.919917 0.197848
0.396116 0.918855 0.197848
0.443368 0.917759 0.197848
0.491265 0.916633 0.197848
0.539744 0.915478 0.197848
0.588756 0.914295 0.197848
0.638256 0.913088 0.197848
0.688210 0.911858 0.197848
0.738586 0.910608 0.197848
0.789358 0.909338 0.197848
0.840503 0.908053 0.197848
0.892000 0.906754 0.197848
0.133674 0.147809 0.241223
0.173578 0.149143 0.241223
0.215619 0.150473 0.241223
0.259168 0.151797 0.241223
0.303894 0.153113 0.241223
0.349590 0.154417 0.241223
0.396116 0.155709 0.241223
0.443368 0.156985 0.241223
0.491265 0.158244 0.241223
0.539744 0.159482 0.241223
0.588756 0.160699 0.241223
0.638256 0.161892 0.241223
0.688210 0.163059 0.241223
0.738586 0.164198 0.241223
0.789358 0.165306 0.241223
0.840503 0.166382 0.241223
0.892000 0.167425 0.241223
0.133674 0.192167 0.241223
0.173578 0.193478 0.241223
0.215619 0.194779 0.241223
0.259168 0.196065 0.241223
0.303894 0.197335 0.241223
0.349590 0.198586 0.241223
0.396116 0.199818 0.241223
0.443368 0.201026 0.241223
0.491265 0.202210 0.241223
0.539744 0.203366 0.241223
0.588756 0.204494 0.241223
0.638256 0.205591 0.241223
0.688210 0.206656 0.241223
0.738586 0.207685 0.241223
0.789358 0.208678 0.241223
0.840503 0.209634 0.241223
0.892000 0.210549 0.241223
0.133674 0.238830 0.241223
0.173578 0.240093 0.241223
0.215619 0.241338 0.241223
0.259168 0.242561 0.241223
0.303894 0.243760 0.241223
0.349590 0.244935 0.241223
0.396116 0.246081 0.241223
0.443368 0.247198 0.241223
0.491265 0.248283 0.241223
0.539744 0.249335 0.241223
0.588756 0.250352 0.241223
0.638256 0.251331 0.241223
0.688210 0.252272 0.241223
0.738586 0.253173 0.241223
0.789358 0.254031 0.241223
0.840503 0.254846 0.241223
0.892000 0.255616 0.241223
0.133674 0.287061 0.241223
0.173578 0.288252 0.241223
0.215619 0.289416 0.241223
0.259168 0.290552 0.241223
0.303894 0.291658 0.241223
0.349590 0.292731 0.241223
0.396116 0.293770 0.241223
0.443368 0.294774 0.241223
0.491265 0.295739 0.241223
0.539744 0.296666 0.241223
0.588756 0.297551 0.241223
0.638256 0.298394 0.241223
0.688210 0.299193 0.241223
0.738586 0.299946 0.241223
0.789358 0.300653 0.241223
0.840503 0.301312 0.241223
0.892000 0.301922 0.241223
0.133674 0.336420 0.241223
0.173578 0.337514 0.241223
0.215619 0.338576 0.241223
0.259168 0.339602 0.241223
0.303894 0.340592 0.241223
0.349590 0.341543 0.241223
0.396116 0.342455 0.241223
0.443368 0.343325 0.241223
0.491265 0.344152 0.241223
0.539744 0.344934 0.241223
0.588756 0.345671 0.241223
0.638256 0.346360 0.241223
0.688210 0.347002 0.241223
0.738586 0.347593 0.241223
0.789358 0.348135 0.241223
0.840503 0.348624 0.241223
0.892000 0.349062 0.241223
0.133674 0.386600 0.241223
0.173578 0.387576 0.241223
0.215619 0.388513 0.241223
0.259168 0.389410 0.241223
0.303894 0.390264 0.241223
0.349590 0.391075 0.241223
0.396116 0.391841 0.241223
0.443368 0.392561 0.241223
0.491265 0.393233 0.241223
0.539744 0.393856 0.241223
0.588756 0.394429 0.241223
0.638256 0.394952 0.241223
0.688210 0.395423 0.241223
0.738586 0.395841 0.241223
0.789358 0.396206 0.241223
0.840503 0.396517 0.241223
0.892000 0.396774 0.241223
0.133674 0.437368 0.241223
0.173578 0.438207 0.241223
0.215619 0.439002 0.241223
0.259168 0.439751 0.241223
0.303894 0.440453 0.241223
0.349590 0.441108 0.241223
0.396116 0.441713 0.241223
0.443368 0.442268 0.241223
0.491265 0.442772 0.241223
0.539744 0.443224 0.241223
0.588756 0.443623 0.241223
0.638256 0.443968 0.241223
0.688210 0.444259 0.241223
0.738586 0.444496 0.241223
0.789358 0.444678 0.241223
0.840503 0.444804 0.241223
0.892000 0.444874 0.241223
0.133674 0.488545 0.241223
0.173578 0.489230 0.241223
0.215619 0.489866 0.241223
0.259168 0.490453 0.241223
0.303894 0.490990 0.241223
0.349590 0.491475 0.241223
0.396116 0.491908 0.241223
0.443368 0.492287 0.241223
0.491265 0.492613 0.241223
0.539744 0.492884 0.241223
0.588756 0.493101 0.241223
0.638256 0.493262 0.241223
0.688210 0.493368 0.241223
0.738586 0.493418 0.241223
0.789358 0.493413 0.241223
0.840503 0.493352 0.241223
0.892000 0.493235 0.241223
0.133674 0.539984 0.241223
0.173578 0.540502 0.241223
0.215619 0.540968 0.241223
0.259168 0.541381 0.241223
0.303894 0.541741 0.241223
0.349590 0.542047 0.241223
0.396116 0.542299 0.241223
0.443368 0.542495 0.241223
0.491265 0.542636 0.241223
0.539744 0.542722 0.241223
0.588756 0.542752 0.241223
0.638256 0.542726 0.241223
0.688210 0.542645 0.241223
0.738586 0.542508 0.241223
0.789358 0.542315 0.241223
0.840503 0.542068 0.241223
0.892000 0.541766 0.241223
0.133674 0.591570 0.241223
0.173578 0.591911 0.241223
0.215619 0.592197 0.241223
0.259168 0.592429 0.241223
0.303894 0.592605 0.241223
0.349590 0.592726 0.241223
0.396116 0.592791 0.241223
0.443368 0.592801 0.241223
0.491265 0.592755 0.241223
0.539744 0.592653 0.241223
0.588756 0.592496 0.241223
0.638256 0.592284 0.241223
0.688210 0.592016 0.241223
0.738586 0.591695 0.241223
0.789358 0.591319 0.241223
0.840503 0.590890 0.241223
0.892000 0.590409 0.241223
0.133674 0.643213 0.241223
0.173578 0.643370 0.241223
0.215619 0.643470 0.241223
0.259168 0.643515 0.241223
0.303894 0.643505 0.241223
0.349590 0.643438 0.241223
0.396116 0.643317 0.241223
0.443368 0.643139 0.241223
0.491265 0.642907 0.241223
0.539744 0.642620 0.241223
0.588756 0.642278 0.241223
0.638256 0.641883 0.241223
0.688210 0.641435 0.241223
0.738586 0.640935 0.241223
0.789358 0.640384 0.241223
0.840503 0.639783 0.241223
0.892000 0.639132 0.241223
0.133674 0.694844 0.241223
0.173578 0.694813 0.241223
0.215619 0.694726 0.241223
0.259168 0.694584 0.241223
0.303894 0.694386 0.241223
0.349590 0.694134 0.241223
0.396116 0.693827 0.241223
0.443368 0.693466 0.241223
0.491265 0.693052 0.241223
0.539744 0.692585 0.241223
0.588756 0.692066 0.241223
0.638256 0.691497 0.241223
0.688210 0.690877 0.241223
0.738586 0.690209 0.241223
0.789358 0.689493 0.241223
0.840503 0.688730 0.241223
0.892000 0.687922 0.241223
0.133674 0.746413 0.241223
0.173578 0.746195 0.241223
0.215619 0.745923 0.241223
0.259168 0.745596 0.241223
0.303894 0.745216 0.241223
0.349590 0.744782 0.241223
0.396116 0.744296 0.241223
0.443368 0.743759 0.241223
0.491265 0.743171 0.241223
0.539744 0.742533 0.241223
0.588756 0.741847 0.241223
0.638256 0.741114 0.241223
0.688210 0.740335 0.241223
0.738586 0.739512 0.241223
0.789358 0.738645 0.241223
0.840503 0.737736 0.241223
0.892000 0.736788 0.241223
0.133674 0.797889 0.241223
0.173578 0.797490 0.241223
0.215619 0.797037 0.241223
0.259168 0.796532 0.241223
0.303894 0.795976 0.241223
0.349590 0.795370 0.241223
0.396116 0.794715 0.241223
0.443368 0.794012 0.241223
0.491265 0.793262 0.241223
0.539744 0.792466 0.241223
0.588756 0.791627 0.241223
0.638256 0.790744 0.241223
0.688210 0.789821 0.241223
0.738586 0.788858 0.241223
0.789358 0.787858 0.241223
0.840503 0.786821 0.241223
0.892000 0.785750 0.241223
0.133674 0.849261 0.241223
0.173578 0.848687 0.241223
0.215619 0.848062 0.241223
0.259168 0.847390 0.241223
0.303894 0.846669 0.241223
0.349590 0.845902 0.241223
0.396116 0.845091 0.241223
0.443368 0.844235 0.241223
0.491265 0.843338 0.241223
0.539744 0.842400 0.241223
0.588756 0.841424 0.241223
0.638256 0.840410 0.241223
0.688210 0.839360 0.241223
0.738586 0.838278 0.241223
0.789358 0.837163 0.241223
0.840503 0.836019 0.241223
0.892000 0.834847 0.241223
0.133674 0.900529 0.241223
0.173578 0.899792 0.241223
0.215619 0.899009 0.241223
0.259168 0.898181 0.241223
0.303894 0.897310 0.241223
0.349590 0.896398 0.241223
0.396116 0.895446 0.241223
0.443368 0.894455 0.241223
0.491265 0.893428 0.241223
0.539744 0.892366 0.241223
0.588756 0.891272 0.241223
0.638256 0.890146 0.241223
0.688210 0.888992 0.241223
0.738586 0.887810 0.241223
0.789358 0.886603 0.241223
0.840503 0.885374 0.241223
0.892000 0.884124 0.241223
0.133674 0.924384 0.241223
0.173578 0.923497 0.241223
0.215619 0.922570 0.241223
0.259168 0.921604 0.241223
0.303894 0.920600 0.241223
0.349590 0.919560 0.241223
0.396116 0.918486 0.241223
0.443368 0.917380 0.241223
0.491265 0.916244 0.241223
0.539744 0.915079 0.241223
0.588756 0.913888 0.241223
0.638256 0.912673 0.241223
0.688210 0.911436 0.241223
0.738586 0.910179 0.241223
0.789358 0.908904 0.241223
0.840503 0.907613 0.241223
0.892000 0.906309 0.241223
0.133674 0.148262 0.286064
0.173578 0.149595 0.286064
0.215619 0.150924 0.286064
0.259168 0.152245 0.286064
0.303894 0.153557 0.286064
0.349590 0.154857 0.286064
0.396116 0.156144 0.286064
0.443368 0.157414 0.286064
0.491265 0.158667 0.286064
0.539744 0.159898 0.286064
0.588756 0.161107 0.286064
0.638256 0.162291 0.286064
0.688210 0.163449 0.286064
0.738586 0.164577 0.286064
0.789358 0.165675 0.286064
0.840503 0.166740 0.286064
0.892000 0.167771 0.286064
0.133674 0.192613 0.286064
0.173578 0.193921 0.286064
0.215619 0.195217 0.286064
0.259168 0.196498 0.286064
