Fotico/Resources/LUTs/brisa.cube
# Brisa
LUT_3D_SIZE 9
0.133674 0.146902 0.156499
0.215619 0.149570 0.156499
0.303894 0.152220 0.156499
0.396116 0.154833 0.156499
0.491265 0.157391 0.156499
0.588756 0.159875 0.156499
0.688210 0.162269 0.156499
0.789358 0.164557 0.156499
0.892000 0.166721 0.156499
0.133674 0.237962 0.156499
0.215619 0.240495 0.156499
0.303894 0.242948 0.156499
0.396116 0.245305 0.156499
0.491265 0.247550 0.156499
0.588756 0.249665 0.156499
0.688210 0.251637 0.156499
0.789358 0.253453 0.156499
0.892000 0.255098 0.156499
0.133674 0.335659 0.156499
0.215619 0.337858 0.156499
0.303894 0.339923 0.156499
0.396116 0.341840 0.156499
0.491265 0.343595 0.156499
0.588756 0.345176 0.156499
0.688210 0.346571 0.156499
0.789358 0.347773 0.156499
0.892000 0.348770 0.156499
0.133674 0.436774 0.156499
0.215619 0.438467 0.156499
0.303894 0.439982 0.156499
0.396116 0.441307 0.156499
0.491265 0.442435 0.156499
0.588756 0.443358 0.156499
0.688210 0.444067 0.156499
0.789358 0.444560 0.156499
0.892000 0.444832 0.156499
0.133674 0.539603 0.156499
0.215619 0.540657 0.156499
0.303894 0.541502 0.156499
0.396116 0.542134 0.156499
0.491265 0.542546 0.156499
0.588756 0.542738 0.156499
0.688210 0.542706 0.156499
0.789358 0.542452 0.156499
0.892000 0.541977 0.156499
0.133674 0.643076 0.156499
0.215619 0.643408 0.156499
0.303894 0.643518 0.156499
0.396116 0.643405 0.156499
0.491265 0.643071 0.156499
0.588756 0.642516 0.156499
0.688210 0.641745 0.156499
0.789358 0.640764 0.156499
0.892000 0.639579 0.156499
0.133674 0.746529 0.156499
0.215619 0.746114 0.156499
0.303894 0.745480 0.156499
0.396116 0.744632 0.156499
0.491265 0.743576 0.156499
0.588756 0.742319 0.156499
0.688210 0.740869 0.156499
0.789358 0.739238 0.156499
0.892000 0.737436 0.156499
0.133674 0.849622 0.156499
0.215619 0.848492 0.156499
0.303894 0.847164 0.156499
0.396116 0.845647 0.156499
0.491265 0.843952 0.156499
0.588756 0.842091 0.156499
0.688210 0.840077 0.156499
0.789358 0.837923 0.156499
0.892000 0.835646 0.156499
0.133674 0.924961 0.156499
0.215619 0.923204 0.156499
0.303894 0.921286 0.156499
0.396116 0.919219 0.156499
0.491265 0.917019 0.156499
0.588756 0.914700 0.156499
0.688210 0.912278 0.156499
0.789358 0.909771 0.156499
0.892000 0.907196 0.156499
0.133674 0.147809 0.241223
0.215619 0.150473 0.241223
0.303894 0.153113 0.241223
0.396116 0.155709 0.241223
0.491265 0.158244 0.241223
0.588756 0.160699 0.241223
0.688210 0.163059 0.241223
0.789358 0.165306 0.241223
0.892000 0.167425 0.241223
0.133674 0.238830 0.241223
0.215619 0.241338 0.241223
0.303894 0.243760 0.241223
0.396116 0.246081 0.241223
0.491265 0.248283 0.241223
0.588756 0.250352 0.241223
0.688210 0.252272 0.241223
0.789358 0.254031 0.241223
0.892000 0.255616 0.241223
0.133674 0.336420 0.241223
0.215619 0.338576 0.241223
0.303894 0.340592 0.241223
0.396116 0.342455 0.241223
0.491265 0.344152 0.241223
0.588756 0.345671 0.241223
0.688210 0.347002 0.241223
0.789358 0.348135 0.241223
0.892000 0.349062 0.241223
0.133674 0.437368 0.241223
0.215619 0.439002 0.241223
0.303894 0.440453 0.241223
0.396116 0.441713 0.241223
0.491265 0.442772 0.241223
0.588756 0.443623 0.241223
0.688210 0.444259 0.241223
0.789358 0.444678 0.241223
0.892000 0.444874 0.241223
0.133674 0.539984 0.241223
0.215619 0.540968 0.241223
0.303894 0.541741 0.241223
0.396116 0.542299 0.241223
0.491265 0.542636 0.241223
0.588756 0.542752 0.241223
0.688210 0.542645 0.241223
0.789358 0.542315 0.241223
0.892000 0.541766 0.241223
0.133674 0.643213 0.241223
0.215619 0.643470 0.241223
0.303894 0.643505 0.241223
0.396116 0.643317 0.241223
0.491265 0.642907 0.241223
0.588756 0.642278 0.241223
0.688210 0.641435 0.241223
0.789358 0.640384 0.241223
0.892000 0.639132 0.241223
0.133674 0.746413 0.241223
0.215619 0.745923 0.241223
0.303894 0.745216 0.241223
0.396116 0.744296 0.241223
0.491265 0.743171 0.241223
0.588756 0.741847 0.241223
0.688210 0.740335 0.241223
0.789358 0.738645 0.241223
0.892000 0.736788 0.241223
0.133674 0.849261 0.241223
0.215619 0.848062 0.241223
0.303894 0.846669 0.241223
0.396116 0.845091 0.241223
0.491265 0.843338 0.241223
0.588756 0.841424 0.241223
0.688210 0.839360 0.241223
0.789358 0.837163 0.241223
0.892000 0.834847 0.241223
0.133674 0.924384 0.241223
0.215619 0.922570 0.241223
0.303894 0.920600 0.241223
0.396116 0.918486 0.241223
0.491265 0.916244 0.241223
0.588756 0.913888 0.241223
0.688210 0.911436 0.241223
0.789358 0.908904 0.241223
0.892000 0.906309 0.241223
0.133674 0.148715 0.332064
0.215619 0.151373 0.332064
0.303894 0.154000 0.332064
0.396116 0.156577 0.332064
0.491265 0.159087 0.332064
0.588756 0.161512 0.332064
0.688210 0.163835 0.332064
0.789358 0.166041 0.332064
0.892000 0.168113 0.332064
0.133674 0.239690 0.332064
0.215619 0.242171 0.332064
0.303894 0.244561 0.332064
0.396116 0.246843 0.332064
0.491265 0.249001 0.332064
0.588756 0.251021 0.332064
0.688210 0.252888 0.332064
0.789358 0.254589 0.332064
0.892000 0.256113 0.332064
0.133674 0.337167 0.332064
0.215619 0.339277 0.332064
0.303894 0.341242 0.332064
0.396116 0.343050 0.332064
0.491265 0.344688 0.332064
0.588756 0.346145 0.332064
0.688210 0.347409 0.332064
0.789358 0.348473 0.332064
0.892000 0.349329 0.332064
0.133674 0.437943 0.332064
0.215619 0.439516 0.332064
0.303894 0.440903 0.332064
0.396116 0.442096 0.332064
0.491265 0.443085 0.332064
0.588756 0.443863 0.332064
0.688210 0.444426 0.332064
0.789358 0.444769 0.332064
0.892000 0.444890 0.332064
0.133674 0.540341 0.332064
0.215619 0.541254 0.332064
0.303894 0.541955 0.332064
0.396116 0.542438 0.332064
0.491265 0.542701 0.332064
0.588756 0.542741 0.332064
0.688210 0.542558 0.332064
0.789358 0.542153 0.332064
0.892000 0.541530 0.332064
0.133674 0.643325 0.332064
0.215619 0.643507 0.332064
0.303894 0.643466 0.332064
0.396116 0.643202 0.332064
0.491265 0.642718 0.332064
0.588756 0.642016 0.332064
0.688210 0.641101 0.332064
0.789358 0.639981 0.332064
0.892000 0.638662 0.332064
0.133674 0.746271 0.332064
0.215619 0.745707 0.332064
0.303894 0.744927 0.332064
0.396116 0.743937 0.332064
0.491265 0.742743 0.332064
0.588756 0.741355 0.332064
0.688210 0.739781 0.332064
0.789358 0.738032 0.332064
0.892000 0.736121 0.332064
0.133674 0.848876 0.332064
0.215619 0.847611 0.332064
0.303894 0.846153 0.332064
0.396116 0.844514 0.332064
0.491265 0.842705 0.332064
0.588756 0.840739 0.332064
0.688210 0.838628 0.332064
0.789358 0.836389 0.332064
0.892000 0.834036 0.332064
0.133674 0.923786 0.332064
0.215619 0.921918 0.332064
0.303894 0.919898 0.332064
0.396116 0.917739 0.332064
0.491265 0.915456 0.332064
0.588756 0.913065 0.332064
0.688210 0.910584 0.332064
0.789358 0.908029 0.332064
0.892000 0.905418 0.332064
0.133674 0.149620 0.426816
0.215619 0.152270 0.426816
0.303894 0.154882 0.426816
0.396116 0.157438 0.426816
0.491265 0.159921 0.426816
0.588756 0.162313 0.426816
0.688210 0.164598 0.426816
0.789358 0.166760 0.426816
0.892000 0.168783 0.426816
0.133674 0.240542 0.426816
0.215619 0.242994 0.426816
0.303894 0.245349 0.426816
0.396116 0.247591 0.426816
0.491265 0.249704 0.426816
0.588756 0.251673 0.426816
0.688210 0.253485 0.426816
0.789358 0.255127 0.426816
0.892000 0.256588 0.426816
0.133674 0.337899 0.426816
0.215619 0.339961 0.426816
0.303894 0.341875 0.426816
0.396116 0.343626 0.426816
0.491265 0.345204 0.426816
0.588756 0.346596 0.426816
0.688210 0.347793 0.426816
0.789358 0.348787 0.426816
0.892000 0.349571 0.426816
0.133674 0.438497 0.426816
0.215619 0.440008 0.426816
0.303894 0.441331 0.426816
0.396116 0.442455 0.426816
0.491265 0.443373 0.426816
0.588756 0.444079 0.426816
0.688210 0.444567 0.426816
0.789358 0.444835 0.426816
0.892000 0.444881 0.426816
0.133674 0.540675 0.426816
0.215619 0.541516 0.426816
0.303894 0.542144 0.426816
0.396116 0.542552 0.426816
0.491265 0.542739 0.426816
0.588756 0.542703 0.426816
0.688210 0.542445 0.426816
0.789358 0.541966 0.426816
0.892000 0.541269 0.426816
0.133674 0.643412 0.426816
0.215619 0.643518 0.426816
0.303894 0.643401 0.426816
0.396116 0.643062 0.426816
0.491265 0.642503 0.426816
0.588756 0.641729 0.426816
0.688210 0.640744 0.426816
0.789358 0.639555 0.426816
0.892000 0.638171 0.426816
0.133674 0.746104 0.426816
0.215619 0.745466 0.426816
0.303894 0.744614 0.426816
0.396116 0.743554 0.426816
0.491265 0.742293 0.426816
0.588756 0.740840 0.426816
0.688210 0.739206 0.426816
0.789358 0.737401 0.426816
0.892000 0.735438 0.426816
0.133674 0.848469 0.426816
0.215619 0.847137 0.426816
0.303894 0.845617 0.426816
0.396116 0.843919 0.426816
0.491265 0.842055 0.426816
0.588756 0.840038 0.426816
0.688210 0.837882 0.426816
0.789358 0.835602 0.426816
0.892000 0.833214 0.426816
0.133674 0.923170 0.426816
0.215619 0.921249 0.426816
0.303894 0.919179 0.426816
0.396116 0.916976 0.426816
0.491265 0.914655 0.426816
0.588756 0.912232 0.426816
0.688210 0.909723 0.426816
0.789358 0.907147 0.426816
0.892000 0.904521 0.426816
0.133674 0.150523 0.524495
0.215619 0.153162 0.524495
0.303894 0.155757 0.524495
0.396116 0.158290 0.524495
0.491265 0.160745 0.524495
0.588756 0.163102 0.524495
0.688210 0.165347 0.524495
0.789358 0.167463 0.524495
0.892000 0.169437 0.524495
0.133674 0.241384 0.524495
0.215619 0.243805 0.524495
0.303894 0.246124 0.524495
0.396116 0.248323 0.524495
0.491265 0.250389 0.524495
0.588756 0.252307 0.524495
0.688210 0.254062 0.524495
0.789358 0.255644 0.524495
0.892000 0.257041 0.524495
0.133674 0.338615 0.524495
0.215619 0.340628 0.524495
0.303894 0.342488 0.524495
0.396116 0.344182 0.524495
0.491265 0.345698 0.524495
0.588756 0.347025 0.524495
0.688210 0.348154 0.524495
0.789358 0.349077 0.524495
0.892000 0.349788 0.524495
0.133674 0.439031 0.524495
0.215619 0.440479 0.524495
0.303894 0.441735 0.524495
0.396116 0.442790 0.524495
0.491265 0.443637 0.524495
0.588756 0.444269 0.524495
0.688210 0.444683 0.524495
0.789358 0.444876 0.524495
0.892000 0.444845 0.524495
0.133674 0.540984 0.524495
0.215619 0.541754 0.524495
0.303894 0.542307 0.524495
0.396116 0.542641 0.524495
0.491265 0.542752 0.524495
0.588756 0.542641 0.524495
0.688210 0.542307 0.524495
0.789358 0.541754 0.524495
0.892000 0.540984 0.524495
0.133674 0.643473 0.524495
0.215619 0.643503 0.524495
0.303894 0.643311 0.524495
0.396116 0.642897 0.524495
0.491265 0.642264 0.524495
0.588756 0.641418 0.524495
0.688210 0.640363 0.524495
0.789358 0.639107 0.524495
0.892000 0.637658 0.524495
0.133674 0.745911 0.524495
0.215619 0.745200 0.524495
0.303894 0.744277 0.524495
0.396116 0.743148 0.524495
0.491265 0.741821 0.524495
0.588756 0.740305 0.524495
0.688210 0.738611 0.524495
0.789358 0.736751 0.524495
0.892000 0.734738 0.524495
0.133674 0.848038 0.524495
0.215619 0.846641 0.524495
0.303894 0.845059 0.524495
0.396116 0.843304 0.524495
0.491265 0.841386 0.524495
0.588756 0.839320 0.524495
0.688210 0.837120 0.524495
0.789358 0.834802 0.524495
0.892000 0.832381 0.524495
0.133674 0.922535 0.524495
0.215619 0.920562 0.524495
0.303894 0.918445 0.524495
0.396116 0.916201 0.524495
0.491265 0.913843 0.524495
0.588756 0.911389 0.524495
0.688210 0.908855 0.524495
0.789358 0.906260 0.524495
0.892000 0.903621 0.524495
0.133674 0.151423 0.624530
0.215619 0.154049 0.624530
0.303894 0.156625 0.624530
0.396116 0.159134 0.624530
0.491265 0.161557 0.624530
0.588756 0.163878 0.624530
0.688210 0.166081 0.624530
0.789358 0.168150 0.624530
0.892000 0.170072 0.624530
0.133674 0.242217 0.624530
0.215619 0.244605 0.624530
0.303894 0.246885 0.624530
0.396116 0.249041 0.624530
0.491265 0.251058 0.624530
0.588756 0.252922 0.624530
0.688210 0.254620 0.624530
0.789358 0.256140 0.624530
0.892000 0.257472 0.624530
0.133674 0.339315 0.624530
0.215619 0.341278 0.624530
0.303894 0.343083 0.624530
0.396116 0.344717 0.624530
0.491265 0.346170 0.624530
0.588756 0.347431 0.624530
0.688210 0.348491 0.624530
0.789358 0.349343 0.624530
0.892000 0.349981 0.624530
0.133674 0.439544 0.624530
0.215619 0.440928 0.624530
0.303894 0.442116 0.624530
0.396116 0.443101 0.624530
0.491265 0.443876 0.624530
0.588756 0.444435 0.624530
0.688210 0.444774 0.624530
0.789358 0.444890 0.624530
0.892000 0.444784 0.624530
0.133674 0.541269 0.624530
0.215619 0.541966 0.624530
0.303894 0.542445 0.624530
0.396116 0.542703 0.624530
0.491265 0.542739 0.624530
0.588756 0.542552 0.624530
0.688210 0.542144 0.624530
0.789358 0.541516 0.624530
0.892000 0.540675 0.624530
0.133674 0.643508 0.624530
0.215619 0.643463 0.624530
0.303894 0.643195 0.624530
0.396116 0.642706 0.624530
0.491265 0.642001 0.624530
0.588756 0.641082 0.624530
0.688210 0.639958 0.624530
0.789358 0.638636 0.624530
0.892000 0.637125 0.624530
0.133674 0.745694 0.624530
0.215619 0.744910 0.624530
0.303894 0.743916 0.624530
0.396116 0.742719 0.624530
0.491265 0.741327 0.624530
0.588756 0.739749 0.624530
0.688210 0.737998 0.624530
0.789358 0.736084 0.624530
0.892000 0.734022 0.624530
0.133674 0.847585 0.624530
0.215619 0.846124 0.624530
0.303894 0.844482 0.624530
0.396116 0.842670 0.624530
0.491265 0.840700 0.624530
0.588756 0.838587 0.624530
0.688210 0.836346 0.624530
0.789358 0.833990 0.624530
0.892000 0.831538 0.624530
0.133674 0.921882 0.624530
0.215619 0.919858 0.624530
0.303894 0.917697 0.624530
0.396116 0.915412 0.624530
0.491265 0.913019 0.624530
0.588756 0.910536 0.624530
0.688210 0.907980 0.624530
0.789358 0.905368 0.624530
0.892000 0.902719 0.624530
0.133674 0.152319 0.726546
0.215619 0.154930 0.726546
0.303894 0.157486 0.726546
0.396116 0.159967 0.726546
0.491265 0.162358 0.726546
0.588756 0.164640 0.726546
0.688210 0.166799 0.726546
0.789358 0.168820 0.726546
0.892000 0.170688 0.726546
0.133674 0.243039 0.726546
0.215619 0.245392 0.726546
0.303894 0.247632 0.726546
0.396116 0.249742 0.726546
0.491265 0.251709 0.726546
0.588756 0.253518 0.726546
0.688210 0.255157 0.726546
0.789358 0.256614 0.726546
0.892000 0.257879 0.726546
0.133674 0.339998 0.726546
0.215619 0.341909 0.726546
0.303894 0.343658 0.726546
0.396116 0.345232 0.726546
0.491265 0.346620 0.726546
0.588756 0.347814 0.726546
0.688210 0.348804 0.726546
0.789358 0.349584 0.726546
0.892000 0.350148 0.726546
0.133674 0.440035 0.726546
0.215619 0.441354 0.726546
0.303894 0.442474 0.726546
0.396116 0.443388 0.726546
0.491265 0.444090 0.726546
0.588756 0.444574 0.726546
0.688210 0.444838 0.726546
0.789358 0.444879 0.726546
0.892000 0.444698 0.726546
0.133674 0.541530 0.726546
0.215619 0.542153 0.726546
0.303894 0.542558 0.726546
0.396116 0.542741 0.726546
0.491265 0.542701 0.726546
0.588756 0.542438 0.726546
0.688210 0.541955 0.726546
0.789358 0.541254 0.726546
0.892000 0.540341 0.726546
0.133674 0.643518 0.726546
0.215619 0.643397 0.726546
0.303894 0.643054 0.726546
0.396116 0.642491 0.726546
0.491265 0.641712 0.726546
0.588756 0.640723 0.726546
0.688210 0.639531 0.726546
0.789358 0.638143 0.726546
0.892000 0.636570 0.726546
0.133674 0.745452 0.726546
0.215619 0.744596 0.726546
0.303894 0.743532 0.726546
0.396116 0.742267 0.726546
0.491265 0.740811 0.726546
0.588756 0.739173 0.726546
0.688210 0.737365 0.726546
0.789358 0.735400 0.726546
0.892000 0.733290 0.726546
0.133674 0.847110 0.726546
0.215619 0.845586 0.726546
0.303894 0.843885 0.726546
0.396116 0.842018 0.726546
0.491265 0.839998 0.726546
0.588756 0.837840 0.726546
0.688210 0.835558 0.726546
0.789358 0.833168 0.726546
0.892000 0.830687 0.726546
0.133674 0.921211 0.726546
0.215619 0.919139 0.726546
0.303894 0.916934 0.726546
0.396116 0.914610 0.726546
0.491265 0.912185 0.726546
0.588756 0.909676 0.726546
0.688210 0.907098 0.726546
0.789358 0.904472 0.726546
0.892000 0.901814 0.726546
0.133674 0.153211 0.830275
0.215619 0.155805 0.830275
0.303894 0.158337 0.830275
0.396116 0.160790 0.830275
0.491265 0.163146 0.830275
0.588756 0.165388 0.830275
0.688210 0.167502 0.830275
0.789358 0.169472 0.830275
0.892000 0.171285 0.830275
0.133674 0.243850 0.830275
0.215619 0.246166 0.830275
0.303894 0.248364 0.830275
0.396116 0.250427 0.830275
0.491265 0.252341 0.830275
0.588756 0.254094 0.830275
0.688210 0.255672 0.830275
0.789358 0.257066 0.830275
0.892000 0.258264 0.830275
0.133674 0.340665 0.830275
0.215619 0.342522 0.830275
0.303894 0.344212 0.830275
0.396116 0.345725 0.830275
0.491265 0.347048 0.830275
0.588756 0.348173 0.830275
0.688210 0.349093 0.830275
0.789358 0.349800 0.830275
0.892000 0.350290 0.830275
0.133674 0.440504 0.830275
0.215619 0.441757 0.830275
0.303894 0.442808 0.830275
0.396116 0.443651 0.830275
0.491265 0.444279 0.830275
0.588756 0.444689 0.830275
0.688210 0.444877 0.830275
0.789358 0.444843 0.830275
0.892000 0.444586 0.830275
0.133674 0.541766 0.830275
0.215619 0.542315 0.830275
0.303894 0.542645 0.830275
0.396116 0.542752 0.830275
0.491265 0.542636 0.830275
0.588756 0.542299 0.830275
0.688210 0.541741 0.830275
0.789358 0.540968 0.830275
0.892000 0.539984 0.830275
0.133674 0.643502 0.830275
0.215619 0.643305 0.830275
0.303894 0.642887 0.830275
0.396116 0.642250 0.830275
0.491265 0.641400 0.830275
0.588756 0.640341 0.830275
0.688210 0.639081 0.830275
0.789358 0.637629 0.830275
0.892000 0.635996 0.830275
0.133674 0.745185 0.830275
0.215619 0.744258 0.830275
0.303894 0.743125 0.830275
0.396116 0.741794 0.830275
0.491265 0.740275 0.830275
0.588756 0.738578 0.830275
0.688210 0.736715 0.830275
0.789358 0.734698 0.830275
0.892000 0.732543 0.830275
0.133674 0.846613 0.830275
0.215619 0.845028 0.830275
0.303894 0.843269 0.830275
0.396116 0.841349 0.830275
0.491265 0.839280 0.830275
0.588756 0.837078 0.830275
0.688210 0.834757 0.830275
0.789358 0.832335 0.830275
0.892000 0.829827 0.830275
0.133674 0.920523 0.830275
0.215619 0.918404 0.830275
0.303894 0.916157 0.830275
0.396116 0.913798 0.830275
0.491265 0.911342 0.830275
0.588756 0.908807 0.830275
0.688210 0.906211 0.830275
0.789358 0.903571 0.830275
0.892000 0.900907 0.830275
0.133674 0.154098 0.926400
0.215619 0.156673 0.926400
0.303894 0.159180 0.926400
0.396116 0.161602 0.926400
0.491265 0.163921 0.926400
0.588756 0.166121 0.926400
0.688210 0.168188 0.926400
0.789358 0.170106 0.926400
0.892000 0.171863 0.926400
0.133674 0.244649 0.926400
0.215619 0.246926 0.926400
0.303894 0.249080 0.926400
0.396116 0.251094 0.926400
0.491265 0.252955 0.926400
0.588756 0.254650 0.926400
0.688210 0.256167 0.926400
0.789358 0.257495 0.926400
0.892000 0.258625 0.926400
0.133674 0.341313 0.926400
0.215619 0.343115 0.926400
0.303894 0.344746 0.926400
0.396116 0.346196 0.926400
0.491265 0.347453 0.926400
0.588756 0.348509 0.926400
0.688210 0.349357 0.926400
0.789358 0.349991 0.926400
0.892000 0.350406 0.926400
0.133674 0.440952 0.926400
0.215619 0.442137 0.926400
0.303894 0.443118 0.926400
0.396116 0.443888 0.926400
0.491265 0.444443 0.926400
0.588756 0.444778 0.926400
0.688210 0.444891 0.926400
0.789358 0.444780 0.926400
0.892000 0.444448 0.926400
0.133674 0.541977 0.926400
0.215619 0.542452 0.926400
0.303894 0.542706 0.926400
0.396116 0.542738 0.926400
0.491265 0.542546 0.926400
0.588756 0.542134 0.926400
0.688210 0.541502 0.926400
0.789358 0.540657 0.926400
0.892000 0.539603 0.926400
0.133674 0.643460 0.926400
0.215619 0.643188 0.926400
0.303894 0.642695 0.926400
0.396116 0.641985 0.926400
0.491265 0.641063 0.926400
0.588756 0.639935 0.926400
0.688210 0.638609 0.926400
0.789358 0.637094 0.926400
0.892000 0.635402 0.926400
0.133674 0.744893 0.926400
0.215619 0.743895 0.926400
0.303894 0.742694 0.926400
0.396116 0.741299 0.926400
0.491265 0.739718 0.926400
0.588756 0.737963 0.926400
0.688210 0.736046 0.926400
0.789358 0.733981 0.926400
0.892000 0.731782 0.926400
0.133674 0.846095 0.926400
0.215619 0.844449 0.926400
0.303894 0.842634 0.926400
0.396116 0.840662 0.926400
0.491265 0.838546 0.926400
0.588756 0.836302 0.926400
0.688210 0.833945 0.926400
0.789358 0.831492 0.926400
0.892000 0.828958 0.926400
0.133674 0.919819 0.926400
0.215619 0.917655 0.926400
0.303894 0.915368 0.926400
0.396116 0.912973 0.926400
0.491265 0.910489 0.926400
0.588756 0.907931 0.926400
0.688210 0.905318 0.926400
0.789358 0.902669 0.926400
0.892000 0.900000 0.926400
