Fotico/Resources/LUTs/butter.cube
TITLE "Butter"
LUT_3D_SIZE 33
0.225584 0.173145 0.119385
0.240089 0.172110 0.118721
0.253592 0.171500 0.118533
0.267148 0.171149 0.118360
0.281375 0.170949 0.118196
0.296917 0.170858 0.118034
0.314440 0.170865 0.117873
0.334529 0.170973 0.117715
0.356974 0.171185 0.117571
0.381310 0.171498 0.117449
0.407065 0.171902 0.117360
0.433750 0.172386 0.117306
0.460857 0.172936 0.117292
0.487941 0.173538 0.117315
0.516603 0.174224 0.117381
0.545898 0.174975 0.117488
0.573370 0.175722 0.117626
0.598384 0.176436 0.117782
0.622190 0.177143 0.117955
0.645119 0.177850 0.118146
0.667512 0.178564 0.118354
0.689717 0.179293 0.118581
0.712088 0.180049 0.118831
0.734992 0.180846 0.119107
0.758470 0.181685 0.119412
0.782092 0.182552 0.119740
0.805399 0.183429 0.120086
0.827926 0.184296 0.120439
0.849198 0.185134 0.120791
0.868692 0.185916 0.121127
0.875268 0.186160 0.120999
0.875319 0.186134 0.120650
0.875372 0.186115 0.120303
0.223464 0.187096 0.121672
0.240222 0.187652 0.118871
0.255919 0.187038 0.116604
0.269493 0.186059 0.116461
0.283741 0.185394 0.116328
0.299308 0.184936 0.116199
0.316860 0.184642 0.116076
0.336984 0.184500 0.115961
0.359471 0.184512 0.115864
0.383853 0.184671 0.115793
0.409659 0.184959 0.115757
0.436398 0.185360 0.115758
0.463561 0.185852 0.115799
0.490702 0.186415 0.115877
0.519426 0.187078 0.115999
0.548785 0.187818 0.116165
0.576317 0.188564 0.116357
0.601386 0.189283 0.116562
0.625245 0.190000 0.116782
0.648226 0.190720 0.117017
0.670670 0.191450 0.117268
0.692925 0.192198 0.117538
0.715348 0.192975 0.117830
0.738305 0.193795 0.118149
0.761837 0.194660 0.118499
0.785514 0.195554 0.118872
0.808876 0.196460 0.119261
0.831455 0.197357 0.119656
0.852777 0.198223 0.120047
0.872316 0.199033 0.120419
0.879461 0.199331 0.120345
0.879517 0.199337 0.120020
0.879575 0.199350 0.119698
0.221824 0.198566 0.123669
0.238312 0.200926 0.121222
0.254443 0.201703 0.118579
0.270639 0.201527 0.115943
0.286153 0.200584 0.114633
0.301745 0.199620 0.114537
0.319326 0.198907 0.114450
0.339484 0.198414 0.114375
0.362012 0.198141 0.114323
0.386440 0.198073 0.114301
0.412295 0.198188 0.114315
0.439087 0.198457 0.114369
0.466305 0.198851 0.114462
0.493502 0.199343 0.114593
0.522286 0.199953 0.114770
0.551706 0.200656 0.114991
0.579297 0.201380 0.115235
0.604421 0.202089 0.115486
0.628332 0.202802 0.115751
0.651363 0.203523 0.116028
0.673856 0.204258 0.116321
0.696160 0.205014 0.116631
0.718633 0.205803 0.116963
0.741641 0.206638 0.117325
0.765225 0.207520 0.117716
0.788955 0.208435 0.118132
0.812370 0.209362 0.118562
0.835000 0.210282 0.118998
0.856371 0.211171 0.119426
0.875954 0.212002 0.119833
0.883538 0.212346 0.119804
0.883598 0.212383 0.119503
0.883660 0.212428 0.119206
0.222073 0.211602 0.124151
0.236623 0.212619 0.123390
0.252662 0.214911 0.121070
0.268876 0.215897 0.118464
0.285896 0.216002 0.115745
0.304309 0.215414 0.112974
0.321919 0.214155 0.112922
0.342114 0.213201 0.112888
0.364683 0.212549 0.112881
0.389157 0.212179 0.112907
0.415063 0.212057 0.112972
0.441909 0.212143 0.113077
0.469182 0.212398 0.113223
0.496435 0.212785 0.113405
0.525280 0.213311 0.113637
0.554763 0.213953 0.113913
0.582414 0.214635 0.114208
0.607592 0.215317 0.114506
0.631555 0.216013 0.114814
0.654636 0.216723 0.115134
0.677179 0.217453 0.115467
0.699533 0.218208 0.115818
0.722055 0.219000 0.116191
0.745115 0.219841 0.116593
0.768752 0.220733 0.117027
0.792536 0.221661 0.117485
0.816003 0.222604 0.117957
0.838684 0.223540 0.118432
0.860104 0.224447 0.118898
0.879732 0.225296 0.119339
0.887648 0.225679 0.119351
0.887713 0.225747 0.119074
0.887780 0.225823 0.118800
0.222539 0.225439 0.124630
0.236582 0.225769 0.124596
0.250975 0.227241 0.123474
0.267162 0.229608 0.121198
0.284204 0.230836 0.118512
0.302826 0.231198 0.115596
0.323825 0.230826 0.112331
0.344981 0.229499 0.111444
0.367593 0.228355 0.111483
0.392117 0.227589 0.111559
0.418077 0.227153 0.111676
0.444979 0.226994 0.111835
0.472310 0.227059 0.112035
0.499623 0.227300 0.112271
0.528531 0.227708 0.112559
0.558080 0.228258 0.112892
0.585793 0.228875 0.113240
0.611028 0.229510 0.113586
0.635046 0.230173 0.113940
0.658180 0.230860 0.114303
0.680775 0.231573 0.114678
0.703181 0.232318 0.115070
0.725755 0.233103 0.115485
0.748869 0.233942 0.115930
0.772561 0.234837 0.116408
0.796401 0.235770 0.116909
0.819923 0.236722 0.117423
0.842658 0.237670 0.117940
0.864128 0.238590 0.118444
0.883802 0.239453 0.118920
0.891955 0.239869 0.118971
0.892024 0.239970 0.118718
0.892096 0.240080 0.118468
0.223175 0.240505 0.125267
0.237238 0.240870 0.125266
0.250774 0.241234 0.125281
0.265485 0.243040 0.123929
0.282515 0.245623 0.121616
0.301165 0.247158 0.118737
0.322197 0.247788 0.115513
0.346315 0.247585 0.111844
0.370877 0.246319 0.110092
0.395454 0.245033 0.110221
0.421473 0.244182 0.110394
0.448436 0.243696 0.110611
0.475832 0.243505 0.110868
0.503209 0.243547 0.111161
0.532186 0.243790 0.111509
0.561807 0.244208 0.111904
0.589587 0.244729 0.112309
0.614884 0.245296 0.112706
0.638961 0.245906 0.113108
0.662153 0.246553 0.113518
0.684804 0.247235 0.113938
0.707266 0.247956 0.114375
0.729897 0.248724 0.114835
0.753069 0.249551 0.115325
0.776821 0.250438 0.115849
0.800721 0.251369 0.116396
0.824303 0.252323 0.116957
0.847096 0.253276 0.117517
0.868620 0.254203 0.118063
0.888345 0.255075 0.118577
0.896628 0.255521 0.118663
0.896703 0.255657 0.118436
0.896780 0.255803 0.118213
0.224040 0.257394 0.126118
0.238126 0.257798 0.126154
0.251687 0.258200 0.126203
0.265311 0.258617 0.126268
0.280861 0.260672 0.124796
0.299485 0.263614 0.122367
0.320555 0.265547 0.119189
0.344719 0.266482 0.115571
0.371724 0.266474 0.111560
0.399330 0.265392 0.108874
0.425414 0.263988 0.109108
0.452447 0.263061 0.109388
0.479914 0.262523 0.109709
0.507364 0.262292 0.110065
0.536419 0.262307 0.110479
0.566119 0.262541 0.110941
0.593975 0.262924 0.111408
0.619341 0.263389 0.111862
0.643485 0.263921 0.112317
0.666741 0.264505 0.112778
0.689455 0.265137 0.113249
0.711979 0.265817 0.113735
0.734674 0.266553 0.114244
0.757910 0.267354 0.114784
0.781729 0.268222 0.115359
0.805696 0.269139 0.115958
0.829345 0.270085 0.116569
0.852202 0.271035 0.117178
0.873787 0.271963 0.117769
0.893568 0.272839 0.118325
0.901849 0.273308 0.118443
0.901930 0.273485 0.118245
0.902013 0.273672 0.118051
0.225209 0.276615 0.127252
0.239322 0.277065 0.127328
0.252912 0.277510 0.127417
0.266567 0.277969 0.127521
0.280911 0.278463 0.127644
0.297901 0.280742 0.126124
0.318908 0.284189 0.123502
0.343123 0.286613 0.119941
0.370190 0.287880 0.115993
0.399543 0.288124 0.111748
0.430063 0.287424 0.107828
0.457176 0.285905 0.108179
0.484725 0.284897 0.108571
0.512257 0.284293 0.108997
0.541400 0.283994 0.109485
0.571192 0.283971 0.110022
0.599133 0.284160 0.110559
0.624578 0.284480 0.111075
0.648796 0.284896 0.111591
0.672125 0.285387 0.112109
0.694910 0.285942 0.112635
0.717505 0.286559 0.113176
0.740271 0.287241 0.113740
0.763581 0.287998 0.114337
0.787475 0.288828 0.114969
0.811519 0.289717 0.115625
0.835242 0.290641 0.116292
0.858172 0.291577 0.116955
0.879827 0.292496 0.117597
0.899671 0.293367 0.118199
0.907766 0.293855 0.118346
0.907854 0.294078 0.118180
0.907944 0.294311 0.118019
0.226720 0.297936 0.128704
0.240866 0.298435 0.128825
0.254489 0.298928 0.128956
0.268180 0.299435 0.129102
0.282563 0.299979 0.129269
0.298288 0.300587 0.129467
0.317483 0.303217 0.127842
0.341615 0.307278 0.124941
0.368749 0.310158 0.121062
0.398179 0.311759 0.116890
0.429333 0.312296 0.112513
0.461617 0.311991 0.108017
0.490254 0.310594 0.107521
0.517877 0.309503 0.108024
0.547118 0.308788 0.108592
0.577010 0.308424 0.109210
0.605047 0.308353 0.109823
0.630579 0.308475 0.110408
0.654880 0.308732 0.110989
0.678289 0.309092 0.111569
0.701152 0.309539 0.112156
0.723826 0.310064 0.112756
0.746671 0.310667 0.113380
0.770061 0.311355 0.114038
0.794039 0.312127 0.114732
0.818165 0.312967 0.115450
0.841972 0.313852 0.116179
0.864982 0.314758 0.116900
0.886712 0.315655 0.117598
0.906626 0.316511 0.118251
0.914301 0.317012 0.118420
0.914396 0.317285 0.118288
0.914494 0.317569 0.118162
0.228602 0.321075 0.130497
0.242784 0.321629 0.130665
0.256445 0.322173 0.130842
0.270176 0.322732 0.131033
0.284603 0.323330 0.131248
0.300377 0.323996 0.131497
0.318175 0.324764 0.131796
0.340393 0.328018 0.129881
0.367480 0.332648 0.126731
0.396993 0.335910 0.122637
0.428236 0.337834 0.118341
0.460615 0.338688 0.113929
0.493511 0.338716 0.109486
0.524194 0.337790 0.107204
0.553541 0.336549 0.107858
0.583542 0.335749 0.108563
0.611681 0.335342 0.109257
0.637307 0.335207 0.109915
0.661698 0.335256 0.110564
0.685193 0.335445 0.111211
0.708142 0.335746 0.111862
0.730899 0.336146 0.112526
0.753829 0.336640 0.113213
0.777307 0.337232 0.113936
0.801374 0.337920 0.114696
0.825591 0.338688 0.115481
0.849487 0.339514 0.116275
0.872583 0.340372 0.117059
0.894394 0.341231 0.117816
0.914383 0.342059 0.118523
0.921359 0.342569 0.118704
0.921463 0.342897 0.118610
0.921568 0.343236 0.118520
0.230870 0.345762 0.132645
0.245093 0.346373 0.132863
0.258796 0.346973 0.133088
0.272572 0.347587 0.133326
0.287046 0.348242 0.133590
0.302874 0.348971 0.133893
0.320733 0.349808 0.134252
0.341224 0.350787 0.134686
0.366497 0.354914 0.132282
0.396046 0.360013 0.128949
0.427386 0.363590 0.124738
0.459865 0.365820 0.120413
0.492865 0.366997 0.116057
0.525842 0.367377 0.111743
0.560627 0.367112 0.107330
0.590744 0.365774 0.108125
0.618993 0.364949 0.108903
0.644718 0.364495 0.109638
0.669205 0.364282 0.110360
0.692792 0.364252 0.111076
0.715831 0.364368 0.111794
0.738677 0.364607 0.112524
0.761698 0.364960 0.113278
0.785268 0.365425 0.114069
0.809430 0.366001 0.114899
0.833742 0.366671 0.115753
0.857732 0.367414 0.116615
0.880920 0.368203 0.117465
0.902817 0.369007 0.118284
0.922885 0.369790 0.119047
0.928852 0.370310 0.119229
0.928964 0.370697 0.119174
0.929078 0.371088 0.119109
0.233524 0.371702 0.135147
0.247794 0.372374 0.135418
0.261544 0.373032 0.135691
0.275367 0.373703 0.135979
0.289893 0.374418 0.136294
0.305778 0.375212 0.136652
0.323704 0.376122 0.137073
0.344271 0.377184 0.137577
0.367270 0.378395 0.138165
0.395348 0.383588 0.135099
0.426827 0.389054 0.131647
0.459414 0.392882 0.127412
0.492523 0.395389 0.123146
0.525610 0.396881 0.118921
0.560630 0.397640 0.114487
0.596424 0.397758 0.109997
0.626921 0.396934 0.108796
0.652751 0.396092 0.109609
0.677337 0.395563 0.110406
0.701021 0.395267 0.111193
0.724153 0.395154 0.111980
0.747094 0.395195 0.112779
0.770208 0.395371 0.113602
0.793875 0.395677 0.114463
0.818136 0.396110 0.115364
0.842548 0.396655 0.116290
0.866636 0.397290 0.117222
0.889919 0.397988 0.118141
0.911906 0.398717 0.119023
0.932056 0.399439 0.119845
0.936686 0.399978 0.120014
0.936807 0.400428 0.120000
0.936928 0.400866 0.119956
0.236552 0.398578 0.137990
0.250872 0.399312 0.138314
0.264671 0.400030 0.138638
0.278546 0.400760 0.138975
0.293128 0.401537 0.139342
0.309074 0.402398 0.139757
0.327069 0.403383 0.140241
0.347718 0.404531 0.140816
0.370808 0.405836 0.141484
0.396285 0.407949 0.141586
0.426464 0.413689 0.138359
0.459289 0.419409 0.134851
0.492512 0.423423 0.130677
0.525713 0.426174 0.126542
0.560855 0.428062 0.122204
0.596774 0.429169 0.117810
0.630459 0.429624 0.113725
0.661130 0.429649 0.110034
0.686012 0.428785 0.110720
0.709795 0.428175 0.111579
0.733025 0.427792 0.112438
0.756061 0.427595 0.113306
0.779273 0.427560 0.114199
0.803039 0.427675 0.115131
0.827401 0.427934 0.116105
0.851916 0.428325 0.117104
0.876106 0.428827 0.118109
0.899486 0.429410 0.119096
0.921566 0.430044 0.120044
0.941800 0.430688 0.120925
0.944760 0.431266 0.121069
0.944890 0.431780 0.121095
0.945018 0.432260 0.121066
0.239931 0.426130 0.141155
0.254306 0.426929 0.141531
0.268159 0.427707 0.141906
0.282089 0.428498 0.142294
0.296728 0.429338 0.142714
0.312738 0.430267 0.143185
0.330806 0.431329 0.143733
0.351539 0.432564 0.144381
0.374724 0.433966 0.145128
0.399880 0.435511 0.145966
0.427620 0.438810 0.145300
0.459305 0.444899 0.142083
0.492844 0.450758 0.138584
0.526163 0.454906 0.134541
0.561428 0.458047 0.130298
0.597475 0.460249 0.126001
0.631280 0.461598 0.122006
0.662061 0.462348 0.118397
0.691356 0.462716 0.114988
0.719040 0.462701 0.112242
0.742368 0.462007 0.113171
0.765503 0.461535 0.114110
0.788813 0.461254 0.115073
0.812680 0.461145 0.116077
0.837147 0.461200 0.117125
0.861766 0.461409 0.118198
0.886058 0.461751 0.119274
0.909538 0.462198 0.120331
0.931849 0.462786 0.121306
0.952549 0.463520 0.122117
0.953135 0.464307 0.122065
0.953317 0.464989 0.122001
0.953479 0.465567 0.121880
0.243926 0.456239 0.144886
0.258363 0.457107 0.145320
0.272278 0.457951 0.145749
0.286269 0.458807 0.146192
0.300974 0.459716 0.146668
0.317055 0.460719 0.147200
0.335205 0.461864 0.147816
0.356031 0.463194 0.148542
0.379321 0.464701 0.149375
0.404590 0.466359 0.150306
0.431351 0.468141 0.151319
0.460840 0.472512 0.149984
0.493346 0.478849 0.146850
0.527030 0.484857 0.143483
0.562432 0.489471 0.139343
0.598619 0.492960 0.135150
0.632554 0.495359 0.131252
0.663455 0.496958 0.127731
0.692863 0.498056 0.124405
0.721187 0.498787 0.121224
0.748849 0.499239 0.118138
0.776091 0.499431 0.115277
0.799509 0.498848 0.116317
0.823486 0.498463 0.117398
0.848295 0.498388 0.118456
0.873478 0.498592 0.119437
0.898281 0.498909 0.120389
0.922210 0.499309 0.121294
0.944770 0.499761 0.122135
0.962124 0.500300 0.122753
0.962326 0.501060 0.122645
0.962501 0.501715 0.122545
0.962654 0.502252 0.122388
0.248420 0.487709 0.149074
0.262926 0.488649 0.149567
0.276907 0.489562 0.150052
0.290965 0.490487 0.150551
0.305740 0.491466 0.151085
0.321899 0.492547 0.151680
0.340135 0.493778 0.152367
0.361060 0.495205 0.153172
0.384461 0.496821 0.154094
0.409850 0.498596 0.155120
0.436737 0.500502 0.156233
0.464610 0.502504 0.157416
0.495330 0.507881 0.155439
0.528070 0.514368 0.152441
0.563879 0.520877 0.149009
0.600212 0.525807 0.144924
0.634284 0.529380 0.141125
0.665309 0.531928 0.137694
0.694835 0.533841 0.134453
0.723274 0.535289 0.131354
0.751374 0.536562 0.128248
0.779322 0.537588 0.125123
0.807436 0.538348 0.121963
0.836174 0.538877 0.118714
0.861539 0.538546 0.119289
0.886649 0.538304 0.120205
0.911379 0.538208 0.121094
0.935237 0.538232 0.121938
0.957730 0.538349 0.122722
0.971564 0.538751 0.123138
0.971759 0.539476 0.122987
0.971928 0.540102 0.122851
0.972072 0.540603 0.122663
0.252963 0.517532 0.153300
0.267538 0.518539 0.153848
0.281584 0.519517 0.154386
0.295708 0.520506 0.154937
0.310551 0.521552 0.155525
0.326784 0.522705 0.156180
0.345103 0.524017 0.156932
0.366124 0.525537 0.157812
0.389631 0.527255 0.158816
0.415135 0.529140 0.159931
0.442143 0.531161 0.161137
0.470141 0.533282 0.162416
0.498593 0.535465 0.163744
0.530297 0.542034 0.160877
0.565317 0.549054 0.157837
0.602078 0.555716 0.154373
0.636483 0.560589 0.150608
0.668099 0.564344 0.147082
0.698138 0.567261 0.143711
0.727024 0.569558 0.140450
0.755191 0.571383 0.137252
0.783077 0.572837 0.134068
0.811128 0.573988 0.130849
0.839801 0.574878 0.127541
0.869144 0.575522 0.124137
0.898618 0.575926 0.120699
0.923300 0.575421 0.121508
0.947091 0.575070 0.122296
0.969520 0.574851 0.123026
0.975000 0.575137 0.123850
0.975000 0.575813 0.123842
0.975000 0.576395 0.123828
0.975000 0.576855 0.123749
0.257339 0.544742 0.157364
0.271979 0.545811 0.157961
0.286086 0.546846 0.158547
0.300271 0.547894 0.159144
0.315178 0.549001 0.159782
0.331480 0.550219 0.160489
0.349877 0.551605 0.161301
0.370986 0.553208 0.162248
0.394590 0.555018 0.163327
0.420200 0.557003 0.164522
0.447319 0.559128 0.165812
0.475431 0.561357 0.167177
0.503999 0.563649 0.168592
0.533450 0.567328 0.168727
0.568112 0.574800 0.165587
0.604918 0.582387 0.162352
0.639884 0.588670 0.158759
0.671440 0.593160 0.155172
0.701421 0.596694 0.151743
0.730250 0.599520 0.148426
0.758360 0.601809 0.145175
0.786190 0.603679 0.141939
0.814184 0.605209 0.138666
0.842798 0.606451 0.135304
0.872079 0.607422 0.131845
0.901491 0.608124 0.128352
0.930462 0.608576 0.124894
0.957508 0.608635 0.122419
0.975000 0.608076 0.123226
0.975000 0.607172 0.131416
0.975000 0.607791 0.131367
0.975000 0.608324 0.131317
0.975000 0.608744 0.131216
0.261719 0.570755 0.161426
0.276423 0.571882 0.162071
0.290591 0.572974 0.162701
0.304836 0.574076 0.163343
0.319805 0.575241 0.164027
0.336174 0.576522 0.164784
0.354646 0.577977 0.165652
0.375840 0.579660 0.166663
0.399539 0.581558 0.167812
0.425250 0.583637 0.169082
0.452476 0.585861 0.170452
0.481044 0.588398 0.171812
0.510159 0.591026 0.173140
0.539194 0.593611 0.174440
0.572177 0.599615 0.172581
0.607984 0.607127 0.169277
0.642740 0.614128 0.166157
0.674368 0.619483 0.162653
0.704293 0.623635 0.159170
0.733068 0.626991 0.155801
0.761124 0.629746 0.152499
0.788900 0.632033 0.149213
0.816839 0.633944 0.145891
0.845396 0.635539 0.142477
0.874619 0.636840 0.138967
0.903971 0.637844 0.135422
0.932883 0.638568 0.131913
0.960778 0.639040 0.128510
0.975000 0.637681 0.132385
0.975000 0.636763 0.138378
0.975000 0.637329 0.138290
0.975000 0.637815 0.138205
0.975000 0.638203 0.138088
0.266146 0.596000 0.165528
0.280914 0.597184 0.166218
0.295143 0.598329 0.166891
0.309447 0.599485 0.167576
0.324477 0.600705 0.168304
0.340912 0.602046 0.169110
0.359458 0.603568 0.170031
0.380736 0.605327 0.171103
0.404696 0.607415 0.172282
0.430924 0.609826 0.173488
0.458638 0.612337 0.174741
0.487302 0.614896 0.176014
0.516362 0.617455 0.177281
0.545341 0.619970 0.178521
0.576368 0.623272 0.179144
0.611305 0.630711 0.175775
0.645186 0.637643 0.172593
0.676965 0.643918 0.169679
0.706842 0.648700 0.166150
0.735564 0.652593 0.162731
0.763568 0.655819 0.159381
0.791291 0.658529 0.156047
0.819177 0.660826 0.152676
0.847679 0.662781 0.149214
0.876844 0.664417 0.145654
0.906139 0.665728 0.142059
0.934993 0.666728 0.138501
0.962833 0.667445 0.135052
0.975000 0.665280 0.140822
0.975000 0.664548 0.144891
0.975000 0.665063 0.144764
0.975000 0.665505 0.144647
0.975000 0.665868 0.144518
0.270685 0.620935 0.169728
0.285517 0.622174 0.170462
0.299807 0.623372 0.171178
0.314170 0.624580 0.171904
0.329262 0.625855 0.172676
0.345993 0.627399 0.173472
0.364914 0.629165 0.174344
0.386587 0.631163 0.175329
0.410774 0.633362 0.176411
0.436959 0.635710 0.177563
0.464626 0.638155 0.178759
0.493237 0.640647 0.179973
0.522243 0.643136 0.181180
0.551165 0.645583 0.182362
0.581707 0.648130 0.183585
0.614831 0.653605 0.181983
0.647931 0.660470 0.178742
0.678954 0.666683 0.175774
0.709138 0.672450 0.172831
0.737807 0.676893 0.169364
0.765759 0.680602 0.165966
0.793431 0.683745 0.162585
0.821263 0.686440 0.159168
0.849711 0.688765 0.155659
0.878820 0.690746 0.152050
0.908058 0.692373 0.148407
0.936856 0.693658 0.144801
0.964641 0.694627 0.141306
0.975000 0.691520 0.148733
0.975000 0.691122 0.151095
0.975000 0.691588 0.150932
0.975000 0.691988 0.150782
0.975000 0.692331 0.150646
0.275455 0.646070 0.174091
0.290613 0.647531 0.174798
0.305196 0.648920 0.175471
0.319836 0.650298 0.176138
0.335198 0.651728 0.176831
0.351971 0.653272 0.177579
0.370868 0.654992 0.178411
0.392509 0.656936 0.179351
0.416658 0.659077 0.180383
0.442800 0.661362 0.181480
0.470417 0.663741 0.182619
0.498975 0.666164 0.183774
0.527925 0.668584 0.184923
0.556790 0.670962 0.186045
0.587269 0.673437 0.187206
0.618559 0.676268 0.188031
0.650943 0.683064 0.184731
0.681274 0.689216 0.181710
0.710879 0.695039 0.178820
0.739851 0.700403 0.175837
0.767751 0.704615 0.172391
0.795370 0.708211 0.168964
0.823150 0.711320 0.165501
0.851542 0.714032 0.161944
0.880595 0.716373 0.158287
0.909776 0.718331 0.154595
0.938517 0.719915 0.150942
0.966247 0.721150 0.147401
0.975000 0.716987 0.156290
0.975000 0.717039 0.157121
0.975000 0.717458 0.156921
0.975000 0.717816 0.156739
0.975000 0.718144 0.156600
0.281431 0.672420 0.178287
0.296583 0.673842 0.178960
0.311155 0.675193 0.179601
0.325782 0.676534 0.180236
0.341127 0.677925 0.180896
0.357879 0.679427 0.181608
0.376748 0.681100 0.182399
0.398356 0.682990 0.183292
0.422465 0.685071 0.184273
0.448560 0.687291 0.185316
0.476126 0.689602 0.186396
0.504628 0.691955 0.187492
0.533520 0.694304 0.188580
0.562325 0.696612 0.189642
0.592740 0.699012 0.190741
0.623753 0.701423 0.191836
0.654229 0.705876 0.190678
0.683910 0.711964 0.187602
0.712864 0.717727 0.184661
0.741397 0.723250 0.181815
0.769580 0.728330 0.178783
0.797146 0.732406 0.175309
0.824871 0.735955 0.171799
0.853207 0.739077 0.168194
0.882202 0.741802 0.164487
0.911324 0.744113 0.160747
0.940006 0.746015 0.157046
0.967680 0.747533 0.153459
0.975000 0.742354 0.163360
0.975000 0.742811 0.163086
0.975000 0.743183 0.162849
0.975000 0.743500 0.162635
0.975000 0.743817 0.162496
0.287460 0.699603 0.182484
0.302603 0.700985 0.183123
0.317163 0.702297 0.183730
0.331773 0.703598 0.184333
0.347099 0.704949 0.184958
0.363826 0.706407 0.185632
0.382667 0.708029 0.186381
0.404238 0.709863 0.187226
0.428303 0.711881 0.188153
0.454349 0.714034 0.189138
0.481859 0.716273 0.190159
0.510303 0.718553 0.191192
0.539133 0.720828 0.192218
0.567874 0.723062 0.193218
0.598221 0.725385 0.194252
0.629163 0.727717 0.195281
0.658110 0.729865 0.196221
0.686880 0.735397 0.193565
0.715210 0.741097 0.190570
0.743113 0.746559 0.187674
0.770941 0.751866 0.184834
0.798780 0.756789 0.181743
0.826448 0.760814 0.178184
0.854726 0.764382 0.174529
0.883660 0.767523 0.170772
0.912720 0.770217 0.166981
0.941342 0.772465 0.163230
0.968956 0.774290 0.159595
0.975000 0.768546 0.169425
0.975000 0.768946 0.169105
0.975000 0.769269 0.168830
0.975000 0.769545 0.168585
0.975000 0.769855 0.168448
0.293553 0.727733 0.186686
0.308683 0.729071 0.187289
0.323227 0.730342 0.187861
0.337819 0.731603 0.188429
0.353122 0.732911 0.189018
0.369823 0.734322 0.189652
0.388630 0.735892 0.190358
0.410161 0.737667 0.191153
0.434179 0.739619 0.192024
0.460171 0.741701 0.192950
0.487623 0.743865 0.193908
0.516003 0.746068 0.194877
0.544768 0.748266 0.195837
0.573443 0.750423 0.196773
0.603717 0.752665 0.197738
0.634584 0.754914 0.198699
0.663461 0.756985 0.199575
0.690169 0.759607 0.199610
0.717897 0.765242 0.196560
0.745193 0.770640 0.193611
0.772403 0.775885 0.190719
0.799920 0.781061 0.187841
0.827866 0.785940 0.184670
0.856082 0.789991 0.180964
0.884952 0.793586 0.177154
0.913947 0.796696 0.173311
0.942505 0.799320 0.169508
0.970057 0.801481 0.165824
0.975000 0.795165 0.175556
0.975000 0.795506 0.175188
0.975000 0.795781 0.174872
0.975000 0.796020 0.174604
0.975000 0.796322 0.174466
0.299547 0.756117 0.190778
0.314662 0.757412 0.191344
0.329187 0.758640 0.191881
0.343757 0.759859 0.192413
0.359035 0.761123 0.192965
0.375707 0.762487 0.193560
0.394480 0.764004 0.194221
0.415968 0.765718 0.194965
0.439937 0.767602 0.195780
0.465872 0.769611 0.196645
0.493263 0.771699 0.197539
0.521577 0.773824 0.198442
0.550274 0.775942 0.199337
0.578879 0.778020 0.200207
0.609080 0.780179 0.201104
0.639869 0.782344 0.201994
0.668672 0.784336 0.202806
0.694840 0.786119 0.203525
0.720825 0.789565 0.202473
0.747549 0.794899 0.199470
0.774177 0.800081 0.196527
0.801093 0.805194 0.193598
0.828722 0.810320 0.190637
0.857225 0.815231 0.187331
0.886030 0.819305 0.183468
0.914959 0.822857 0.179571
0.943451 0.825881 0.175717
0.970940 0.828398 0.171982
0.975000 0.821525 0.181591
0.975000 0.821808 0.181174
0.975000 0.822035 0.180818
0.975000 0.822243 0.180530
0.975000 0.822538 0.180390
0.305286 0.784028 0.194655
0.320383 0.785279 0.195184
0.334888 0.786465 0.195686
0.349436 0.787642 0.196184
0.364687 0.788862 0.196699
0.381329 0.790178 0.197254
0.400065 0.791642 0.197871
0.421510 0.793296 0.198564
0.445427 0.795113 0.199324
0.471305 0.797050 0.200129
0.498633 0.799062 0.200959
0.526881 0.801108 0.201798
0.555509 0.803147 0.202627
0.584045 0.805147 0.203433
0.614170 0.807223 0.204261
0.644882 0.809304 0.205082
0.673612 0.811218 0.205829
0.699712 0.812930 0.206491
0.724500 0.814533 0.207103
0.750067 0.818713 0.205102
0.776159 0.823832 0.202108
0.802522 0.828883 0.199128
0.829574 0.833946 0.196116
0.857775 0.839104 0.193022
0.886866 0.844021 0.189552
0.915729 0.848029 0.185602
0.944156 0.851466 0.181696
0.971581 0.854350 0.177912
0.975000 0.846957 0.187374
