Fotico/Resources/LUTs/butter.cube
TITLE "Butter"
LUT_3D_SIZE 9
0.225584 0.173145 0.119385
0.281375 0.170949 0.118196
0.356974 0.171185 0.117571
0.460857 0.172936 0.117292
0.573370 0.175722 0.117626
0.667512 0.178564 0.118354
0.758470 0.181685 0.119412
0.849198 0.185134 0.120791
0.875372 0.186115 0.120303
0.222539 0.225439 0.124630
0.284204 0.230836 0.118512
0.367593 0.228355 0.111483
0.472310 0.227059 0.112035
0.585793 0.228875 0.113240
0.680775 0.231573 0.114678
0.772561 0.234837 0.116408
0.864128 0.238590 0.118444
0.892096 0.240080 0.118468
0.226720 0.297936 0.128704
0.282563 0.299979 0.129269
0.368749 0.310158 0.121062
0.490254 0.310594 0.107521
0.605047 0.308353 0.109823
0.701152 0.309539 0.112156
0.794039 0.312127 0.114732
0.886712 0.315655 0.117598
0.914494 0.317569 0.118162
0.236552 0.398578 0.137990
0.293128 0.401537 0.139342
0.370808 0.405836 0.141484
0.492512 0.423423 0.130677
0.630459 0.429624 0.113725
0.733025 0.427792 0.112438
0.827401 0.427934 0.116105
0.921566 0.430044 0.120044
0.945018 0.432260 0.121066
0.252963 0.517532 0.153300
0.310551 0.521552 0.155525
0.389631 0.527255 0.158816
0.498593 0.535465 0.163744
0.636483 0.560589 0.150608
0.755191 0.571383 0.137252
0.869144 0.575522 0.124137
0.969520 0.574851 0.123026
0.975000 0.576855 0.123749
0.270685 0.620935 0.169728
0.329262 0.625855 0.172676
0.410774 0.633362 0.176411
0.522243 0.643136 0.181180
0.647931 0.660470 0.178742
0.765759 0.680602 0.165966
0.878820 0.690746 0.152050
0.975000 0.691520 0.148733
0.975000 0.692331 0.150646
0.293553 0.727733 0.186686
0.353122 0.732911 0.189018
0.434179 0.739619 0.192024
0.544768 0.748266 0.195837
0.663461 0.756985 0.199575
0.772403 0.775885 0.190719
0.884952 0.793586 0.177154
0.975000 0.795165 0.175556
0.975000 0.796322 0.174466
0.315479 0.835592 0.201427
0.374695 0.840103 0.203203
0.455115 0.845924 0.205473
0.564705 0.853383 0.208304
0.682245 0.860846 0.211011
0.780293 0.867604 0.212072
0.887287 0.887658 0.199425
0.975000 0.892676 0.197661
0.975000 0.893329 0.196176
0.328569 0.906365 0.209870
0.387410 0.909871 0.211201
0.467118 0.913395 0.212755
0.575740 0.918196 0.214688
0.692270 0.923343 0.216515
0.788922 0.927608 0.217837
0.888463 0.940759 0.210164
0.975000 0.946500 0.209066
0.975000 0.946500 0.208834
0.221262 0.172312 0.154472
0.276364 0.173255 0.153966
0.351678 0.174866 0.153650
0.455499 0.177283 0.153485
0.568086 0.180365 0.153816
0.662291 0.183370 0.154541
0.753311 0.186613 0.155598
0.844102 0.190163 0.156978
0.870655 0.191179 0.156506
0.222488 0.225813 0.155742
0.283023 0.229693 0.150738
0.362314 0.227097 0.147718
0.467095 0.228016 0.148270
0.580653 0.231056 0.149478
0.675700 0.234389 0.150921
0.767549 0.238092 0.152658
0.859179 0.242181 0.154705
0.887403 0.243765 0.154748
0.226824 0.298465 0.159885
0.282688 0.300547 0.160458
0.367768 0.309486 0.153371
0.485218 0.308410 0.143833
0.600089 0.307949 0.146153
0.696260 0.310157 0.148503
0.789210 0.313478 0.151100
0.881947 0.317574 0.153992
0.909827 0.319637 0.154580
0.236853 0.399319 0.169297
0.293457 0.402319 0.170665
0.371183 0.406671 0.172830
0.491811 0.423093 0.163166
0.629834 0.428094 0.146257
0.728363 0.426210 0.148983
0.822804 0.427261 0.152692
0.917032 0.430115 0.156677
0.940380 0.432494 0.157726
0.253483 0.518516 0.184801
0.311108 0.522578 0.187054
0.390241 0.528336 0.190385
0.499277 0.536619 0.195370
0.636379 0.560780 0.183310
0.755041 0.570873 0.169905
0.868950 0.574214 0.156741
0.965180 0.573172 0.159549
0.975000 0.575289 0.159170
0.271384 0.622124 0.201435
0.330185 0.627201 0.204376
0.411729 0.634706 0.208058
0.523151 0.644421 0.212769
0.647790 0.660587 0.211335
0.765445 0.680604 0.198512
0.878459 0.690245 0.184536
0.975000 0.690867 0.180760
0.975000 0.691789 0.182502
0.294417 0.729009 0.218310
0.353965 0.734153 0.220606
0.434987 0.740817 0.223563
0.545523 0.749404 0.227306
0.664156 0.758060 0.230965
0.771981 0.775802 0.223112
0.884428 0.793402 0.209488
0.975000 0.795168 0.207274
0.975000 0.796308 0.206134
0.316201 0.836716 0.232925
0.375390 0.841192 0.234659
0.455770 0.846968 0.236870
0.565303 0.854366 0.239619
0.682779 0.861765 0.242232
0.780181 0.867512 0.244139
0.886626 0.887369 0.231549
0.975000 0.892877 0.229147
0.975000 0.893511 0.227604
0.329196 0.907385 0.241268
0.387940 0.910376 0.242488
0.467611 0.913898 0.243983
0.576181 0.918695 0.245830
0.692654 0.923838 0.247559
0.789257 0.928100 0.248792
0.887836 0.940168 0.242070
0.975000 0.946500 0.240316
0.975000 0.946500 0.238433
0.221036 0.172710 0.199822
0.276158 0.173706 0.199337
0.351517 0.175386 0.199052
0.455107 0.178197 0.199227
0.567331 0.181816 0.200045
0.661243 0.185258 0.201173
0.751986 0.188917 0.202615
0.842507 0.192877 0.204377
0.869336 0.194199 0.204197
0.222439 0.226376 0.201194
0.278392 0.227489 0.200675
0.354620 0.229406 0.200704
0.459491 0.232655 0.201297
0.573152 0.236758 0.202552
0.668288 0.240610 0.204037
0.760224 0.244669 0.205816
0.851942 0.249032 0.207908
0.880516 0.250693 0.207996
0.226998 0.299254 0.205485
0.282893 0.301392 0.206088
0.366356 0.308301 0.200662
0.477867 0.306523 0.197018
0.592845 0.308833 0.199396
0.689109 0.312472 0.201798
0.782148 0.316770 0.204449
0.874975 0.321600 0.207396
0.902980 0.323847 0.208027
0.237314 0.400416 0.215119
0.293960 0.403473 0.216524
0.371751 0.407902 0.218740
0.490804 0.422545 0.210767
0.623743 0.424819 0.198966
0.721545 0.424599 0.202554
0.816078 0.427050 0.206331
0.910398 0.431014 0.210385
0.933631 0.433757 0.211369
0.254259 0.519965 0.230914
0.311938 0.524087 0.233212
0.391147 0.529923 0.236606
0.500291 0.538313 0.241679
0.636203 0.560997 0.231164
0.754800 0.569891 0.217693
0.862991 0.571180 0.209937
0.958801 0.571106 0.213021
0.969462 0.573258 0.212583
0.272420 0.623868 0.247820
0.331604 0.629199 0.250705
0.413105 0.636641 0.254330
0.524457 0.646273 0.258962
0.647608 0.660732 0.259008
0.764966 0.680559 0.246127
0.877912 0.689365 0.232078
0.975000 0.689691 0.227631
0.975000 0.690774 0.229149
0.295662 0.730847 0.264521
0.355178 0.735943 0.266770
0.436150 0.742542 0.269664
0.546610 0.751044 0.273318
0.665157 0.759609 0.276881
0.771362 0.775657 0.270514
0.883645 0.793095 0.256826
0.975000 0.795078 0.253735
0.975000 0.796196 0.252542
0.317241 0.838335 0.278949
0.376391 0.842761 0.280630
0.456712 0.848471 0.282771
0.566163 0.855782 0.285422
0.683548 0.863089 0.287927
0.780873 0.868760 0.289742
0.885655 0.886926 0.278630
0.975000 0.893146 0.275336
0.975000 0.893751 0.273737
0.330051 0.908520 0.287110
0.388705 0.911114 0.288228
0.468322 0.914633 0.289655
0.576816 0.919425 0.291408
0.693206 0.924562 0.293033
0.789740 0.928820 0.294176
0.886941 0.939299 0.288900
0.975000 0.946500 0.286240
0.975000 0.946500 0.284308
0.220755 0.173318 0.265096
0.275906 0.174389 0.264657
0.351331 0.176167 0.264434
0.455031 0.179110 0.264696
0.567386 0.182866 0.265607
0.661413 0.186422 0.266814
0.752271 0.190189 0.268333
0.842908 0.194254 0.270174
0.870454 0.195678 0.270077
0.222410 0.227222 0.266647
0.277873 0.228771 0.266687
0.353846 0.231193 0.267100
0.458396 0.235007 0.268210
0.571729 0.239699 0.270016
0.666601 0.244035 0.271957
0.758289 0.248557 0.274175
0.849762 0.253378 0.276704
0.878542 0.255369 0.277119
0.227288 0.300423 0.271183
0.283228 0.302640 0.271840
0.361148 0.305374 0.271934
0.467313 0.309581 0.273691
0.582443 0.315044 0.276174
0.678836 0.320043 0.278665
0.772002 0.325208 0.281403
0.864955 0.330669 0.284440
0.893107 0.333059 0.285138
0.238013 0.402024 0.281162
0.294719 0.405164 0.282628
0.372605 0.409703 0.284927
0.489390 0.421458 0.279399
0.613811 0.421606 0.276122
0.711749 0.424410 0.279812
0.806413 0.428942 0.283688
0.900864 0.434454 0.287842
0.923928 0.437691 0.288616
0.255407 0.522075 0.297377
0.313165 0.526282 0.299745
0.392485 0.532232 0.303233
0.501783 0.540773 0.308433
0.635911 0.561157 0.300089
0.754415 0.567815 0.286525
0.853854 0.567605 0.287064
0.949568 0.569209 0.290059
0.959705 0.571395 0.289543
0.273938 0.626399 0.314659
0.333612 0.632032 0.317406
0.415051 0.639385 0.320952
0.526304 0.648896 0.325475
0.647443 0.660899 0.327659
0.764243 0.680388 0.314703
0.877090 0.687722 0.300557
0.975000 0.687429 0.295121
0.975000 0.688749 0.296354
0.297422 0.733450 0.331037
0.356892 0.738477 0.333222
0.437791 0.744985 0.336030
0.548142 0.753364 0.339567
0.666566 0.761801 0.343003
0.770487 0.775410 0.338788
0.882488 0.792573 0.325022
0.975000 0.794721 0.320680
0.975000 0.795810 0.319422
0.318709 0.840624 0.345194
0.377801 0.844980 0.346807
0.458039 0.850596 0.348854
0.567372 0.857783 0.351379
0.684626 0.864960 0.353748
0.781842 0.870524 0.355449
0.884253 0.886252 0.346488
0.975000 0.893479 0.341925
0.975000 0.894044 0.340262
0.331184 0.909586 0.353029
0.389783 0.912176 0.354084
0.469323 0.915690 0.355425
0.577708 0.920476 0.357062
0.693981 0.925606 0.358560
0.790416 0.929857 0.359596
0.885716 0.938041 0.356433
0.975000 0.946500 0.352493
0.975000 0.946500 0.350508
0.220488 0.174077 0.341280
0.275674 0.175233 0.340905
0.351175 0.177126 0.340767
0.455003 0.180221 0.341144
0.567511 0.184138 0.342179
0.661673 0.187824 0.343490
0.752664 0.191716 0.345110
0.843436 0.195904 0.347051
0.871764 0.197445 0.347056
0.222434 0.228256 0.343060
0.277940 0.229895 0.343166
0.353997 0.232435 0.343668
0.458683 0.236407 0.344899
0.572177 0.241266 0.346835
0.667189 0.245739 0.348886
0.759013 0.250391 0.351210
0.850625 0.255339 0.353844
0.879897 0.257438 0.354352
0.227680 0.301833 0.347900
0.283674 0.304143 0.348628
0.360518 0.307579 0.349953
0.466374 0.312756 0.352281
0.581186 0.318901 0.355373
0.677321 0.324439 0.358371
0.770242 0.330114 0.361597
0.862954 0.336080 0.365118
0.890953 0.338808 0.366161
0.238878 0.403944 0.358299
0.295656 0.407180 0.359841
0.373654 0.411846 0.362242
0.485118 0.418265 0.362163
0.602264 0.423542 0.366256
0.700359 0.429749 0.370067
0.795175 0.436244 0.374061
0.890174 0.443245 0.378202
0.912588 0.446586 0.378786
0.256792 0.524577 0.375006
0.314643 0.528885 0.377457
0.394093 0.534966 0.381055
0.503571 0.543681 0.386404
0.635520 0.560946 0.380516
0.746598 0.563503 0.373931
0.843133 0.565550 0.377075
0.938736 0.569341 0.379968
0.948303 0.571522 0.379366
0.276236 0.629701 0.392552
0.335909 0.635281 0.395223
0.417274 0.642530 0.398676
0.528411 0.651903 0.403074
0.647774 0.661394 0.407415
0.763351 0.679971 0.394718
0.876084 0.684989 0.380465
0.975000 0.683447 0.378381
0.975000 0.685141 0.377021
0.299432 0.736433 0.408628
0.358849 0.741379 0.410741
0.439661 0.747781 0.413451
0.549884 0.756019 0.416856
0.668165 0.764306 0.420151
0.769532 0.775071 0.418456
0.881093 0.791821 0.404607
0.975000 0.793852 0.398808
0.975000 0.794914 0.397481
0.320380 0.843244 0.422467
0.379405 0.847517 0.424003
0.459546 0.853025 0.425948
0.568741 0.860068 0.428334
0.685844 0.867094 0.430555
0.782932 0.872534 0.432133
0.882628 0.885418 0.425693
0.975000 0.893777 0.419658
0.975000 0.894296 0.417926
0.332473 0.910827 0.429932
0.391007 0.913413 0.430918
0.470457 0.916922 0.432166
0.578717 0.921700 0.433678
0.694852 0.926822 0.435042
0.791172 0.931067 0.435966
0.884435 0.936566 0.435288
0.975000 0.946500 0.429865
0.975000 0.946500 0.427827
0.220318 0.174713 0.401618
0.275532 0.175937 0.401296
0.351094 0.177920 0.401229
0.455024 0.181135 0.401704
0.567654 0.185178 0.402844
0.661922 0.188968 0.404242
0.753019 0.192958 0.405946
0.843897 0.197242 0.407970
0.872807 0.198874 0.408055
0.222493 0.229111 0.403586
0.278033 0.230820 0.403748
0.354158 0.233454 0.404324
0.458953 0.237550 0.405656
0.572574 0.242541 0.407701
0.667696 0.247121 0.409842
0.759629 0.251876 0.412252
0.851351 0.256925 0.414973
0.880974 0.259107 0.415554
0.228029 0.302984 0.408676
0.284067 0.305367 0.409461
0.360987 0.308900 0.410864
0.466960 0.314207 0.413298
0.581907 0.320487 0.416504
0.678157 0.326137 0.419596
0.771191 0.331918 0.422912
0.864016 0.337988 0.426524
0.892076 0.340789 0.427630
0.239600 0.405498 0.419411
0.296435 0.408811 0.421015
0.374522 0.413577 0.423500
0.482151 0.420536 0.427372
0.598917 0.428570 0.432092
0.696698 0.435666 0.436424
0.791214 0.442833 0.440919
0.886308 0.450686 0.445437
0.907530 0.454284 0.446366
0.257923 0.526591 0.436508
0.315848 0.530977 0.439026
0.395402 0.537162 0.442712
0.505373 0.546220 0.448086
0.635175 0.559977 0.444176
0.738158 0.561937 0.445262
0.834606 0.566712 0.448327
0.930121 0.572225 0.451142
0.939267 0.574338 0.450474
0.278053 0.632296 0.454194
0.337694 0.637815 0.456810
0.419000 0.644981 0.460191
0.530045 0.654245 0.464491
0.649301 0.663621 0.468728
0.762611 0.679355 0.458051
0.871557 0.681342 0.447294
0.966128 0.680766 0.449302
0.968358 0.682357 0.447888
0.300992 0.738756 0.470033
0.360366 0.743639 0.472089
0.441109 0.749957 0.474723
0.551232 0.758083 0.478027
0.669399 0.766254 0.481213
0.768894 0.774766 0.481516
0.879957 0.791070 0.467603
0.975000 0.792657 0.460651
0.975000 0.793708 0.459271
0.321673 0.845280 0.483620
0.380645 0.849489 0.485097
0.460708 0.854912 0.486963
0.569793 0.861842 0.489243
0.686777 0.868748 0.491351
0.783764 0.874091 0.492835
0.881373 0.884723 0.488396
0.975000 0.893925 0.481195
0.975000 0.894409 0.479413
0.333469 0.911808 0.490798
0.391952 0.914391 0.491731
0.471329 0.917896 0.492909
0.579489 0.922668 0.494326
0.695516 0.927784 0.495589
0.791746 0.932023 0.496429
0.884009 0.936085 0.497057
0.975000 0.946500 0.491132
0.975000 0.946500 0.489055
0.220176 0.175424 0.465830
0.275420 0.176720 0.465567
0.351048 0.178798 0.465580
0.455088 0.182140 0.466162
0.567847 0.186317 0.467417
0.662228 0.190216 0.468909
0.753437 0.194310 0.470704
0.844428 0.198697 0.472819
0.873920 0.200424 0.472991
0.222594 0.230054 0.468004
0.278171 0.231838 0.468227
0.354369 0.234571 0.468885
0.459280 0.238800 0.470328
0.573036 0.243929 0.472491
0.668275 0.248624 0.474729
0.760324 0.253487 0.477234
0.852162 0.258643 0.480048
0.882125 0.260912 0.480706
0.228436 0.304243 0.473363
0.284522 0.306704 0.474212
0.361524 0.310339 0.475700
0.467623 0.315783 0.478249
0.582712 0.322207 0.481578
0.679086 0.327975 0.484771
0.772239 0.333869 0.488185
0.865185 0.340050 0.491894
0.893276 0.342927 0.493067
0.240402 0.407185 0.484460
0.297300 0.410578 0.486132
0.375482 0.415450 0.488706
0.483249 0.422551 0.492699
0.600168 0.430734 0.497547
0.698079 0.437953 0.501985
0.792721 0.445236 0.506582
0.888338 0.453373 0.510966
0.908791 0.456880 0.511810
0.259159 0.528766 0.501973
0.317164 0.533235 0.504561
0.396829 0.539530 0.508342
0.507387 0.548966 0.513660
0.628683 0.558652 0.517778
0.729144 0.566146 0.521130
0.825498 0.573121 0.524111
0.920919 0.579748 0.526843
0.929647 0.581650 0.526107
0.279956 0.635021 0.519746
0.339563 0.640474 0.522305
0.420806 0.647554 0.525609
0.531751 0.656702 0.529806
0.650894 0.665955 0.533932
0.761791 0.678083 0.525406
0.862122 0.677956 0.522812
0.956596 0.680078 0.524734
0.958694 0.681514 0.523266
0.302623 0.741193 0.535332
0.361949 0.746008 0.537328
0.442619 0.752238 0.539883
0.552634 0.760245 0.543079
0.670681 0.768291 0.546151
0.768581 0.774571 0.548423
0.878717 0.790027 0.534603
0.975000 0.790612 0.526422
0.975000 0.791668 0.524988
0.323021 0.847412 0.548651
0.381934 0.851552 0.550065
0.461915 0.856885 0.551849
0.570883 0.863695 0.554018
0.687739 0.870475 0.556008
0.784620 0.875714 0.557394
0.880110 0.883952 0.555086
0.975000 0.893963 0.546646
0.975000 0.894413 0.544811
0.334506 0.912850 0.555529
0.392933 0.915430 0.556406
0.472233 0.918930 0.557512
0.580287 0.923697 0.558830
0.696198 0.928806 0.559988
0.792331 0.933040 0.560742
0.884501 0.937096 0.561287
0.975000 0.946500 0.556308
0.975000 0.946500 0.554191
0.220061 0.176275 0.539071
0.275341 0.177654 0.538877
0.351045 0.179840 0.538984
0.455209 0.183327 0.539691
0.568116 0.187656 0.541079
0.662626 0.191679 0.542682
0.753963 0.195892 0.544582
0.845084 0.200395 0.546802
0.875195 0.202227 0.547071
0.222755 0.231171 0.541483
0.278376 0.233040 0.541777
0.354656 0.235886 0.542531
0.459700 0.240265 0.544102
0.573612 0.245553 0.546402
0.668985 0.250378 0.548754
0.761166 0.255364 0.551367
0.853137 0.260642 0.554289
0.883442 0.263007 0.555035
0.228945 0.305720 0.547153
0.285086 0.308269 0.548076
0.362182 0.312021 0.549663
0.468425 0.317620 0.552345
0.583678 0.324209 0.555815
0.680191 0.330112 0.559126
0.773482 0.336134 0.562652
0.866566 0.342441 0.566472
0.894648 0.345401 0.567719
0.241358 0.409150 0.558666
0.298329 0.412634 0.560415
0.376621 0.417628 0.563092
0.484546 0.424889 0.567224
0.601641 0.433242 0.572219
0.699700 0.440600 0.576779
0.794829 0.448206 0.581405
0.890610 0.456394 0.585651
0.910222 0.459799 0.586400
0.260609 0.531286 0.576652
0.318707 0.535850 0.579322
0.398498 0.542269 0.583210
0.509644 0.552053 0.588392
0.629704 0.562360 0.593468
0.729374 0.570502 0.597383
0.824979 0.577985 0.600893
0.919667 0.585095 0.604137
0.927525 0.587251 0.603740
0.282090 0.638084 0.594452
0.341655 0.643463 0.596946
0.422825 0.650444 0.600162
0.533657 0.659460 0.604242
0.652670 0.668574 0.608243
0.756008 0.674759 0.606825
0.851322 0.679074 0.608885
0.945685 0.684233 0.610710
0.947668 0.685370 0.609182
0.304447 0.743927 0.609748
0.363718 0.748667 0.611676
0.444303 0.754795 0.614140
0.554194 0.762669 0.617215
0.672103 0.770573 0.620158
0.769887 0.776737 0.622324
0.877264 0.788210 0.610963
0.975000 0.786735 0.605616
0.975000 0.787773 0.603647
0.324522 0.849800 0.622761
0.383368 0.853863 0.624105
0.463254 0.859093 0.625795
0.572089 0.865767 0.627839
0.688799 0.872403 0.629696
0.785558 0.877525 0.630974
0.878885 0.883032 0.631097
0.975000 0.893771 0.621241
0.975000 0.894187 0.619348
0.335658 0.914037 0.629302
0.394021 0.916613 0.630118
0.473233 0.920108 0.631141
0.581165 0.924868 0.632349
0.696944 0.929969 0.633390
0.792967 0.934197 0.634047
0.885031 0.938247 0.634499
0.975000 0.946500 0.630602
0.975000 0.946500 0.628442
0.220005 0.176998 0.598433
0.275314 0.178442 0.598297
0.351079 0.180716 0.598480
0.455345 0.184319 0.599290
0.568372 0.188771 0.600788
0.662988 0.192896 0.602481
0.754427 0.197204 0.604469
0.845653 0.201802 0.606774
0.876233 0.203718 0.607121
0.222921 0.232109 0.601040
0.278577 0.234047 0.601393
0.354926 0.236983 0.602226
0.460078 0.241484 0.603903
0.574115 0.246900 0.606315
0.669597 0.251830 0.608760
0.761885 0.256916 0.611462
0.853964 0.262293 0.614472
0.884514 0.264735 0.615287
0.229391 0.306950 0.606965
0.285578 0.309570 0.607949
0.362752 0.313416 0.609617
0.469111 0.319142 0.612408
0.584497 0.325863 0.615993
0.681124 0.331874 0.619399
0.774526 0.338000 0.623017
0.867721 0.344409 0.626927
0.895765 0.347436 0.628233
0.242166 0.410774 0.618816
0.299196 0.414333 0.620628
0.377578 0.419424 0.623390
0.485632 0.426816 0.627634
0.602869 0.435306 0.632749
0.701048 0.442776 0.637408
0.796719 0.450704 0.641964
0.892418 0.458810 0.646136
0.911378 0.462134 0.646810
0.261815 0.533360 0.637186
0.319989 0.538000 0.639922
0.399885 0.544521 0.643898
0.511441 0.554522 0.648914
0.631403 0.564719 0.653892
0.730986 0.572771 0.657726
0.826507 0.580168 0.661158
0.921109 0.587193 0.664325
0.928636 0.589284 0.663868
0.283791 0.640533 0.654951
0.343322 0.645852 0.657391
0.424431 0.652753 0.660537
0.535171 0.661662 0.664522
0.654078 0.670664 0.668422
0.752730 0.677732 0.671372
0.847324 0.684187 0.673964
0.940984 0.690282 0.676304
0.942484 0.691565 0.675132
0.305897 0.746110 0.670010
0.365122 0.750788 0.671883
0.445639 0.756835 0.674274
0.555429 0.764600 0.677252
0.673226 0.772390 0.680092
0.770915 0.778461 0.682172
0.874692 0.785224 0.674127
0.966403 0.785306 0.675008
0.966884 0.786119 0.672997
0.325711 0.851703 0.682775
0.384502 0.855703 0.684062
0.464310 0.860850 0.685678
0.573037 0.867414 0.687622
0.689629 0.873934 0.689373
0.786289 0.878962 0.690563
0.878931 0.883472 0.691481
0.975000 0.893276 0.681653
0.975000 0.893675 0.679712
0.336569 0.914998 0.689048
0.394880 0.917571 0.689814
0.474020 0.921061 0.690771
0.581852 0.925815 0.691892
0.697524 0.930910 0.692839
0.793458 0.935133 0.693419
0.885436 0.939178 0.693798
0.975000 0.946500 0.690780
0.975000 0.946500 0.688585
