Fotico/Resources/LUTs/butter.cube
TITLE "Butter"
LUT_3D_SIZE 5
0.225584 0.173145 0.119385
0.356974 0.171185 0.117571
0.573370 0.175722 0.117626
0.758470 0.181685 0.119412
0.875372 0.186115 0.120303
0.226720 0.297936 0.128704
0.368749 0.310158 0.121062
0.605047 0.308353 0.109823
0.794039 0.312127 0.114732
0.914494 0.317569 0.118162
0.252963 0.517532 0.153300
0.389631 0.527255 0.158816
0.636483 0.560589 0.150608
0.869144 0.575522 0.124137
0.975000 0.576855 0.123749
0.293553 0.727733 0.186686
0.434179 0.739619 0.192024
0.663461 0.756985 0.199575
0.884952 0.793586 0.177154
0.975000 0.796322 0.174466
0.328569 0.906365 0.209870
0.467118 0.913395 0.212755
0.692270 0.923343 0.216515
0.888463 0.940759 0.210164
0.975000 0.946500 0.208834
0.221036 0.172710 0.199822
0.351517 0.175386 0.199052
0.567331 0.181816 0.200045
0.751986 0.188917 0.202615
0.869336 0.194199 0.204197
0.226998 0.299254 0.205485
0.366356 0.308301 0.200662
0.592845 0.308833 0.199396
0.782148 0.316770 0.204449
0.902980 0.323847 0.208027
0.254259 0.519965 0.230914
0.391147 0.529923 0.236606
0.636203 0.560997 0.231164
0.862991 0.571180 0.209937
0.969462 0.573258 0.212583
0.295662 0.730847 0.264521
0.436150 0.742542 0.269664
0.665157 0.759609 0.276881
0.883645 0.793095 0.256826
0.975000 0.796196 0.252542
0.330051 0.908520 0.287110
0.468322 0.914633 0.289655
0.693206 0.924562 0.293033
0.886941 0.939299 0.288900
0.975000 0.946500 0.284308
0.220488 0.174077 0.341280
0.351175 0.177126 0.340767
0.567511 0.184138 0.342179
0.752664 0.191716 0.345110
0.871764 0.197445 0.347056
0.227680 0.301833 0.347900
0.360518 0.307579 0.349953
0.581186 0.318901 0.355373
0.770242 0.330114 0.361597
0.890953 0.338808 0.366161
0.256792 0.524577 0.375006
0.394093 0.534966 0.381055
0.635520 0.560946 0.380516
0.843133 0.565550 0.377075
0.948303 0.571522 0.379366
0.299432 0.736433 0.408628
0.439661 0.747781 0.413451
0.668165 0.764306 0.420151
0.881093 0.791821 0.404607
0.975000 0.794914 0.397481
0.332473 0.910827 0.429932
0.470457 0.916922 0.432166
0.694852 0.926822 0.435042
0.884435 0.936566 0.435288
0.975000 0.946500 0.427827
0.220176 0.175424 0.465830
0.351048 0.178798 0.465580
0.567847 0.186317 0.467417
0.753437 0.194310 0.470704
0.873920 0.200424 0.472991
0.228436 0.304243 0.473363
0.361524 0.310339 0.475700
0.582712 0.322207 0.481578
0.772239 0.333869 0.488185
0.893276 0.342927 0.493067
0.259159 0.528766 0.501973
0.396829 0.539530 0.508342
0.628683 0.558652 0.517778
0.825498 0.573121 0.524111
0.929647 0.581650 0.526107
0.302623 0.741193 0.535332
0.442619 0.752238 0.539883
0.670681 0.768291 0.546151
0.878717 0.790027 0.534603
0.975000 0.791668 0.524988
0.334506 0.912850 0.555529
0.472233 0.918930 0.557512
0.696198 0.928806 0.559988
0.884501 0.937096 0.561287
0.975000 0.946500 0.554191
0.220005 0.176998 0.598433
0.351079 0.180716 0.598480
0.568372 0.188771 0.600788
0.754427 0.197204 0.604469
0.876233 0.203718 0.607121
0.229391 0.306950 0.606965
0.362752 0.313416 0.609617
0.584497 0.325863 0.615993
0.774526 0.338000 0.623017
0.895765 0.347436 0.628233
0.261815 0.533360 0.637186
0.399885 0.544521 0.643898
0.631403 0.564719 0.653892
0.826507 0.580168 0.661158
0.928636 0.589284 0.663868
0.305897 0.746110 0.670010
0.445639 0.756835 0.674274
0.673226 0.772390 0.680092
0.874692 0.785224 0.674127
0.966884 0.786119 0.672997
0.336569 0.914998 0.689048
0.474020 0.921061 0.690771
0.697524 0.930910 0.692839
0.885436 0.939178 0.693798
0.975000 0.946500 0.688585
