Fotico/Resources/LUTs/canela.cube
# Canela
LUT_3D_SIZE 5
0.126100 0.054251 0.000000
0.357944 0.050391 0.000000
0.608834 0.046212 0.000000
0.869928 0.041864 0.000000
1.000000 0.039137 0.000000
0.093869 0.267494 0.000000
0.325713 0.263633 0.000000
0.576603 0.259455 0.000000
0.837697 0.255107 0.000000
1.000000 0.252380 0.000000
0.060923 0.485470 0.000000
0.294247 0.482164 0.000000
0.556278 0.482164 0.000000
0.828967 0.482164 0.000000
1.000000 0.482164 0.000000
0.052107 0.714809 0.000000
0.294247 0.714809 0.000000
0.556278 0.714809 0.000000
0.828967 0.714809 0.000000
1.000000 0.714809 0.000000
0.052107 0.949006 0.000000
0.294247 0.949006 0.000000
0.556278 0.949006 0.000000
0.828967 0.949006 0.000000
1.000000 0.949006 0.000000
0.123292 0.053198 0.194504
0.355136 0.049337 0.194504
0.606025 0.045159 0.194504
0.867119 0.040811 0.194504
1.000000 0.038084 0.194504
0.091061 0.266440 0.194504
0.322905 0.262580 0.194504
0.573794 0.258401 0.194504
0.834888 0.254053 0.194504
1.000000 0.251833 0.194504
0.058114 0.484417 0.194504
0.294247 0.482164 0.194504
0.556278 0.482164 0.194504
0.828967 0.482164 0.194504
1.000000 0.482164 0.194504
0.052107 0.714809 0.194504
0.294247 0.714809 0.194504
0.556278 0.714809 0.194504
0.828967 0.714809 0.194504
1.000000 0.714809 0.194504
0.052107 0.949006 0.194504
0.294247 0.949006 0.194504
0.556278 0.949006 0.194504
0.828967 0.949006 0.194504
1.000000 0.949006 0.194504
0.120439 0.052129 0.392045
0.352283 0.048268 0.392045
0.603173 0.044090 0.392045
0.864267 0.039742 0.392045
1.000000 0.037014 0.392045
0.088208 0.265371 0.392045
0.320052 0.261510 0.392045
0.570942 0.257332 0.392045
0.832036 0.252984 0.392045
1.000000 0.251833 0.392045
0.055261 0.483347 0.392045
0.294247 0.482164 0.392045
0.556278 0.482164 0.392045
0.828967 0.482164 0.392045
1.000000 0.482164 0.392045
0.052107 0.714809 0.392045
0.294247 0.714809 0.392045
0.556278 0.714809 0.392045
0.828967 0.714809 0.392045
1.000000 0.714809 0.392045
0.052107 0.949006 0.392045
0.294247 0.949006 0.392045
0.556278 0.949006 0.392045
0.828967 0.949006 0.392045
1.000000 0.949006 0.392045
0.117703 0.051102 0.581555
0.349547 0.047241 0.581555
0.600436 0.043063 0.581555
0.861530 0.038715 0.581555
1.000000 0.035988 0.581555
0.085472 0.264345 0.581555
0.317316 0.260484 0.581555
0.568205 0.256306 0.581555
0.829299 0.251958 0.581555
1.000000 0.251833 0.581555
0.052525 0.482321 0.581555
0.294247 0.482164 0.581555
0.556278 0.482164 0.581555
0.828967 0.482164 0.581555
1.000000 0.482164 0.581555
0.052107 0.714809 0.581555
0.294247 0.714809 0.581555
0.556278 0.714809 0.581555
0.828967 0.714809 0.581555
1.000000 0.714809 0.581555
0.052107 0.949006 0.581555
0.294247 0.949006 0.581555
0.556278 0.949006 0.581555
0.828967 0.949006 0.581555
1.000000 0.949006 0.581555
0.115037 0.050103 0.766154
0.346881 0.046242 0.766154
0.597771 0.042064 0.766154
0.858865 0.037716 0.766154
1.000000 0.034989 0.766154
0.082806 0.263345 0.766154
0.314650 0.259484 0.766154
0.565540 0.255306 0.766154
0.828967 0.251833 0.766154
1.000000 0.251833 0.766154
0.052107 0.482164 0.766154
0.294247 0.482164 0.766154
0.556278 0.482164 0.766154
0.828967 0.482164 0.766154
1.000000 0.482164 0.766154
0.052107 0.714809 0.766154
0.294247 0.714809 0.766154
0.556278 0.714809 0.766154
0.828967 0.714809 0.766154
1.000000 0.714809 0.766154
0.052107 0.949006 0.766154
0.294247 0.949006 0.766154
0.556278 0.949006 0.766154
0.828967 0.949006 0.766154
1.000000 0.949006 0.766154
