Fotico/Resources/LUTs/canela.cube
# Canela
LUT_3D_SIZE 17
0.126100 0.054251 0.000000
0.180991 0.053337 0.000000
0.238402 0.052381 0.000000
0.297520 0.051397 0.000000
0.357944 0.050391 0.000000
0.419430 0.049367 0.000000
0.481815 0.048328 0.000000
0.544979 0.047276 0.000000
0.608834 0.046212 0.000000
0.673308 0.045139 0.000000
0.738345 0.044056 0.000000
0.803898 0.042964 0.000000
0.869928 0.041864 0.000000
0.936400 0.040757 0.000000
1.000000 0.039644 0.000000
1.000000 0.039137 0.000000
1.000000 0.039137 0.000000
0.118178 0.106668 0.000000
0.173069 0.105753 0.000000
0.230480 0.104797 0.000000
0.289598 0.103813 0.000000
0.350022 0.102807 0.000000
0.411508 0.101783 0.000000
0.473892 0.100744 0.000000
0.537057 0.099692 0.000000
0.600911 0.098629 0.000000
0.665386 0.097555 0.000000
0.730423 0.096472 0.000000
0.795976 0.095380 0.000000
0.862005 0.094281 0.000000
0.928478 0.093174 0.000000
0.995364 0.092060 0.000000
1.000000 0.091553 0.000000
1.000000 0.091553 0.000000
0.110136 0.159870 0.000000
0.165027 0.158956 0.000000
0.222438 0.158000 0.000000
0.281556 0.157016 0.000000
0.341980 0.156010 0.000000
0.403466 0.154986 0.000000
0.465851 0.153947 0.000000
0.529015 0.152895 0.000000
0.592870 0.151831 0.000000
0.657344 0.150758 0.000000
0.722381 0.149675 0.000000
0.787934 0.148583 0.000000
0.853964 0.147483 0.000000
0.920436 0.146376 0.000000
0.987322 0.145263 0.000000
1.000000 0.144756 0.000000
1.000000 0.144756 0.000000
0.102027 0.213523 0.000000
0.156918 0.212609 0.000000
0.214329 0.211653 0.000000
0.273447 0.210668 0.000000
0.333871 0.209662 0.000000
0.395357 0.208638 0.000000
0.457741 0.207599 0.000000
0.520906 0.206547 0.000000
0.584760 0.205484 0.000000
0.649235 0.204410 0.000000
0.714272 0.203327 0.000000
0.779825 0.202235 0.000000
0.845854 0.201136 0.000000
0.912327 0.200029 0.000000
0.979213 0.198915 0.000000
1.000000 0.198409 0.000000
1.000000 0.198409 0.000000
0.093869 0.267494 0.000000
0.148760 0.266580 0.000000
0.206171 0.265624 0.000000
0.265289 0.264639 0.000000
0.325713 0.263633 0.000000
0.387199 0.262609 0.000000
0.449584 0.261570 0.000000
0.512748 0.260518 0.000000
0.576603 0.259455 0.000000
0.641077 0.258381 0.000000
0.706114 0.257298 0.000000
0.771667 0.256206 0.000000
0.837697 0.255107 0.000000
0.904169 0.254000 0.000000
0.971055 0.252886 0.000000
1.000000 0.252380 0.000000
1.000000 0.252380 0.000000
0.085674 0.321712 0.000000
0.140565 0.320798 0.000000
0.197976 0.319842 0.000000
0.257094 0.318858 0.000000
0.317518 0.317851 0.000000
0.379004 0.316827 0.000000
0.441389 0.315789 0.000000
0.504553 0.314737 0.000000
0.568408 0.313673 0.000000
0.632882 0.312600 0.000000
0.697919 0.311516 0.000000
0.763472 0.310425 0.000000
0.829502 0.309325 0.000000
0.898391 0.309125 0.000000
0.968247 0.309125 0.000000
1.000000 0.309125 0.000000
1.000000 0.309125 0.000000
0.077449 0.376134 0.000000
0.132340 0.375220 0.000000
0.189750 0.374264 0.000000
0.248869 0.373279 0.000000
0.309293 0.372273 0.000000
0.370779 0.371249 0.000000
0.433163 0.370210 0.000000
0.496328 0.369158 0.000000
0.560182 0.368095 0.000000
0.624657 0.367021 0.000000
0.691541 0.366631 0.000000
0.760005 0.366631 0.000000
0.828967 0.366631 0.000000
0.898391 0.366631 0.000000
0.968247 0.366631 0.000000
1.000000 0.366631 0.000000
1.000000 0.366631 0.000000
0.069197 0.430727 0.000000
0.124088 0.429813 0.000000
0.181499 0.428857 0.000000
0.240617 0.427872 0.000000
0.301041 0.426866 0.000000
0.362527 0.425842 0.000000
0.424911 0.424803 0.000000
0.489588 0.424318 0.000000
0.556278 0.424318 0.000000
0.623616 0.424318 0.000000
0.691541 0.424318 0.000000
0.760005 0.424318 0.000000
0.828967 0.424318 0.000000
0.898391 0.424318 0.000000
0.968247 0.424318 0.000000
1.000000 0.424318 0.000000
1.000000 0.424318 0.000000
0.060923 0.485470 0.000000
0.115814 0.484556 0.000000
0.173225 0.483600 0.000000
0.232343 0.482615 0.000000
0.294247 0.482164 0.000000
0.358463 0.482164 0.000000
0.423618 0.482164 0.000000
0.489588 0.482164 0.000000
0.556278 0.482164 0.000000
0.623616 0.482164 0.000000
0.691541 0.482164 0.000000
0.760005 0.482164 0.000000
0.828967 0.482164 0.000000
0.898391 0.482164 0.000000
0.968247 0.482164 0.000000
1.000000 0.482164 0.000000
1.000000 0.482164 0.000000
0.052628 0.540344 0.000000
0.109436 0.540149 0.000000
0.169396 0.540149 0.000000
0.231140 0.540149 0.000000
0.294247 0.540149 0.000000
0.358463 0.540149 0.000000
0.423618 0.540149 0.000000
0.489588 0.540149 0.000000
0.556278 0.540149 0.000000
0.623616 0.540149 0.000000
0.691541 0.540149 0.000000
0.760005 0.540149 0.000000
0.828967 0.540149 0.000000
0.898391 0.540149 0.000000
0.968247 0.540149 0.000000
1.000000 0.540149 0.000000
1.000000 0.540149 0.000000
0.052107 0.598259 0.000000
0.109436 0.598259 0.000000
0.169396 0.598259 0.000000
0.231140 0.598259 0.000000
0.294247 0.598259 0.000000
0.358463 0.598259 0.000000
0.423618 0.598259 0.000000
0.489588 0.598259 0.000000
0.556278 0.598259 0.000000
0.623616 0.598259 0.000000
0.691541 0.598259 0.000000
0.760005 0.598259 0.000000
0.828967 0.598259 0.000000
0.898391 0.598259 0.000000
0.968247 0.598259 0.000000
1.000000 0.598259 0.000000
1.000000 0.598259 0.000000
0.052107 0.656482 0.000000
0.109436 0.656482 0.000000
0.169396 0.656482 0.000000
0.231140 0.656482 0.000000
0.294247 0.656482 0.000000
0.358463 0.656482 0.000000
0.423618 0.656482 0.000000
0.489588 0.656482 0.000000
0.556278 0.656482 0.000000
0.623616 0.656482 0.000000
0.691541 0.656482 0.000000
0.760005 0.656482 0.000000
0.828967 0.656482 0.000000
0.898391 0.656482 0.000000
0.968247 0.656482 0.000000
1.000000 0.656482 0.000000
1.000000 0.656482 0.000000
0.052107 0.714809 0.000000
0.109436 0.714809 0.000000
0.169396 0.714809 0.000000
0.231140 0.714809 0.000000
0.294247 0.714809 0.000000
0.358463 0.714809 0.000000
0.423618 0.714809 0.000000
0.489588 0.714809 0.000000
0.556278 0.714809 0.000000
0.623616 0.714809 0.000000
0.691541 0.714809 0.000000
0.760005 0.714809 0.000000
0.828967 0.714809 0.000000
0.898391 0.714809 0.000000
0.968247 0.714809 0.000000
1.000000 0.714809 0.000000
1.000000 0.714809 0.000000
0.052107 0.773231 0.000000
0.109436 0.773231 0.000000
0.169396 0.773231 0.000000
0.231140 0.773231 0.000000
0.294247 0.773231 0.000000
0.358463 0.773231 0.000000
0.423618 0.773231 0.000000
0.489588 0.773231 0.000000
0.556278 0.773231 0.000000
0.623616 0.773231 0.000000
0.691541 0.773231 0.000000
0.760005 0.773231 0.000000
0.828967 0.773231 0.000000
0.898391 0.773231 0.000000
0.968247 0.773231 0.000000
1.000000 0.773231 0.000000
1.000000 0.773231 0.000000
0.052107 0.831742 0.000000
0.109436 0.831742 0.000000
0.169396 0.831742 0.000000
0.231140 0.831742 0.000000
0.294247 0.831742 0.000000
0.358463 0.831742 0.000000
0.423618 0.831742 0.000000
0.489588 0.831742 0.000000
0.556278 0.831742 0.000000
0.623616 0.831742 0.000000
0.691541 0.831742 0.000000
0.760005 0.831742 0.000000
0.828967 0.831742 0.000000
0.898391 0.831742 0.000000
0.968247 0.831742 0.000000
1.000000 0.831742 0.000000
1.000000 0.831742 0.000000
0.052107 0.890335 0.000000
0.109436 0.890335 0.000000
0.169396 0.890335 0.000000
0.231140 0.890335 0.000000
0.294247 0.890335 0.000000
0.358463 0.890335 0.000000
0.423618 0.890335 0.000000
0.489588 0.890335 0.000000
0.556278 0.890335 0.000000
0.623616 0.890335 0.000000
0.691541 0.890335 0.000000
0.760005 0.890335 0.000000
0.828967 0.890335 0.000000
0.898391 0.890335 0.000000
0.968247 0.890335 0.000000
1.000000 0.890335 0.000000
1.000000 0.890335 0.000000
0.052107 0.949006 0.000000
0.109436 0.949006 0.000000
0.169396 0.949006 0.000000
0.231140 0.949006 0.000000
0.294247 0.949006 0.000000
0.358463 0.949006 0.000000
0.423618 0.949006 0.000000
0.489588 0.949006 0.000000
0.556278 0.949006 0.000000
0.623616 0.949006 0.000000
0.691541 0.949006 0.000000
0.760005 0.949006 0.000000
0.828967 0.949006 0.000000
0.898391 0.949006 0.000000
0.968247 0.949006 0.000000
1.000000 0.949006 0.000000
1.000000 0.949006 0.000000
0.125612 0.054068 0.033805
0.180503 0.053154 0.033805
0.237914 0.052198 0.033805
0.297032 0.051214 0.033805
0.357456 0.050207 0.033805
0.418942 0.049184 0.033805
0.481327 0.048145 0.033805
0.544491 0.047093 0.033805
0.608346 0.046029 0.033805
0.672820 0.044956 0.033805
0.737857 0.043873 0.033805
0.803410 0.042781 0.033805
0.869440 0.041681 0.033805
0.935912 0.040574 0.033805
1.000000 0.039461 0.033805
1.000000 0.038954 0.033805
1.000000 0.038954 0.033805
0.117690 0.106484 0.033805
0.172581 0.105570 0.033805
0.229991 0.104614 0.033805
0.289110 0.103630 0.033805
0.349534 0.102624 0.033805
0.411020 0.101600 0.033805
0.473404 0.100561 0.033805
0.536569 0.099509 0.033805
0.600423 0.098445 0.033805
0.664898 0.097372 0.033805
0.729935 0.096289 0.033805
0.795488 0.095197 0.033805
0.861517 0.094097 0.033805
0.927989 0.092990 0.033805
0.994876 0.091877 0.033805
1.000000 0.091370 0.033805
1.000000 0.091370 0.033805
0.109648 0.159687 0.033805
0.164539 0.158773 0.033805
0.221950 0.157817 0.033805
0.281068 0.156833 0.033805
0.341492 0.155826 0.033805
0.402978 0.154803 0.033805
0.465363 0.153764 0.033805
0.528527 0.152712 0.033805
0.592382 0.151648 0.033805
0.656856 0.150575 0.033805
0.721893 0.149492 0.033805
0.787446 0.148400 0.033805
0.853476 0.147300 0.033805
0.919948 0.146193 0.033805
0.986834 0.145080 0.033805
1.000000 0.144573 0.033805
1.000000 0.144573 0.033805
0.101539 0.213340 0.033805
0.156430 0.212426 0.033805
0.213841 0.211470 0.033805
0.272959 0.210485 0.033805
0.333383 0.209479 0.033805
0.394869 0.208455 0.033805
0.457253 0.207416 0.033805
0.520418 0.206364 0.033805
0.584272 0.205301 0.033805
0.648747 0.204227 0.033805
0.713784 0.203144 0.033805
0.779337 0.202052 0.033805
0.845366 0.200953 0.033805
0.911839 0.199846 0.033805
0.978725 0.198732 0.033805
1.000000 0.198226 0.033805
1.000000 0.198226 0.033805
0.093381 0.267311 0.033805
0.148272 0.266397 0.033805
0.205683 0.265440 0.033805
0.264801 0.264456 0.033805
0.325225 0.263450 0.033805
0.386711 0.262426 0.033805
0.449096 0.261387 0.033805
0.512260 0.260335 0.033805
0.576115 0.259272 0.033805
0.640589 0.258198 0.033805
0.705626 0.257115 0.033805
0.771179 0.256023 0.033805
0.837209 0.254924 0.033805
0.903681 0.253817 0.033805
0.970567 0.252703 0.033805
1.000000 0.252196 0.033805
1.000000 0.252196 0.033805
0.085186 0.321529 0.033805
0.140077 0.320615 0.033805
0.197488 0.319659 0.033805
0.256606 0.318675 0.033805
0.317030 0.317668 0.033805
0.378516 0.316644 0.033805
0.440901 0.315605 0.033805
0.504065 0.314554 0.033805
0.567920 0.313490 0.033805
0.632394 0.312417 0.033805
0.697431 0.311333 0.033805
0.762984 0.310242 0.033805
0.829014 0.309142 0.033805
0.898391 0.309125 0.033805
0.968247 0.309125 0.033805
1.000000 0.309125 0.033805
1.000000 0.309125 0.033805
0.076960 0.375951 0.033805
0.131852 0.375037 0.033805
0.189262 0.374080 0.033805
0.248381 0.373096 0.033805
0.308804 0.372090 0.033805
0.370290 0.371066 0.033805
0.432675 0.370027 0.033805
0.495839 0.368975 0.033805
0.559694 0.367912 0.033805
0.624168 0.366838 0.033805
0.691541 0.366631 0.033805
0.760005 0.366631 0.033805
0.828967 0.366631 0.033805
0.898391 0.366631 0.033805
0.968247 0.366631 0.033805
1.000000 0.366631 0.033805
1.000000 0.366631 0.033805
0.068709 0.430544 0.033805
0.123600 0.429630 0.033805
0.181011 0.428674 0.033805
0.240129 0.427689 0.033805
0.300553 0.426683 0.033805
0.362039 0.425659 0.033805
0.424423 0.424620 0.033805
0.489588 0.424318 0.033805
0.556278 0.424318 0.033805
0.623616 0.424318 0.033805
0.691541 0.424318 0.033805
0.760005 0.424318 0.033805
0.828967 0.424318 0.033805
0.898391 0.424318 0.033805
0.968247 0.424318 0.033805
1.000000 0.424318 0.033805
1.000000 0.424318 0.033805
0.060434 0.485287 0.033805
0.115326 0.484373 0.033805
0.172736 0.483417 0.033805
0.231855 0.482432 0.033805
0.294247 0.482164 0.033805
0.358463 0.482164 0.033805
0.423618 0.482164 0.033805
0.489588 0.482164 0.033805
0.556278 0.482164 0.033805
0.623616 0.482164 0.033805
0.691541 0.482164 0.033805
0.760005 0.482164 0.033805
0.828967 0.482164 0.033805
0.898391 0.482164 0.033805
0.968247 0.482164 0.033805
1.000000 0.482164 0.033805
1.000000 0.482164 0.033805
0.052140 0.540161 0.033805
0.109436 0.540149 0.033805
0.169396 0.540149 0.033805
0.231140 0.540149 0.033805
0.294247 0.540149 0.033805
0.358463 0.540149 0.033805
0.423618 0.540149 0.033805
0.489588 0.540149 0.033805
0.556278 0.540149 0.033805
0.623616 0.540149 0.033805
0.691541 0.540149 0.033805
0.760005 0.540149 0.033805
0.828967 0.540149 0.033805
0.898391 0.540149 0.033805
0.968247 0.540149 0.033805
1.000000 0.540149 0.033805
1.000000 0.540149 0.033805
0.052107 0.598259 0.033805
0.109436 0.598259 0.033805
0.169396 0.598259 0.033805
0.231140 0.598259 0.033805
0.294247 0.598259 0.033805
0.358463 0.598259 0.033805
0.423618 0.598259 0.033805
0.489588 0.598259 0.033805
0.556278 0.598259 0.033805
0.623616 0.598259 0.033805
0.691541 0.598259 0.033805
0.760005 0.598259 0.033805
0.828967 0.598259 0.033805
0.898391 0.598259 0.033805
0.968247 0.598259 0.033805
1.000000 0.598259 0.033805
1.000000 0.598259 0.033805
0.052107 0.656482 0.033805
0.109436 0.656482 0.033805
0.169396 0.656482 0.033805
0.231140 0.656482 0.033805
0.294247 0.656482 0.033805
0.358463 0.656482 0.033805
0.423618 0.656482 0.033805
0.489588 0.656482 0.033805
0.556278 0.656482 0.033805
0.623616 0.656482 0.033805
0.691541 0.656482 0.033805
0.760005 0.656482 0.033805
0.828967 0.656482 0.033805
0.898391 0.656482 0.033805
0.968247 0.656482 0.033805
1.000000 0.656482 0.033805
1.000000 0.656482 0.033805
0.052107 0.714809 0.033805
0.109436 0.714809 0.033805
0.169396 0.714809 0.033805
0.231140 0.714809 0.033805
0.294247 0.714809 0.033805
0.358463 0.714809 0.033805
0.423618 0.714809 0.033805
0.489588 0.714809 0.033805
0.556278 0.714809 0.033805
0.623616 0.714809 0.033805
0.691541 0.714809 0.033805
0.760005 0.714809 0.033805
0.828967 0.714809 0.033805
0.898391 0.714809 0.033805
0.968247 0.714809 0.033805
1.000000 0.714809 0.033805
1.000000 0.714809 0.033805
0.052107 0.773231 0.033805
0.109436 0.773231 0.033805
0.169396 0.773231 0.033805
0.231140 0.773231 0.033805
0.294247 0.773231 0.033805
0.358463 0.773231 0.033805
0.423618 0.773231 0.033805
0.489588 0.773231 0.033805
0.556278 0.773231 0.033805
0.623616 0.773231 0.033805
0.691541 0.773231 0.033805
0.760005 0.773231 0.033805
0.828967 0.773231 0.033805
0.898391 0.773231 0.033805
0.968247 0.773231 0.033805
1.000000 0.773231 0.033805
1.000000 0.773231 0.033805
0.052107 0.831742 0.033805
0.109436 0.831742 0.033805
0.169396 0.831742 0.033805
0.231140 0.831742 0.033805
0.294247 0.831742 0.033805
0.358463 0.831742 0.033805
0.423618 0.831742 0.033805
0.489588 0.831742 0.033805
0.556278 0.831742 0.033805
0.623616 0.831742 0.033805
0.691541 0.831742 0.033805
0.760005 0.831742 0.033805
0.828967 0.831742 0.033805
0.898391 0.831742 0.033805
0.968247 0.831742 0.033805
1.000000 0.831742 0.033805
1.000000 0.831742 0.033805
0.052107 0.890335 0.033805
0.109436 0.890335 0.033805
0.169396 0.890335 0.033805
0.231140 0.890335 0.033805
0.294247 0.890335 0.033805
0.358463 0.890335 0.033805
0.423618 0.890335 0.033805
0.489588 0.890335 0.033805
0.556278 0.890335 0.033805
0.623616 0.890335 0.033805
0.691541 0.890335 0.033805
0.760005 0.890335 0.033805
0.828967 0.890335 0.033805
0.898391 0.890335 0.033805
0.968247 0.890335 0.033805
1.000000 0.890335 0.033805
1.000000 0.890335 0.033805
0.052107 0.949006 0.033805
0.109436 0.949006 0.033805
0.169396 0.949006 0.033805
0.231140 0.949006 0.033805
0.294247 0.949006 0.033805
0.358463 0.949006 0.033805
0.423618 0.949006 0.033805
0.489588 0.949006 0.033805
0.556278 0.949006 0.033805
0.623616 0.949006 0.033805
0.691541 0.949006 0.033805
0.760005 0.949006 0.033805
0.828967 0.949006 0.033805
0.898391 0.949006 0.033805
0.968247 0.949006 0.033805
1.000000 0.949006 0.033805
1.000000 0.949006 0.033805
0.124803 0.053765 0.089811
0.179694 0.052851 0.089811
0.237105 0.051895 0.089811
0.296224 0.050910 0.089811
0.356647 0.049904 0.089811
0.418133 0.048880 0.089811
0.480518 0.047841 0.089811
0.543682 0.046790 0.089811
0.607537 0.045726 0.089811
0.672011 0.044652 0.089811
0.737049 0.043569 0.089811
0.802602 0.042478 0.089811
0.868631 0.041378 0.089811
0.935103 0.040271 0.089811
1.000000 0.039157 0.089811
1.000000 0.038651 0.089811
1.000000 0.038651 0.089811
0.116881 0.106181 0.089811
0.171772 0.105267 0.089811
0.229183 0.104311 0.089811
0.288301 0.103327 0.089811
0.348725 0.102320 0.089811
0.410211 0.101296 0.089811
0.472595 0.100257 0.089811
0.535760 0.099206 0.089811
0.599615 0.098142 0.089811
0.664089 0.097069 0.089811
0.729126 0.095985 0.089811
0.794679 0.094894 0.089811
0.860708 0.093794 0.089811
0.927181 0.092687 0.089811
0.994067 0.091573 0.089811
1.000000 0.091067 0.089811
1.000000 0.091067 0.089811
0.108839 0.159384 0.089811
0.163730 0.158470 0.089811
0.221141 0.157514 0.089811
0.280260 0.156529 0.089811
0.340683 0.155523 0.089811
0.402169 0.154499 0.089811
0.464554 0.153460 0.089811
0.527718 0.152408 0.089811
0.591573 0.151345 0.089811
0.656047 0.150271 0.089811
0.721085 0.149188 0.089811
0.786638 0.148097 0.089811
0.852667 0.146997 0.089811
0.919139 0.145890 0.089811
0.986025 0.144776 0.089811
1.000000 0.144270 0.089811
1.000000 0.144270 0.089811
0.100730 0.213036 0.089811
0.155621 0.212122 0.089811
0.213032 0.211166 0.089811
0.272150 0.210182 0.089811
0.332574 0.209175 0.089811
0.394060 0.208152 0.089811
0.456444 0.207113 0.089811
0.519609 0.206061 0.089811
0.583464 0.204997 0.089811
0.647938 0.203924 0.089811
0.712975 0.202841 0.089811
0.778528 0.201749 0.089811
0.844558 0.200649 0.089811
0.911030 0.199542 0.089811
0.977916 0.198429 0.089811
1.000000 0.197922 0.089811
1.000000 0.197922 0.089811
0.092572 0.267007 0.089811
0.147463 0.266093 0.089811
0.204874 0.265137 0.089811
0.263993 0.264153 0.089811
0.324416 0.263146 0.089811
0.385902 0.262122 0.089811
0.448287 0.261084 0.089811
0.511451 0.260032 0.089811
0.575306 0.258968 0.089811
0.639780 0.257895 0.089811
0.704818 0.256812 0.089811
0.770371 0.255720 0.089811
0.836400 0.254620 0.089811
0.902872 0.253513 0.089811
0.969758 0.252399 0.089811
1.000000 0.251893 0.089811
1.000000 0.251893 0.089811
0.084377 0.321226 0.089811
0.139268 0.320312 0.089811
0.196679 0.319356 0.089811
0.255798 0.318371 0.089811
0.316221 0.317365 0.089811
0.377707 0.316341 0.089811
0.440092 0.315302 0.089811
0.503256 0.314250 0.089811
0.567111 0.313187 0.089811
0.631585 0.312113 0.089811
0.696623 0.311030 0.089811
0.762176 0.309939 0.089811
0.828967 0.309125 0.089811
0.898391 0.309125 0.089811
0.968247 0.309125 0.089811
1.000000 0.309125 0.089811
1.000000 0.309125 0.089811
0.076152 0.375647 0.089811
0.131043 0.374733 0.089811
0.188454 0.373777 0.089811
0.247572 0.372793 0.089811
0.307996 0.371786 0.089811
0.369482 0.370763 0.089811
0.431866 0.369724 0.089811
0.495031 0.368672 0.089811
0.558885 0.367608 0.089811
0.623616 0.366631 0.089811
0.691541 0.366631 0.089811
0.760005 0.366631 0.089811
0.828967 0.366631 0.089811
0.898391 0.366631 0.089811
0.968247 0.366631 0.089811
1.000000 0.366631 0.089811
1.000000 0.366631 0.089811
0.067900 0.430241 0.089811
0.122791 0.429327 0.089811
0.180202 0.428371 0.089811
0.239320 0.427386 0.089811
0.299744 0.426380 0.089811
0.361230 0.425356 0.089811
0.423618 0.424318 0.089811
0.489588 0.424318 0.089811
0.556278 0.424318 0.089811
0.623616 0.424318 0.089811
0.691541 0.424318 0.089811
0.760005 0.424318 0.089811
0.828967 0.424318 0.089811
0.898391 0.424318 0.089811
0.968247 0.424318 0.089811
1.000000 0.424318 0.089811
1.000000 0.424318 0.089811
0.059626 0.484983 0.089811
0.114517 0.484069 0.089811
0.171928 0.483113 0.089811
0.231140 0.482164 0.089811
0.294247 0.482164 0.089811
0.358463 0.482164 0.089811
0.423618 0.482164 0.089811
0.489588 0.482164 0.089811
0.556278 0.482164 0.089811
0.623616 0.482164 0.089811
0.691541 0.482164 0.089811
0.760005 0.482164 0.089811
0.828967 0.482164 0.089811
0.898391 0.482164 0.089811
0.968247 0.482164 0.089811
1.000000 0.482164 0.089811
1.000000 0.482164 0.089811
0.052107 0.540149 0.089811
0.109436 0.540149 0.089811
0.169396 0.540149 0.089811
0.231140 0.540149 0.089811
0.294247 0.540149 0.089811
0.358463 0.540149 0.089811
0.423618 0.540149 0.089811
0.489588 0.540149 0.089811
0.556278 0.540149 0.089811
0.623616 0.540149 0.089811
0.691541 0.540149 0.089811
0.760005 0.540149 0.089811
0.828967 0.540149 0.089811
0.898391 0.540149 0.089811
0.968247 0.540149 0.089811
1.000000 0.540149 0.089811
1.000000 0.540149 0.089811
0.052107 0.598259 0.089811
0.109436 0.598259 0.089811
0.169396 0.598259 0.089811
0.231140 0.598259 0.089811
0.294247 0.598259 0.089811
0.358463 0.598259 0.089811
0.423618 0.598259 0.089811
0.489588 0.598259 0.089811
0.556278 0.598259 0.089811
0.623616 0.598259 0.089811
0.691541 0.598259 0.089811
0.760005 0.598259 0.089811
0.828967 0.598259 0.089811
0.898391 0.598259 0.089811
0.968247 0.598259 0.089811
1.000000 0.598259 0.089811
1.000000 0.598259 0.089811
0.052107 0.656482 0.089811
0.109436 0.656482 0.089811
0.169396 0.656482 0.089811
0.231140 0.656482 0.089811
0.294247 0.656482 0.089811
0.358463 0.656482 0.089811
0.423618 0.656482 0.089811
0.489588 0.656482 0.089811
0.556278 0.656482 0.089811
0.623616 0.656482 0.089811
0.691541 0.656482 0.089811
0.760005 0.656482 0.089811
0.828967 0.656482 0.089811
0.898391 0.656482 0.089811
0.968247 0.656482 0.089811
1.000000 0.656482 0.089811
1.000000 0.656482 0.089811
0.052107 0.714809 0.089811
0.109436 0.714809 0.089811
0.169396 0.714809 0.089811
0.231140 0.714809 0.089811
0.294247 0.714809 0.089811
0.358463 0.714809 0.089811
0.423618 0.714809 0.089811
0.489588 0.714809 0.089811
0.556278 0.714809 0.089811
0.623616 0.714809 0.089811
0.691541 0.714809 0.089811
0.760005 0.714809 0.089811
0.828967 0.714809 0.089811
0.898391 0.714809 0.089811
0.968247 0.714809 0.089811
1.000000 0.714809 0.089811
1.000000 0.714809 0.089811
0.052107 0.773231 0.089811
0.109436 0.773231 0.089811
0.169396 0.773231 0.089811
0.231140 0.773231 0.089811
0.294247 0.773231 0.089811
0.358463 0.773231 0.089811
0.423618 0.773231 0.089811
0.489588 0.773231 0.089811
0.556278 0.773231 0.089811
0.623616 0.773231 0.089811
0.691541 0.773231 0.089811
0.760005 0.773231 0.089811
0.828967 0.773231 0.089811
0.898391 0.773231 0.089811
0.968247 0.773231 0.089811
1.000000 0.773231 0.089811
1.000000 0.773231 0.089811
0.052107 0.831742 0.089811
0.109436 0.831742 0.089811
0.169396 0.831742 0.089811
0.231140 0.831742 0.089811
0.294247 0.831742 0.089811
0.358463 0.831742 0.089811
0.423618 0.831742 0.089811
0.489588 0.831742 0.089811
0.556278 0.831742 0.089811
0.623616 0.831742 0.089811
0.691541 0.831742 0.089811
0.760005 0.831742 0.089811
0.828967 0.831742 0.089811
0.898391 0.831742 0.089811
0.968247 0.831742 0.089811
1.000000 0.831742 0.089811
1.000000 0.831742 0.089811
0.052107 0.890335 0.089811
0.109436 0.890335 0.089811
0.169396 0.890335 0.089811
0.231140 0.890335 0.089811
0.294247 0.890335 0.089811
0.358463 0.890335 0.089811
0.423618 0.890335 0.089811
0.489588 0.890335 0.089811
0.556278 0.890335 0.089811
0.623616 0.890335 0.089811
0.691541 0.890335 0.089811
0.760005 0.890335 0.089811
0.828967 0.890335 0.089811
0.898391 0.890335 0.089811
0.968247 0.890335 0.089811
1.000000 0.890335 0.089811
1.000000 0.890335 0.089811
0.052107 0.949006 0.089811
0.109436 0.949006 0.089811
0.169396 0.949006 0.089811
0.231140 0.949006 0.089811
0.294247 0.949006 0.089811
0.358463 0.949006 0.089811
0.423618 0.949006 0.089811
0.489588 0.949006 0.089811
0.556278 0.949006 0.089811
0.623616 0.949006 0.089811
0.691541 0.949006 0.089811
0.760005 0.949006 0.089811
0.828967 0.949006 0.089811
0.898391 0.949006 0.089811
0.968247 0.949006 0.089811
1.000000 0.949006 0.089811
1.000000 0.949006 0.089811
0.124036 0.053477 0.142945
0.178927 0.052563 0.142945
0.236338 0.051607 0.142945
0.295456 0.050623 0.142945
0.355880 0.049616 0.142945
0.417366 0.048593 0.142945
0.479751 0.047554 0.142945
0.542915 0.046502 0.142945
0.606770 0.045438 0.142945
0.671244 0.044365 0.142945
0.736281 0.043282 0.142945
0.801834 0.042190 0.142945
0.867864 0.041090 0.142945
0.934336 0.039983 0.142945
1.000000 0.038870 0.142945
1.000000 0.038363 0.142945
1.000000 0.038363 0.142945
0.116114 0.105894 0.142945
0.171005 0.104979 0.142945
0.228416 0.104023 0.142945
0.287534 0.103039 0.142945
