Fotico/Resources/LUTs/canela.cube
# Canela
LUT_3D_SIZE 9
0.126100 0.054251 0.000000
0.238402 0.052381 0.000000
0.357944 0.050391 0.000000
0.481815 0.048328 0.000000
0.608834 0.046212 0.000000
0.738345 0.044056 0.000000
0.869928 0.041864 0.000000
1.000000 0.039644 0.000000
1.000000 0.039137 0.000000
0.110136 0.159870 0.000000
0.222438 0.158000 0.000000
0.341980 0.156010 0.000000
0.465851 0.153947 0.000000
0.592870 0.151831 0.000000
0.722381 0.149675 0.000000
0.853964 0.147483 0.000000
0.987322 0.145263 0.000000
1.000000 0.144756 0.000000
0.093869 0.267494 0.000000
0.206171 0.265624 0.000000
0.325713 0.263633 0.000000
0.449584 0.261570 0.000000
0.576603 0.259455 0.000000
0.706114 0.257298 0.000000
0.837697 0.255107 0.000000
0.971055 0.252886 0.000000
1.000000 0.252380 0.000000
0.077449 0.376134 0.000000
0.189750 0.374264 0.000000
0.309293 0.372273 0.000000
0.433163 0.370210 0.000000
0.560182 0.368095 0.000000
0.691541 0.366631 0.000000
0.828967 0.366631 0.000000
0.968247 0.366631 0.000000
1.000000 0.366631 0.000000
0.060923 0.485470 0.000000
0.173225 0.483600 0.000000
0.294247 0.482164 0.000000
0.423618 0.482164 0.000000
0.556278 0.482164 0.000000
0.691541 0.482164 0.000000
0.828967 0.482164 0.000000
0.968247 0.482164 0.000000
1.000000 0.482164 0.000000
0.052107 0.598259 0.000000
0.169396 0.598259 0.000000
0.294247 0.598259 0.000000
0.423618 0.598259 0.000000
0.556278 0.598259 0.000000
0.691541 0.598259 0.000000
0.828967 0.598259 0.000000
0.968247 0.598259 0.000000
1.000000 0.598259 0.000000
0.052107 0.714809 0.000000
0.169396 0.714809 0.000000
0.294247 0.714809 0.000000
0.423618 0.714809 0.000000
0.556278 0.714809 0.000000
0.691541 0.714809 0.000000
0.828967 0.714809 0.000000
0.968247 0.714809 0.000000
1.000000 0.714809 0.000000
0.052107 0.831742 0.000000
0.169396 0.831742 0.000000
0.294247 0.831742 0.000000
0.423618 0.831742 0.000000
0.556278 0.831742 0.000000
0.691541 0.831742 0.000000
0.828967 0.831742 0.000000
0.968247 0.831742 0.000000
1.000000 0.831742 0.000000
0.052107 0.949006 0.000000
0.169396 0.949006 0.000000
0.294247 0.949006 0.000000
0.423618 0.949006 0.000000
0.556278 0.949006 0.000000
0.691541 0.949006 0.000000
0.828967 0.949006 0.000000
0.968247 0.949006 0.000000
1.000000 0.949006 0.000000
0.124803 0.053765 0.089811
0.237105 0.051895 0.089811
0.356647 0.049904 0.089811
0.480518 0.047841 0.089811
0.607537 0.045726 0.089811
0.737049 0.043569 0.089811
0.868631 0.041378 0.089811
1.000000 0.039157 0.089811
1.000000 0.038651 0.089811
0.108839 0.159384 0.089811
0.221141 0.157514 0.089811
0.340683 0.155523 0.089811
0.464554 0.153460 0.089811
0.591573 0.151345 0.089811
0.721085 0.149188 0.089811
0.852667 0.146997 0.089811
0.986025 0.144776 0.089811
1.000000 0.144270 0.089811
0.092572 0.267007 0.089811
0.204874 0.265137 0.089811
0.324416 0.263146 0.089811
0.448287 0.261084 0.089811
0.575306 0.258968 0.089811
0.704818 0.256812 0.089811
0.836400 0.254620 0.089811
0.969758 0.252399 0.089811
1.000000 0.251893 0.089811
0.076152 0.375647 0.089811
0.188454 0.373777 0.089811
0.307996 0.371786 0.089811
0.431866 0.369724 0.089811
0.558885 0.367608 0.089811
0.691541 0.366631 0.089811
0.828967 0.366631 0.089811
0.968247 0.366631 0.089811
1.000000 0.366631 0.089811
0.059626 0.484983 0.089811
0.171928 0.483113 0.089811
0.294247 0.482164 0.089811
0.423618 0.482164 0.089811
0.556278 0.482164 0.089811
0.691541 0.482164 0.089811
0.828967 0.482164 0.089811
0.968247 0.482164 0.089811
1.000000 0.482164 0.089811
0.052107 0.598259 0.089811
0.169396 0.598259 0.089811
0.294247 0.598259 0.089811
0.423618 0.598259 0.089811
0.556278 0.598259 0.089811
0.691541 0.598259 0.089811
0.828967 0.598259 0.089811
0.968247 0.598259 0.089811
1.000000 0.598259 0.089811
0.052107 0.714809 0.089811
0.169396 0.714809 0.089811
0.294247 0.714809 0.089811
0.423618 0.714809 0.089811
0.556278 0.714809 0.089811
0.691541 0.714809 0.089811
0.828967 0.714809 0.089811
0.968247 0.714809 0.089811
1.000000 0.714809 0.089811
0.052107 0.831742 0.089811
0.169396 0.831742 0.089811
0.294247 0.831742 0.089811
0.423618 0.831742 0.089811
0.556278 0.831742 0.089811
0.691541 0.831742 0.089811
0.828967 0.831742 0.089811
0.968247 0.831742 0.089811
1.000000 0.831742 0.089811
0.052107 0.949006 0.089811
0.169396 0.949006 0.089811
0.294247 0.949006 0.089811
0.423618 0.949006 0.089811
0.556278 0.949006 0.089811
0.691541 0.949006 0.089811
0.828967 0.949006 0.089811
0.968247 0.949006 0.089811
1.000000 0.949006 0.089811
0.123292 0.053198 0.194504
0.235594 0.051328 0.194504
0.355136 0.049337 0.194504
0.479006 0.047274 0.194504
0.606025 0.045159 0.194504
0.735537 0.043002 0.194504
0.867119 0.040811 0.194504
1.000000 0.038590 0.194504
1.000000 0.038084 0.194504
0.107328 0.158817 0.194504
0.219630 0.156947 0.194504
0.339172 0.154956 0.194504
0.463042 0.152893 0.194504
0.590061 0.150778 0.194504
0.719573 0.148621 0.194504
0.851155 0.146430 0.194504
0.984514 0.144209 0.194504
1.000000 0.143703 0.194504
0.091061 0.266440 0.194504
0.203363 0.264570 0.194504
0.322905 0.262580 0.194504
0.446775 0.260517 0.194504
0.573794 0.258401 0.194504
0.703306 0.256245 0.194504
0.834888 0.254053 0.194504
0.968247 0.251833 0.194504
1.000000 0.251833 0.194504
0.074640 0.375080 0.194504
0.186942 0.373210 0.194504
0.306484 0.371220 0.194504
0.430354 0.369157 0.194504
0.557374 0.367041 0.194504
0.691541 0.366631 0.194504
0.828967 0.366631 0.194504
0.968247 0.366631 0.194504
1.000000 0.366631 0.194504
0.058114 0.484417 0.194504
0.170416 0.482546 0.194504
0.294247 0.482164 0.194504
0.423618 0.482164 0.194504
0.556278 0.482164 0.194504
0.691541 0.482164 0.194504
0.828967 0.482164 0.194504
0.968247 0.482164 0.194504
1.000000 0.482164 0.194504
0.052107 0.598259 0.194504
0.169396 0.598259 0.194504
0.294247 0.598259 0.194504
0.423618 0.598259 0.194504
0.556278 0.598259 0.194504
0.691541 0.598259 0.194504
0.828967 0.598259 0.194504
0.968247 0.598259 0.194504
1.000000 0.598259 0.194504
0.052107 0.714809 0.194504
0.169396 0.714809 0.194504
0.294247 0.714809 0.194504
0.423618 0.714809 0.194504
0.556278 0.714809 0.194504
0.691541 0.714809 0.194504
0.828967 0.714809 0.194504
0.968247 0.714809 0.194504
1.000000 0.714809 0.194504
0.052107 0.831742 0.194504
0.169396 0.831742 0.194504
0.294247 0.831742 0.194504
0.423618 0.831742 0.194504
0.556278 0.831742 0.194504
0.691541 0.831742 0.194504
0.828967 0.831742 0.194504
0.968247 0.831742 0.194504
1.000000 0.831742 0.194504
0.052107 0.949006 0.194504
0.169396 0.949006 0.194504
0.294247 0.949006 0.194504
0.423618 0.949006 0.194504
0.556278 0.949006 0.194504
0.691541 0.949006 0.194504
0.828967 0.949006 0.194504
0.968247 0.949006 0.194504
1.000000 0.949006 0.194504
0.121846 0.052656 0.294628
0.234148 0.050786 0.294628
0.353690 0.048795 0.294628
0.477560 0.046732 0.294628
0.604580 0.044617 0.294628
0.734091 0.042460 0.294628
0.865673 0.040269 0.294628
0.999032 0.038048 0.294628
1.000000 0.037542 0.294628
0.105882 0.158275 0.294628
0.218184 0.156405 0.294628
0.337726 0.154414 0.294628
0.461596 0.152351 0.294628
0.588615 0.150236 0.294628
0.718127 0.148079 0.294628
0.849709 0.145888 0.294628
0.983068 0.143667 0.294628
1.000000 0.143161 0.294628
0.089615 0.265898 0.294628
0.201917 0.264028 0.294628
0.321459 0.262037 0.294628
0.445329 0.259975 0.294628
0.572348 0.257859 0.294628
0.701860 0.255702 0.294628
0.833442 0.253511 0.294628
0.968247 0.251833 0.294628
1.000000 0.251833 0.294628
0.073194 0.374538 0.294628
0.185496 0.372668 0.294628
0.305038 0.370677 0.294628
0.428909 0.368615 0.294628
0.556278 0.366631 0.294628
0.691541 0.366631 0.294628
0.828967 0.366631 0.294628
0.968247 0.366631 0.294628
1.000000 0.366631 0.294628
0.056668 0.483874 0.294628
0.169396 0.482164 0.294628
0.294247 0.482164 0.294628
0.423618 0.482164 0.294628
0.556278 0.482164 0.294628
0.691541 0.482164 0.294628
0.828967 0.482164 0.294628
0.968247 0.482164 0.294628
1.000000 0.482164 0.294628
0.052107 0.598259 0.294628
0.169396 0.598259 0.294628
0.294247 0.598259 0.294628
0.423618 0.598259 0.294628
0.556278 0.598259 0.294628
0.691541 0.598259 0.294628
0.828967 0.598259 0.294628
0.968247 0.598259 0.294628
1.000000 0.598259 0.294628
0.052107 0.714809 0.294628
0.169396 0.714809 0.294628
0.294247 0.714809 0.294628
0.423618 0.714809 0.294628
0.556278 0.714809 0.294628
0.691541 0.714809 0.294628
0.828967 0.714809 0.294628
0.968247 0.714809 0.294628
1.000000 0.714809 0.294628
0.052107 0.831742 0.294628
0.169396 0.831742 0.294628
0.294247 0.831742 0.294628
0.423618 0.831742 0.294628
0.556278 0.831742 0.294628
0.691541 0.831742 0.294628
0.828967 0.831742 0.294628
0.968247 0.831742 0.294628
1.000000 0.831742 0.294628
0.052107 0.949006 0.294628
0.169396 0.949006 0.294628
0.294247 0.949006 0.294628
0.423618 0.949006 0.294628
0.556278 0.949006 0.294628
0.691541 0.949006 0.294628
0.828967 0.949006 0.294628
0.968247 0.949006 0.294628
1.000000 0.949006 0.294628
0.120439 0.052129 0.392045
0.232741 0.050258 0.392045
0.352283 0.048268 0.392045
0.476154 0.046205 0.392045
0.603173 0.044090 0.392045
0.732684 0.041933 0.392045
0.864267 0.039742 0.392045
0.997625 0.037521 0.392045
1.000000 0.037014 0.392045
0.104475 0.157748 0.392045
0.216777 0.155877 0.392045
0.336319 0.153887 0.392045
0.460190 0.151824 0.392045
0.587209 0.149708 0.392045
0.716720 0.147552 0.392045
0.848303 0.145360 0.392045
0.981661 0.143140 0.392045
1.000000 0.142633 0.392045
0.088208 0.265371 0.392045
0.200510 0.263501 0.392045
0.320052 0.261510 0.392045
0.443923 0.259447 0.392045
0.570942 0.257332 0.392045
0.700453 0.255175 0.392045
0.832036 0.252984 0.392045
0.968247 0.251833 0.392045
1.000000 0.251833 0.392045
0.071787 0.374011 0.392045
0.184089 0.372141 0.392045
0.303631 0.370150 0.392045
0.427502 0.368087 0.392045
0.556278 0.366631 0.392045
0.691541 0.366631 0.392045
0.828967 0.366631 0.392045
0.968247 0.366631 0.392045
1.000000 0.366631 0.392045
0.055261 0.483347 0.392045
0.169396 0.482164 0.392045
0.294247 0.482164 0.392045
0.423618 0.482164 0.392045
0.556278 0.482164 0.392045
0.691541 0.482164 0.392045
0.828967 0.482164 0.392045
0.968247 0.482164 0.392045
1.000000 0.482164 0.392045
0.052107 0.598259 0.392045
0.169396 0.598259 0.392045
0.294247 0.598259 0.392045
0.423618 0.598259 0.392045
0.556278 0.598259 0.392045
0.691541 0.598259 0.392045
0.828967 0.598259 0.392045
0.968247 0.598259 0.392045
1.000000 0.598259 0.392045
0.052107 0.714809 0.392045
0.169396 0.714809 0.392045
0.294247 0.714809 0.392045
0.423618 0.714809 0.392045
0.556278 0.714809 0.392045
0.691541 0.714809 0.392045
0.828967 0.714809 0.392045
0.968247 0.714809 0.392045
1.000000 0.714809 0.392045
0.052107 0.831742 0.392045
0.169396 0.831742 0.392045
0.294247 0.831742 0.392045
0.423618 0.831742 0.392045
0.556278 0.831742 0.392045
0.691541 0.831742 0.392045
0.828967 0.831742 0.392045
0.968247 0.831742 0.392045
1.000000 0.831742 0.392045
0.052107 0.949006 0.392045
0.169396 0.949006 0.392045
0.294247 0.949006 0.392045
0.423618 0.949006 0.392045
0.556278 0.949006 0.392045
0.691541 0.949006 0.392045
0.828967 0.949006 0.392045
0.968247 0.949006 0.392045
1.000000 0.949006 0.392045
0.119060 0.051611 0.487542
0.231362 0.049741 0.487542
0.350904 0.047751 0.487542
0.474775 0.045688 0.487542
0.601794 0.043572 0.487542
0.731305 0.041416 0.487542
0.862888 0.039224 0.487542
0.996246 0.037004 0.487542
1.000000 0.036497 0.487542
0.103096 0.157230 0.487542
0.215398 0.155360 0.487542
0.334940 0.153369 0.487542
0.458811 0.151307 0.487542
0.585830 0.149191 0.487542
0.715341 0.147035 0.487542
0.846924 0.144843 0.487542
0.980282 0.142623 0.487542
1.000000 0.142116 0.487542
0.086829 0.264854 0.487542
0.199131 0.262983 0.487542
0.318673 0.260993 0.487542
0.442544 0.258930 0.487542
0.569563 0.256815 0.487542
0.699074 0.254658 0.487542
0.830657 0.252467 0.487542
0.968247 0.251833 0.487542
1.000000 0.251833 0.487542
0.070408 0.373494 0.487542
0.182710 0.371624 0.487542
0.302252 0.369633 0.487542
0.426123 0.367570 0.487542
0.556278 0.366631 0.487542
0.691541 0.366631 0.487542
0.828967 0.366631 0.487542
0.968247 0.366631 0.487542
1.000000 0.366631 0.487542
0.053883 0.482830 0.487542
0.169396 0.482164 0.487542
0.294247 0.482164 0.487542
0.423618 0.482164 0.487542
0.556278 0.482164 0.487542
0.691541 0.482164 0.487542
0.828967 0.482164 0.487542
0.968247 0.482164 0.487542
1.000000 0.482164 0.487542
0.052107 0.598259 0.487542
0.169396 0.598259 0.487542
0.294247 0.598259 0.487542
0.423618 0.598259 0.487542
0.556278 0.598259 0.487542
0.691541 0.598259 0.487542
0.828967 0.598259 0.487542
0.968247 0.598259 0.487542
1.000000 0.598259 0.487542
0.052107 0.714809 0.487542
0.169396 0.714809 0.487542
0.294247 0.714809 0.487542
0.423618 0.714809 0.487542
0.556278 0.714809 0.487542
0.691541 0.714809 0.487542
0.828967 0.714809 0.487542
0.968247 0.714809 0.487542
1.000000 0.714809 0.487542
0.052107 0.831742 0.487542
0.169396 0.831742 0.487542
0.294247 0.831742 0.487542
0.423618 0.831742 0.487542
0.556278 0.831742 0.487542
0.691541 0.831742 0.487542
0.828967 0.831742 0.487542
0.968247 0.831742 0.487542
1.000000 0.831742 0.487542
0.052107 0.949006 0.487542
0.169396 0.949006 0.487542
0.294247 0.949006 0.487542
0.423618 0.949006 0.487542
0.556278 0.949006 0.487542
0.691541 0.949006 0.487542
0.828967 0.949006 0.487542
0.968247 0.949006 0.487542
1.000000 0.949006 0.487542
0.117703 0.051102 0.581555
0.230005 0.049232 0.581555
0.349547 0.047241 0.581555
0.473417 0.045179 0.581555
0.600436 0.043063 0.581555
0.729948 0.040907 0.581555
0.861530 0.038715 0.581555
0.994889 0.036494 0.581555
1.000000 0.035988 0.581555
0.101739 0.156721 0.581555
0.214041 0.154851 0.581555
0.333583 0.152860 0.581555
0.457453 0.150798 0.581555
0.584472 0.148682 0.581555
0.713984 0.146526 0.581555
0.845566 0.144334 0.581555
0.978925 0.142113 0.581555
1.000000 0.141607 0.581555
0.085472 0.264345 0.581555
0.197774 0.262474 0.581555
0.317316 0.260484 0.581555
0.441186 0.258421 0.581555
0.568205 0.256306 0.581555
0.697717 0.254149 0.581555
0.829299 0.251958 0.581555
0.968247 0.251833 0.581555
1.000000 0.251833 0.581555
0.069051 0.372985 0.581555
0.181353 0.371114 0.581555
0.300895 0.369124 0.581555
0.424765 0.367061 0.581555
0.556278 0.366631 0.581555
0.691541 0.366631 0.581555
0.828967 0.366631 0.581555
0.968247 0.366631 0.581555
1.000000 0.366631 0.581555
0.052525 0.482321 0.581555
0.169396 0.482164 0.581555
0.294247 0.482164 0.581555
0.423618 0.482164 0.581555
0.556278 0.482164 0.581555
0.691541 0.482164 0.581555
0.828967 0.482164 0.581555
0.968247 0.482164 0.581555
1.000000 0.482164 0.581555
0.052107 0.598259 0.581555
0.169396 0.598259 0.581555
0.294247 0.598259 0.581555
0.423618 0.598259 0.581555
0.556278 0.598259 0.581555
0.691541 0.598259 0.581555
0.828967 0.598259 0.581555
0.968247 0.598259 0.581555
1.000000 0.598259 0.581555
0.052107 0.714809 0.581555
0.169396 0.714809 0.581555
0.294247 0.714809 0.581555
0.423618 0.714809 0.581555
0.556278 0.714809 0.581555
0.691541 0.714809 0.581555
0.828967 0.714809 0.581555
0.968247 0.714809 0.581555
1.000000 0.714809 0.581555
0.052107 0.831742 0.581555
0.169396 0.831742 0.581555
0.294247 0.831742 0.581555
0.423618 0.831742 0.581555
0.556278 0.831742 0.581555
0.691541 0.831742 0.581555
0.828967 0.831742 0.581555
0.968247 0.831742 0.581555
1.000000 0.831742 0.581555
0.052107 0.949006 0.581555
0.169396 0.949006 0.581555
0.294247 0.949006 0.581555
0.423618 0.949006 0.581555
0.556278 0.949006 0.581555
0.691541 0.949006 0.581555
0.828967 0.949006 0.581555
0.968247 0.949006 0.581555
1.000000 0.949006 0.581555
0.116362 0.050600 0.674361
0.228664 0.048730 0.674361
0.348206 0.046739 0.674361
0.472077 0.044676 0.674361
0.599096 0.042561 0.674361
0.728608 0.040404 0.674361
0.860190 0.038213 0.674361
0.993549 0.035992 0.674361
1.000000 0.035486 0.674361
0.100398 0.156219 0.674361
0.212700 0.154349 0.674361
0.332242 0.152358 0.674361
0.456113 0.150295 0.674361
0.583132 0.148180 0.674361
0.712644 0.146023 0.674361
0.844226 0.143832 0.674361
0.977584 0.141611 0.674361
1.000000 0.141105 0.674361
0.084131 0.263842 0.674361
0.196433 0.261972 0.674361
0.315975 0.259981 0.674361
0.439846 0.257918 0.674361
0.566865 0.255803 0.674361
0.696377 0.253646 0.674361
0.828967 0.251833 0.674361
0.968247 0.251833 0.674361
1.000000 0.251833 0.674361
0.067711 0.372482 0.674361
0.180013 0.370612 0.674361
0.299555 0.368621 0.674361
0.423618 0.366631 0.674361
0.556278 0.366631 0.674361
0.691541 0.366631 0.674361
0.828967 0.366631 0.674361
0.968247 0.366631 0.674361
1.000000 0.366631 0.674361
0.052107 0.482164 0.674361
0.169396 0.482164 0.674361
0.294247 0.482164 0.674361
0.423618 0.482164 0.674361
0.556278 0.482164 0.674361
0.691541 0.482164 0.674361
0.828967 0.482164 0.674361
0.968247 0.482164 0.674361
1.000000 0.482164 0.674361
0.052107 0.598259 0.674361
0.169396 0.598259 0.674361
0.294247 0.598259 0.674361
0.423618 0.598259 0.674361
0.556278 0.598259 0.674361
0.691541 0.598259 0.674361
0.828967 0.598259 0.674361
0.968247 0.598259 0.674361
1.000000 0.598259 0.674361
0.052107 0.714809 0.674361
0.169396 0.714809 0.674361
0.294247 0.714809 0.674361
0.423618 0.714809 0.674361
0.556278 0.714809 0.674361
0.691541 0.714809 0.674361
0.828967 0.714809 0.674361
0.968247 0.714809 0.674361
1.000000 0.714809 0.674361
0.052107 0.831742 0.674361
0.169396 0.831742 0.674361
0.294247 0.831742 0.674361
0.423618 0.831742 0.674361
0.556278 0.831742 0.674361
0.691541 0.831742 0.674361
0.828967 0.831742 0.674361
0.968247 0.831742 0.674361
1.000000 0.831742 0.674361
0.052107 0.949006 0.674361
0.169396 0.949006 0.674361
0.294247 0.949006 0.674361
0.423618 0.949006 0.674361
0.556278 0.949006 0.674361
0.691541 0.949006 0.674361
0.828967 0.949006 0.674361
0.968247 0.949006 0.674361
1.000000 0.949006 0.674361
0.115037 0.050103 0.766154
0.227339 0.048233 0.766154
0.346881 0.046242 0.766154
0.470752 0.044179 0.766154
0.597771 0.042064 0.766154
0.727282 0.039907 0.766154
0.858865 0.037716 0.766154
0.992223 0.035495 0.766154
1.000000 0.034989 0.766154
0.099073 0.155722 0.766154
0.211375 0.153852 0.766154
0.330917 0.151861 0.766154
0.454788 0.149798 0.766154
0.581807 0.147683 0.766154
0.711318 0.145526 0.766154
0.842901 0.143335 0.766154
0.976259 0.141114 0.766154
1.000000 0.140608 0.766154
0.082806 0.263345 0.766154
0.195108 0.261475 0.766154
0.314650 0.259484 0.766154
0.438521 0.257421 0.766154
0.565540 0.255306 0.766154
0.695051 0.253149 0.766154
0.828967 0.251833 0.766154
0.968247 0.251833 0.766154
1.000000 0.251833 0.766154
0.066385 0.371985 0.766154
0.178687 0.370115 0.766154
0.298229 0.368124 0.766154
0.423618 0.366631 0.766154
0.556278 0.366631 0.766154
0.691541 0.366631 0.766154
0.828967 0.366631 0.766154
0.968247 0.366631 0.766154
1.000000 0.366631 0.766154
0.052107 0.482164 0.766154
0.169396 0.482164 0.766154
0.294247 0.482164 0.766154
0.423618 0.482164 0.766154
0.556278 0.482164 0.766154
0.691541 0.482164 0.766154
0.828967 0.482164 0.766154
0.968247 0.482164 0.766154
1.000000 0.482164 0.766154
0.052107 0.598259 0.766154
0.169396 0.598259 0.766154
0.294247 0.598259 0.766154
0.423618 0.598259 0.766154
0.556278 0.598259 0.766154
0.691541 0.598259 0.766154
0.828967 0.598259 0.766154
0.968247 0.598259 0.766154
1.000000 0.598259 0.766154
0.052107 0.714809 0.766154
0.169396 0.714809 0.766154
0.294247 0.714809 0.766154
0.423618 0.714809 0.766154
0.556278 0.714809 0.766154
0.691541 0.714809 0.766154
0.828967 0.714809 0.766154
0.968247 0.714809 0.766154
1.000000 0.714809 0.766154
0.052107 0.831742 0.766154
0.169396 0.831742 0.766154
0.294247 0.831742 0.766154
0.423618 0.831742 0.766154
0.556278 0.831742 0.766154
0.691541 0.831742 0.766154
0.828967 0.831742 0.766154
0.968247 0.831742 0.766154
1.000000 0.831742 0.766154
0.052107 0.949006 0.766154
0.169396 0.949006 0.766154
0.294247 0.949006 0.766154
0.423618 0.949006 0.766154
0.556278 0.949006 0.766154
0.691541 0.949006 0.766154
0.828967 0.949006 0.766154
0.968247 0.949006 0.766154
1.000000 0.949006 0.766154
