Fotico/Resources/LUTs/carbon.cube
# Carbon
LUT_3D_SIZE 5
0.000000 0.000000 0.020000
0.000000 0.000000 0.020000
0.000000 0.000000 0.020000
0.000000 0.000000 0.020000
0.000000 0.000000 0.020000
0.000000 0.000000 0.020000
0.006445 0.016044 0.035241
0.082414 0.090160 0.105652
0.173168 0.178701 0.189766
0.275051 0.278098 0.284193
0.209164 0.213819 0.223128
0.314190 0.316283 0.320469
0.424737 0.424737 0.424737
0.535615 0.535615 0.535615
0.645348 0.645348 0.645348
0.575885 0.575885 0.575885
0.684316 0.684316 0.684316
0.786736 0.786736 0.786736
0.879578 0.879578 0.879578
0.959275 0.959275 0.959275
0.910302 0.910302 0.910302
0.984327 0.984327 0.984327
1.000000 1.000000 1.000000
1.000000 1.000000 1.000000
1.000000 1.000000 1.000000
0.000000 0.000000 0.020000
0.000000 0.000000 0.020000
0.000000 0.000000 0.020000
0.000000 0.000000 0.020000
0.004803 0.014442 0.033720
0.000000 0.000000 0.020000
0.030359 0.039375 0.057406
0.111760 0.118790 0.132851
0.206703 0.211418 0.220847
0.311533 0.313691 0.318006
0.243916 0.247723 0.255337
0.351437 0.352621 0.354990
0.462299 0.462299 0.462299
0.573188 0.573188 0.573188
0.681721 0.681721 0.681721
0.613161 0.613161 0.613161
0.719951 0.719951 0.719951
0.819518 0.819518 0.819518
0.908296 0.908296 0.908296
0.982717 0.982717 0.982717
0.937240 0.937240 0.937240
1.000000 1.000000 1.000000
1.000000 1.000000 1.000000
1.000000 1.000000 1.000000
1.000000 1.000000 1.000000
0.000000 0.000000 0.020000
0.000000 0.000000 0.020000
0.000000 0.000000 0.020000
0.000000 0.000000 0.020000
0.028569 0.037628 0.055747
0.000000 0.000000 0.020000
0.056258 0.064642 0.081410
0.142667 0.148944 0.161497
0.241378 0.245247 0.252985
0.348734 0.349984 0.352485
0.279654 0.282590 0.288460
0.389249 0.389511 0.390036
0.500000 0.500000 0.500000
0.610489 0.610489 0.610489
0.717410 0.717410 0.717410
0.650016 0.650016 0.650016
0.754753 0.754753 0.754753
0.851056 0.851056 0.851056
0.935358 0.935358 0.935358
1.000000 1.000000 1.000000
0.962372 0.962372 0.962372
1.000000 1.000000 1.000000
1.000000 1.000000 1.000000
1.000000 1.000000 1.000000
1.000000 1.000000 1.000000
0.000000 0.000000 0.020000
0.000000 0.000000 0.020000
0.000000 0.000000 0.020000
0.000000 0.000000 0.020000
0.054329 0.062760 0.079622
0.007715 0.017283 0.036419
0.083997 0.091704 0.107119
0.174994 0.180482 0.191458
0.277050 0.280049 0.286047
0.386510 0.386839 0.387497
0.316236 0.318279 0.322365
0.426812 0.426812 0.426812
0.537701 0.537701 0.537701
0.647379 0.647379 0.647379
0.752277 0.752277 0.752277
0.686309 0.686309 0.686309
0.788582 0.788582 0.788582
0.881210 0.881210 0.881210
0.960625 0.960625 0.960625
1.000000 1.000000 1.000000
0.985558 0.985558 0.985558
1.000000 1.000000 1.000000
1.000000 1.000000 1.000000
1.000000 1.000000 1.000000
1.000000 1.000000 1.000000
0.000000 0.000000 0.020000
0.000000 0.000000 0.020000
0.000000 0.000000 0.020000
0.006065 0.015673 0.034889
0.081940 0.089698 0.105213
0.031744 0.040725 0.058689
0.113433 0.120422 0.134401
0.208596 0.213264 0.222601
0.313576 0.315684 0.319900
0.424115 0.424115 0.424115
0.353518 0.354652 0.356919
0.464385 0.464385 0.464385
0.575263 0.575263 0.575263
0.683717 0.683717 0.683717
0.786181 0.786181 0.786181
0.721902 0.721902 0.721902
0.821299 0.821299 0.821299
0.909840 0.909840 0.909840
0.983956 0.983956 0.983956
1.000000 1.000000 1.000000
1.000000 1.000000 1.000000
1.000000 1.000000 1.000000
1.000000 1.000000 1.000000
1.000000 1.000000 1.000000
1.000000 1.000000 1.000000
