Fotico/Resources/LUTs/carbon.cube
# Carbon
LUT_3D_SIZE 17
0.000000 0.000000 0.020000
0.000000 0.000000 0.020000
0.000000 0.000000 0.020000
0.000000 0.000000 0.020000
0.000000 0.000000 0.020000
0.000000 0.000000 0.020000
0.000000 0.000000 0.020000
0.000000 0.000000 0.020000
0.000000 0.000000 0.020000
0.000000 0.000000 0.020000
0.000000 0.000000 0.020000
0.000000 0.000000 0.020000
0.000000 0.000000 0.020000
0.000000 0.000000 0.020000
0.000000 0.000000 0.020000
0.000000 0.000000 0.020000
0.000000 0.000000 0.020000
0.000000 0.000000 0.020000
0.000000 0.000000 0.020000
0.000000 0.000000 0.020000
0.000000 0.000000 0.020000
0.000000 0.000000 0.020000
0.000000 0.000000 0.020000
0.000000 0.000000 0.020000
0.000000 0.000000 0.020000
0.000000 0.000000 0.020000
0.000000 0.000000 0.020000
0.000000 0.000000 0.020000
0.000000 0.000000 0.020000
0.000000 0.000000 0.020000
0.000000 0.000000 0.020000
0.004897 0.014534 0.033807
0.022200 0.031414 0.049843
0.040603 0.049368 0.066900
0.000000 0.000000 0.020000
0.000000 0.000000 0.020000
0.000000 0.000000 0.020000
0.000000 0.000000 0.020000
0.000000 0.000000 0.020000
0.000000 0.000000 0.020000
0.000000 0.000000 0.020000
0.000000 0.000000 0.020000
0.000000 0.000000 0.020000
0.000000 0.000000 0.020000
0.000000 0.004383 0.024164
0.011065 0.020551 0.039524
0.028775 0.037829 0.055938
0.047565 0.056161 0.073353
0.067377 0.075490 0.091716
0.088155 0.095761 0.110973
0.109842 0.116919 0.131073
0.000000 0.000000 0.020000
0.000000 0.000000 0.020000
0.000000 0.000000 0.020000
0.000000 0.000000 0.020000
0.000000 0.000000 0.020000
0.000000 0.000000 0.020000
0.000000 0.000000 0.020000
0.000391 0.010137 0.029631
0.017384 0.026716 0.045380
0.035494 0.044384 0.062165
0.054662 0.063085 0.079931
0.074833 0.082764 0.098626
0.095949 0.103364 0.118196
0.117952 0.124831 0.138589
0.140786 0.147108 0.159752
0.164393 0.170139 0.181632
0.188716 0.193870 0.204176
0.000000 0.000000 0.020000
0.000000 0.000000 0.020000
0.000000 0.000000 0.020000
0.000000 0.000186 0.020177
0.006445 0.016044 0.035241
0.023851 0.033025 0.051374
0.042353 0.051076 0.068522
0.061893 0.070139 0.086632
0.082414 0.090160 0.105652
0.103859 0.111082 0.125528
0.126172 0.132850 0.146208
0.149294 0.155408 0.167638
0.173168 0.178701 0.189766
0.197738 0.202672 0.212538
0.222947 0.227265 0.235902
0.248737 0.252426 0.259805
0.275051 0.278098 0.284193
0.000000 0.005826 0.025534
0.012651 0.022099 0.040994
0.030463 0.039476 0.057502
0.049349 0.057902 0.075007
0.069253 0.077320 0.093454
0.090118 0.097676 0.112792
0.111885 0.118912 0.132967
0.134499 0.140974 0.153926
0.157901 0.163806 0.175616
0.182036 0.187352 0.197984
0.206845 0.211556 0.220978
0.232272 0.236363 0.244545
0.258259 0.261716 0.268630
0.284749 0.287560 0.293182
0.311686 0.313840 0.318148
0.339012 0.340499 0.343474
0.366669 0.367482 0.369108
0.056481 0.064859 0.081616
0.076741 0.084625 0.100394
0.097941 0.105308 0.120043
0.120023 0.126852 0.140509
0.142930 0.149200 0.161740
0.166606 0.172299 0.183684
0.190993 0.196091 0.206286
0.216033 0.220520 0.229494
0.241671 0.245533 0.253256
0.267848 0.271071 0.277518
0.294507 0.297080 0.302226
0.321592 0.323505 0.327329
0.349045 0.350288 0.352774
0.376810 0.377375 0.378507
0.404710 0.404710 0.404710
0.432237 0.432237 0.432237
0.459900 0.459900 0.459900
0.128270 0.134898 0.148153
0.151464 0.157526 0.169650
0.175405 0.180883 0.191839
0.200037 0.204914 0.214668
0.225301 0.229562 0.238084
0.251142 0.254772 0.262034
0.277501 0.280489 0.286464
0.304322 0.306655 0.311323
0.331547 0.333217 0.336556
0.359120 0.360117 0.362112
0.386984 0.387301 0.387936
0.414712 0.414712 0.414712
0.442295 0.442295 0.442295
0.469994 0.469994 0.469994
0.497753 0.497753 0.497753
0.525517 0.525517 0.525517
0.553229 0.553229 0.553229
0.209164 0.213819 0.223128
0.234645 0.238678 0.246744
0.260681 0.264079 0.270875
0.287215 0.289966 0.295468
0.314190 0.316283 0.320469
0.341549 0.342974 0.345825
0.369234 0.369984 0.371485
0.397189 0.397257 0.397394
0.424737 0.424737 0.424737
0.452369 0.452369 0.452369
0.480096 0.480096 0.480096
0.507863 0.507863 0.507863
0.535615 0.535615 0.535615
0.563295 0.563295 0.563295
0.590847 0.590847 0.590847
0.618217 0.618217 0.618217
0.645348 0.645348 0.645348
0.296987 0.299500 0.304525
0.324109 0.325960 0.329662
0.351593 0.352774 0.355135
0.379383 0.379886 0.380892
0.407241 0.407241 0.407241
0.434782 0.434782 0.434782
0.462455 0.462455 0.462455
0.490204 0.490204 0.490204
0.517971 0.517971 0.517971
0.545703 0.545703 0.545703
0.573343 0.573343 0.573343
0.600836 0.600836 0.600836
0.628125 0.628125 0.628125
0.655155 0.655155 0.655155
0.681871 0.681871 0.681871
0.708215 0.708215 0.708215
0.734134 0.734134 0.734134
0.389565 0.389820 0.390329
0.417249 0.417249 0.417249
0.444845 0.444845 0.444845
0.472552 0.472552 0.472552
0.500313 0.500313 0.500313
0.528075 0.528075 0.528075
0.555780 0.555780 0.555780
0.583372 0.583372 0.583372
0.610797 0.610797 0.610797
0.637999 0.637999 0.637999
0.664921 0.664921 0.664921
0.691508 0.691508 0.691508
0.717704 0.717704 0.717704
0.743453 0.743453 0.743453
0.768701 0.768701 0.768701
0.793390 0.793390 0.793390
0.817465 0.817465 0.817465
0.482655 0.482655 0.482655
0.510423 0.510423 0.510423
0.538171 0.538171 0.538171
0.565841 0.565841 0.565841
0.593379 0.593379 0.593379
0.620729 0.620729 0.620729
0.647835 0.647835 0.647835
0.674642 0.674642 0.674642
0.701093 0.701093 0.701093
0.727133 0.727133 0.727133
0.752706 0.752706 0.752706
0.777757 0.777757 0.777757
0.802229 0.802229 0.802229
0.826067 0.826067 0.826067
0.849215 0.849215 0.849215
0.871618 0.871618 0.871618
0.893219 0.893219 0.893219
0.575885 0.575885 0.575885
0.603361 0.603361 0.603361
0.630629 0.630629 0.630629
0.657632 0.657632 0.657632
0.684316 0.684316 0.684316
0.710624 0.710624 0.710624
0.736500 0.736500 0.736500
0.761889 0.761889 0.761889
0.786736 0.786736 0.786736
0.810984 0.810984 0.810984
0.834577 0.834577 0.834577
0.857460 0.857460 0.857460
0.879578 0.879578 0.879578
0.900874 0.900874 0.900874
0.921292 0.921292 0.921292
0.940778 0.940778 0.940778
0.959275 0.959275 0.959275
0.667387 0.667387 0.667387
0.693940 0.693940 0.693940
0.720097 0.720097 0.720097
0.745803 0.745803 0.745803
0.771001 0.771001 0.771001
0.795636 0.795636 0.795636
0.819652 0.819652 0.819652
0.842993 0.842993 0.842993
0.865604 0.865604 0.865604
0.887429 0.887429 0.887429
0.908412 0.908412 0.908412
0.928497 0.928497 0.928497
0.947629 0.947629 0.947629
0.965752 0.965752 0.965752
0.982810 0.982810 0.982810
0.998747 0.998747 0.998747
1.000000 1.000000 1.000000
0.755038 0.755038 0.755038
0.780038 0.780038 0.780038
0.804454 0.804454 0.804454
0.828231 0.828231 0.828231
0.851313 0.851313 0.851313
0.873644 0.873644 0.873644
0.895169 0.895169 0.895169
0.915831 0.915831 0.915831
0.935576 0.935576 0.935576
0.954347 0.954347 0.954347
0.972088 0.972088 0.972088
0.988745 0.988745 0.988745
1.000000 1.000000 1.000000
1.000000 1.000000 1.000000
1.000000 1.000000 1.000000
1.000000 1.000000 1.000000
1.000000 1.000000 1.000000
0.836717 0.836717 0.836717
0.859532 0.859532 0.859532
0.881576 0.881576 0.881576
0.902794 0.902794 0.902794
0.923129 0.923129 0.923129
0.942525 0.942525 0.942525
0.960928 0.960928 0.960928
0.978281 0.978281 0.978281
0.994529 0.994529 0.994529
1.000000 1.000000 1.000000
1.000000 1.000000 1.000000
1.000000 1.000000 1.000000
1.000000 1.000000 1.000000
1.000000 1.000000 1.000000
1.000000 1.000000 1.000000
1.000000 1.000000 1.000000
1.000000 1.000000 1.000000
0.910302 0.910302 0.910302
0.930302 0.930302 0.930302
0.949343 0.949343 0.949343
0.967370 0.967370 0.967370
0.984327 0.984327 0.984327
1.000000 1.000000 1.000000
1.000000 1.000000 1.000000
1.000000 1.000000 1.000000
1.000000 1.000000 1.000000
1.000000 1.000000 1.000000
1.000000 1.000000 1.000000
1.000000 1.000000 1.000000
1.000000 1.000000 1.000000
1.000000 1.000000 1.000000
1.000000 1.000000 1.000000
1.000000 1.000000 1.000000
1.000000 1.000000 1.000000
0.000000 0.000000 0.020000
0.000000 0.000000 0.020000
0.000000 0.000000 0.020000
0.000000 0.000000 0.020000
0.000000 0.000000 0.020000
0.000000 0.000000 0.020000
0.000000 0.000000 0.020000
0.000000 0.000000 0.020000
0.000000 0.000000 0.020000
0.000000 0.000000 0.020000
0.000000 0.000000 0.020000
0.000000 0.000000 0.020000
0.000000 0.000000 0.020000
0.000000 0.000000 0.020000
0.000000 0.000000 0.020000
0.000000 0.000000 0.020000
0.000000 0.000000 0.020000
0.000000 0.000000 0.020000
0.000000 0.000000 0.020000
0.000000 0.000000 0.020000
0.000000 0.000000 0.020000
0.000000 0.000000 0.020000
0.000000 0.000000 0.020000
0.000000 0.000000 0.020000
0.000000 0.000000 0.020000
0.000000 0.000000 0.020000
0.000000 0.000000 0.020000
0.000000 0.000000 0.020000
0.000000 0.000000 0.020000
0.000000 0.000000 0.020000
0.000000 0.004002 0.023802
0.010646 0.020143 0.039135
0.028329 0.037394 0.055524
0.047093 0.055700 0.072915
0.000000 0.000000 0.020000
0.000000 0.000000 0.020000
0.000000 0.000000 0.020000
0.000000 0.000000 0.020000
0.000000 0.000000 0.020000
0.000000 0.000000 0.020000
0.000000 0.000000 0.020000
0.000000 0.000000 0.020000
0.000000 0.000000 0.020000
0.000000 0.000000 0.020000
0.000000 0.009746 0.029259
0.016955 0.026297 0.044983
0.035038 0.043939 0.061742
0.054181 0.062616 0.079485
0.074328 0.082271 0.098158
0.095421 0.102850 0.117708
0.117403 0.124296 0.138081
0.000000 0.000000 0.020000
0.000000 0.000000 0.020000
0.000000 0.000000 0.020000
0.000000 0.000000 0.020000
0.000000 0.000000 0.020000
0.000000 0.000000 0.020000
0.000000 0.000000 0.020000
0.006033 0.015642 0.034860
0.023412 0.032597 0.050967
0.041888 0.050622 0.068091
0.061403 0.069661 0.086178
0.081901 0.089659 0.105176
0.103324 0.110560 0.125032
0.125616 0.132308 0.145693
0.148719 0.154848 0.167105
0.172576 0.178123 0.189217
0.197130 0.202078 0.211974
0.000000 0.000000 0.020000
0.000000 0.000000 0.020000
0.000000 0.000000 0.020000
0.000000 0.005442 0.025170
0.012230 0.021687 0.040603
0.030014 0.039038 0.057086
0.048875 0.057439 0.074567
0.068755 0.076834 0.092992
0.089596 0.097167 0.112309
0.111342 0.118383 0.132464
0.133936 0.140425 0.153404
0.157320 0.163239 0.175077
0.181437 0.186768 0.197430
0.206231 0.210957 0.220409
0.231643 0.235749 0.243962
0.257617 0.261090 0.268035
0.284096 0.286923 0.292577
0.001505 0.011225 0.030664
0.018576 0.027879 0.046485
0.036759 0.045619 0.063338
0.055998 0.064388 0.081169
0.076234 0.084131 0.099924
0.097412 0.104792 0.119552
0.119473 0.126315 0.139999
0.142361 0.148645 0.161212
0.166018 0.171725 0.183139
0.190388 0.195501 0.205726
0.215414 0.219916 0.228920
0.241037 0.244914 0.252669
0.267202 0.270441 0.276919
0.293850 0.296439 0.301617
0.320925 0.322854 0.326711
0.348370 0.349629 0.352148
0.376127 0.376710 0.377874
0.063252 0.071466 0.087893
0.083838 0.091549 0.106972
0.105344 0.112531 0.126904
0.127713 0.134354 0.147636
0.150888 0.156963 0.169115
0.174811 0.180304 0.191288
0.199426 0.204318 0.214102
0.224676 0.228952 0.237505
0.250503 0.254149 0.261442
0.276850 0.279854 0.285861
0.303661 0.306010 0.310710
0.330877 0.332563 0.335935
0.358442 0.359456 0.361483
0.386299 0.386633 0.387302
0.414040 0.414040 0.414040
0.441619 0.441619 0.441619
0.469316 0.469316 0.469316
0.136060 0.142497 0.155372
0.159514 0.165379 0.177110
0.183696 0.188971 0.199523
0.208548 0.213218 0.222557
0.234015 0.238063 0.246160
0.260038 0.263452 0.270279
0.286560 0.289327 0.294861
0.313525 0.315634 0.319853
0.340875 0.342317 0.345201
0.368553 0.369320 0.370854
0.396502 0.396587 0.396758
0.424063 0.424063 0.424063
0.451692 0.451692 0.451692
0.479417 0.479417 0.479417
0.507184 0.507184 0.507184
0.534937 0.534937 0.534937
0.562619 0.562619 0.562619
0.217752 0.222197 0.231087
0.243428 0.247246 0.254884
0.269639 0.272819 0.279178
0.296329 0.298858 0.303915
0.323441 0.325308 0.329043
0.350917 0.352114 0.354508
0.378700 0.379220 0.380259
0.406569 0.406569 0.406569
0.434107 0.434107 0.434107
0.461777 0.461777 0.461777
0.489524 0.489524 0.489524
0.517293 0.517293 0.517293
0.545026 0.545026 0.545026
0.572669 0.572669 0.572669
0.600166 0.600166 0.600166
0.627460 0.627460 0.627460
0.654498 0.654498 0.654498
0.306154 0.308443 0.313021
0.333405 0.335029 0.338277
0.360999 0.361950 0.363853
0.388880 0.389151 0.389694
0.416576 0.416576 0.416576
0.444168 0.444168 0.444168
0.471873 0.471873 0.471873
0.499634 0.499634 0.499634
0.527396 0.527396 0.527396
0.555103 0.555103 0.555103
0.582699 0.582699 0.582699
0.610129 0.610129 0.610129
0.637337 0.637337 0.637337
0.664266 0.664266 0.664266
0.690862 0.690862 0.690862
0.717068 0.717068 0.717068
0.742829 0.742829 0.742829
0.399090 0.399113 0.399157
0.426605 0.426605 0.426605
0.454245 0.454245 0.454245
0.481976 0.481976 0.481976
0.509744 0.509744 0.509744
0.537493 0.537493 0.537493
0.565166 0.565166 0.565166
0.592708 0.592708 0.592708
0.620063 0.620063 0.620063
0.647176 0.647176 0.647176
0.673990 0.673990 0.673990
0.700451 0.700451 0.700451
0.726501 0.726501 0.726501
0.752087 0.752087 0.752087
0.777150 0.777150 0.777150
0.801638 0.801638 0.801638
0.825492 0.825492 0.825492
0.492084 0.492084 0.492084
0.519852 0.519852 0.519852
0.547579 0.547579 0.547579
0.575211 0.575211 0.575211
0.602691 0.602691 0.602691
0.629965 0.629965 0.629965
0.656975 0.656975 0.656975
0.683667 0.683667 0.683667
0.709985 0.709985 0.709985
0.735873 0.735873 0.735873
0.761275 0.761275 0.761275
0.786135 0.786135 0.786135
0.810398 0.810398 0.810398
0.834008 0.834008 0.834008
0.856910 0.856910 0.856910
0.879047 0.879047 0.879047
0.900363 0.900363 0.900363
0.585236 0.585236 0.585236
0.612647 0.612647 0.612647
0.639832 0.639832 0.639832
0.666733 0.666733 0.666733
0.693295 0.693295 0.693295
0.719463 0.719463 0.719463
0.745180 0.745180 0.745180
0.770391 0.770391 0.770391
0.795040 0.795040 0.795040
0.819072 0.819072 0.819072
0.842431 0.842431 0.842431
0.865060 0.865060 0.865060
0.886905 0.886905 0.886905
0.907909 0.907909 0.907909
0.928017 0.928017 0.928017
0.947173 0.947173 0.947173
0.965321 0.965321 0.965321
0.676445 0.676445 0.676445
0.702870 0.702870 0.702870
0.728880 0.728880 0.728880
0.754420 0.754420 0.754420
0.779433 0.779433 0.779433
0.803864 0.803864 0.803864
0.827657 0.827657 0.827657
0.850757 0.850757 0.850757
0.873107 0.873107 0.873107
0.894652 0.894652 0.894652
0.915337 0.915337 0.915337
0.935104 0.935104 0.935104
0.953900 0.953900 0.953900
0.971667 0.971667 0.971667
0.988351 0.988351 0.988351
1.000000 1.000000 1.000000
1.000000 1.000000 1.000000
0.763590 0.763590 0.763590
0.788398 0.788398 0.788398
0.812603 0.812603 0.812603
0.836150 0.836150 0.836150
0.858983 0.858983 0.858983
0.881047 0.881047 0.881047
0.902285 0.902285 0.902285
0.922642 0.922642 0.922642
0.942063 0.942063 0.942063
0.960490 0.960490 0.960490
0.977870 0.977870 0.977870
0.994145 0.994145 0.994145
1.000000 1.000000 1.000000
1.000000 1.000000 1.000000
1.000000 1.000000 1.000000
1.000000 1.000000 1.000000
1.000000 1.000000 1.000000
0.844548 0.844548 0.844548
0.867108 0.867108 0.867108
0.888877 0.888877 0.888877
0.909801 0.909801 0.909801
0.929824 0.929824 0.929824
0.948889 0.948889 0.948889
0.966942 0.966942 0.966942
0.983926 0.983926 0.983926
0.999785 0.999785 0.999785
1.000000 1.000000 1.000000
1.000000 1.000000 1.000000
1.000000 1.000000 1.000000
1.000000 1.000000 1.000000
1.000000 1.000000 1.000000
1.000000 1.000000 1.000000
1.000000 1.000000 1.000000
1.000000 1.000000 1.000000
0.917198 0.917198 0.917198
0.936879 0.936879 0.936879
0.955582 0.955582 0.955582
0.973252 0.973252 0.973252
0.989832 0.989832 0.989832
1.000000 1.000000 1.000000
1.000000 1.000000 1.000000
1.000000 1.000000 1.000000
1.000000 1.000000 1.000000
1.000000 1.000000 1.000000
1.000000 1.000000 1.000000
1.000000 1.000000 1.000000
1.000000 1.000000 1.000000
1.000000 1.000000 1.000000
1.000000 1.000000 1.000000
1.000000 1.000000 1.000000
1.000000 1.000000 1.000000
0.000000 0.000000 0.020000
0.000000 0.000000 0.020000
0.000000 0.000000 0.020000
0.000000 0.000000 0.020000
0.000000 0.000000 0.020000
0.000000 0.000000 0.020000
0.000000 0.000000 0.020000
0.000000 0.000000 0.020000
0.000000 0.000000 0.020000
0.000000 0.000000 0.020000
0.000000 0.000000 0.020000
0.000000 0.000000 0.020000
0.000000 0.000000 0.020000
0.000000 0.000000 0.020000
0.000000 0.000000 0.020000
0.000000 0.000000 0.020000
0.000000 0.003621 0.023440
0.000000 0.000000 0.020000
0.000000 0.000000 0.020000
0.000000 0.000000 0.020000
0.000000 0.000000 0.020000
0.000000 0.000000 0.020000
0.000000 0.000000 0.020000
0.000000 0.000000 0.020000
0.000000 0.000000 0.020000
0.000000 0.000000 0.020000
0.000000 0.000000 0.020000
0.000000 0.000000 0.020000
0.000000 0.000000 0.020000
0.000000 0.000000 0.020000
0.000000 0.009355 0.028888
0.016526 0.025879 0.044585
0.034583 0.043495 0.061321
0.053701 0.062147 0.079040
0.000000 0.000000 0.020000
0.000000 0.000000 0.020000
0.000000 0.000000 0.020000
0.000000 0.000000 0.020000
0.000000 0.000000 0.020000
0.000000 0.000000 0.020000
0.000000 0.000000 0.020000
0.000000 0.000000 0.020000
0.000000 0.000000 0.020000
0.000000 0.000000 0.020000
0.005622 0.015241 0.034479
0.022974 0.032169 0.050561
0.041423 0.050169 0.067660
0.060914 0.069184 0.085725
0.081388 0.089159 0.104701
0.102790 0.110039 0.124537
0.125061 0.131767 0.145178
0.000000 0.000000 0.020000
0.000000 0.000000 0.020000
0.000000 0.000000 0.020000
0.000000 0.000000 0.020000
0.000000 0.000000 0.020000
0.000000 0.000000 0.020000
0.000000 0.005059 0.024806
0.011808 0.021277 0.040213
0.029566 0.038601 0.056671
0.048401 0.056977 0.074128
0.068257 0.076348 0.092531
0.089075 0.096659 0.111826
0.110800 0.117854 0.131961
0.133374 0.139877 0.152883
0.156739 0.162672 0.174539
0.180839 0.186184 0.196875
0.205617 0.210358 0.219840
0.000000 0.000000 0.020000
0.000000 0.000000 0.020000
0.000000 0.000000 0.020000
0.001102 0.010832 0.030290
0.018145 0.027459 0.046086
0.036302 0.045172 0.062914
0.055515 0.063917 0.080721
0.075728 0.083637 0.099455
0.096883 0.104276 0.119062
0.118923 0.125779 0.139490
0.141792 0.148089 0.160685
0.165431 0.171152 0.182595
0.189784 0.194911 0.205166
0.214794 0.219311 0.228346
0.240404 0.244296 0.252081
0.266556 0.269810 0.276320
0.293193 0.295798 0.301008
0.007174 0.016756 0.035918
0.024629 0.033785 0.052095
0.043177 0.051880 0.069286
0.062761 0.070986 0.087437
0.083323 0.091047 0.106495
0.104807 0.112007 0.126407
0.127156 0.133811 0.147120
0.150312 0.156402 0.168581
0.174218 0.179724 0.190738
0.198816 0.203723 0.213537
0.224051 0.228343 0.236926
0.249865 0.253527 0.260850
0.276200 0.279220 0.285259
0.303000 0.305366 0.310097
0.330207 0.331909 0.335314
0.357764 0.358794 0.360855
0.385615 0.385966 0.386667
0.070137 0.078182 0.094273
0.091041 0.098577 0.113648
0.112847 0.119850 0.133858
0.135496 0.141947 0.154850
0.158931 0.164811 0.176570
0.183096 0.188386 0.198967
0.207933 0.212618 0.221987
0.233385 0.237449 0.245576
0.259395 0.262825 0.269683
0.285906 0.288689 0.294255
0.312861 0.314986 0.319237
0.340202 0.341661 0.344578
0.367873 0.368656 0.370224
0.395816 0.395918 0.396122
0.423389 0.423389 0.423389
0.451015 0.451015 0.451015
0.478738 0.478738 0.478738
0.143940 0.150185 0.162676
0.167647 0.173314 0.184649
0.192063 0.197135 0.207278
0.217131 0.221591 0.230512
0.242793 0.246627 0.254296
0.268992 0.272187 0.278578
0.295671 0.298216 0.303305
0.322773 0.324657 0.328424
0.350241 0.351454 0.353882
0.378017 0.378553 0.379626
0.405898 0.405898 0.405898
0.433432 0.433432 0.433432
0.461099 0.461099 0.461099
0.488845 0.488845 0.488845
0.516614 0.516614 0.516614
0.544348 0.544348 0.544348
0.571994 0.571994 0.571994
0.226408 0.230642 0.239110
0.252272 0.255875 0.263081
0.278652 0.281612 0.287531
0.305492 0.307797 0.312407
0.332734 0.334374 0.337656
0.360321 0.361288 0.363224
0.388195 0.388483 0.389059
0.415903 0.415903 0.415903
0.443492 0.443492 0.443492
0.471195 0.471195 0.471195
0.498955 0.498955 0.498955
0.526718 0.526718 0.526718
0.554427 0.554427 0.554427
0.582026 0.582026 0.582026
0.609461 0.609461 0.609461
0.636674 0.636674 0.636674
0.663611 0.663611 0.663611
0.315366 0.317430 0.321559
0.342740 0.344137 0.346930
0.370438 0.371159 0.372601
0.398403 0.398442 0.398520
0.425930 0.425930 0.425930
0.453567 0.453567 0.453567
0.481297 0.481297 0.481297
0.509065 0.509065 0.509065
0.536815 0.536815 0.536815
0.564490 0.564490 0.564490
0.592036 0.592036 0.592036
0.619397 0.619397 0.619397
0.646516 0.646516 0.646516
0.673338 0.673338 0.673338
0.699808 0.699808 0.699808
0.725869 0.725869 0.725869
0.751467 0.751467 0.751467
0.408429 0.408429 0.408429
0.435978 0.435978 0.435978
0.463655 0.463655 0.463655
0.491405 0.491405 0.491405
0.519173 0.519173 0.519173
0.546902 0.546902 0.546902
0.574537 0.574537 0.574537
0.602021 0.602021 0.602021
0.629301 0.629301 0.629301
0.656318 0.656318 0.656318
0.683019 0.683019 0.683019
0.709346 0.709346 0.709346
0.735245 0.735245 0.735245
0.760660 0.760660 0.760660
0.785534 0.785534 0.785534
0.809812 0.809812 0.809812
0.833439 0.833439 0.833439
0.501515 0.501515 0.501515
0.529275 0.529275 0.529275
0.556976 0.556976 0.556976
0.584563 0.584563 0.584563
0.611980 0.611980 0.611980
0.639170 0.639170 0.639170
0.666079 0.666079 0.666079
0.692650 0.692650 0.692650
0.718828 0.718828 0.718828
0.744557 0.744557 0.744557
0.769781 0.769781 0.769781
0.794445 0.794445 0.794445
0.818492 0.818492 0.818492
0.841868 0.841868 0.841868
0.864516 0.864516 0.864516
0.886381 0.886381 0.886381
0.907406 0.907406 0.907406
0.594567 0.594567 0.594567
0.621908 0.621908 0.621908
0.649002 0.649002 0.649002
0.675794 0.675794 0.675794
0.702229 0.702229 0.702229
0.728250 0.728250 0.728250
0.753801 0.753801 0.753801
0.778828 0.778828 0.778828
0.803274 0.803274 0.803274
0.827083 0.827083 0.827083
0.850200 0.850200 0.850200
0.872570 0.872570 0.872570
0.894135 0.894135 0.894135
0.914841 0.914841 0.914841
0.934632 0.934632 0.934632
0.953452 0.953452 0.953452
0.971245 0.971245 0.971245
0.685462 0.685462 0.685462
0.711753 0.711753 0.711753
0.737609 0.737609 0.737609
0.762976 0.762976 0.762976
0.787798 0.787798 0.787798
0.812019 0.812019 0.812019
0.835582 0.835582 0.835582
0.858434 0.858434 0.858434
0.880517 0.880517 0.880517
0.901776 0.901776 0.901776
0.922155 0.922155 0.922155
0.941599 0.941599 0.941599
0.960052 0.960052 0.960052
0.977457 0.977457 0.977457
0.993760 0.993760 0.993760
1.000000 1.000000 1.000000
1.000000 1.000000 1.000000
0.772079 0.772079 0.772079
0.796688 0.796688 0.796688
0.820676 0.820676 0.820676
0.843987 0.843987 0.843987
0.866565 0.866565 0.866565
0.888355 0.888355 0.888355
0.909300 0.909300 0.909300
0.929345 0.929345 0.929345
0.948435 0.948435 0.948435
0.966513 0.966513 0.966513
0.983523 0.983523 0.983523
0.999411 0.999411 0.999411
1.000000 1.000000 1.000000
1.000000 1.000000 1.000000
1.000000 1.000000 1.000000
1.000000 1.000000 1.000000
1.000000 1.000000 1.000000
0.852295 0.852295 0.852295
0.874592 0.874592 0.874592
0.896081 0.896081 0.896081
0.916705 0.916705 0.916705
0.936409 0.936409 0.936409
0.955136 0.955136 0.955136
0.972832 0.972832 0.972832
0.989440 0.989440 0.989440
1.000000 1.000000 1.000000
1.000000 1.000000 1.000000
1.000000 1.000000 1.000000
1.000000 1.000000 1.000000
1.000000 1.000000 1.000000
1.000000 1.000000 1.000000
1.000000 1.000000 1.000000
1.000000 1.000000 1.000000
1.000000 1.000000 1.000000
0.923988 0.923988 0.923988
0.943343 0.943343 0.943343
0.961701 0.961701 0.961701
0.979007 0.979007 0.979007
0.995206 0.995206 0.995206
1.000000 1.000000 1.000000
1.000000 1.000000 1.000000
1.000000 1.000000 1.000000
1.000000 1.000000 1.000000
1.000000 1.000000 1.000000
1.000000 1.000000 1.000000
1.000000 1.000000 1.000000
1.000000 1.000000 1.000000
1.000000 1.000000 1.000000
1.000000 1.000000 1.000000
1.000000 1.000000 1.000000
1.000000 1.000000 1.000000
0.000000 0.000000 0.020000
0.000000 0.000000 0.020000
0.000000 0.000000 0.020000
0.000000 0.000000 0.020000
0.000000 0.000000 0.020000
0.000000 0.000000 0.020000
0.000000 0.000000 0.020000
0.000000 0.000000 0.020000
0.000000 0.000000 0.020000
0.000000 0.000000 0.020000
0.000000 0.000000 0.020000
0.000000 0.000000 0.020000
0.000000 0.000000 0.020000
0.000000 0.000000 0.020000
0.000000 0.000000 0.020000
0.000000 0.000000 0.020000
0.000000 0.008965 0.028517
0.000000 0.000000 0.020000
0.000000 0.000000 0.020000
0.000000 0.000000 0.020000
0.000000 0.000000 0.020000
