Fotico/Resources/LUTs/carbon.cube
# Carbon
LUT_3D_SIZE 9
0.000000 0.000000 0.020000
0.000000 0.000000 0.020000
0.000000 0.000000 0.020000
0.000000 0.000000 0.020000
0.000000 0.000000 0.020000
0.000000 0.000000 0.020000
0.000000 0.000000 0.020000
0.000000 0.000000 0.020000
0.000000 0.000000 0.020000
0.000000 0.000000 0.020000
0.000000 0.000000 0.020000
0.000000 0.000000 0.020000
0.000000 0.000000 0.020000
0.000000 0.000000 0.020000
0.000000 0.004383 0.024164
0.028775 0.037829 0.055938
0.067377 0.075490 0.091716
0.109842 0.116919 0.131073
0.000000 0.000000 0.020000
0.000000 0.000000 0.020000
0.006445 0.016044 0.035241
0.042353 0.051076 0.068522
0.082414 0.090160 0.105652
0.126172 0.132850 0.146208
0.173168 0.178701 0.189766
0.222947 0.227265 0.235902
0.275051 0.278098 0.284193
0.056481 0.064859 0.081616
0.097941 0.105308 0.120043
0.142930 0.149200 0.161740
0.190993 0.196091 0.206286
0.241671 0.245533 0.253256
0.294507 0.297080 0.302226
0.349045 0.350288 0.352774
0.404710 0.404710 0.404710
0.459900 0.459900 0.459900
0.209164 0.213819 0.223128
0.260681 0.264079 0.270875
0.314190 0.316283 0.320469
0.369234 0.369984 0.371485
0.424737 0.424737 0.424737
0.480096 0.480096 0.480096
0.535615 0.535615 0.535615
0.590847 0.590847 0.590847
0.645348 0.645348 0.645348
0.389565 0.389820 0.390329
0.444845 0.444845 0.444845
0.500313 0.500313 0.500313
0.555780 0.555780 0.555780
0.610797 0.610797 0.610797
0.664921 0.664921 0.664921
0.717704 0.717704 0.717704
0.768701 0.768701 0.768701
0.817465 0.817465 0.817465
0.575885 0.575885 0.575885
0.630629 0.630629 0.630629
0.684316 0.684316 0.684316
0.736500 0.736500 0.736500
0.786736 0.786736 0.786736
0.834577 0.834577 0.834577
0.879578 0.879578 0.879578
0.921292 0.921292 0.921292
0.959275 0.959275 0.959275
0.755038 0.755038 0.755038
0.804454 0.804454 0.804454
0.851313 0.851313 0.851313
0.895169 0.895169 0.895169
0.935576 0.935576 0.935576
0.972088 0.972088 0.972088
1.000000 1.000000 1.000000
1.000000 1.000000 1.000000
1.000000 1.000000 1.000000
0.910302 0.910302 0.910302
0.949343 0.949343 0.949343
0.984327 0.984327 0.984327
1.000000 1.000000 1.000000
1.000000 1.000000 1.000000
1.000000 1.000000 1.000000
1.000000 1.000000 1.000000
1.000000 1.000000 1.000000
1.000000 1.000000 1.000000
0.000000 0.000000 0.020000
0.000000 0.000000 0.020000
0.000000 0.000000 0.020000
0.000000 0.000000 0.020000
0.000000 0.000000 0.020000
0.000000 0.000000 0.020000
0.000000 0.000000 0.020000
0.000000 0.000000 0.020000
0.000000 0.003621 0.023440
0.000000 0.000000 0.020000
0.000000 0.000000 0.020000
0.000000 0.000000 0.020000
0.000000 0.000000 0.020000
0.000000 0.000000 0.020000
0.005622 0.015241 0.034479
0.041423 0.050169 0.067660
0.081388 0.089159 0.104701
0.125061 0.131767 0.145178
0.000000 0.000000 0.020000
0.000000 0.000000 0.020000
0.018145 0.027459 0.046086
0.055515 0.063917 0.080721
0.096883 0.104276 0.119062
0.141792 0.148089 0.160685
0.189784 0.194911 0.205166
0.240404 0.244296 0.252081
0.293193 0.295798 0.301008
0.070137 0.078182 0.094273
0.112847 0.119850 0.133858
0.158931 0.164811 0.176570
0.207933 0.212618 0.221987
0.259395 0.262825 0.269683
0.312861 0.314986 0.319237
0.367873 0.368656 0.370224
0.423389 0.423389 0.423389
0.478738 0.478738 0.478738
0.226408 0.230642 0.239110
0.278652 0.281612 0.287531
0.332734 0.334374 0.337656
0.388195 0.388483 0.389059
0.443492 0.443492 0.443492
0.498955 0.498955 0.498955
0.554427 0.554427 0.554427
0.609461 0.609461 0.609461
0.663611 0.663611 0.663611
0.408429 0.408429 0.408429
0.463655 0.463655 0.463655
0.519173 0.519173 0.519173
0.574537 0.574537 0.574537
0.629301 0.629301 0.629301
0.683019 0.683019 0.683019
0.735245 0.735245 0.735245
0.785534 0.785534 0.785534
0.833439 0.833439 0.833439
0.594567 0.594567 0.594567
0.649002 0.649002 0.649002
0.702229 0.702229 0.702229
0.753801 0.753801 0.753801
0.803274 0.803274 0.803274
0.850200 0.850200 0.850200
0.894135 0.894135 0.894135
0.934632 0.934632 0.934632
0.971245 0.971245 0.971245
0.772079 0.772079 0.772079
0.820676 0.820676 0.820676
0.866565 0.866565 0.866565
0.909300 0.909300 0.909300
0.948435 0.948435 0.948435
0.983523 0.983523 0.983523
1.000000 1.000000 1.000000
1.000000 1.000000 1.000000
1.000000 1.000000 1.000000
0.923988 0.923988 0.923988
0.961701 0.961701 0.961701
0.995206 0.995206 0.995206
1.000000 1.000000 1.000000
1.000000 1.000000 1.000000
1.000000 1.000000 1.000000
1.000000 1.000000 1.000000
1.000000 1.000000 1.000000
1.000000 1.000000 1.000000
0.000000 0.000000 0.020000
0.000000 0.000000 0.020000
0.000000 0.000000 0.020000
0.000000 0.000000 0.020000
0.000000 0.000000 0.020000
0.000000 0.000000 0.020000
0.000000 0.000000 0.020000
0.000000 0.000000 0.020000
0.004803 0.014442 0.033720
0.000000 0.000000 0.020000
0.000000 0.000000 0.020000
0.000000 0.000000 0.020000
0.000000 0.000000 0.020000
0.000000 0.000000 0.020000
0.017285 0.026620 0.045289
0.054551 0.062977 0.079828
0.095827 0.103246 0.118083
0.140654 0.146980 0.159631
0.000000 0.000000 0.020000
0.000000 0.005737 0.025450
0.030359 0.039375 0.057406
0.069138 0.077208 0.093348
0.111760 0.118790 0.132851
0.157767 0.163675 0.175492
0.206703 0.211418 0.220847
0.258111 0.261571 0.268493
0.311533 0.313691 0.318006
0.084234 0.091936 0.107339
0.128142 0.134772 0.148034
0.175268 0.180749 0.191712
0.225157 0.229421 0.237950
0.277351 0.280342 0.286325
0.331393 0.333066 0.336413
0.386826 0.387147 0.387790
0.442139 0.442139 0.442139
0.497597 0.497597 0.497597
0.243916 0.247723 0.255337
0.296836 0.299352 0.304384
0.351437 0.352621 0.354990
0.407086 0.407086 0.407086
0.462299 0.462299 0.462299
0.517815 0.517815 0.517815
0.573188 0.573188 0.573188
0.627972 0.627972 0.627972
0.681721 0.681721 0.681721
0.427124 0.427124 0.427124
0.482499 0.482499 0.482499
0.538014 0.538014 0.538014
0.593224 0.593224 0.593224
0.647683 0.647683 0.647683
0.700945 0.700945 0.700945
0.752563 0.752563 0.752563
0.802092 0.802092 0.802092
0.849087 0.849087 0.849087
0.613161 0.613161 0.613161
0.667236 0.667236 0.667236
0.719951 0.719951 0.719951
0.770860 0.770860 0.770860
0.819518 0.819518 0.819518
0.865479 0.865479 0.865479
0.908296 0.908296 0.908296
0.947524 0.947524 0.947524
0.982717 0.982717 0.982717
0.788859 0.788859 0.788859
0.836586 0.836586 0.836586
0.881454 0.881454 0.881454
0.923016 0.923016 0.923016
0.960827 0.960827 0.960827
0.994440 0.994440 0.994440
1.000000 1.000000 1.000000
1.000000 1.000000 1.000000
1.000000 1.000000 1.000000
0.937240 0.937240 0.937240
0.973574 0.973574 0.973574
1.000000 1.000000 1.000000
1.000000 1.000000 1.000000
1.000000 1.000000 1.000000
1.000000 1.000000 1.000000
1.000000 1.000000 1.000000
1.000000 1.000000 1.000000
1.000000 1.000000 1.000000
0.000000 0.000000 0.020000
0.000000 0.000000 0.020000
0.000000 0.000000 0.020000
0.000000 0.000000 0.020000
0.000000 0.000000 0.020000
0.000000 0.000000 0.020000
0.000000 0.000000 0.020000
0.000000 0.000000 0.020000
0.016428 0.025783 0.044494
0.000000 0.000000 0.020000
0.000000 0.000000 0.020000
0.000000 0.000000 0.020000
0.000000 0.000000 0.020000
0.000000 0.004971 0.024722
0.029463 0.038500 0.056575
0.068142 0.076236 0.092424
0.110675 0.117732 0.131845
0.156605 0.162542 0.174414
0.000000 0.000000 0.020000
0.007079 0.016663 0.035829
0.043070 0.051775 0.069186
0.083205 0.090931 0.106385
0.127027 0.133685 0.147001
0.174081 0.179591 0.190611
0.223907 0.228202 0.236792
0.276050 0.279073 0.285120
0.330052 0.331758 0.335171
0.098756 0.106104 0.120798
0.143808 0.150056 0.162554
0.191924 0.196999 0.207149
0.242646 0.246484 0.254160
0.295519 0.298068 0.303164
0.350085 0.351302 0.353737
0.405743 0.405743 0.405743
0.460943 0.460943 0.460943
0.516457 0.516457 0.516457
0.261671 0.265045 0.271792
0.315213 0.317281 0.321417
0.370281 0.371006 0.372456
0.425775 0.425775 0.425775
0.481141 0.481141 0.481141
0.536658 0.536658 0.536658
0.591881 0.591881 0.591881
0.646364 0.646364 0.646364
0.699660 0.699660 0.699660
0.445886 0.445886 0.445886
0.501358 0.501358 0.501358
0.556820 0.556820 0.556820
0.611825 0.611825 0.611825
0.665928 0.665928 0.665928
0.718681 0.718681 0.718681
0.769640 0.769640 0.769640
0.818358 0.818358 0.818358
0.864390 0.864390 0.864390
0.631650 0.631650 0.631650
0.685313 0.685313 0.685313
0.737465 0.737465 0.737465
0.787659 0.787659 0.787659
0.835451 0.835451 0.835451
0.880395 0.880395 0.880395
0.922043 0.922043 0.922043
0.959951 0.959951 0.959951
0.993672 0.993672 0.993672
0.805360 0.805360 0.805360
0.852167 0.852167 0.852167
0.895962 0.895962 0.895962
0.936300 0.936300 0.936300
0.972735 0.972735 0.972735
1.000000 1.000000 1.000000
1.000000 1.000000 1.000000
1.000000 1.000000 1.000000
1.000000 1.000000 1.000000
0.950040 0.950040 0.950040
0.984944 0.984944 0.984944
1.000000 1.000000 1.000000
1.000000 1.000000 1.000000
1.000000 1.000000 1.000000
1.000000 1.000000 1.000000
1.000000 1.000000 1.000000
1.000000 1.000000 1.000000
1.000000 1.000000 1.000000
0.000000 0.000000 0.020000
0.000000 0.000000 0.020000
0.000000 0.000000 0.020000
0.000000 0.000000 0.020000
0.000000 0.000000 0.020000
0.000000 0.000000 0.020000
0.000000 0.000000 0.020000
0.000000 0.004207 0.023997
0.028569 0.037628 0.055747
0.000000 0.000000 0.020000
0.000000 0.000000 0.020000
0.000000 0.000000 0.020000
0.000000 0.000000 0.020000
0.006255 0.015858 0.035065
0.042138 0.050866 0.068323
0.082177 0.089929 0.105432
0.125915 0.132600 0.145970
0.172895 0.178434 0.189512
0.000000 0.000000 0.020000
0.018809 0.028106 0.046701
0.056258 0.064642 0.081410
0.097696 0.105070 0.119816
0.142667 0.148944 0.161497
0.190714 0.195818 0.206027
0.241378 0.245247 0.252985
0.294204 0.296784 0.301945
0.348734 0.349984 0.352485
0.113684 0.120667 0.134634
0.159827 0.165685 0.177401
0.208880 0.213541 0.222864
0.260384 0.263789 0.270600
0.313883 0.315983 0.320184
0.368920 0.369678 0.371194
0.424426 0.424426 0.424426
0.479783 0.479783 0.479783
0.535302 0.535302 0.535302
0.279654 0.282590 0.288460
0.333766 0.335381 0.338612
0.389249 0.389511 0.390036
0.444533 0.444533 0.444533
0.500000 0.500000 0.500000
0.555467 0.555467 0.555467
0.610489 0.610489 0.610489
0.664619 0.664619 0.664619
0.717410 0.717410 0.717410
0.464698 0.464698 0.464698
0.520217 0.520217 0.520217
0.575574 0.575574 0.575574
0.630322 0.630322 0.630322
0.684017 0.684017 0.684017
0.736211 0.736211 0.736211
0.786459 0.786459 0.786459
0.834315 0.834315 0.834315
0.879333 0.879333 0.879333
0.650016 0.650016 0.650016
0.703216 0.703216 0.703216
0.754753 0.754753 0.754753
0.804182 0.804182 0.804182
0.851056 0.851056 0.851056
0.894930 0.894930 0.894930
0.935358 0.935358 0.935358
0.971894 0.971894 0.971894
1.000000 1.000000 1.000000
0.821566 0.821566 0.821566
0.867400 0.867400 0.867400
0.910071 0.910071 0.910071
0.949134 0.949134 0.949134
0.984142 0.984142 0.984142
1.000000 1.000000 1.000000
1.000000 1.000000 1.000000
1.000000 1.000000 1.000000
1.000000 1.000000 1.000000
0.962372 0.962372 0.962372
0.995793 0.995793 0.995793
1.000000 1.000000 1.000000
1.000000 1.000000 1.000000
1.000000 1.000000 1.000000
1.000000 1.000000 1.000000
1.000000 1.000000 1.000000
1.000000 1.000000 1.000000
1.000000 1.000000 1.000000
0.000000 0.000000 0.020000
0.000000 0.000000 0.020000
0.000000 0.000000 0.020000
0.000000 0.000000 0.020000
0.000000 0.000000 0.020000
0.000000 0.000000 0.020000
0.000000 0.000000 0.020000
0.005433 0.015056 0.034304
0.041209 0.049960 0.067462
0.000000 0.000000 0.020000
0.000000 0.000000 0.020000
0.000000 0.000000 0.020000
0.000000 0.000000 0.020000
0.017946 0.027265 0.045902
0.055292 0.063700 0.080515
0.096639 0.104038 0.118836
0.141529 0.147833 0.160442
0.189506 0.194640 0.204908
0.000000 0.006328 0.026012
0.031051 0.040049 0.058047
0.069906 0.077957 0.094059
0.112596 0.119605 0.133625
0.158662 0.164549 0.176321
0.207649 0.212341 0.221723
0.259099 0.262535 0.269409
0.312554 0.314687 0.318953
0.367559 0.368350 0.369933
0.129000 0.135610 0.148829
0.176183 0.181642 0.192560
0.226119 0.230360 0.238842
0.278352 0.281319 0.287253
0.332424 0.334072 0.337369
0.387879 0.388175 0.388766
0.443180 0.443180 0.443180
0.498642 0.498642 0.498642
0.554114 0.554114 0.554114
0.297849 0.300340 0.305323
0.352477 0.353636 0.355955
0.408119 0.408119 0.408119
0.463342 0.463342 0.463342
0.518859 0.518859 0.518859
0.574225 0.574225 0.574225
0.628994 0.628994 0.628994
0.682719 0.682719 0.682719
0.734955 0.734955 0.734955
0.483543 0.483543 0.483543
0.539057 0.539057 0.539057
0.594257 0.594257 0.594257
0.648698 0.648698 0.648698
0.701932 0.701932 0.701932
0.753516 0.753516 0.753516
0.803001 0.803001 0.803001
0.849944 0.849944 0.849944
0.893896 0.893896 0.893896
0.668242 0.668242 0.668242
0.720927 0.720927 0.720927
0.771798 0.771798 0.771798
0.820409 0.820409 0.820409
0.866315 0.866315 0.866315
0.909069 0.909069 0.909069
0.948225 0.948225 0.948225
0.983337 0.983337 0.983337
1.000000 1.000000 1.000000
0.837458 0.837458 0.837458
0.882268 0.882268 0.882268
0.923764 0.923764 0.923764
0.961500 0.961500 0.961500
0.995029 0.995029 0.995029
1.000000 1.000000 1.000000
1.000000 1.000000 1.000000
1.000000 1.000000 1.000000
1.000000 1.000000 1.000000
0.974217 0.974217 0.974217
1.000000 1.000000 1.000000
1.000000 1.000000 1.000000
1.000000 1.000000 1.000000
1.000000 1.000000 1.000000
1.000000 1.000000 1.000000
1.000000 1.000000 1.000000
1.000000 1.000000 1.000000
1.000000 1.000000 1.000000
0.000000 0.000000 0.020000
0.000000 0.000000 0.020000
0.000000 0.000000 0.020000
0.000000 0.000000 0.020000
0.000000 0.000000 0.020000
0.000000 0.000000 0.020000
0.000000 0.000000 0.020000
0.017087 0.026426 0.045105
0.054329 0.062760 0.079622
0.000000 0.000000 0.020000
0.000000 0.000000 0.020000
0.000000 0.000000 0.020000
0.000000 0.005560 0.025282
0.030152 0.039173 0.057214
0.068908 0.076984 0.093134
0.111509 0.118546 0.132618
0.157499 0.163414 0.175243
0.206420 0.211141 0.220584
0.007715 0.017283 0.036419
0.043788 0.052476 0.069852
0.083997 0.091704 0.107119
0.127884 0.134521 0.147795
0.174994 0.180482 0.191458
0.224868 0.229140 0.237683
0.277050 0.280049 0.286047
0.331083 0.332764 0.336126
0.386510 0.386839 0.387497
0.144686 0.150913 0.163368
0.192855 0.197908 0.208012
0.243623 0.247437 0.255065
0.296532 0.299055 0.304103
0.351125 0.352317 0.354701
0.406776 0.406776 0.406776
0.461986 0.461986 0.461986
0.517501 0.517501 0.517501
0.572876 0.572876 0.572876
0.316236 0.318279 0.322365
0.371329 0.372028 0.373427
0.426812 0.426812 0.426812
0.482185 0.482185 0.482185
0.537701 0.537701 0.537701
0.592914 0.592914 0.592914
0.647379 0.647379 0.647379
0.700648 0.700648 0.700648
0.752277 0.752277 0.752277
0.502403 0.502403 0.502403
0.557861 0.557861 0.557861
0.612853 0.612853 0.612853
0.666934 0.666934 0.666934
0.719658 0.719658 0.719658
0.770579 0.770579 0.770579
0.819251 0.819251 0.819251
0.865228 0.865228 0.865228
0.908064 0.908064 0.908064
0.686309 0.686309 0.686309
0.738429 0.738429 0.738429
0.788582 0.788582 0.788582
0.836325 0.836325 0.836325
0.881210 0.881210 0.881210
0.922792 0.922792 0.922792
0.960625 0.960625 0.960625
0.994263 0.994263 0.994263
1.000000 1.000000 1.000000
0.853020 0.853020 0.853020
0.896754 0.896754 0.896754
0.937023 0.937023 0.937023
0.973380 0.973380 0.973380
1.000000 1.000000 1.000000
1.000000 1.000000 1.000000
1.000000 1.000000 1.000000
1.000000 1.000000 1.000000
1.000000 1.000000 1.000000
0.985558 0.985558 0.985558
1.000000 1.000000 1.000000
1.000000 1.000000 1.000000
1.000000 1.000000 1.000000
1.000000 1.000000 1.000000
1.000000 1.000000 1.000000
1.000000 1.000000 1.000000
1.000000 1.000000 1.000000
1.000000 1.000000 1.000000
0.000000 0.000000 0.020000
0.000000 0.000000 0.020000
0.000000 0.000000 0.020000
0.000000 0.000000 0.020000
0.000000 0.000000 0.020000
0.000000 0.000000 0.020000
0.000000 0.004794 0.024554
0.029256 0.038299 0.056384
0.067912 0.076012 0.092212
0.000000 0.000000 0.020000
0.000000 0.000000 0.020000
0.000000 0.000000 0.020000
0.006889 0.016477 0.035653
0.042854 0.051565 0.068987
0.082967 0.090700 0.106165
0.126771 0.133435 0.146763
0.173807 0.179324 0.190357
0.223619 0.227921 0.236525
0.019473 0.028755 0.047317
0.057002 0.065368 0.082099
0.098511 0.105865 0.120572
0.143545 0.149800 0.162310
0.191644 0.196726 0.206890
0.242354 0.246199 0.253889
0.295216 0.297771 0.302883
0.349773 0.350998 0.353448
0.405433 0.405433 0.405433
0.160725 0.166561 0.178233
0.209828 0.214466 0.223743
0.261374 0.264755 0.271517
0.314906 0.316981 0.321132
0.369967 0.370699 0.372164
0.425463 0.425463 0.425463
0.480827 0.480827 0.480827
0.536345 0.536345 0.536345
0.591571 0.591571 0.591571
0.334799 0.336389 0.339569
0.390303 0.390539 0.391012
0.445573 0.445573 0.445573
0.501045 0.501045 0.501045
0.556508 0.556508 0.556508
0.611517 0.611517 0.611517
0.665626 0.665626 0.665626
0.718388 0.718388 0.718388
0.769358 0.769358 0.769358
0.521262 0.521262 0.521262
0.576611 0.576611 0.576611
0.631344 0.631344 0.631344
0.685014 0.685014 0.685014
0.737175 0.737175 0.737175
0.787382 0.787382 0.787382
0.835189 0.835189 0.835189
0.880150 0.880150 0.880150
0.921818 0.921818 0.921818
0.704202 0.704202 0.704202
0.755704 0.755704 0.755704
0.805089 0.805089 0.805089
0.851911 0.851911 0.851911
0.895724 0.895724 0.895724
0.936083 0.936083 0.936083
0.972541 0.972541 0.972541
1.000000 1.000000 1.000000
1.000000 1.000000 1.000000
0.868233 0.868233 0.868233
0.910841 0.910841 0.910841
0.949831 0.949831 0.949831
0.984759 0.984759 0.984759
1.000000 1.000000 1.000000
1.000000 1.000000 1.000000
1.000000 1.000000 1.000000
1.000000 1.000000 1.000000
1.000000 1.000000 1.000000
0.996379 0.996379 0.996379
1.000000 1.000000 1.000000
1.000000 1.000000 1.000000
1.000000 1.000000 1.000000
1.000000 1.000000 1.000000
1.000000 1.000000 1.000000
1.000000 1.000000 1.000000
1.000000 1.000000 1.000000
1.000000 1.000000 1.000000
0.000000 0.000000 0.020000
0.000000 0.000000 0.020000
0.000000 0.000000 0.020000
0.000000 0.000000 0.020000
0.000000 0.000000 0.020000
0.000000 0.000000 0.020000
0.006065 0.015673 0.034889
0.041923 0.050657 0.068124
0.081940 0.089698 0.105213
0.000000 0.000000 0.020000
0.000000 0.000000 0.020000
0.000000 0.000000 0.020000
0.018609 0.027912 0.046516
0.056035 0.064424 0.081203
0.097452 0.104831 0.119590
0.142405 0.148687 0.161253
0.190435 0.195546 0.205769
0.241086 0.244962 0.252714
0.031744 0.040725 0.058689
0.070675 0.078708 0.094772
0.113433 0.120422 0.134401
0.159558 0.165423 0.177152
0.208596 0.213264 0.222601
0.260087 0.263500 0.270325
0.313576 0.315684 0.319900
0.368606 0.369371 0.370903
0.424115 0.424115 0.424115
0.177098 0.182535 0.193408
0.227082 0.231299 0.239734
0.279354 0.282296 0.288181
0.333456 0.335079 0.338325
0.388933 0.389203 0.389742
0.444220 0.444220 0.444220
0.499687 0.499687 0.499687
0.555155 0.555155 0.555155
0.610180 0.610180 0.610180
0.353518 0.354652 0.356919
0.409153 0.409153 0.409153
0.464385 0.464385 0.464385
0.519904 0.519904 0.519904
0.575263 0.575263 0.575263
0.630016 0.630016 0.630016
0.683717 0.683717 0.683717
0.735921 0.735921 0.735921
0.786181 0.786181 0.786181
0.540100 0.540100 0.540100
0.595290 0.595290 0.595290
0.649712 0.649712 0.649712
0.702920 0.702920 0.702920
0.754467 0.754467 0.754467
0.803909 0.803909 0.803909
0.850800 0.850800 0.850800
0.894692 0.894692 0.894692
0.935141 0.935141 0.935141
0.721902 0.721902 0.721902
0.772735 0.772735 0.772735
0.821299 0.821299 0.821299
0.867150 0.867150 0.867150
0.909840 0.909840 0.909840
0.948924 0.948924 0.948924
0.983956 0.983956 0.983956
1.000000 1.000000 1.000000
1.000000 1.000000 1.000000
0.883081 0.883081 0.883081
0.924510 0.924510 0.924510
0.962171 0.962171 0.962171
0.995617 0.995617 0.995617
1.000000 1.000000 1.000000
1.000000 1.000000 1.000000
1.000000 1.000000 1.000000
1.000000 1.000000 1.000000
1.000000 1.000000 1.000000
1.000000 1.000000 1.000000
1.000000 1.000000 1.000000
1.000000 1.000000 1.000000
1.000000 1.000000 1.000000
1.000000 1.000000 1.000000
1.000000 1.000000 1.000000
1.000000 1.000000 1.000000
1.000000 1.000000 1.000000
1.000000 1.000000 1.000000
