Fotico/Resources/LUTs/cloud.cube
TITLE "Cloud"
LUT_3D_SIZE 33
0.242818 0.247331 0.258646
0.249344 0.248112 0.259408
0.255561 0.248862 0.260140
0.261794 0.249618 0.260879
0.268384 0.250423 0.261666
0.275683 0.251320 0.262543
0.284056 0.252357 0.263558
0.293829 0.253576 0.264751
0.304891 0.254967 0.266114
0.316991 0.256503 0.267619
0.329875 0.258152 0.269236
0.343277 0.259883 0.270934
0.356917 0.261661 0.272678
0.370552 0.263452 0.274437
0.385064 0.265375 0.276326
0.399933 0.267361 0.278278
0.413801 0.269228 0.280113
0.426226 0.270912 0.281769
0.437871 0.272500 0.283332
0.449016 0.274029 0.284836
0.459948 0.275536 0.286320
0.470960 0.277062 0.287822
0.482351 0.278649 0.289385
0.494389 0.280335 0.291045
0.506982 0.282109 0.292793
0.519882 0.283935 0.294593
0.532835 0.285779 0.296410
0.545582 0.287604 0.298209
0.557862 0.289371 0.299951
0.569395 0.291037 0.301595
0.579708 0.292535 0.303072
0.589279 0.293929 0.304448
0.598935 0.295342 0.305842
0.245268 0.255583 0.261031
0.251800 0.256375 0.261806
0.258024 0.257136 0.262550
0.264265 0.257903 0.263301
0.270863 0.258719 0.264101
0.278172 0.259629 0.264993
0.286558 0.260680 0.266023
0.296344 0.261916 0.267236
0.307423 0.263327 0.268620
0.319543 0.264883 0.270147
0.332447 0.266555 0.271789
0.345871 0.268309 0.273513
0.359535 0.270110 0.275283
0.373193 0.271925 0.277067
0.387731 0.273873 0.278983
0.402626 0.275885 0.280962
0.416519 0.277776 0.282823
0.428966 0.279481 0.284502
0.440632 0.281089 0.286086
0.451797 0.282637 0.287610
0.462749 0.284163 0.289114
0.473782 0.285709 0.290636
0.485195 0.287316 0.292220
0.497254 0.289022 0.293902
0.509872 0.290818 0.295672
0.522796 0.292667 0.297495
0.535773 0.294533 0.299336
0.548545 0.296380 0.301158
0.560848 0.298168 0.302922
0.572403 0.299855 0.304587
0.582735 0.301370 0.306082
0.592325 0.302782 0.307475
0.601999 0.304211 0.308886
0.247648 0.263478 0.263351
0.254187 0.264282 0.264138
0.260418 0.265052 0.264894
0.266666 0.265830 0.265657
0.273272 0.266657 0.266468
0.280591 0.267580 0.267374
0.288988 0.268645 0.268420
0.298789 0.269898 0.269650
0.309884 0.271327 0.271054
0.322022 0.272904 0.272604
0.334947 0.274597 0.274269
0.348392 0.276374 0.276017
0.362078 0.278198 0.277811
0.375758 0.280035 0.279620
0.390320 0.282007 0.281561
0.405241 0.284044 0.283567
0.419158 0.285958 0.285452
0.431626 0.287684 0.287153
0.443313 0.289312 0.288757
0.454498 0.290878 0.290300
0.465469 0.292423 0.291823
0.476521 0.293987 0.293364
0.487954 0.295612 0.294968
0.500035 0.297339 0.296671
0.512675 0.299156 0.298462
0.525623 0.301026 0.300307
0.538623 0.302915 0.302170
0.551418 0.304783 0.304014
0.563744 0.306591 0.305799
0.575319 0.308298 0.307483
0.585670 0.309830 0.308996
0.595277 0.311258 0.310405
0.604970 0.312703 0.311832
0.250078 0.271428 0.265722
0.256624 0.272242 0.266521
0.262862 0.273024 0.267289
0.269118 0.273813 0.268063
0.275733 0.274651 0.268887
0.283061 0.275586 0.269806
0.291470 0.276666 0.270868
0.301285 0.277935 0.272116
0.312397 0.279384 0.273540
0.324553 0.280981 0.275112
0.337499 0.282697 0.276800
0.350966 0.284496 0.278572
0.364674 0.286343 0.280391
0.378378 0.288204 0.282224
0.392964 0.290201 0.284191
0.407910 0.292263 0.286223
0.421851 0.294200 0.288132
0.434341 0.295948 0.289855
0.446048 0.297595 0.291479
0.457253 0.299180 0.293042
0.468244 0.300743 0.294584
0.479315 0.302326 0.296144
0.490769 0.303971 0.297767
0.502871 0.305718 0.299491
0.515534 0.307556 0.301304
0.528505 0.309448 0.303171
0.541529 0.311358 0.305056
0.554347 0.313248 0.306921
0.566695 0.315078 0.308727
0.578291 0.316804 0.310431
0.588661 0.318354 0.311961
0.598286 0.319797 0.313386
0.607996 0.321259 0.314830
0.252694 0.279869 0.268276
0.259247 0.280696 0.269089
0.265493 0.281489 0.269868
0.271758 0.282289 0.270655
0.278382 0.283140 0.271492
0.285721 0.284088 0.272425
0.294143 0.285184 0.273503
0.303973 0.286471 0.274770
0.315102 0.287940 0.276216
0.327279 0.289559 0.277811
0.340246 0.291298 0.279524
0.353736 0.293123 0.281321
0.367469 0.294994 0.283166
0.381197 0.296880 0.285025
0.395809 0.298903 0.287019
0.410783 0.300992 0.289078
0.424749 0.302955 0.291013
0.437262 0.304725 0.292759
0.448991 0.306393 0.294405
0.460216 0.307999 0.295988
0.471227 0.309581 0.297549
0.482320 0.311184 0.299130
0.493795 0.312849 0.300773
0.505920 0.314618 0.302519
0.518607 0.316479 0.304355
0.531602 0.318394 0.306245
0.544651 0.320328 0.308154
0.557494 0.322241 0.310042
0.569865 0.324092 0.311869
0.581484 0.325839 0.313594
0.591874 0.327408 0.315142
0.601517 0.328869 0.316585
0.611246 0.330348 0.318045
0.255645 0.289262 0.271161
0.262208 0.290103 0.271988
0.268463 0.290909 0.272782
0.274737 0.291722 0.273582
0.281372 0.292587 0.274433
0.288723 0.293551 0.275382
0.297159 0.294664 0.276478
0.307006 0.295971 0.277766
0.318156 0.297463 0.279236
0.330355 0.299108 0.280857
0.343347 0.300873 0.282597
0.356863 0.302725 0.284422
0.370622 0.304624 0.286295
0.384377 0.306538 0.288182
0.399019 0.308591 0.290206
0.414022 0.310710 0.292296
0.428017 0.312701 0.294260
0.440556 0.314496 0.296031
0.452308 0.316188 0.297700
0.463557 0.317816 0.299306
0.474591 0.319420 0.300889
0.485707 0.321045 0.302492
0.497206 0.322733 0.304158
0.509357 0.324527 0.305928
0.522070 0.326412 0.307789
0.535093 0.328354 0.309705
0.548169 0.330314 0.311639
0.561039 0.332252 0.313552
0.573437 0.334128 0.315404
0.585080 0.335898 0.317151
0.595493 0.337488 0.318720
0.605156 0.338968 0.320181
0.614906 0.340467 0.321661
0.259100 0.300098 0.274541
0.265673 0.300954 0.275385
0.271939 0.301775 0.276194
0.278225 0.302604 0.277010
0.284872 0.303485 0.277878
0.292237 0.304466 0.278845
0.300690 0.305599 0.279962
0.310558 0.306930 0.281274
0.321731 0.308448 0.282771
0.333956 0.310122 0.284421
0.346976 0.311919 0.286192
0.360522 0.313802 0.288050
0.374313 0.315734 0.289955
0.388099 0.317680 0.291875
0.402775 0.319767 0.293933
0.417813 0.321921 0.296058
0.431841 0.323944 0.298054
0.444409 0.325768 0.299854
0.456189 0.327488 0.301550
0.467465 0.329142 0.303182
0.478525 0.330772 0.304791
0.489667 0.332422 0.306419
0.501194 0.334137 0.308111
0.513374 0.335958 0.309908
0.526118 0.337874 0.311798
0.539172 0.339845 0.313743
0.552280 0.341835 0.315707
0.565181 0.343803 0.317649
0.577609 0.345708 0.319528
0.589281 0.347505 0.321301
0.599719 0.349118 0.322893
0.609406 0.350620 0.324376
0.619180 0.352142 0.325877
0.263222 0.312820 0.278579
0.269809 0.313696 0.279442
0.276088 0.314535 0.280269
0.282386 0.315382 0.281103
0.289049 0.316281 0.281990
0.296431 0.317284 0.282979
0.304904 0.318441 0.284119
0.314796 0.319800 0.285460
0.325997 0.321349 0.286988
0.338253 0.323057 0.288672
0.351307 0.324890 0.290480
0.364889 0.326811 0.292375
0.378716 0.328781 0.294319
0.392539 0.330765 0.296276
0.407255 0.332893 0.298374
0.422334 0.335088 0.300540
0.436400 0.337150 0.302574
0.449003 0.339008 0.304407
0.460816 0.340759 0.306135
0.472123 0.342444 0.307797
0.483214 0.344104 0.309435
0.494388 0.345785 0.311092
0.505946 0.347531 0.312815
0.518161 0.349385 0.314644
0.530941 0.351335 0.316567
0.544032 0.353342 0.318547
0.557177 0.355367 0.320544
0.570114 0.357370 0.322520
0.582578 0.359308 0.324432
0.594282 0.361136 0.326235
0.604750 0.362777 0.327854
0.614465 0.364306 0.329361
0.624266 0.365853 0.330887
0.268002 0.327322 0.283265
0.274604 0.328220 0.284150
0.280898 0.329080 0.284998
0.287214 0.329947 0.285853
0.293893 0.330869 0.286762
0.301295 0.331895 0.287774
0.309792 0.333080 0.288942
0.319712 0.334471 0.290314
0.330945 0.336056 0.291878
0.343237 0.337804 0.293601
0.356330 0.339678 0.295450
0.369952 0.341642 0.297387
0.383821 0.343656 0.299374
0.397687 0.345683 0.301373
0.412448 0.347857 0.303517
0.427575 0.350099 0.305728
0.441684 0.352205 0.307805
0.454327 0.354102 0.309676
0.466177 0.355890 0.311440
0.477520 0.357610 0.313135
0.488646 0.359304 0.314806
0.499855 0.361019 0.316497
0.511450 0.362801 0.318254
0.523704 0.364693 0.320119
0.536524 0.366682 0.322080
0.549657 0.368729 0.324098
0.562844 0.370794 0.326134
0.575823 0.372836 0.328147
0.588326 0.374813 0.330096
0.600069 0.376677 0.331933
0.610570 0.378350 0.333582
0.620316 0.379908 0.335118
0.630148 0.381485 0.336672
0.273365 0.343308 0.288529
0.279985 0.344230 0.289438
0.286297 0.345113 0.290309
0.292631 0.346003 0.291186
0.299330 0.346949 0.292119
0.306755 0.348002 0.293157
0.315278 0.349217 0.294355
0.325229 0.350644 0.295762
0.336498 0.352269 0.297365
0.348831 0.354060 0.299130
0.361967 0.355980 0.301024
0.375634 0.357992 0.303007
0.389550 0.360054 0.305041
0.403463 0.362130 0.307087
0.418274 0.364354 0.309279
0.433452 0.366648 0.311541
0.447610 0.368802 0.313664
0.460296 0.370743 0.315577
0.472188 0.372571 0.317379
0.483569 0.374329 0.319111
0.494734 0.376062 0.320818
0.505982 0.377814 0.322545
0.517618 0.379635 0.324340
0.529914 0.381569 0.326244
0.542779 0.383600 0.328246
0.555958 0.385692 0.330306
0.569191 0.387801 0.332384
0.582215 0.389887 0.334439
0.594762 0.391905 0.336426
0.606546 0.393809 0.338301
0.617084 0.395517 0.339983
0.626864 0.397108 0.341549
0.636731 0.398718 0.343135
0.279226 0.360470 0.294288
0.285866 0.361417 0.295222
0.292198 0.362325 0.296117
0.298552 0.363240 0.297019
0.305274 0.364212 0.297977
0.312723 0.365294 0.299043
0.321275 0.366542 0.300273
0.331260 0.368007 0.301716
0.342569 0.369675 0.303360
0.354944 0.371512 0.305171
0.368127 0.373482 0.307112
0.381844 0.375545 0.309145
0.395810 0.377659 0.311228
0.409773 0.379786 0.313323
0.424638 0.382065 0.315568
0.439872 0.384415 0.317883
0.454082 0.386621 0.320055
0.466815 0.388608 0.322012
0.478750 0.390480 0.323855
0.490174 0.392279 0.325626
0.501380 0.394052 0.327372
0.512670 0.395845 0.329137
0.524349 0.397708 0.330971
0.536690 0.399686 0.332918
0.549604 0.401764 0.334963
0.562831 0.403902 0.337067
0.576114 0.406059 0.339190
0.589187 0.408192 0.341288
0.601780 0.410255 0.343318
0.613608 0.412200 0.345232
0.624185 0.413946 0.346949
0.634002 0.415571 0.348548
0.643906 0.417217 0.350166
0.285482 0.378472 0.300441
0.292144 0.379447 0.301402
0.298498 0.380381 0.302322
0.304874 0.381322 0.303249
0.311619 0.382322 0.304233
0.319095 0.383434 0.305328
0.327678 0.384716 0.306591
0.337700 0.386221 0.308073
0.349050 0.387935 0.309760
0.361472 0.389821 0.311617
0.374705 0.391843 0.313608
0.388473 0.393959 0.315692
0.402492 0.396128 0.317826
0.416509 0.398309 0.319973
0.431431 0.400645 0.322272
0.446723 0.403053 0.324642
0.460988 0.405313 0.326865
0.473769 0.407349 0.328867
0.485751 0.409266 0.330753
0.497219 0.411109 0.332565
0.508468 0.412924 0.334351
0.519801 0.414760 0.336156
0.531525 0.416667 0.338031
0.543915 0.418690 0.340021
0.556878 0.420817 0.342111
0.570157 0.423004 0.344262
0.583491 0.425211 0.346431
0.596614 0.427392 0.348574
0.609257 0.429502 0.350647
0.621130 0.431491 0.352602
0.631749 0.433276 0.354356
0.641603 0.434938 0.355988
0.651546 0.436620 0.357640
0.292013 0.396953 0.306871
0.298699 0.397957 0.307859
0.305076 0.398918 0.308805
0.311475 0.399886 0.309757
0.318246 0.400913 0.310768
0.325750 0.402057 0.311893
0.334365 0.403375 0.313189
0.344425 0.404921 0.314710
0.355819 0.406681 0.316441
0.368289 0.408617 0.318346
0.381573 0.410692 0.320386
0.395395 0.412864 0.322522
0.409468 0.415088 0.324709
0.423540 0.417325 0.326907
0.438521 0.419719 0.329261
0.453873 0.422188 0.331687
0.468194 0.424503 0.333963
0.481026 0.426588 0.336012
0.493054 0.428552 0.337941
0.504567 0.430439 0.339794
0.515861 0.432297 0.341620
0.527239 0.434176 0.343465
0.539009 0.436128 0.345382
0.551447 0.438199 0.347416
0.564462 0.440375 0.349552
0.577793 0.442613 0.351750
0.591179 0.444871 0.353965
0.604355 0.447101 0.356155
0.617047 0.449259 0.358272
0.628967 0.451293 0.360268
0.639627 0.453118 0.362059
0.649521 0.454817 0.363726
0.659502 0.456536 0.365412
0.298701 0.415578 0.313461
0.305412 0.416611 0.314476
0.311812 0.417600 0.315447
0.318236 0.418595 0.316425
0.325032 0.419651 0.317462
0.332565 0.420826 0.318617
0.341214 0.422179 0.319947
0.351313 0.423767 0.321506
0.362751 0.425574 0.323281
0.375270 0.427561 0.325234
0.388606 0.429690 0.327324
0.402483 0.431917 0.329512
0.416612 0.434197 0.331751
0.430739 0.436489 0.334001
0.445779 0.438943 0.336410
0.461192 0.441472 0.338892
0.475569 0.443843 0.341219
0.488452 0.445978 0.343314
0.500528 0.447988 0.345286
0.512087 0.449919 0.347181
0.523425 0.451821 0.349047
0.534848 0.453744 0.350933
0.546665 0.455741 0.352892
0.559152 0.457859 0.354969
0.572217 0.460085 0.357151
0.585601 0.462374 0.359395
0.599040 0.464681 0.361658
0.612267 0.466962 0.363893
0.625010 0.469167 0.366055
0.636977 0.471246 0.368092
0.647679 0.473111 0.369919
0.657611 0.474847 0.371620
0.667632 0.476604 0.373341
0.305949 0.435459 0.320608
0.312687 0.436522 0.321652
0.319115 0.437540 0.322650
0.325565 0.438564 0.323655
0.332390 0.439651 0.324721
0.339954 0.440859 0.325907
0.348639 0.442251 0.327273
0.358781 0.443883 0.328874
0.370267 0.445739 0.330695
0.382839 0.447781 0.332697
0.396231 0.449966 0.334841
0.410166 0.452253 0.337083
0.424355 0.454592 0.339377
0.438542 0.456944 0.341683
0.453645 0.459460 0.344150
0.469122 0.462053 0.346691
0.483560 0.464484 0.349073
0.496497 0.466671 0.351217
0.508624 0.468731 0.353234
0.520231 0.470709 0.355173
0.531617 0.472657 0.357081
0.543087 0.474627 0.359010
0.554954 0.476671 0.361012
0.567493 0.478840 0.363136
0.580613 0.481118 0.365366
0.594053 0.483461 0.367660
0.607548 0.485823 0.369972
0.620830 0.488156 0.372255
0.633645 0.490430 0.374493
0.645692 0.492581 0.376626
0.656451 0.494498 0.378526
0.666423 0.496269 0.380283
0.676473 0.498050 0.382049
0.313568 0.456044 0.328128
0.320336 0.457140 0.329201
0.326792 0.458188 0.330227
0.333271 0.459242 0.331260
0.340125 0.460360 0.332355
0.347723 0.461603 0.333573
0.356446 0.463035 0.334975
0.366633 0.464712 0.336619
0.378170 0.466620 0.338487
0.390797 0.468718 0.340541
0.404248 0.470962 0.342740
0.418244 0.473309 0.345038
0.432495 0.475711 0.347389
0.446743 0.478124 0.349751
0.461912 0.480705 0.352277
0.477457 0.483363 0.354879
0.491958 0.485855 0.357317
0.504950 0.488098 0.359511
0.517130 0.490208 0.361575
0.528787 0.492235 0.363558
0.540222 0.494230 0.365510
0.551742 0.496248 0.367482
0.563659 0.498342 0.369530
0.576253 0.500562 0.371701
0.589452 0.502915 0.374016
0.602980 0.505339 0.376416
0.616541 0.507761 0.378815
0.629867 0.510132 0.381165
0.642684 0.512405 0.383417
0.654704 0.514529 0.385523
0.665438 0.516421 0.387399
0.675387 0.518171 0.389134
0.685413 0.519929 0.390878
0.320949 0.475710 0.335417
0.327747 0.476836 0.336518
0.334230 0.477913 0.337571
0.340737 0.478995 0.338631
0.347621 0.480144 0.339754
0.355252 0.481420 0.341002
0.364012 0.482889 0.342439
0.374242 0.484611 0.344122
0.385828 0.486568 0.346036
0.398508 0.488718 0.348139
0.412016 0.491019 0.350389
0.426071 0.493424 0.352740
0.440381 0.495884 0.355145
0.454689 0.498355 0.357560
0.469921 0.500998 0.360143
0.485530 0.503719 0.362802
0.500090 0.506269 0.365294
0.513137 0.508564 0.367535
0.525366 0.510722 0.369644
0.537071 0.512796 0.371669
0.548578 0.514859 0.373700
0.560171 0.516944 0.375763
0.572147 0.519092 0.377888
0.584784 0.521349 0.380124
0.597984 0.523700 0.382451
0.611483 0.526095 0.384823
0.625016 0.528487 0.387193
0.638313 0.530829 0.389514
0.651102 0.533074 0.391740
0.663095 0.535173 0.393820
0.673805 0.537042 0.395673
0.683733 0.538769 0.397387
0.693737 0.540506 0.399109
0.327877 0.493939 0.342263
0.334702 0.495093 0.343390
0.341213 0.496197 0.344468
0.347746 0.497306 0.345551
0.354658 0.498483 0.346700
0.362319 0.499789 0.347976
0.371115 0.501294 0.349445
0.381385 0.503055 0.351166
0.393017 0.505058 0.353121
0.405747 0.507257 0.355269
0.419308 0.509610 0.357566
0.433417 0.512069 0.359967
0.447783 0.514583 0.362421
0.462146 0.517108 0.364885
0.477436 0.519808 0.367520
0.493105 0.522587 0.370231
0.507734 0.525202 0.372791
0.520865 0.527576 0.375138
0.533154 0.529788 0.377326
0.544898 0.531895 0.379410
0.556401 0.533952 0.381445
0.567972 0.536014 0.383485
0.579925 0.538137 0.385587
0.592536 0.540369 0.387797
0.605710 0.542693 0.390098
0.619183 0.545061 0.392444
0.632688 0.547425 0.394787
0.645959 0.549741 0.397082
0.658722 0.551960 0.399283
0.670691 0.554034 0.401340
0.681379 0.555882 0.403172
0.691287 0.557589 0.404866
0.701270 0.559305 0.406569
0.334628 0.511506 0.348938
0.341481 0.512688 0.350090
0.348018 0.513817 0.351191
0.354577 0.514953 0.352298
0.361517 0.516156 0.353471
0.369208 0.517492 0.354775
0.378038 0.519030 0.356274
0.388348 0.520831 0.358030
0.400025 0.522877 0.360025
0.412803 0.525124 0.362216
0.426415 0.527526 0.364559
0.440577 0.530036 0.367006
0.454997 0.532603 0.369508
0.469413 0.535179 0.372019
0.484805 0.537974 0.374779
0.500547 0.540820 0.377590
0.515202 0.543456 0.380196
0.528309 0.545803 0.382517
0.540576 0.547992 0.384682
0.552298 0.550076 0.386744
0.563780 0.552110 0.388757
0.575329 0.554149 0.390776
0.587260 0.556249 0.392854
0.599847 0.558457 0.395041
0.612996 0.560754 0.397317
0.626443 0.563096 0.399637
0.639922 0.565434 0.401955
0.653167 0.567724 0.404225
0.665905 0.569918 0.406401
0.677850 0.571969 0.408436
0.688518 0.573795 0.410248
0.698406 0.575483 0.411923
0.708369 0.577180 0.413607
0.341287 0.528659 0.355525
0.348169 0.529868 0.356702
0.354732 0.531022 0.357826
0.361317 0.532182 0.358956
0.368284 0.533411 0.360153
0.376005 0.534777 0.361482
0.384868 0.536347 0.363012
0.395218 0.538186 0.364802
0.406938 0.540274 0.366836
0.419765 0.542567 0.369068
0.433427 0.545018 0.371455
0.447675 0.547611 0.374004
0.462171 0.550247 0.376607
0.476636 0.552865 0.379192
0.492003 0.555631 0.381925
0.507718 0.558446 0.384708
0.522347 0.561054 0.387286
0.535431 0.563377 0.389583
0.547675 0.565541 0.391725
0.559376 0.567603 0.393765
0.570837 0.569615 0.395757
0.582366 0.571632 0.397754
0.594274 0.573709 0.399811
0.606838 0.575893 0.401974
0.619963 0.578165 0.404227
0.633384 0.580481 0.406522
0.646838 0.582793 0.408815
0.660057 0.585057 0.411061
0.672771 0.587227 0.413213
0.684693 0.589255 0.415226
0.695341 0.591061 0.417018
0.705209 0.592730 0.418676
0.715154 0.594408 0.420342
0.347952 0.545658 0.362120
0.354862 0.546893 0.363321
0.361451 0.548073 0.364468
0.368062 0.549258 0.365620
0.375056 0.550513 0.366841
0.382808 0.551907 0.368196
0.391705 0.553510 0.369755
0.402094 0.555386 0.371579
0.413884 0.557541 0.373693
0.426785 0.559904 0.376023
0.440501 0.562402 0.378489
0.454744 0.564983 0.381036
0.469217 0.567592 0.383612
0.483657 0.570181 0.386170
0.498998 0.572918 0.388876
0.514686 0.575703 0.391629
0.529290 0.578283 0.394181
0.542351 0.580580 0.396454
0.554573 0.582722 0.398573
0.566253 0.584761 0.400592
0.577693 0.586751 0.402563
0.589200 0.588746 0.404539
0.601087 0.590800 0.406574
0.613628 0.592960 0.408715
0.626728 0.595208 0.410943
0.640124 0.597498 0.413214
0.653552 0.599785 0.415482
0.666747 0.602024 0.417704
0.679437 0.604169 0.419834
0.691336 0.606175 0.421825
0.701963 0.607960 0.423598
0.711812 0.609611 0.425237
0.721738 0.611269 0.426885
0.354727 0.562781 0.368828
0.361666 0.564043 0.370053
0.368282 0.565247 0.371222
0.374921 0.566457 0.372397
0.381961 0.567756 0.373671
0.389765 0.569200 0.375093
0.398711 0.570847 0.376716
0.409142 0.572759 0.378601
0.420935 0.574911 0.380723
0.433816 0.577248 0.383029
0.447511 0.579720 0.385469
0.461731 0.582273 0.387990
0.476179 0.584853 0.390539
0.490595 0.587415 0.393070
0.505909 0.590122 0.395747
0.521569 0.592876 0.398471
0.536147 0.595428 0.400996
0.549185 0.597700 0.403245
0.561385 0.599818 0.405342
0.573044 0.601834 0.407339
0.584463 0.603802 0.409289
0.595949 0.605776 0.411244
0.607813 0.607807 0.413257
0.620330 0.609942 0.415375
0.633406 0.612165 0.417579
0.646777 0.614429 0.419826
0.660180 0.616690 0.422070
0.673349 0.618904 0.424267
0.686015 0.621025 0.426374
0.697891 0.623008 0.428343
0.708497 0.624773 0.430097
0.718328 0.626404 0.431718
0.728234 0.628044 0.433348
0.361770 0.580358 0.375836
0.368751 0.581657 0.377115
0.375399 0.582889 0.378328
0.382063 0.584119 0.379539
0.389103 0.585413 0.380814
0.396897 0.586841 0.382221
0.405831 0.588470 0.383827
0.416246 0.590361 0.385692
0.428021 0.592488 0.387791
0.440882 0.594799 0.390072
0.454554 0.597244 0.392486
0.468750 0.599768 0.394979
0.483173 0.602319 0.397501
0.497563 0.604852 0.400005
0.512851 0.607529 0.402653
0.528483 0.610252 0.405347
0.543034 0.612774 0.407844
0.556047 0.615020 0.410069
0.568224 0.617114 0.412143
0.579861 0.619108 0.414118
0.591258 0.621053 0.416047
0.602723 0.623004 0.417980
0.614564 0.625011 0.419972
0.627058 0.627122 0.422066
0.640108 0.629319 0.424246
0.653453 0.631557 0.426467
0.666830 0.633791 0.428686
0.679973 0.635979 0.430859
0.692614 0.638076 0.432943
0.704467 0.640035 0.434890
0.715052 0.641779 0.436624
0.724863 0.643391 0.438227
0.734749 0.645012 0.439839
0.369113 0.598604 0.383201
0.376086 0.599888 0.384466
0.382726 0.601105 0.385665
0.389381 0.602321 0.386863
0.396412 0.603600 0.388124
0.404194 0.605011 0.389515
0.413114 0.606621 0.391103
0.423513 0.608490 0.392947
0.435268 0.610592 0.395022
0.448108 0.612876 0.397278
0.461756 0.615291 0.399664
0.475926 0.617786 0.402129
0.490323 0.620307 0.404622
0.504687 0.622809 0.407098
0.519945 0.625454 0.409715
0.535547 0.628145 0.412379
0.550070 0.630637 0.414848
0.563058 0.632856 0.417047
0.575212 0.634925 0.419097
0.586826 0.636894 0.421050
0.598200 0.638816 0.422956
0.609642 0.640743 0.424867
0.621460 0.642726 0.426836
0.633928 0.644811 0.428905
0.646952 0.646981 0.431060
0.660269 0.649191 0.433256
0.673619 0.651399 0.435449
0.686735 0.653559 0.437597
0.699350 0.655630 0.439655
0.711179 0.657565 0.441580
0.721742 0.659288 0.443294
0.731533 0.660880 0.444878
0.741399 0.662480 0.446470
0.376660 0.617481 0.390771
0.383624 0.618749 0.392020
0.390255 0.619952 0.393206
0.396900 0.621152 0.394389
0.403921 0.622416 0.395635
0.411690 0.623809 0.397010
0.420596 0.625399 0.398579
0.430977 0.627244 0.400401
0.442712 0.629320 0.402451
0.455527 0.631576 0.404680
0.469150 0.633961 0.407038
0.483294 0.636424 0.409474
0.497662 0.638913 0.411937
0.511998 0.641384 0.414383
0.527226 0.643996 0.416969
0.542796 0.646652 0.419600
0.557290 0.649113 0.422039
0.570251 0.651304 0.424212
0.582380 0.653346 0.426237
0.593969 0.655290 0.428166
0.605320 0.657187 0.430049
0.616738 0.659089 0.431937
0.628531 0.661047 0.433882
0.640973 0.663105 0.435926
0.653969 0.665247 0.438054
0.667258 0.667428 0.440223
0.680579 0.669607 0.442390
0.693667 0.671739 0.444511
0.706255 0.673783 0.446544
0.718058 0.675693 0.448445
0.728598 0.677392 0.450137
0.738368 0.678964 0.451702
0.748212 0.680543 0.453275
0.384242 0.636576 0.398375
0.391196 0.637828 0.399609
0.397818 0.639015 0.400780
0.404452 0.640200 0.401949
0.411461 0.641447 0.403179
0.419218 0.642822 0.404537
0.428108 0.644392 0.406087
0.438470 0.646213 0.407886
0.450183 0.648262 0.409911
0.462974 0.650488 0.412113
0.476570 0.652842 0.414441
0.490686 0.655273 0.416847
0.505026 0.657730 0.419280
0.519332 0.660169 0.421695
0.534529 0.662746 0.424249
0.550067 0.665367 0.426848
0.564530 0.667795 0.429257
0.577464 0.669957 0.431402
0.589566 0.671972 0.433402
0.601131 0.673891 0.435307
0.612458 0.675763 0.437166
0.623850 0.677639 0.439031
0.635618 0.679571 0.440951
0.648033 0.681602 0.442970
0.661000 0.683715 0.445071
0.674261 0.685867 0.447212
0.687552 0.688016 0.449351
0.700612 0.690120 0.451446
0.713172 0.692136 0.453453
0.724949 0.694019 0.455330
0.735466 0.695696 0.457001
0.745213 0.697246 0.458545
0.755036 0.698803 0.460098
0.391682 0.655443 0.405835
0.398626 0.656679 0.407054
0.405237 0.657850 0.408210
0.411861 0.659019 0.409365
0.418858 0.660250 0.410580
0.426601 0.661607 0.411921
0.435475 0.663156 0.413451
0.445818 0.664953 0.415228
0.457508 0.666975 0.417228
0.470275 0.669172 0.419402
0.483844 0.671495 0.421702
0.497931 0.673894 0.424078
0.512242 0.676318 0.426480
0.526518 0.678724 0.428865
0.541683 0.681267 0.431387
0.557189 0.683854 0.433954
0.571621 0.686249 0.436332
0.584527 0.688382 0.438450
0.596604 0.690370 0.440425
0.608144 0.692263 0.442306
0.619446 0.694110 0.444142
0.630814 0.695961 0.445983
0.642556 0.697867 0.447878
0.654944 0.699870 0.449872
0.667883 0.701954 0.451946
0.681114 0.704077 0.454060
0.694377 0.706197 0.456172
0.707407 0.708272 0.458240
0.719939 0.710260 0.460222
