Fotico/Resources/LUTs/cloud.cube
TITLE "Cloud"
LUT_3D_SIZE 5
0.242818 0.247331 0.258646
0.304891 0.254967 0.266114
0.413801 0.269228 0.280113
0.506982 0.282109 0.292793
0.598935 0.295342 0.305842
0.268002 0.327322 0.283265
0.330945 0.336056 0.291878
0.441684 0.352205 0.307805
0.536524 0.366682 0.322080
0.630148 0.381485 0.336672
0.320949 0.475710 0.335417
0.385828 0.486568 0.346036
0.500090 0.506269 0.365294
0.597984 0.523700 0.382451
0.693737 0.540506 0.399109
0.376660 0.617481 0.390771
0.442712 0.629320 0.402451
0.557290 0.649113 0.422039
0.653969 0.665247 0.438054
0.748212 0.680543 0.453275
0.425011 0.741631 0.439245
0.490245 0.752431 0.449962
0.603223 0.770482 0.467936
0.698492 0.785179 0.482621
0.791336 0.799089 0.496563
0.246028 0.250541 0.318059
0.308232 0.258307 0.325578
0.417377 0.272783 0.339695
0.510760 0.285840 0.352501
0.602910 0.299244 0.365697
0.271643 0.330979 0.342808
0.334746 0.339858 0.351529
0.445752 0.356244 0.367666
0.540813 0.370916 0.382144
0.634654 0.385908 0.396958
0.325336 0.480190 0.395562
0.390424 0.491213 0.406388
0.505002 0.511182 0.426012
0.603012 0.528689 0.443442
0.698668 0.545377 0.460104
0.381460 0.622428 0.451615
0.447492 0.634178 0.463302
0.561972 0.653815 0.482864
0.658546 0.669818 0.498833
0.752679 0.684987 0.513990
0.429465 0.746207 0.499898
0.494656 0.756910 0.510573
0.607512 0.774795 0.528448
0.702662 0.789353 0.543029
0.795384 0.803129 0.556854
0.251714 0.256227 0.421208
0.314140 0.264209 0.428887
0.423677 0.279040 0.443299
0.517393 0.292389 0.456374
0.609871 0.306072 0.469852
0.278046 0.337412 0.446455
0.341417 0.346530 0.455395
0.452864 0.363306 0.471921
0.548289 0.378297 0.486746
0.642482 0.393596 0.501914
0.332967 0.487981 0.500407
0.398398 0.499272 0.511551
0.513553 0.519726 0.531857
0.611480 0.537094 0.549310
0.706970 0.553586 0.565878
0.389570 0.630765 0.557292
0.455561 0.642366 0.568911
0.569871 0.661743 0.588327
0.666269 0.677530 0.604151
0.760216 0.692489 0.619150
0.437000 0.753931 0.605095
0.502113 0.764473 0.615656
0.614765 0.782084 0.633312
0.709720 0.796415 0.647693
0.802240 0.809972 0.661309
0.256891 0.261404 0.513291
0.319514 0.269573 0.521139
0.429392 0.284710 0.535846
0.523396 0.298308 0.549178
0.616155 0.312231 0.562915
0.283843 0.343239 0.539080
0.347449 0.352561 0.548226
0.459276 0.369672 0.565107
0.555015 0.384936 0.580235
0.649511 0.400496 0.595708
0.339818 0.494976 0.594151
0.405546 0.506496 0.605562
0.521053 0.527216 0.626325
0.618847 0.544409 0.643666
0.714193 0.560732 0.660116
0.396643 0.638022 0.651503
0.462592 0.649493 0.663035
0.576752 0.668647 0.682283
0.672996 0.684247 0.697954
0.766782 0.699026 0.712797
0.443578 0.760660 0.698827
0.508620 0.771063 0.709272
0.621093 0.788439 0.726717
0.715878 0.802576 0.740912
0.808225 0.815945 0.754340
0.261521 0.266034 0.594383
0.324316 0.274363 0.602389
0.434490 0.289763 0.617367
0.528743 0.303577 0.630930
0.621745 0.317706 0.644899
0.289007 0.348432 0.620685
0.352818 0.357931 0.630016
0.464976 0.375330 0.647210
0.560985 0.390827 0.662604
0.655741 0.406611 0.678340
0.345890 0.501176 0.676756
0.411875 0.512893 0.688395
0.527540 0.533694 0.709394
0.625217 0.550737 0.726622
0.720438 0.566913 0.742955
0.402769 0.644299 0.734341
0.468678 0.655658 0.745785
0.582705 0.674620 0.764871
0.678816 0.690059 0.780400
0.772463 0.704683 0.795100
0.449277 0.766482 0.781226
0.514255 0.776766 0.791562
0.626572 0.793940 0.808816
0.721210 0.807910 0.822846
0.813408 0.821119 0.836109
