Fotico/Resources/LUTs/cloud.cube
TITLE "Cloud"
LUT_3D_SIZE 9
0.242818 0.247331 0.258646
0.268384 0.250423 0.261666
0.304891 0.254967 0.266114
0.356917 0.261661 0.272678
0.413801 0.269228 0.280113
0.459948 0.275536 0.286320
0.506982 0.282109 0.292793
0.557862 0.289371 0.299951
0.598935 0.295342 0.305842
0.252694 0.279869 0.268276
0.278382 0.283140 0.271492
0.315102 0.287940 0.276216
0.367469 0.294994 0.283166
0.424749 0.302955 0.291013
0.471227 0.309581 0.297549
0.518607 0.316479 0.304355
0.569865 0.324092 0.311869
0.611246 0.330348 0.318045
0.268002 0.327322 0.283265
0.293893 0.330869 0.286762
0.330945 0.336056 0.291878
0.383821 0.343656 0.299374
0.441684 0.352205 0.307805
0.488646 0.359304 0.314806
0.536524 0.366682 0.322080
0.588326 0.374813 0.330096
0.630148 0.381485 0.336672
0.292013 0.396953 0.306871
0.318246 0.400913 0.310768
0.355819 0.406681 0.316441
0.409468 0.415088 0.324709
0.468194 0.424503 0.333963
0.515861 0.432297 0.341620
0.564462 0.440375 0.349552
0.617047 0.449259 0.358272
0.659502 0.456536 0.365412
0.320949 0.475710 0.335417
0.347621 0.480144 0.339754
0.385828 0.486568 0.346036
0.440381 0.495884 0.355145
0.500090 0.506269 0.365294
0.548578 0.514859 0.373700
0.597984 0.523700 0.382451
0.651102 0.533074 0.391740
0.693737 0.540506 0.399109
0.347952 0.545658 0.362120
0.375056 0.550513 0.366841
0.413884 0.557541 0.373693
0.469217 0.567592 0.383612
0.529290 0.578283 0.394181
0.577693 0.586751 0.402563
0.626728 0.595208 0.410943
0.679437 0.604169 0.419834
0.721738 0.611269 0.426885
0.376660 0.617481 0.390771
0.403921 0.622416 0.395635
0.442712 0.629320 0.402451
0.497662 0.638913 0.411937
0.557290 0.649113 0.422039
0.605320 0.657187 0.430049
0.653969 0.665247 0.438054
0.706255 0.673783 0.446544
0.748212 0.680543 0.453275
0.405456 0.690722 0.419645
0.432543 0.695406 0.424276
0.471053 0.701960 0.430765
0.525574 0.711065 0.439795
0.584714 0.720741 0.449411
0.632343 0.728399 0.457033
0.680577 0.736039 0.464648
0.732415 0.744127 0.472722
0.774008 0.750528 0.479120
0.425011 0.741631 0.439245
0.451954 0.746132 0.443708
0.490245 0.752431 0.449962
0.544443 0.761182 0.458666
0.603223 0.770482 0.467936
0.650557 0.777840 0.475282
0.698492 0.785179 0.482621
0.750004 0.792945 0.490400
0.791336 0.799089 0.496563
0.244138 0.248651 0.283192
0.269725 0.251765 0.286217
0.306265 0.256341 0.290674
0.358338 0.263078 0.297255
0.415273 0.270692 0.304713
0.461462 0.277037 0.310941
0.508539 0.283647 0.317439
0.559465 0.290949 0.324628
0.600575 0.296952 0.330546
0.254088 0.281263 0.292823
0.279801 0.284559 0.296049
0.316556 0.289392 0.300788
0.368972 0.296492 0.307764
0.426307 0.304502 0.315643
0.472829 0.311167 0.322209
0.520253 0.318103 0.329047
0.571559 0.325759 0.336601
0.612979 0.332048 0.342810
0.269502 0.328828 0.307838
0.295421 0.332400 0.311350
0.332511 0.337623 0.316491
0.385442 0.345271 0.324025
0.443363 0.353871 0.332502
0.490371 0.361012 0.339544
0.538296 0.368431 0.346862
0.590148 0.376606 0.354928
0.632011 0.383314 0.361548
0.293662 0.398621 0.331526
0.319928 0.402610 0.335448
0.357545 0.408415 0.341160
0.411254 0.416874 0.349484
0.470042 0.426344 0.358803
0.517760 0.434181 0.366516
0.566410 0.442303 0.374507
0.619049 0.451234 0.383294
0.661548 0.458548 0.390490
0.322762 0.477561 0.360221
0.349472 0.482025 0.364595
0.387729 0.488489 0.370930
0.442347 0.497861 0.380115
0.502124 0.508304 0.390348
0.550692 0.516963 0.398879
0.600079 0.525779 0.407640
0.653176 0.535126 0.416937
0.695792 0.542536 0.424310
0.349907 0.547671 0.387100
0.377054 0.552557 0.391866
0.415960 0.559649 0.398835
0.471279 0.569670 0.408768
0.531332 0.580329 0.419345
0.579716 0.588771 0.427731
0.628730 0.597202 0.436112
0.681415 0.606135 0.445001
0.723696 0.613212 0.452049
0.378658 0.619542 0.415893
0.405919 0.624461 0.420763
0.444703 0.631344 0.427584
0.499636 0.640906 0.437072
0.559240 0.651071 0.447172
0.607250 0.659119 0.455177
0.655875 0.667151 0.463174
0.708136 0.675657 0.471653
0.750072 0.682393 0.478373
0.407370 0.692694 0.444740
0.434454 0.697361 0.449370
0.472953 0.703892 0.455856
0.527454 0.712964 0.464878
0.586568 0.722605 0.474481
0.634174 0.730235 0.482090
0.682384 0.737846 0.489689
0.734194 0.745903 0.497743
0.775766 0.752280 0.504124
0.426864 0.743536 0.464303
0.453802 0.748021 0.468761
0.492081 0.754296 0.475007
0.546256 0.763013 0.483696
0.605008 0.772277 0.492945
0.652318 0.779606 0.500272
0.700227 0.786915 0.507590
0.751711 0.794650 0.515343
0.793019 0.800769 0.521484
0.246028 0.250541 0.318059
0.271647 0.253687 0.321098
0.308232 0.258307 0.325578
0.360370 0.265105 0.332195
0.417377 0.272783 0.339695
0.463623 0.279179 0.345961
0.510760 0.285840 0.352501
0.561750 0.293197 0.359738
0.602910 0.299244 0.365697
0.256082 0.283259 0.327722
0.281830 0.286588 0.330968
0.318634 0.291467 0.335737
0.371120 0.298631 0.342757
0.428529 0.306708 0.350690
0.475112 0.313427 0.357302
0.522597 0.320417 0.364190
0.573970 0.328130 0.371801
0.615443 0.334465 0.378059
0.271643 0.330979 0.342808
0.297601 0.334586 0.346348
0.334746 0.339858 0.351529
0.387751 0.347573 0.359121
0.445752 0.356244 0.367666
0.492824 0.363441 0.374765
0.540813 0.370916 0.382144
0.592735 0.379152 0.390280
0.634654 0.385908 0.396958
0.296011 0.400998 0.366645
0.322322 0.405024 0.370605
0.360000 0.410881 0.376370
0.413791 0.419411 0.384772
0.472666 0.428957 0.394179
0.520452 0.436854 0.401964
0.569171 0.445036 0.410033
0.621883 0.454030 0.418905
0.664440 0.461395 0.426172
0.325336 0.480190 0.395562
0.352099 0.484694 0.399984
0.390424 0.491213 0.406388
0.445132 0.500660 0.415670
0.505002 0.511182 0.426012
0.553652 0.519908 0.434681
0.603012 0.528689 0.443442
0.656078 0.537998 0.452735
0.698668 0.545377 0.460104
0.352677 0.550520 0.422678
0.379882 0.555448 0.427502
0.418869 0.562600 0.434599
0.474168 0.572580 0.444533
0.534191 0.583194 0.455107
0.582548 0.591600 0.463486
0.631533 0.599993 0.471858
0.684185 0.608887 0.480734
0.726438 0.615932 0.487769
0.381460 0.622428 0.451615
0.408720 0.627326 0.456485
0.447492 0.634178 0.463302
0.502401 0.643696 0.472779
0.561972 0.653815 0.482864
0.609952 0.661824 0.490854
0.658546 0.669818 0.498833
0.710772 0.678284 0.507289
0.752679 0.684987 0.513990
0.410055 0.695455 0.480398
0.437133 0.700100 0.485022
0.475618 0.706599 0.491495
0.530090 0.715625 0.500496
0.589167 0.725218 0.510072
0.636741 0.732808 0.517656
0.684918 0.740380 0.525229
0.736690 0.748395 0.533252
0.778230 0.754737 0.539606
0.429465 0.746207 0.499898
0.456395 0.750668 0.504345
0.494656 0.756910 0.510573
0.548799 0.765581 0.519233
0.607512 0.774795 0.528448
0.654788 0.782083 0.535745
0.702662 0.789353 0.543029
0.754107 0.797044 0.550745
0.795384 0.803129 0.556854
0.248736 0.253249 0.367473
0.274399 0.256439 0.370541
0.311047 0.261120 0.375063
0.363276 0.268001 0.381742
0.420381 0.275768 0.389314
0.466708 0.282235 0.395641
0.513926 0.288967 0.402245
0.565003 0.296399 0.409554
0.606235 0.302506 0.415574
0.258935 0.286114 0.377216
0.284730 0.289488 0.380496
0.321603 0.294431 0.385314
0.374184 0.301683 0.392407
0.431697 0.309852 0.400423
0.478364 0.316645 0.407104
0.525934 0.323709 0.414065
0.577398 0.331501 0.421757
0.618943 0.337900 0.428084
0.274698 0.334048 0.392438
0.300711 0.337704 0.396021
0.337931 0.343043 0.401261
0.391039 0.350850 0.408941
0.449150 0.359619 0.417584
0.496310 0.366893 0.424764
0.544388 0.374446 0.432228
0.596405 0.382765 0.440458
0.638400 0.389587 0.447214
0.299352 0.404379 0.416516
0.325726 0.408457 0.420529
0.363488 0.414386 0.426369
0.417393 0.423013 0.434878
0.476386 0.432662 0.444404
0.524266 0.440640 0.452287
0.573079 0.448904 0.460457
0.625892 0.457986 0.469441
0.668529 0.465421 0.476799
0.328987 0.483918 0.445754
0.355823 0.488477 0.450242
0.394241 0.495072 0.456736
0.449073 0.504621 0.466147
0.509098 0.515276 0.476675
0.557780 0.524016 0.485430
0.607102 0.532748 0.494177
0.660124 0.542005 0.503451
0.702678 0.549341 0.510802
0.356596 0.554550 0.473193
0.383923 0.559576 0.478171
0.422929 0.566717 0.485308
0.478198 0.576640 0.495227
0.538180 0.587191 0.505778
0.586499 0.595546 0.514136
0.635443 0.603888 0.522483
0.688049 0.612727 0.531330
0.730263 0.619729 0.538340
0.385374 0.626454 0.502252
0.412631 0.631322 0.507113
0.451387 0.638132 0.513914
0.506261 0.647590 0.523364
0.565786 0.657643 0.533414
0.613725 0.665600 0.541373
0.662275 0.673541 0.549319
0.714451 0.681950 0.557737
0.756317 0.688608 0.564404
0.413807 0.699309 0.530919
0.440877 0.703923 0.535527
0.479340 0.710377 0.541975
0.533771 0.719341 0.550937
0.592798 0.728866 0.560467
0.640327 0.736402 0.568011
0.688457 0.743920 0.575542
0.740178 0.751877 0.583516
0.781675 0.758173 0.589830
0.433100 0.749935 0.550318
0.460018 0.754364 0.554744
0.498254 0.760561 0.560941
0.552353 0.769167 0.569555
0.611012 0.778313 0.578715
0.658242 0.785546 0.585966
0.706067 0.792760 0.593202
0.757458 0.800392 0.600864
0.798691 0.806429 0.606927
0.251714 0.256227 0.421208
0.277424 0.259464 0.424313
0.314140 0.264209 0.428887
0.366466 0.271179 0.435642
0.423677 0.279040 0.443299
0.470089 0.285582 0.449696
0.517393 0.292389 0.456374
0.568564 0.299901 0.463765
0.609871 0.306072 0.469852
0.262067 0.289249 0.431059
0.287915 0.292673 0.434381
0.324860 0.297683 0.439258
0.377544 0.305028 0.446436
0.435167 0.313295 0.454546
0.481923 0.320166 0.461305
0.529583 0.327309 0.468348
0.581143 0.335184 0.476129
0.622766 0.341649 0.482529
0.278046 0.337412 0.446455
0.304118 0.341120 0.450086
0.341417 0.346530 0.455395
0.394636 0.354434 0.463172
0.452864 0.363306 0.471921
0.500117 0.370663 0.479190
0.548289 0.378297 0.486746
0.600407 0.386703 0.495076
0.642482 0.393596 0.501914
0.303003 0.408075 0.470815
0.329445 0.412208 0.474886
0.367297 0.418212 0.480807
0.421321 0.426943 0.489430
0.480440 0.436700 0.499080
0.528419 0.444764 0.507066
0.577332 0.453114 0.515340
0.630251 0.462288 0.524438
0.673025 0.469840 0.531986
0.332967 0.487981 0.500407
0.359881 0.492599 0.504962
0.398398 0.499272 0.511551
0.453360 0.508929 0.521093
0.513553 0.519726 0.531857
0.562199 0.528414 0.540589
0.611480 0.537094 0.549310
0.664455 0.546294 0.558553
0.706970 0.553586 0.565878
0.360880 0.558953 0.528226
0.388284 0.564027 0.533315
0.427278 0.571125 0.540433
0.482515 0.580986 0.550323
0.542452 0.591470 0.560838
0.590730 0.599771 0.569165
0.639630 0.608059 0.577478
0.692186 0.616840 0.586286
0.734359 0.623795 0.593263
0.389570 0.630765 0.557292
0.416823 0.635601 0.562136
0.455561 0.642366 0.568911
0.510397 0.651759 0.578323
0.569871 0.661743 0.588327
0.617766 0.669645 0.596246
0.666269 0.677530 0.604151
0.718393 0.685879 0.612522
0.760216 0.692489 0.619150
0.417830 0.703437 0.585813
0.444891 0.708018 0.590399
0.483330 0.714425 0.596816
0.537717 0.723322 0.605729
0.596689 0.732776 0.615203
0.644171 0.740255 0.622701
0.692251 0.747715 0.630182
0.743917 0.755610 0.638102
0.785369 0.761856 0.644371
0.437000 0.753931 0.605095
0.463905 0.758325 0.609496
0.502113 0.764473 0.615656
0.556164 0.773012 0.624214
0.614765 0.782084 0.633312
0.661946 0.789259 0.640511
0.709720 0.796415 0.647693
0.761054 0.803984 0.655294
0.802240 0.809972 0.661309
0.254293 0.258805 0.467266
0.280043 0.262082 0.470405
0.316817 0.266881 0.475028
0.369225 0.273926 0.481852
0.426525 0.281867 0.489585
0.473009 0.288471 0.496045
0.520386 0.295341 0.502787
0.571636 0.302921 0.510250
0.613006 0.309145 0.516395
0.264775 0.291960 0.477221
0.290667 0.295425 0.480580
0.327675 0.300492 0.485511
0.380445 0.307915 0.492765
0.438162 0.316266 0.500958
0.484992 0.323202 0.507785
0.532728 0.330410 0.514897
0.584369 0.338356 0.522756
0.626058 0.344877 0.529219
0.280937 0.340317 0.492777
0.307058 0.344068 0.496450
0.344425 0.349538 0.501819
0.397737 0.357524 0.509681
0.456063 0.366483 0.518523
0.503395 0.373908 0.525867
0.551647 0.381611 0.533500
0.603849 0.390091 0.541914
0.645992 0.397042 0.548821
0.306148 0.411259 0.517389
0.332648 0.415439 0.521509
0.370576 0.421506 0.527499
0.424701 0.430323 0.536219
0.483926 0.440171 0.545974
0.531989 0.448308 0.554044
0.580985 0.456730 0.562405
0.633993 0.465980 0.571598
0.676847 0.473597 0.579282
0.336388 0.491474 0.547286
0.363367 0.496141 0.551898
0.401968 0.502881 0.558564
0.457040 0.512628 0.568215
0.517324 0.523492 0.579125
0.565938 0.532137 0.587831
0.615184 0.540772 0.596525
0.668120 0.549925 0.605738
0.710602 0.557178 0.613037
0.364572 0.562746 0.575478
0.391977 0.567794 0.580554
0.430960 0.574856 0.587653
0.486169 0.584664 0.597511
0.546067 0.595092 0.607990
0.594311 0.603348 0.616285
0.643173 0.611590 0.624566
0.695687 0.620321 0.633337
0.737826 0.627237 0.640283
0.393124 0.634413 0.604433
0.420373 0.639223 0.609260
0.459095 0.645949 0.616011
0.513898 0.655289 0.625384
0.573330 0.665214 0.635345
0.621187 0.673069 0.643228
0.669651 0.680907 0.651094
0.721730 0.689205 0.659423
0.763517 0.695775 0.666016
0.421239 0.706931 0.632822
0.448292 0.711484 0.637388
0.486710 0.717851 0.643773
0.541060 0.726692 0.652642
0.599985 0.736086 0.662065
0.647427 0.743517 0.669521
0.695465 0.750929 0.676959
0.747084 0.758772 0.684831
0.788499 0.764977 0.691061
0.440305 0.757313 0.652000
0.467199 0.761679 0.656378
0.505383 0.767786 0.662504
0.559394 0.776268 0.671013
0.617945 0.785279 0.680055
0.665085 0.792405 0.687209
0.712815 0.799511 0.694344
0.764101 0.807028 0.701893
0.805248 0.812974 0.707866
0.256891 0.261404 0.513291
0.282682 0.264719 0.516466
0.319514 0.269573 0.521139
0.372003 0.276691 0.528034
0.429392 0.284710 0.535846
0.475946 0.291376 0.542370
0.523396 0.298308 0.549178
0.574723 0.305954 0.556712
0.616155 0.312231 0.562915
0.267502 0.294691 0.523357
0.293439 0.298197 0.526755
0.330508 0.303320 0.531741
0.383364 0.310819 0.539071
0.441173 0.319252 0.547349
0.488077 0.326253 0.554244
0.535888 0.333525 0.561427
0.587609 0.341540 0.569363
0.629362 0.348116 0.575888
0.283843 0.343239 0.539080
0.310014 0.347033 0.542797
0.347449 0.352561 0.548226
0.400852 0.360629 0.556173
0.459276 0.369672 0.565107
0.506686 0.377165 0.572526
0.555015 0.384936 0.580235
0.607301 0.393488 0.588734
0.649511 0.400496 0.595708
0.309306 0.414456 0.563949
0.335863 0.418682 0.568119
0.373865 0.424811 0.574177
0.428091 0.433713 0.582992
0.487420 0.443651 0.592850
0.535565 0.451859 0.601004
0.584644 0.460351 0.609450
0.637786 0.469718 0.618821
0.680625 0.477313 0.626508
0.339818 0.494976 0.594151
0.366862 0.499691 0.598819
0.405546 0.506496 0.605562
0.460751 0.516357 0.615365
0.521053 0.527216 0.626325
0.569635 0.535818 0.635003
0.618847 0.544409 0.643666
0.671743 0.553515 0.652845
0.714193 0.560732 0.660116
0.368227 0.566496 0.622666
0.395632 0.571520 0.627728
0.434603 0.578545 0.634804
0.489784 0.588301 0.644627
0.549643 0.598673 0.655066
0.597853 0.606885 0.663328
0.646678 0.615081 0.671573
0.699150 0.623765 0.680306
0.741254 0.630642 0.687220
0.396643 0.638022 0.651503
0.423887 0.642805 0.656313
0.462592 0.649493 0.663035
0.517362 0.658779 0.672367
0.576752 0.668647 0.682283
0.624572 0.676456 0.690127
0.672996 0.684247 0.697954
0.725032 0.692496 0.706239
0.766782 0.699026 0.712797
0.424614 0.710388 0.679755
0.451658 0.714913 0.684299
0.490055 0.721241 0.690653
0.544367 0.730027 0.699474
0.603246 0.739361 0.708846
0.650649 0.746745 0.716259
0.698645 0.754109 0.723653
0.750218 0.761901 0.731477
0.791595 0.768066 0.737667
0.443578 0.760660 0.698827
0.470459 0.764997 0.703181
0.508620 0.771063 0.709272
0.562590 0.779489 0.717730
0.621093 0.788439 0.726717
0.668191 0.795518 0.733825
0.715878 0.802576 0.740912
0.767117 0.810041 0.748410
0.808225 0.815945 0.754340
0.259596 0.264109 0.560795
0.285429 0.267464 0.564008
0.322319 0.272371 0.568734
0.374892 0.279565 0.575705
0.432371 0.287663 0.583599
0.478998 0.294393 0.590189
0.526521 0.301388 0.597066
0.577928 0.309101 0.604674
0.619423 0.315432 0.610939
0.270337 0.297531 0.570979
0.296320 0.301078 0.574419
0.333452 0.306258 0.579462
0.386397 0.313836 0.586873
0.444300 0.322351 0.595239
0.491280 0.329418 0.602206
0.539166 0.336757 0.609462
0.590970 0.344842 0.617476
0.632788 0.351474 0.624065
0.286862 0.346274 0.586881
0.313084 0.350112 0.590643
0.350588 0.355701 0.596135
0.404085 0.363850 0.604170
0.462609 0.372980 0.613199
0.510098 0.380542 0.620696
0.558507 0.388382 0.628483
0.610878 0.397007 0.637067
0.653155 0.404074 0.644111
0.312581 0.417773 0.612019
0.339197 0.422046 0.616240
0.377276 0.428238 0.622368
0.431604 0.437227 0.631281
0.491040 0.447255 0.641244
0.539269 0.455535 0.649483
0.588432 0.464100 0.658016
0.641679 0.473553 0.667548
0.684487 0.481113 0.675208
0.343370 0.498603 0.642536
0.370480 0.503367 0.647261
0.409249 0.510239 0.654082
0.464599 0.520219 0.664079
0.524866 0.531023 0.675001
0.573415 0.539581 0.683647
0.622591 0.548128 0.692277
0.675447 0.557186 0.701419
0.717863 0.564364 0.708660
0.371966 0.570330 0.671335
0.399370 0.575328 0.676380
0.438328 0.582316 0.683429
0.493479 0.592020 0.693214
0.553299 0.602335 0.703609
0.601473 0.610500 0.711835
0.650260 0.618651 0.720042
0.702690 0.627285 0.728733
0.744759 0.634122 0.735613
0.400242 0.641711 0.700045
0.427481 0.646467 0.704833
0.466168 0.653116 0.711526
0.520904 0.662348 0.720814
0.580250 0.672157 0.730680
0.628032 0.679919 0.738484
0.676416 0.687663 0.746268
0.728407 0.695861 0.754508
0.770121 0.702350 0.761028
0.428068 0.713922 0.728151
0.455101 0.718418 0.732671
0.493476 0.724706 0.738991
0.547750 0.733436 0.747763
0.606581 0.742710 0.757080
0.653943 0.750045 0.764448
0.701898 0.757360 0.771796
0.753424 0.765101 0.779569
0.794762 0.771225 0.785718
0.446926 0.764081 0.747113
0.473795 0.768389 0.751441
0.511931 0.774415 0.757494
0.565859 0.782783 0.765900
0.624313 0.791672 0.774828
0.671368 0.798702 0.781888
0.719011 0.805710 0.788926
0.770202 0.813123 0.796371
0.811271 0.818985 0.802257
0.261521 0.266034 0.594383
0.287384 0.269417 0.597624
0.324316 0.274363 0.602389
0.376948 0.281610 0.609414
0.434490 0.289763 0.617367
0.481169 0.296537 0.624005
0.528743 0.303577 0.630930
0.580205 0.311337 0.638592
0.621745 0.317706 0.644899
0.272355 0.299551 0.604655
0.298369 0.303128 0.608124
0.335547 0.308348 0.613208
0.388553 0.315981 0.620677
0.446523 0.324554 0.629105
0.493555 0.331667 0.636123
0.541496 0.339052 0.643430
0.593356 0.347186 0.651501
0.635221 0.353858 0.658136
0.289007 0.348432 0.620685
0.315266 0.352301 0.624479
0.352818 0.357931 0.630016
0.406382 0.366138 0.638113
0.464976 0.375330 0.647210
0.512520 0.382939 0.654761
0.560985 0.390827 0.662604
0.613416 0.399504 0.671247
0.655741 0.406611 0.678340
0.314906 0.420129 0.646015
0.341563 0.424434 0.650272
0.379697 0.430671 0.656450
0.434097 0.439720 0.665431
0.493608 0.449812 0.675468
0.541896 0.458143 0.683766
0.591117 0.466758 0.692360
0.644410 0.476245 0.701977
0.687196 0.483778 0.709617
0.345890 0.501176 0.676756
0.373046 0.505975 0.681520
0.411875 0.512893 0.688395
0.467299 0.522928 0.698501
0.527540 0.533694 0.709394
0.576066 0.542221 0.718016
0.625217 0.550737 0.726622
0.678045 0.559762 0.735736
0.720438 0.566913 0.742955
0.374591 0.573020 0.705725
0.401994 0.578000 0.710757
0.440942 0.584962 0.717787
0.496072 0.594629 0.727543
0.555864 0.604904 0.737906
0.604013 0.613037 0.746105
0.652773 0.621156 0.754285
0.705173 0.629755 0.762945
0.747217 0.636565 0.769801
0.402769 0.644299 0.734341
0.430003 0.649036 0.739115
0.468678 0.655658 0.745785
0.523390 0.664852 0.755041
0.582705 0.674620 0.764871
0.630460 0.682348 0.772646
0.678816 0.690059 0.780400
0.730775 0.698222 0.788607
0.772463 0.704683 0.795100
0.430492 0.716401 0.762343
0.457518 0.720878 0.766846
0.495877 0.727137 0.773141
0.550124 0.735827 0.781877
0.608922 0.745059 0.791155
0.656255 0.752361 0.798491
0.704180 0.759642 0.805806
0.755673 0.767347 0.813544
0.796985 0.773441 0.819664
0.449277 0.766482 0.781226
0.476137 0.770769 0.785536
0.514255 0.776766 0.791562
0.568154 0.785094 0.799930
0.626572 0.793940 0.808816
0.673598 0.800936 0.815842
0.721210 0.807910 0.822846
0.772367 0.815286 0.830253
0.813408 0.821119 0.836109
