Fotico/Resources/LUTs/cocoa.cube
TITLE "Cocoa"
LUT_3D_SIZE 33
0.098185 0.030921 0.000000
0.117884 0.030568 0.000000
0.136896 0.030258 0.000000
0.156673 0.029964 0.000000
0.178723 0.029671 0.000000
0.204593 0.029370 0.000000
0.234822 0.029074 0.000000
0.268309 0.028814 0.000000
0.303803 0.028613 0.000000
0.340007 0.028484 0.000000
0.375858 0.028431 0.000000
0.412762 0.028461 0.000000
0.450677 0.028567 0.000000
0.488997 0.028749 0.000000
0.527104 0.029004 0.000000
0.564365 0.029323 0.000000
0.600136 0.029692 0.000000
0.634393 0.030102 0.000000
0.667632 0.030553 0.000000
0.699990 0.031040 0.000000
0.731610 0.031562 0.000000
0.762636 0.032118 0.000000
0.793216 0.032707 0.000000
0.823395 0.033329 0.000000
0.852814 0.033973 0.000000
0.881418 0.034635 0.000000
0.909199 0.035311 0.000000
0.936147 0.035998 0.000000
0.962009 0.036685 0.000000
0.984935 0.037318 0.000000
0.984937 0.037340 0.000000
0.984942 0.037385 0.000000
0.984973 0.037728 0.000000
0.095957 0.045599 0.000000
0.115687 0.045302 0.000000
0.134733 0.045045 0.000000
0.154549 0.044806 0.000000
0.176648 0.044573 0.000000
0.202579 0.044343 0.000000
0.232882 0.044129 0.000000
0.266456 0.043960 0.000000
0.302044 0.043854 0.000000
0.338357 0.043831 0.000000
0.374319 0.043884 0.000000
0.411327 0.044011 0.000000
0.449351 0.044217 0.000000
0.487782 0.044500 0.000000
0.526000 0.044855 0.000000
0.563371 0.045271 0.000000
0.599248 0.045734 0.000000
0.633607 0.046234 0.000000
0.666945 0.046771 0.000000
0.699400 0.047344 0.000000
0.731114 0.047949 0.000000
0.762234 0.048586 0.000000
0.792907 0.049256 0.000000
0.823177 0.049958 0.000000
0.852685 0.050680 0.000000
0.881376 0.051418 0.000000
0.909241 0.052167 0.000000
0.936271 0.052926 0.000000
0.962212 0.053682 0.000000
0.986482 0.054416 0.000000
0.986490 0.054500 0.000000
0.986500 0.054607 0.000000
0.986533 0.054975 0.000000
0.094016 0.059800 0.000000
0.113775 0.059559 0.000000
0.132854 0.059354 0.000000
0.152709 0.059169 0.000000
0.174855 0.058996 0.000000
0.200844 0.058836 0.000000
0.231218 0.058703 0.000000
0.264878 0.058625 0.000000
0.300571 0.058626 0.000000
0.336982 0.058702 0.000000
0.373040 0.058848 0.000000
0.410148 0.059071 0.000000
0.448276 0.059375 0.000000
0.486813 0.059757 0.000000
0.525138 0.060210 0.000000
0.562613 0.060722 0.000000
0.598592 0.061276 0.000000
0.633048 0.061864 0.000000
0.666481 0.062487 0.000000
0.699029 0.063143 0.000000
0.730835 0.063829 0.000000
0.762044 0.064546 0.000000
0.792805 0.065295 0.000000
0.823162 0.066074 0.000000
0.852755 0.066872 0.000000
0.881529 0.067683 0.000000
0.909475 0.068505 0.000000
0.936583 0.069332 0.000000
0.962599 0.070156 0.000000
0.987316 0.070963 0.000000
0.987994 0.071126 0.000000
0.988009 0.071292 0.000000
0.988044 0.071681 0.000000
0.092187 0.074735 0.000000
0.111976 0.074551 0.000000
0.131092 0.074402 0.000000
0.150988 0.074275 0.000000
0.173182 0.074165 0.000000
0.199232 0.074078 0.000000
0.229693 0.074042 0.000000
0.263449 0.074068 0.000000
0.299236 0.074167 0.000000
0.335746 0.074343 0.000000
0.371904 0.074588 0.000000
0.409116 0.074913 0.000000
0.447352 0.075320 0.000000
0.486000 0.075807 0.000000
0.524436 0.076363 0.000000
0.562020 0.076977 0.000000
0.598105 0.077628 0.000000
0.632662 0.078309 0.000000
0.666194 0.079022 0.000000
0.698838 0.079765 0.000000
0.730738 0.080537 0.000000
0.762040 0.081338 0.000000
0.792893 0.082170 0.000000
0.823341 0.083030 0.000000
0.853022 0.083908 0.000000
0.881883 0.084796 0.000000
0.909913 0.085693 0.000000
0.937102 0.086593 0.000000
0.963196 0.087486 0.000000
0.987987 0.088361 0.000000
0.989576 0.088611 0.000000
0.989597 0.088840 0.000000
0.989634 0.089246 0.000000
0.089908 0.090452 0.000000
0.110182 0.091577 0.000000
0.129337 0.091492 0.000000
0.149284 0.091434 0.000000
0.171543 0.091405 0.000000
0.197671 0.091411 0.000000
0.228217 0.091472 0.000000
0.262071 0.091604 0.000000
0.297964 0.091816 0.000000
0.334586 0.092106 0.000000
0.370856 0.092463 0.000000
0.408186 0.092903 0.000000
0.446544 0.093429 0.000000
0.485317 0.094034 0.000000
0.523878 0.094709 0.000000
0.561585 0.095437 0.000000
0.597788 0.096199 0.000000
0.632459 0.096985 0.000000
0.666102 0.097800 0.000000
0.698855 0.098642 0.000000
0.730861 0.099511 0.000000
0.762267 0.100407 0.000000
0.793223 0.101332 0.000000
0.823773 0.102285 0.000000
0.853553 0.103252 0.000000
0.882510 0.104228 0.000000
0.910634 0.105209 0.000000
0.937915 0.106192 0.000000
0.964096 0.107164 0.000000
0.988970 0.108113 0.000000
0.991372 0.108457 0.000000
0.991399 0.108755 0.000000
0.991437 0.109177 0.000000
0.088033 0.107340 0.000000
0.108073 0.111354 0.000000
0.127577 0.112028 0.000000
0.147584 0.112054 0.000000
0.169912 0.112113 0.000000
0.196124 0.112220 0.000000
0.226771 0.112397 0.000000
0.260741 0.112657 0.000000
0.296762 0.113003 0.000000
0.333517 0.113430 0.000000
0.369921 0.113922 0.000000
0.407390 0.114500 0.000000
0.445894 0.115166 0.000000
0.484815 0.115914 0.000000
0.523524 0.116730 0.000000
0.561377 0.117595 0.000000
0.597721 0.118489 0.000000
0.632528 0.119401 0.000000
0.666302 0.120338 0.000000
0.699183 0.121298 0.000000
0.731315 0.122283 0.000000
0.762845 0.123292 0.000000
0.793923 0.124329 0.000000
0.824593 0.125391 0.000000
0.854492 0.126466 0.000000
0.883563 0.127545 0.000000
0.911798 0.128628 0.000000
0.939187 0.129708 0.000000
0.965472 0.130774 0.000000
0.990444 0.131812 0.000000
0.993525 0.132258 0.000000
0.993560 0.132640 0.000000
0.993599 0.133076 0.000000
0.087936 0.127551 0.000000
0.105931 0.131651 0.000000
0.125485 0.135640 0.000000
0.145985 0.136780 0.000000
0.168392 0.136941 0.000000
0.194706 0.137170 0.000000
0.225475 0.137486 0.000000
0.259585 0.137899 0.000000
0.295758 0.138406 0.000000
0.332671 0.138995 0.000000
0.369234 0.139648 0.000000
0.406869 0.140390 0.000000
0.445545 0.141225 0.000000
0.484642 0.142142 0.000000
0.523527 0.143125 0.000000
0.561553 0.144155 0.000000
0.598064 0.145205 0.000000
0.633031 0.146267 0.000000
0.666961 0.147349 0.000000
0.699994 0.148450 0.000000
0.732275 0.149572 0.000000
0.763951 0.150715 0.000000
0.795173 0.151884 0.000000
0.825986 0.153078 0.000000
0.856024 0.154279 0.000000
0.885231 0.155482 0.000000
0.913597 0.156684 0.000000
0.941113 0.157880 0.000000
0.967521 0.159057 0.000684
0.992610 0.160201 0.001404
0.996104 0.160757 0.001538
0.996147 0.161237 0.001579
0.996188 0.161683 0.001618
0.089580 0.150509 0.000000
0.106002 0.154708 0.000000
0.123708 0.158795 0.000000
0.144066 0.163075 0.000000
0.167211 0.165011 0.000000
0.193637 0.165373 0.000000
0.224547 0.165847 0.000000
0.258814 0.166431 0.000000
0.295158 0.167119 0.000000
0.332249 0.167890 0.000000
0.368991 0.168723 0.000000
0.406812 0.169649 0.000000
0.445681 0.170672 0.000000
0.484975 0.171779 0.000000
0.524056 0.172950 0.000000
0.562275 0.174162 0.000000
0.598972 0.175388 0.000000
0.634117 0.176617 0.000000
0.668221 0.177860 0.000000
0.701424 0.179119 0.000000
0.733871 0.180394 0.000000
0.765709 0.181688 0.000000
0.797093 0.183005 0.000000
0.828064 0.184344 0.000000
0.858256 0.185686 0.000236
0.887614 0.187027 0.001078
0.916126 0.188362 0.001899
0.943785 0.189688 0.002698
0.970329 0.190989 0.003468
0.995547 0.192250 0.004201
0.999013 0.192916 0.004343
0.999066 0.193499 0.004394
0.999107 0.193954 0.004434
0.092676 0.175315 0.000000
0.107935 0.179620 0.000000
0.124267 0.183810 0.000000
0.142928 0.188200 0.000000
0.165743 0.193126 0.000000
0.193081 0.195694 0.000000
0.224138 0.196332 0.000000
0.258576 0.197100 0.000000
0.295105 0.197979 0.000000
0.332385 0.198945 0.000000
0.369318 0.199968 0.000000
0.407338 0.201090 0.000000
0.446412 0.202313 0.000000
0.485914 0.203621 0.000000
0.525204 0.204992 0.000000
0.563629 0.206399 0.000000
0.600523 0.207810 0.000000
0.635858 0.209216 0.000000
0.670146 0.210632 0.000000
0.703528 0.212057 0.000000
0.736150 0.213495 0.000000
0.768162 0.214948 0.000487
0.799715 0.216421 0.001395
0.830854 0.217914 0.002295
0.861211 0.219407 0.003175
0.890727 0.220893 0.004034
0.919395 0.222370 0.004871
0.947203 0.223832 0.005685
0.973891 0.225264 0.006469
0.999246 0.226650 0.007216
1.000000 0.227416 0.007353
1.000000 0.228098 0.007413
1.000000 0.228562 0.007453
0.096831 0.200958 0.007414
0.111253 0.205372 0.003994
0.126586 0.209669 0.000687
0.144006 0.214169 0.000000
0.165189 0.219220 0.000000
0.192405 0.225186 0.000000
0.224315 0.227690 0.000000
0.258927 0.228642 0.000000
0.295645 0.229717 0.000000
0.333121 0.230880 0.000000
0.370249 0.232098 0.000000
0.408470 0.233418 0.000000
0.447754 0.234844 0.000000
0.487469 0.236356 0.000000
0.526971 0.237929 0.000000
0.565604 0.239533 0.000000
0.602698 0.241133 0.000000
0.638226 0.242719 0.000000
0.672701 0.244308 0.000614
0.706265 0.245903 0.001582
0.739066 0.247505 0.002532
0.771252 0.249120 0.003468
0.802977 0.250751 0.004394
0.834287 0.252401 0.005312
0.864809 0.254045 0.006209
0.894488 0.255679 0.007084
0.923312 0.257298 0.007937
0.951272 0.258900 0.008767
0.978106 0.260464 0.009566
1.000000 0.261975 0.010327
1.000000 0.262828 0.010443
1.000000 0.263601 0.010510
1.000000 0.264074 0.010551
0.101654 0.226506 0.014706
0.115480 0.231027 0.011300
0.130096 0.235429 0.008004
0.146616 0.240039 0.004572
0.166610 0.245213 0.000742
0.192176 0.251323 0.000000
0.224919 0.258512 0.000000
0.259834 0.259918 0.000000
0.296737 0.261183 0.000000
0.334407 0.262539 0.000000
0.371728 0.263947 0.000000
0.410149 0.265461 0.000000
0.449638 0.267086 0.000000
0.489561 0.268798 0.000000
0.529272 0.270569 0.000000
0.568109 0.272365 0.000403
0.605400 0.274149 0.001480
0.641116 0.275911 0.002516
0.675774 0.277671 0.003526
0.709517 0.279430 0.004513
0.742492 0.281193 0.005481
0.774849 0.282965 0.006435
0.806743 0.284752 0.007378
0.838220 0.286554 0.008312
0.868904 0.288347 0.009226
0.898740 0.290125 0.010118
0.927717 0.291883 0.010986
0.955826 0.293620 0.011831
0.982802 0.295313 0.012645
1.000000 0.296948 0.013419
1.000000 0.297870 0.013500
1.000000 0.298721 0.013574
1.000000 0.299203 0.013616
0.107157 0.252840 0.022098
0.120542 0.257471 0.018706
0.134615 0.261979 0.015421
0.150448 0.266701 0.011999
0.169524 0.272000 0.008181
0.193809 0.278257 0.003700
0.224774 0.285618 0.000000
0.261308 0.292012 0.000000
0.298402 0.293468 0.000000
0.336268 0.295020 0.000000
0.373786 0.296620 0.000000
0.412410 0.298331 0.000000
0.452109 0.300157 0.000000
0.492245 0.302071 0.001045
0.532168 0.304041 0.002204
0.571212 0.306032 0.003342
0.608703 0.308003 0.004440
0.644610 0.309943 0.005496
0.679453 0.311874 0.006525
0.713377 0.313801 0.007530
0.746528 0.315727 0.008516
0.779059 0.317658 0.009488
0.811124 0.319601 0.010449
0.842769 0.321557 0.011400
0.873618 0.323500 0.012331
0.903613 0.325423 0.013239
0.932745 0.327323 0.014123
0.961005 0.329196 0.014984
0.988125 0.331020 0.015812
1.000000 0.332717 0.016540
1.000000 0.333756 0.016631
1.000000 0.334678 0.016711
1.000000 0.335168 0.016754
0.113305 0.280115 0.029633
0.126361 0.284859 0.026253
0.140022 0.289477 0.022979
0.155322 0.294314 0.019567
0.173681 0.299741 0.015759
0.196956 0.306148 0.011290
0.226507 0.313684 0.006069
0.262184 0.322088 0.000290
0.300661 0.326762 0.000000
0.338729 0.328511 0.000000
0.376448 0.330306 0.000572
0.415281 0.332217 0.001698
0.455195 0.334247 0.002861
0.495548 0.336367 0.004043
0.535688 0.338541 0.005223
0.574944 0.340730 0.006384
0.612638 0.342889 0.007503
0.648740 0.345010 0.008579
0.683773 0.347116 0.009627
0.717881 0.349213 0.010652
0.751212 0.351304 0.011657
0.783920 0.353397 0.012646
0.816159 0.355499 0.013625
0.847975 0.357611 0.014594
0.878991 0.359706 0.015542
0.909149 0.361777 0.016466
0.938439 0.363820 0.017367
0.966866 0.365799 0.018271
0.994228 0.367463 0.019341
1.000000 0.368883 0.020202
1.000000 0.369695 0.020482
1.000000 0.370401 0.020692
1.000000 0.370875 0.020745
0.119997 0.308102 0.037245
0.132816 0.312961 0.033877
0.146167 0.317691 0.030613
0.161061 0.322645 0.027210
0.178862 0.328202 0.023412
0.201341 0.334761 0.018953
0.229768 0.342474 0.013744
0.263956 0.351074 0.007978
0.303256 0.360249 0.001872
0.341780 0.362728 0.002467
0.379704 0.364719 0.003578
0.418748 0.366831 0.004726
0.458880 0.369066 0.005912
0.499454 0.371393 0.007117
0.539813 0.373772 0.008321
0.579284 0.376161 0.009503
0.617184 0.378511 0.010643
0.653483 0.380813 0.011740
0.688707 0.383096 0.012808
0.723001 0.385363 0.013852
0.756515 0.387620 0.014875
0.789400 0.389876 0.015883
0.821815 0.392138 0.016880
0.853805 0.394408 0.017867
0.885098 0.396330 0.019086
0.915469 0.398170 0.020261
0.944910 0.399938 0.021386
0.973416 0.401635 0.022461
1.000000 0.403247 0.023478
1.000000 0.404531 0.024202
1.000000 0.405297 0.024435
1.000000 0.405957 0.024603
1.000000 0.406430 0.024653
0.127134 0.336548 0.044866
0.139788 0.341524 0.041509
0.152913 0.346367 0.038254
0.167499 0.351438 0.034860
0.184870 0.357126 0.031071
0.206725 0.363838 0.026622
0.234262 0.371728 0.021424
0.267257 0.380525 0.015669
0.305057 0.389906 0.009576
0.345391 0.397364 0.005501
0.383521 0.399551 0.006633
0.422778 0.401864 0.007804
0.463128 0.404304 0.009013
0.503924 0.406835 0.010240
0.544503 0.409419 0.011467
0.584189 0.412006 0.012672
0.622296 0.414547 0.013833
0.658793 0.417031 0.014950
0.694209 0.419489 0.016038
0.728689 0.421926 0.017101
0.762446 0.424193 0.018273
0.795593 0.426219 0.019566
0.828196 0.428192 0.020820
0.860305 0.430117 0.022037
0.891541 0.431971 0.023204
0.921854 0.433754 0.024321
0.951237 0.435467 0.025389
0.979686 0.437110 0.026410
1.000000 0.438672 0.027375
1.000000 0.439825 0.027969
1.000000 0.440545 0.028156
1.000000 0.441163 0.028286
1.000000 0.441634 0.028334
0.134611 0.365180 0.052428
0.147159 0.370274 0.049080
0.160124 0.375230 0.045833
0.174482 0.380418 0.042447
0.191525 0.386236 0.038666
0.212896 0.393100 0.034226
0.239728 0.401167 0.029039
0.271770 0.410158 0.023295
0.308361 0.419745 0.017213
0.348437 0.429581 0.011018
0.387847 0.434471 0.009709
0.427316 0.436982 0.010902
0.467885 0.439625 0.012133
0.508900 0.442360 0.013383
0.549697 0.445144 0.014632
0.589598 0.447928 0.015859
0.627910 0.450657 0.017042
0.664688 0.453082 0.018370
0.700363 0.455268 0.019760
0.735017 0.457369 0.021089
0.768806 0.459396 0.022365
0.801891 0.461361 0.023595
0.834432 0.463273 0.024786
0.866479 0.465138 0.025943
0.897655 0.466934 0.027051
0.927908 0.468660 0.028111
0.957234 0.470318 0.029124
0.985628 0.471909 0.030091
1.000000 0.473420 0.031005
1.000000 0.474450 0.031478
1.000000 0.475125 0.031619
1.000000 0.475705 0.031716
1.000000 0.476174 0.031761
0.142319 0.393704 0.059860
0.154807 0.398915 0.056518
0.167664 0.403983 0.053278
0.181859 0.409287 0.049899
0.198656 0.415233 0.046125
0.219653 0.422247 0.041695
0.245933 0.430488 0.036517
0.277215 0.439670 0.030783
0.312833 0.449458 0.024711
0.351738 0.459499 0.018526
0.392609 0.469128 0.012773
0.432289 0.471833 0.013987
0.473072 0.474674 0.015241
0.514305 0.477609 0.016514
0.555378 0.480439 0.018115
0.595577 0.482919 0.019485
0.634079 0.485267 0.020966
0.670864 0.487483 0.022356
0.706475 0.489604 0.023679
0.741065 0.491642 0.024944
0.774791 0.493607 0.026157
0.807814 0.495510 0.027325
0.840294 0.497363 0.028457
0.872280 0.499169 0.029554
0.903397 0.500908 0.030605
0.933593 0.502579 0.031610
0.962863 0.504183 0.032569
0.991202 0.505722 0.033485
1.000000 0.507182 0.034349
1.000000 0.508098 0.034709
1.000000 0.508729 0.034806
1.000000 0.509275 0.034874
1.000000 0.509743 0.034916
0.150217 0.422078 0.067156
0.162681 0.427404 0.063821
0.175472 0.432583 0.060587
0.189553 0.438001 0.057213
0.206169 0.444073 0.053447
0.226880 0.451234 0.049023
0.252725 0.459646 0.043854
0.283400 0.469016 0.038130
0.318229 0.479003 0.032068
0.356178 0.489244 0.025893
0.396132 0.499418 0.020251
0.437669 0.506387 0.018430
0.478783 0.509010 0.019831
0.520258 0.511564 0.021093
0.561399 0.514064 0.022316
0.601526 0.516469 0.023481
0.639958 0.518745 0.024729
0.676678 0.520895 0.026052
0.712224 0.522951 0.027311
0.746752 0.524926 0.028513
0.780417 0.526830 0.029665
0.813379 0.528674 0.030774
0.845798 0.530468 0.031847
0.877725 0.532216 0.032887
0.908784 0.533899 0.033882
0.938923 0.535516 0.034833
0.968138 0.537067 0.035740
0.996423 0.538555 0.036605
1.000000 0.539967 0.037421
1.000000 0.540776 0.037676
1.000000 0.541363 0.037730
1.000000 0.541880 0.037773
1.000000 0.542346 0.037814
0.158336 0.450487 0.074372
0.170806 0.455929 0.071041
0.183563 0.461218 0.067812
0.197569 0.466750 0.064444
0.214054 0.472948 0.060683
0.234547 0.480254 0.056267
0.260100 0.488817 0.051546
0.290340 0.498337 0.046666
0.324534 0.508480 0.041551
0.361709 0.518749 0.035919
0.400793 0.528730 0.029717
0.443276 0.538950 0.023315
0.484636 0.542058 0.023921
0.526043 0.544538 0.025109
0.567114 0.546963 0.026258
0.607173 0.549296 0.027352
0.645535 0.551501 0.028374
0.682188 0.553583 0.029501
0.717671 0.555576 0.030696
0.752136 0.557489 0.031836
0.785740 0.559333 0.032929
0.818642 0.561118 0.033980
0.851003 0.562854 0.034996
0.882871 0.564546 0.035980
0.913872 0.566173 0.036920
0.943955 0.567736 0.037818
0.973114 0.569235 0.038674
1.000000 0.570673 0.039489
1.000000 0.572036 0.040258
1.000000 0.572747 0.040416
1.000000 0.573290 0.040427
1.000000 0.573782 0.040449
1.000000 0.574246 0.040487
0.166811 0.478953 0.081984
0.179418 0.484492 0.079114
0.192256 0.489871 0.076345
0.206289 0.495495 0.073473
0.222740 0.501793 0.070285
0.243107 0.509215 0.066567
0.268347 0.517927 0.062254
0.298066 0.527321 0.056460
0.331602 0.537232 0.050294
0.367939 0.547293 0.043980
0.406009 0.557206 0.037706
0.447325 0.567356 0.031230
0.490208 0.574460 0.027768
0.531545 0.576866 0.028884
0.572548 0.579218 0.029961
0.612537 0.581480 0.030984
0.650833 0.583617 0.031939
0.687419 0.585631 0.032828
0.722838 0.587560 0.033853
0.757241 0.589412 0.034933
0.790785 0.591196 0.035966
0.823627 0.592923 0.036960
0.855928 0.594602 0.037920
0.887738 0.596236 0.038848
0.918682 0.597809 0.039735
0.948709 0.599319 0.040581
0.977815 0.600767 0.041386
1.000000 0.602154 0.042153
1.000000 0.603470 0.042875
1.000000 0.604088 0.042941
1.000000 0.604589 0.042911
1.000000 0.605058 0.042916
1.000000 0.605521 0.042951
0.176342 0.507424 0.092331
0.188938 0.513074 0.089553
0.201733 0.518559 0.086874
0.215644 0.524222 0.083830
0.231854 0.530427 0.080018
0.251892 0.537690 0.075527
0.276683 0.546147 0.070256
0.305854 0.555478 0.064392
0.338704 0.565323 0.058153
0.374232 0.575316 0.051767
0.411393 0.585162 0.045423
0.451666 0.595243 0.038875
0.495161 0.605546 0.032128
0.536787 0.608629 0.032436
0.577720 0.610909 0.033442
0.617641 0.613100 0.034396
0.655870 0.615169 0.035285
0.692392 0.617119 0.036111
0.727745 0.618983 0.036890
0.762086 0.620773 0.037816
0.795570 0.622498 0.038792
0.828352 0.624167 0.039730
0.860595 0.625789 0.040634
0.892347 0.627368 0.041508
0.923234 0.628887 0.042341
0.953206 0.630344 0.043135
0.982258 0.631741 0.043891
1.000000 0.633079 0.044609
1.000000 0.634347 0.045285
1.000000 0.634878 0.045267
1.000000 0.635337 0.045196
1.000000 0.635788 0.045186
1.000000 0.636248 0.045218
0.185901 0.535737 0.101878
0.198315 0.541261 0.098487
0.210907 0.546593 0.095192
0.224628 0.552134 0.091746
0.240658 0.558300 0.087886
0.260436 0.565515 0.083340
0.284854 0.573917 0.078006
0.313528 0.583186 0.072074
0.345757 0.592964 0.065765
0.380552 0.602889 0.059307
0.416892 0.612668 0.052893
0.456222 0.622680 0.046275
0.498648 0.632912 0.039456
0.541786 0.639907 0.035780
0.582650 0.642114 0.036716
0.622503 0.644235 0.037602
0.660666 0.646237 0.038426
0.697124 0.648124 0.039190
0.732414 0.649925 0.039909
0.766692 0.651653 0.040587
0.800114 0.653319 0.041420
0.832838 0.654930 0.042301
0.865022 0.656496 0.043150
0.896716 0.658020 0.043970
0.927547 0.659484 0.044751
0.957464 0.660889 0.045494
0.986463 0.662235 0.046200
1.000000 0.663524 0.046871
1.000000 0.664746 0.047501
1.000000 0.665196 0.047403
1.000000 0.665613 0.047291
1.000000 0.666049 0.047270
1.000000 0.666507 0.047300
0.194920 0.563369 0.109698
0.207278 0.568861 0.106260
0.219786 0.574161 0.102922
0.233390 0.579667 0.099432
0.249255 0.585793 0.095526
0.268792 0.592961 0.090925
0.292868 0.601307 0.085530
0.321087 0.610514 0.079531
0.352749 0.620226 0.073151
0.386876 0.630083 0.066623
0.422468 0.639795 0.060141
0.460940 0.649738 0.053452
0.502392 0.659899 0.046563
0.546244 0.670116 0.039582
0.587355 0.672914 0.039798
0.627140 0.674965 0.040616
0.665237 0.676900 0.041375
0.701630 0.678723 0.042077
0.736859 0.680463 0.042736
0.771075 0.682131 0.043356
0.804435 0.683737 0.043942
0.837099 0.685290 0.044685
0.869225 0.686800 0.045480
0.900862 0.688268 0.046246
0.931636 0.689679 0.046975
0.961499 0.691032 0.047667
0.990444 0.692328 0.048324
1.000000 0.693568 0.048947
1.000000 0.694718 0.049507
1.000000 0.695117 0.049359
1.000000 0.695492 0.049206
1.000000 0.695916 0.049177
1.000000 0.696373 0.049205
0.203731 0.590709 0.117313
0.216034 0.596168 0.113830
0.228463 0.601435 0.110449
0.241957 0.606905 0.106917
0.257667 0.612992 0.102964
0.276982 0.620112 0.098310
0.300741 0.628402 0.092853
0.328541 0.637546 0.086788
0.359680 0.647192 0.080339
0.393193 0.656982 0.073742
0.428098 0.666626 0.067191
0.465781 0.676500 0.060433
0.506339 0.686591 0.053473
0.549204 0.696735 0.046421
0.591854 0.703403 0.042699
0.631570 0.705384 0.043450
0.669600 0.707252 0.044145
0.705930 0.709011 0.044785
0.741096 0.710690 0.045384
0.775252 0.712299 0.045947
0.808552 0.713846 0.046476
0.841155 0.715341 0.046977
0.873221 0.716794 0.047633
0.904800 0.718207 0.048345
0.935519 0.719564 0.049022
0.965326 0.720865 0.049663
0.994218 0.722111 0.050271
1.000000 0.723302 0.050846
1.000000 0.724378 0.051334
1.000000 0.724734 0.051144
1.000000 0.725068 0.050950
1.000000 0.725483 0.050915
1.000000 0.725937 0.050941
0.212334 0.617753 0.124727
0.224585 0.623179 0.121199
0.236938 0.628413 0.117777
0.250328 0.633847 0.114202
0.265893 0.639893 0.110203
0.285000 0.646966 0.105497
0.308465 0.655200 0.099980
0.335875 0.664281 0.093848
0.366531 0.673861 0.087331
0.399476 0.683582 0.080664
0.433747 0.693160 0.074046
0.470704 0.702964 0.067219
0.510439 0.712984 0.060189
0.552394 0.723057 0.053067
0.595882 0.733021 0.045969
0.635796 0.735489 0.046107
0.673760 0.737291 0.046737
0.710025 0.738986 0.047317
0.745129 0.740604 0.047857
0.779223 0.742153 0.048361
0.812463 0.743642 0.048834
0.845007 0.745080 0.049279
0.877014 0.746476 0.049700
0.908534 0.747834 0.050270
0.939196 0.749137 0.050894
0.968949 0.750386 0.051485
0.997788 0.751582 0.052044
1.000000 0.752725 0.052589
1.000000 0.753735 0.053272
1.000000 0.754050 0.053300
1.000000 0.754345 0.053325
1.000000 0.754755 0.053361
1.000000 0.755207 0.053400
0.220662 0.644275 0.131881
0.232861 0.649668 0.128310
0.245142 0.654867 0.124847
0.258433 0.660266 0.121231
0.273864 0.666272 0.117187
0.292777 0.673297 0.112429
0.315970 0.681475 0.106852
0.343021 0.690495 0.100656
0.373230 0.700008 0.094071
0.405654 0.709662 0.087337
0.439342 0.719173 0.080652
0.475632 0.728909 0.073757
0.514611 0.738858 0.066658
0.555732 0.748861 0.059466
0.598321 0.758754 0.052300
0.639787 0.765026 0.048569
0.677685 0.766762 0.049136
0.713886 0.768395 0.049655
0.748928 0.769952 0.050136
0.782961 0.771442 0.050583
0.816142 0.772874 0.051001
0.848628 0.774257 0.051391
0.880577 0.775597 0.051757
0.912038 0.776899 0.052101
0.942645 0.778151 0.052689
0.972346 0.779352 0.053528
1.000000 0.780500 0.054341
1.000000 0.781599 0.055126
1.000000 0.782545 0.055786
1.000000 0.782819 0.055809
1.000000 0.783073 0.055832
1.000000 0.783479 0.055867
1.000000 0.783930 0.055906
0.228644 0.670037 0.138719
0.240794 0.675396 0.135106
0.253006 0.680562 0.131603
0.266206 0.685926 0.127948
0.281511 0.691892 0.123860
0.300245 0.698870 0.119051
0.323187 0.706993 0.113417
0.349907 0.715951 0.107158
0.379708 0.725400 0.100507
0.411654 0.734988 0.093706
0.444809 0.744433 0.086956
0.480489 0.754102 0.079995
0.518778 0.763983 0.072828
0.559137 0.773916 0.065570
0.600906 0.783740 0.058337
0.643306 0.793296 0.051250
0.681349 0.795403 0.051327
0.717488 0.796975 0.051786
0.752468 0.798473 0.052210
0.786442 0.799905 0.052601
0.819564 0.801281 0.052964
0.851992 0.802609 0.053300
0.883885 0.803895 0.053613
0.915294 0.805148 0.054305
0.945850 0.806352 0.055166
0.975499 0.807503 0.056000
1.000000 0.808604 0.056806
1.000000 0.809656 0.057586
1.000000 0.810545 0.058228
