Fotico/Resources/LUTs/cocoa.cube
TITLE "Cocoa"
LUT_3D_SIZE 5
0.098185 0.030921 0.000000
0.303803 0.028613 0.000000
0.600136 0.029692 0.000000
0.852814 0.033973 0.000000
0.984973 0.037728 0.000000
0.092676 0.175315 0.000000
0.295105 0.197979 0.000000
0.600523 0.207810 0.000000
0.861211 0.219407 0.003175
1.000000 0.228562 0.007453
0.142319 0.393704 0.059860
0.312833 0.449458 0.024711
0.634079 0.485267 0.020966
0.903397 0.500908 0.030605
1.000000 0.509743 0.034916
0.212334 0.617753 0.124727
0.366531 0.673861 0.087331
0.673760 0.737291 0.046737
0.939196 0.749137 0.050894
1.000000 0.755207 0.053400
0.268567 0.804596 0.172598
0.412705 0.857938 0.132272
0.693551 0.932051 0.073773
0.960062 0.953855 0.068056
1.000000 0.957956 0.071089
0.093916 0.031911 0.115914
0.299897 0.030232 0.110696
0.596950 0.032077 0.107589
0.850286 0.036974 0.108348
0.986380 0.041253 0.109204
0.085686 0.192785 0.112690
0.292967 0.201273 0.114249
0.599188 0.211948 0.119698
0.860613 0.224248 0.127508
1.000000 0.233968 0.133402
0.133599 0.418729 0.156863
0.321600 0.446981 0.170059
0.635274 0.490947 0.160538
0.904218 0.506258 0.167717
1.000000 0.514915 0.170200
0.204690 0.644714 0.221914
0.387893 0.670707 0.234666
0.673986 0.742107 0.185708
0.939064 0.753646 0.189384
1.000000 0.759544 0.189320
0.263769 0.829931 0.270266
0.438937 0.854010 0.278964
0.693134 0.927729 0.220141
0.959021 0.957532 0.199640
1.000000 0.961441 0.197786
0.087689 0.033697 0.319485
0.294173 0.032951 0.315338
0.592410 0.036069 0.313655
0.846846 0.042012 0.315539
0.988830 0.047175 0.317325
0.078427 0.201124 0.319623
0.290170 0.206774 0.321621
0.597660 0.218794 0.328368
0.860236 0.232201 0.337191
1.000000 0.242813 0.343900
0.095980 0.464334 0.347755
0.324433 0.471794 0.357923
0.636909 0.499465 0.369147
0.905330 0.514316 0.375922
1.000000 0.522725 0.378197
0.162375 0.695774 0.383218
0.399539 0.693327 0.409996
0.672240 0.743092 0.399098
0.938659 0.760363 0.396336
1.000000 0.766022 0.396115
0.220276 0.879838 0.415705
0.455092 0.874480 0.453248
0.701360 0.921198 0.438768
0.957319 0.963068 0.405650
1.000000 0.966750 0.403684
0.082296 0.035673 0.506106
0.289237 0.035789 0.502860
0.588576 0.040088 0.502390
0.844035 0.047003 0.505249
0.991109 0.052994 0.507866
0.075657 0.205650 0.508686
0.287939 0.212205 0.511545
0.596615 0.225470 0.519448
0.860262 0.239905 0.529198
1.000000 0.251353 0.536670
0.096586 0.472425 0.539919
0.318267 0.488110 0.550734
0.638238 0.507181 0.559845
0.906172 0.521605 0.566244
1.000000 0.529780 0.568315
0.136422 0.729725 0.573185
0.360150 0.739587 0.576993
0.686799 0.738105 0.599883
0.938096 0.766407 0.585513
1.000000 0.771842 0.585121
0.180315 0.925406 0.587403
0.414536 0.919678 0.595116
0.733200 0.915098 0.638634
0.955556 0.968019 0.593910
1.000000 0.971485 0.591801
0.077912 0.037646 0.667239
0.285243 0.038510 0.664748
0.585545 0.043834 0.665299
0.841896 0.051595 0.668985
0.993102 0.058314 0.672316
0.073534 0.209846 0.671888
0.286290 0.217188 0.675479
0.596003 0.231536 0.684372
0.860585 0.246863 0.694920
1.000000 0.259044 0.703058
0.097377 0.479723 0.705797
0.319795 0.495131 0.715408
0.639255 0.513751 0.724115
0.906764 0.527804 0.730190
1.000000 0.535772 0.732082
0.137238 0.736017 0.737130
0.358793 0.747235 0.741249
0.673896 0.761263 0.745809
0.937470 0.771524 0.748473
1.000000 0.776761 0.747925
0.163721 0.946940 0.753806
0.382820 0.955226 0.755324
0.711177 0.948214 0.758392
0.952851 0.968835 0.759351
1.000000 0.975461 0.753818
