Fotico/Resources/LUTs/cocoa.cube
TITLE "Cocoa"
LUT_3D_SIZE 9
0.098185 0.030921 0.000000
0.178723 0.029671 0.000000
0.303803 0.028613 0.000000
0.450677 0.028567 0.000000
0.600136 0.029692 0.000000
0.731610 0.031562 0.000000
0.852814 0.033973 0.000000
0.962009 0.036685 0.000000
0.984973 0.037728 0.000000
0.089908 0.090452 0.000000
0.171543 0.091405 0.000000
0.297964 0.091816 0.000000
0.446544 0.093429 0.000000
0.597788 0.096199 0.000000
0.730861 0.099511 0.000000
0.853553 0.103252 0.000000
0.964096 0.107164 0.000000
0.991437 0.109177 0.000000
0.092676 0.175315 0.000000
0.165743 0.193126 0.000000
0.295105 0.197979 0.000000
0.446412 0.202313 0.000000
0.600523 0.207810 0.000000
0.736150 0.213495 0.000000
0.861211 0.219407 0.003175
0.973891 0.225264 0.006469
1.000000 0.228562 0.007453
0.113305 0.280115 0.029633
0.173681 0.299741 0.015759
0.300661 0.326762 0.000000
0.455195 0.334247 0.002861
0.612638 0.342889 0.007503
0.751212 0.351304 0.011657
0.878991 0.359706 0.015542
0.994228 0.367463 0.019341
1.000000 0.370875 0.020745
0.142319 0.393704 0.059860
0.198656 0.415233 0.046125
0.312833 0.449458 0.024711
0.473072 0.474674 0.015241
0.634079 0.485267 0.020966
0.774791 0.493607 0.026157
0.903397 0.500908 0.030605
1.000000 0.507182 0.034349
1.000000 0.509743 0.034916
0.176342 0.507424 0.092331
0.231854 0.530427 0.080018
0.338704 0.565323 0.058153
0.495161 0.605546 0.032128
0.655870 0.615169 0.035285
0.795570 0.622498 0.038792
0.923234 0.628887 0.042341
1.000000 0.634347 0.045285
1.000000 0.636248 0.045218
0.212334 0.617753 0.124727
0.265893 0.639893 0.110203
0.366531 0.673861 0.087331
0.510439 0.712984 0.060189
0.673760 0.737291 0.046737
0.812463 0.743642 0.048834
0.939196 0.749137 0.050894
1.000000 0.753735 0.053272
1.000000 0.755207 0.053400
0.243310 0.718294 0.151229
0.295573 0.739877 0.136061
0.391729 0.772950 0.112262
0.526804 0.811024 0.084083
0.687743 0.848952 0.055193
0.825567 0.854527 0.056276
0.951442 0.859211 0.059798
1.000000 0.863036 0.062808
1.000000 0.864188 0.062909
0.268567 0.804596 0.172598
0.319808 0.825667 0.156877
0.412705 0.857938 0.132272
0.541520 0.895078 0.103181
0.693551 0.932051 0.073773
0.834967 0.949901 0.064616
0.960062 0.953855 0.068056
1.000000 0.957047 0.071010
1.000000 0.957956 0.071089
0.096581 0.031277 0.031200
0.177163 0.030127 0.028577
0.302354 0.029214 0.025428
0.449349 0.029301 0.022936
0.598921 0.030536 0.021589
0.730501 0.032503 0.021318
0.851808 0.035004 0.021784
0.961098 0.037797 0.022767
0.985369 0.038925 0.022204
0.091208 0.087843 0.031837
0.170238 0.092099 0.025802
0.296729 0.092617 0.024125
0.445419 0.094354 0.023322
0.596790 0.097250 0.023662
0.729982 0.100674 0.024856
0.852788 0.104518 0.026657
0.963435 0.108523 0.028833
0.991863 0.110625 0.029190
0.103241 0.173415 0.048203
0.164737 0.191413 0.031758
0.294220 0.199118 0.027692
0.445663 0.203598 0.029552
0.599923 0.209243 0.032547
0.735689 0.215058 0.036038
0.860879 0.221090 0.039929
0.973678 0.227055 0.043965
1.000000 0.230448 0.045503
0.124474 0.280828 0.072742
0.178563 0.298578 0.060081
0.300260 0.328372 0.039671
0.454952 0.336026 0.044529
0.612572 0.344839 0.050503
0.751306 0.353403 0.056565
0.879233 0.361943 0.062787
0.994630 0.369534 0.067664
1.000000 0.372923 0.068244
0.151982 0.397327 0.103329
0.207997 0.414298 0.096477
0.314562 0.448592 0.076998
0.473416 0.477027 0.067552
0.634536 0.487393 0.073463
0.775164 0.495658 0.077442
0.903694 0.502893 0.080805
1.000000 0.509110 0.083593
1.000000 0.511651 0.083361
0.185023 0.513572 0.139007
0.244548 0.529450 0.135897
0.343544 0.564283 0.113979
0.494264 0.604435 0.087909
0.656149 0.617137 0.087942
0.795774 0.624402 0.090970
0.923365 0.630726 0.093467
1.000000 0.636131 0.095485
1.000000 0.638016 0.094638
0.222280 0.623422 0.171904
0.279297 0.638762 0.165809
0.373030 0.672664 0.142913
0.511238 0.711713 0.115758
0.673861 0.739099 0.099217
0.812496 0.745391 0.101332
0.939162 0.750830 0.103000
1.000000 0.755390 0.104225
1.000000 0.756823 0.102965
0.255025 0.723351 0.200046
0.309430 0.738596 0.191489
0.399403 0.771602 0.167693
0.529015 0.809599 0.139534
0.686283 0.847450 0.110690
0.825433 0.856125 0.108712
0.951218 0.860729 0.109604
1.000000 0.864506 0.110097
1.000000 0.865616 0.108548
0.281427 0.808714 0.222528
0.333959 0.824251 0.212204
0.421198 0.856452 0.187628
0.544804 0.893514 0.158595
0.693045 0.930425 0.128888
0.834651 0.951330 0.113358
0.959649 0.955197 0.113566
1.000000 0.958338 0.113469
1.000000 0.959198 0.111697
0.093916 0.031911 0.115914
0.174547 0.030914 0.113513
0.299897 0.030232 0.110696
0.447123 0.030582 0.108577
0.596950 0.032077 0.107589
0.728762 0.034268 0.107619
0.850286 0.036974 0.108348
0.959775 0.039949 0.109555
0.986380 0.041253 0.109204
0.086834 0.093371 0.112725
0.168088 0.093319 0.111288
0.294745 0.094074 0.109929
0.443672 0.096080 0.109478
0.595303 0.099245 0.110153
0.728732 0.102901 0.111622
0.851759 0.106956 0.113662
0.962607 0.111150 0.116038
0.992920 0.113427 0.116585
0.085686 0.192785 0.112690
0.173380 0.189051 0.121675
0.292967 0.201273 0.114249
0.444658 0.206029 0.116416
0.599188 0.211948 0.119698
0.735196 0.218000 0.123420
0.860613 0.224248 0.127508
0.973618 0.230406 0.131707
1.000000 0.233968 0.133402
0.105395 0.301544 0.128398
0.194550 0.299651 0.146502
0.298745 0.327648 0.130535
0.454773 0.339253 0.132040
0.612673 0.348345 0.138245
0.751658 0.357150 0.144490
0.879818 0.365909 0.150870
0.995408 0.373110 0.154866
1.000000 0.376476 0.155424
0.133599 0.418729 0.156863
0.224583 0.418675 0.179508
0.321600 0.446981 0.170059
0.474052 0.481048 0.155567
0.635274 0.490947 0.160538
0.775790 0.499113 0.164429
0.904218 0.506258 0.167717
1.000000 0.512396 0.170442
1.000000 0.514915 0.170200
0.167395 0.535610 0.191687
0.260825 0.535642 0.216033
0.355774 0.562596 0.206026
0.493920 0.602628 0.179861
0.656574 0.620415 0.174698
0.796085 0.627581 0.177652
0.923571 0.633814 0.180088
1.000000 0.639138 0.182055
1.000000 0.641005 0.181209
0.204690 0.644714 0.221914
0.297894 0.644079 0.247684
0.387893 0.670707 0.234666
0.514245 0.709633 0.207434
0.673986 0.742107 0.185708
0.812504 0.748299 0.187765
0.939064 0.753646 0.189384
1.000000 0.758160 0.190604
1.000000 0.759544 0.189320
0.237182 0.744388 0.248481
0.330040 0.743128 0.275040
0.415998 0.769388 0.259208
0.534628 0.807260 0.230989
0.684546 0.844987 0.202092
0.825160 0.858777 0.194948
0.950837 0.863290 0.195805
1.000000 0.867027 0.196313
1.000000 0.868083 0.194742
0.263769 0.829931 0.270266
0.356234 0.828124 0.297227
0.438937 0.854010 0.278964
0.552308 0.890944 0.249884
0.693134 0.927729 0.220141
0.834133 0.953756 0.199452
0.959021 0.957532 0.199640
1.000000 0.960639 0.199577
1.000000 0.961441 0.197786
0.090799 0.032746 0.216517
0.171487 0.031932 0.214337
0.297029 0.031527 0.211849
0.444531 0.032192 0.210098
0.594664 0.033999 0.209469
0.726755 0.036460 0.209801
0.848541 0.039410 0.210798
0.958268 0.042604 0.212240
0.987587 0.044123 0.212121
0.084275 0.094724 0.213902
0.165588 0.094859 0.212679
0.292443 0.095897 0.211638
0.441655 0.098228 0.211542
0.593599 0.101715 0.212561
0.727312 0.105650 0.214320
0.850605 0.109958 0.216615
0.961696 0.114378 0.219213
0.994182 0.116868 0.219978
0.080092 0.198782 0.215267
0.162499 0.200499 0.215547
0.291541 0.203936 0.216776
0.443532 0.209023 0.219275
0.598385 0.215273 0.222875
0.734686 0.221610 0.226863
0.860376 0.228118 0.231186
0.973629 0.234507 0.235590
1.000000 0.238276 0.237480
0.083740 0.325165 0.224539
0.172034 0.324406 0.225733
0.306628 0.324911 0.240138
0.454639 0.343207 0.235708
0.612877 0.352634 0.242203
0.752164 0.361729 0.248691
0.880697 0.370456 0.254688
0.996286 0.377356 0.258142
1.000000 0.380693 0.258671
0.111907 0.444205 0.241465
0.203027 0.444348 0.250380
0.344068 0.445205 0.280407
0.475014 0.485460 0.258989
0.636106 0.495166 0.263717
0.776487 0.503213 0.267502
0.904793 0.510251 0.270697
1.000000 0.516292 0.273341
1.000000 0.518786 0.273080
0.146814 0.561192 0.269632
0.240144 0.561144 0.282128
0.382376 0.560593 0.315155
0.496771 0.600480 0.288873
0.657031 0.624303 0.277531
0.796404 0.631348 0.280388
0.923764 0.637473 0.282739
1.000000 0.642700 0.284632
1.000000 0.644544 0.283774
0.183788 0.669970 0.294454
0.276878 0.669256 0.309874
0.415970 0.668378 0.343473
0.522099 0.707157 0.316135
0.674084 0.745670 0.288235
0.812460 0.751741 0.290202
0.938892 0.756979 0.291744
1.000000 0.761415 0.292916
1.000000 0.762760 0.291609
0.215974 0.769340 0.317342
0.308705 0.768003 0.334685
0.444912 0.766749 0.367736
0.545930 0.804471 0.339420
0.684116 0.842051 0.310432
0.824778 0.861912 0.297128
0.950324 0.866314 0.297914
1.000000 0.870004 0.298411
1.000000 0.870993 0.296794
0.242288 0.854619 0.336601
0.334617 0.852735 0.355170
0.468338 0.851097 0.387263
0.565924 0.887880 0.358098
0.695354 0.924515 0.328273
0.833210 0.956109 0.301924
0.958210 0.960284 0.301548
1.000000 0.963319 0.301457
1.000000 0.964081 0.299649
0.087689 0.033697 0.319485
0.168435 0.033071 0.317514
0.294173 0.032951 0.315338
0.441961 0.033940 0.313940
0.592410 0.036069 0.313655
0.724789 0.038809 0.314280
0.846846 0.042012 0.315539
0.956820 0.045432 0.317210
0.988830 0.047175 0.317325
0.081738 0.096210 0.317424
0.163109 0.096538 0.316406
0.290170 0.097868 0.315670
0.439677 0.100533 0.315918
0.591944 0.104353 0.317272
0.725951 0.108575 0.319315
0.849519 0.113145 0.321865
0.960860 0.117798 0.324686
0.995483 0.120510 0.325672
0.078427 0.201124 0.319623
0.160904 0.203039 0.320100
0.290170 0.206774 0.321621
0.442471 0.212204 0.324448
0.597660 0.218794 0.328368
0.734264 0.225426 0.332627
0.860236 0.232201 0.337191
0.973745 0.238829 0.341806
1.000000 0.242813 0.343900
0.083022 0.328483 0.329782
0.167021 0.332240 0.331943
0.298997 0.338759 0.336002
0.454602 0.347377 0.341724
0.613190 0.357151 0.348521
0.752790 0.366545 0.355264
0.881658 0.374881 0.360290
0.997135 0.381684 0.363654
1.000000 0.384989 0.364151
0.095980 0.464334 0.347755
0.181870 0.469959 0.351594
0.324433 0.471794 0.357923
0.476097 0.484717 0.369638
0.636909 0.499465 0.369147
0.777151 0.507390 0.372825
0.905330 0.514316 0.375922
1.000000 0.520258 0.378481
1.000000 0.522725 0.378197
0.125736 0.587328 0.366857
0.218960 0.587198 0.370712
0.363914 0.586533 0.383983
0.508354 0.598262 0.400286
0.657447 0.628259 0.382620
0.796677 0.635181 0.385374
0.923907 0.641193 0.387633
1.000000 0.646320 0.389445
1.000000 0.648140 0.388571
0.162375 0.695774 0.383218
0.255345 0.694979 0.390401
0.399539 0.693327 0.409996
0.539277 0.704599 0.427236
0.672240 0.743092 0.399098
0.812360 0.755238 0.394881
0.938659 0.760363 0.396336
1.000000 0.764699 0.397432
1.000000 0.766022 0.396115
0.194243 0.794833 0.400368
0.286843 0.793415 0.410013
0.430237 0.790836 0.433660
0.566258 0.801592 0.450244
0.686780 0.839019 0.421153
0.824329 0.865091 0.401535
0.949740 0.869380 0.402238
1.000000 0.872970 0.402666
1.000000 0.873940 0.401043
0.220276 0.879838 0.415705
0.312464 0.877874 0.427058
0.455092 0.874480 0.453248
0.588130 0.884716 0.468690
0.701360 0.921198 0.438768
0.830221 0.952659 0.412338
0.957319 0.963068 0.405650
1.000000 0.966002 0.405492
1.000000 0.966750 0.403684
0.084982 0.034632 0.411737
0.165777 0.034177 0.409946
0.291692 0.034312 0.408041
0.439739 0.035593 0.406948
0.590472 0.038013 0.406963
0.723112 0.041003 0.407844
0.845413 0.044435 0.409333
0.955609 0.048059 0.411206
0.989953 0.050005 0.411530
0.079546 0.097629 0.410160
0.160968 0.098131 0.409319
0.288214 0.099724 0.408848
0.437987 0.102690 0.409396
0.590546 0.106809 0.411044
0.724818 0.111290 0.413337
0.848635 0.116096 0.416112
0.960202 0.120960 0.419131
0.996658 0.123873 0.420317
0.077017 0.203316 0.413092
0.159557 0.205408 0.413739
0.289026 0.209413 0.415518
0.441607 0.215151 0.418634
0.597099 0.222047 0.422838
0.733976 0.228945 0.427339
0.860203 0.235961 0.432120
0.973943 0.242805 0.436925
1.000000 0.246985 0.439204
0.082460 0.331554 0.424038
0.166551 0.335493 0.426364
0.298754 0.342285 0.430671
0.454659 0.351217 0.436671
0.613564 0.361302 0.443740
0.753446 0.370966 0.450714
0.882476 0.378823 0.454763
0.997854 0.385537 0.458047
1.000000 0.388813 0.458515
0.096238 0.468285 0.442757
0.182261 0.474093 0.446755
0.317451 0.483699 0.453569
0.476798 0.493857 0.458991
0.637586 0.503293 0.463476
0.777703 0.511107 0.467055
0.905767 0.517933 0.470065
1.000000 0.523786 0.472548
1.000000 0.526227 0.472240
0.116336 0.601371 0.463365
0.203731 0.606796 0.465847
0.344780 0.609721 0.468226
0.513622 0.608261 0.480713
0.657776 0.631778 0.476647
0.796878 0.638589 0.479307
0.923991 0.644500 0.481481
1.000000 0.649537 0.483220
1.000000 0.651334 0.482328
0.143172 0.718849 0.474982
0.236033 0.717980 0.476735
0.380079 0.716218 0.483687
0.547868 0.713639 0.507396
0.674131 0.740640 0.498413
0.812224 0.758343 0.488539
0.938403 0.763366 0.489913
1.000000 0.767611 0.490938
1.000000 0.768915 0.489609
0.174753 0.817628 0.485355
0.267233 0.816137 0.489546
0.410471 0.813448 0.501311
0.577216 0.809816 0.531270
0.694192 0.836276 0.520223
0.823879 0.867910 0.494946
0.949168 0.872096 0.495571
1.000000 0.875596 0.495931
1.000000 0.876549 0.494300
0.200532 0.902388 0.496063
0.292592 0.900351 0.502096
0.435056 0.896847 0.517184
0.600842 0.892289 0.550705
0.712186 0.918197 0.537630
0.829386 0.949539 0.511122
0.956470 0.965532 0.498776
1.000000 0.968374 0.498552
1.000000 0.969107 0.496742
0.082296 0.035673 0.506106
0.163139 0.035391 0.504495
0.289237 0.035789 0.502860
0.437549 0.037370 0.502074
0.588576 0.040088 0.502390
0.721483 0.043336 0.503528
0.844035 0.047003 0.505249
0.954460 0.050836 0.507327
0.991109 0.052994 0.507866
0.077386 0.099168 0.505015
0.158859 0.099848 0.504350
0.286296 0.101711 0.504146
0.436344 0.104986 0.504996
0.589203 0.109413 0.506941
0.723748 0.114160 0.509488
0.847821 0.119208 0.512491
0.959620 0.124288 0.515711
0.997867 0.127410 0.517103
0.075657 0.205650 0.508686
0.158261 0.207924 0.509507
0.287939 0.212205 0.511545
0.440811 0.218259 0.514956
0.596615 0.225470 0.519448
0.733773 0.232640 0.524196
0.860262 0.239905 0.529198
0.974239 0.246969 0.534199
1.000000 0.251353 0.536670
0.081967 0.334791 0.520435
0.166154 0.338915 0.522929
0.298594 0.345989 0.527488
0.454807 0.355243 0.533773
0.614038 0.365649 0.541121
0.754328 0.375140 0.547458
0.883273 0.382828 0.551276
0.998547 0.389453 0.554478
1.000000 0.392698 0.554915
0.096586 0.472425 0.539919
0.182748 0.478423 0.544081
0.318267 0.488110 0.550734
0.477598 0.497876 0.555477
0.638238 0.507181 0.559845
0.778226 0.514883 0.563324
0.906172 0.521605 0.566244
1.000000 0.527367 0.568647
1.000000 0.529780 0.568315
0.117176 0.605404 0.559832
0.204472 0.610750 0.562243
0.340247 0.618601 0.565725
0.498554 0.627205 0.569403
0.658188 0.633517 0.574510
0.797040 0.642046 0.575273
0.924032 0.647853 0.577361
1.000000 0.652797 0.579022
1.000000 0.654570 0.578112
0.136422 0.729725 0.573185
0.223427 0.734420 0.575006
0.360150 0.739587 0.576993
0.527772 0.736878 0.580500
0.686799 0.738105 0.599883
0.812040 0.761489 0.584224
0.938096 0.766407 0.585513
1.000000 0.770560 0.586464
1.000000 0.771842 0.585121
0.154795 0.840899 0.582486
0.247151 0.839333 0.582465
0.390227 0.836531 0.585095
0.556798 0.832770 0.596448
0.712519 0.833442 0.621442
0.821884 0.865485 0.595557
0.948537 0.874843 0.590919
1.000000 0.878249 0.591207
1.000000 0.879184 0.589567
0.180315 0.925406 0.587403
0.272241 0.923295 0.589083
0.414536 0.919678 0.595116
0.580142 0.914992 0.611690
0.733200 0.915098 0.638634
0.831904 0.946318 0.612043
0.955556 0.968019 0.593910
1.000000 0.970768 0.593616
1.000000 0.971485 0.591801
0.079752 0.036773 0.598448
0.160640 0.036661 0.597010
0.286917 0.037318 0.595637
0.435491 0.039193 0.595146
0.586806 0.042203 0.595754
0.719977 0.045705 0.597142
0.842776 0.049602 0.599088
0.953426 0.053642 0.601365
0.992248 0.056009 0.602114
0.075356 0.100759 0.597827
0.156877 0.101613 0.597334
0.284503 0.103742 0.597388
0.434821 0.107320 0.598530
0.587977 0.112049 0.600764
0.722790 0.117057 0.603557
0.847114 0.122344 0.606781
0.959141 0.127635 0.610198
0.999059 0.130965 0.611792
0.074409 0.208022 0.602217
0.157076 0.210475 0.603206
0.286962 0.215027 0.605497
0.440119 0.221392 0.609194
0.596231 0.228912 0.613968
0.733666 0.236350 0.618956
0.860413 0.243858 0.624175
0.974623 0.251139 0.629368
1.000000 0.255725 0.632028
0.081567 0.338051 0.614748
0.165851 0.342358 0.617407
0.298524 0.349708 0.622212
0.455042 0.359278 0.628776
0.614594 0.369998 0.636399
0.755180 0.379131 0.641869
0.884012 0.386720 0.645596
0.999185 0.393256 0.648719
1.000000 0.396469 0.649126
0.097009 0.476573 0.634984
0.183311 0.482756 0.639307
0.319157 0.492145 0.645148
0.478342 0.501781 0.649775
0.638836 0.510957 0.654028
0.778697 0.518548 0.657409
0.906526 0.525169 0.660241
1.000000 0.530841 0.662567
1.000000 0.533226 0.662210
0.117962 0.609322 0.654113
0.205160 0.614591 0.656456
0.340798 0.622327 0.659837
0.498952 0.630800 0.663401
0.658318 0.638814 0.666596
0.797157 0.645398 0.669064
0.924030 0.651103 0.671065
1.000000 0.655957 0.672651
1.000000 0.657705 0.671721
0.136903 0.733343 0.667180
0.223799 0.737959 0.668934
0.358650 0.744706 0.671423
0.515748 0.752045 0.673967
0.676766 0.756202 0.675637
0.811818 0.764536 0.677740
0.937753 0.769352 0.678945
1.000000 0.773412 0.679822
1.000000 0.774673 0.678464
0.152236 0.846937 0.677187
0.238728 0.850935 0.678388
0.372762 0.856745 0.680043
0.536795 0.855183 0.680113
0.704367 0.850770 0.689548
0.824927 0.862563 0.694399
0.947875 0.877498 0.684102
1.000000 0.880813 0.684317
1.000000 0.881729 0.682668
0.163786 0.944667 0.684217
0.252305 0.945698 0.684058
0.394432 0.941971 0.683413
0.559861 0.937158 0.687564
0.726430 0.931827 0.704825
0.841429 0.943135 0.710676
0.954616 0.970419 0.686880
1.000000 0.973075 0.686515
1.000000 0.973776 0.684694
0.077912 0.037646 0.667239
0.158833 0.037661 0.665929
0.285243 0.038510 0.664748
0.434013 0.040605 0.664476
0.585545 0.043834 0.665299
0.718912 0.047525 0.666872
0.841896 0.051595 0.668985
0.952714 0.055789 0.671409
0.993102 0.058314 0.672316
0.073899 0.101999 0.666966
0.155456 0.102984 0.666599
0.283223 0.105310 0.666844
0.433744 0.109115 0.668202
0.587120 0.114069 0.670649
0.722134 0.119273 0.673625
0.846647 0.124737 0.677014
0.958844 0.130187 0.680576
0.999952 0.133674 0.682322
0.073534 0.209846 0.671888
0.156249 0.212433 0.673001
0.286290 0.217188 0.675479
0.439661 0.223784 0.679388
0.596003 0.231536 0.684372
0.733645 0.239173 0.689539
0.860585 0.246863 0.694920
0.974970 0.254306 0.700255
1.000000 0.259044 0.703058
0.081323 0.340539 0.685001
0.165680 0.344982 0.687782
0.298529 0.352538 0.692770
0.455275 0.362344 0.699542
0.615069 0.373299 0.707369
0.755789 0.382085 0.712125
0.884536 0.389600 0.715785
0.999633 0.396069 0.718848
1.000000 0.399259 0.719232
0.097377 0.479723 0.705797
0.183786 0.486045 0.710240
0.319795 0.495131 0.715408
0.478871 0.504671 0.719948
0.639255 0.513751 0.724115
0.779021 0.521258 0.727424
0.906764 0.527804 0.730190
1.000000 0.533408 0.732458
1.000000 0.535772 0.732082
0.118525 0.612221 0.724275
0.205648 0.617433 0.726567
0.341184 0.625083 0.729873
0.499223 0.633457 0.733352
0.658476 0.641375 0.736464
0.797217 0.647875 0.738860
0.924002 0.653504 0.740797
1.000000 0.658290 0.742326
1.000000 0.660019 0.741380
0.137238 0.736017 0.737130
0.224051 0.740576 0.738834
0.358793 0.747235 0.741249
0.515772 0.754476 0.743710
0.673896 0.761263 0.745809
0.811625 0.766785 0.747331
0.937470 0.771524 0.748473
1.000000 0.775516 0.749294
1.000000 0.776761 0.747925
0.152358 0.849399 0.746943
0.238760 0.853338 0.748095
0.372679 0.859061 0.749677
0.528614 0.865231 0.751186
0.689325 0.867340 0.751466
0.835163 0.863025 0.763532
0.947354 0.879455 0.753445
1.000000 0.882701 0.753605
1.000000 0.883602 0.751947
0.163721 0.946940 0.753806
0.249682 0.950330 0.754473
0.382820 0.955226 0.755324
0.544736 0.953639 0.754273
0.711177 0.948214 0.758392
0.856127 0.943106 0.780862
0.952851 0.968835 0.759351
1.000000 0.974772 0.755644
1.000000 0.975461 0.753818
