Fotico/Resources/LUTs/disco.cube
# Disco
LUT_3D_SIZE 5
0.025258 0.000000 0.036723
0.435088 0.000000 0.030449
0.882558 0.000000 0.024584
1.000000 0.000000 0.019138
1.000000 0.000000 0.014120
0.012215 0.346063 0.017261
0.282396 0.315817 0.012402
0.764993 0.285013 0.007986
1.000000 0.253904 0.004023
1.000000 0.222778 0.000522
0.001993 0.656321 0.002694
0.147392 0.638941 0.000000
0.632392 0.620546 0.000000
0.976602 0.601018 0.000000
1.000000 0.580250 0.000000
0.000000 0.849441 0.000000
0.062523 0.834144 0.000000
0.506777 0.819186 0.000000
0.926971 0.804549 0.000000
1.000000 0.790190 0.000000
0.000000 1.000000 0.000000
0.006991 1.000000 0.000000
0.390361 1.000000 0.000000
0.856371 1.000000 0.000000
1.000000 0.989299 0.000000
0.023818 0.000000 0.366202
0.419414 0.000000 0.315697
0.872181 0.000000 0.267231
1.000000 0.000000 0.221300
1.000000 0.000000 0.178375
0.011052 0.335868 0.205300
0.267593 0.305407 0.163581
0.751440 0.274469 0.125466
1.000000 0.243320 0.091361
1.000000 0.212260 0.063034
0.001124 0.650525 0.080015
0.137776 0.632814 0.056005
0.620235 0.614047 0.038455
0.972564 0.594109 0.023537
1.000000 0.572900 0.011304
0.000000 0.844208 0.018771
0.055424 0.829027 0.007525
0.494415 0.814180 0.000000
0.920783 0.799644 0.000000
1.000000 0.785367 0.000000
0.000000 1.000000 0.000000
0.003385 1.000000 0.000000
0.378588 1.000000 0.000000
0.848110 0.997056 0.000000
1.000000 0.985022 0.000000
0.022405 0.000000 0.928183
0.403757 0.000000 0.891209
0.861450 0.000000 0.848702
1.000000 0.000000 0.801332
1.000000 0.000000 0.749807
0.009918 0.325592 0.783016
0.252969 0.294941 0.730160
0.737612 0.263900 0.674163
1.000000 0.232746 0.615797
1.000000 0.201790 0.563236
0.000285 0.644621 0.594115
0.128368 0.626565 0.546414
0.607945 0.607412 0.500000
0.968306 0.587053 0.460652
1.000000 0.565393 0.421552
0.000000 0.839014 0.446376
0.048634 0.823948 0.407428
0.482879 0.809211 0.369062
0.914382 0.794770 0.331518
1.000000 0.780565 0.295026
0.000000 1.000000 0.318099
0.000183 1.000000 0.282046
0.366824 1.000000 0.247345
0.839645 0.993164 0.214202
1.000000 0.980573 0.182809
0.021019 0.000000 0.988902
0.388132 0.000000 0.993639
0.850371 0.000000 0.997761
1.000000 0.000000 1.000000
1.000000 0.000000 1.000000
0.008814 0.315242 1.000000
0.238542 0.284430 1.000000
0.723519 0.253318 1.000000
0.998745 0.222195 1.000000
1.000000 0.191382 1.000000
0.000000 0.638605 1.000000
0.119179 0.620190 1.000000
0.595526 0.600639 0.997557
0.963828 0.579847 0.985235
1.000000 0.557727 0.968920
0.000000 0.833860 0.979751
0.042163 0.818907 0.962014
0.471291 0.804276 0.940473
0.907769 0.789923 0.915304
1.000000 0.775782 0.886708
0.000000 1.000000 0.905279
0.000000 1.000000 0.875491
0.355074 1.000000 0.842596
0.830978 0.989067 0.806860
1.000000 0.975966 0.768574
0.019662 0.000000 0.990580
0.372554 0.000000 0.995107
0.838953 0.000000 0.999022
1.000000 0.000000 1.000000
1.000000 0.000000 1.000000
0.007738 0.304828 1.000000
0.224331 0.273884 1.000000
0.709171 0.242734 1.000000
0.995896 0.211679 1.000000
1.000000 0.181051 1.000000
0.000000 0.632471 1.000000
0.110219 0.613683 1.000000
0.582984 0.593722 1.000000
0.959131 0.572488 1.000000
1.000000 0.549899 1.000000
0.000000 0.828744 1.000000
0.036022 0.813904 1.000000
0.459658 0.799373 1.000000
0.900944 0.785100 1.000000
1.000000 0.771014 1.000000
0.000000 1.000000 1.000000
0.000000 1.000000 1.000000
0.343349 0.996846 1.000000
0.822111 0.984780 1.000000
1.000000 0.971217 1.000000
