Fotico/Resources/LUTs/disco.cube
# Disco
LUT_3D_SIZE 17
0.025258 0.000000 0.036723
0.096934 0.000000 0.035117
0.196245 0.000000 0.033536
0.312389 0.000000 0.031980
0.435088 0.000000 0.030449
0.555571 0.000000 0.028944
0.682076 0.000000 0.027465
0.792980 0.000000 0.026011
0.882558 0.000000 0.024584
0.948979 0.000000 0.023183
0.991544 0.000000 0.021808
1.000000 0.000000 0.020459
1.000000 0.000000 0.019138
1.000000 0.000000 0.017843
1.000000 0.000000 0.016575
1.000000 0.000000 0.015334
1.000000 0.000000 0.014120
0.021741 0.059317 0.031420
0.071357 0.053670 0.029898
0.163164 0.048186 0.028403
0.274993 0.042873 0.026933
0.396307 0.037736 0.025489
0.517850 0.032780 0.024071
0.643645 0.028012 0.022679
0.760022 0.023436 0.021314
0.856214 0.019058 0.019975
0.929895 0.014883 0.018663
0.980138 0.010917 0.017378
1.000000 0.007164 0.016120
1.000000 0.003628 0.014889
1.000000 0.000315 0.013685
1.000000 0.000000 0.012509
1.000000 0.000000 0.011361
1.000000 0.000000 0.010240
0.018394 0.145630 0.026404
0.048754 0.138396 0.024970
0.132097 0.131246 0.023561
0.238677 0.124186 0.022179
0.357770 0.117221 0.020823
0.479683 0.110358 0.019494
0.603981 0.103604 0.018192
0.725306 0.096965 0.016917
0.827762 0.090446 0.015669
0.908465 0.084055 0.014447
0.966191 0.077797 0.013254
1.000000 0.071678 0.012088
1.000000 0.065705 0.010949
1.000000 0.059884 0.009839
1.000000 0.054220 0.008756
1.000000 0.048720 0.007702
1.000000 0.043390 0.006676
0.015217 0.245343 0.021682
0.029405 0.237555 0.020337
0.103333 0.229777 0.019017
0.203714 0.222012 0.017725
0.319716 0.214267 0.016459
0.441266 0.206547 0.015221
0.563295 0.198857 0.014010
0.688985 0.191203 0.012826
0.797315 0.183590 0.011670
0.884779 0.176024 0.010542
0.949784 0.168511 0.009442
0.991660 0.161057 0.008369
1.000000 0.153668 0.007325
1.000000 0.146349 0.006310
1.000000 0.139107 0.005323
1.000000 0.131948 0.004364
1.000000 0.124879 0.003435
0.012215 0.346063 0.017261
0.013587 0.338566 0.016005
0.077160 0.331024 0.014777
0.170382 0.323440 0.013576
0.282396 0.315817 0.012402
0.402811 0.308159 0.011256
0.522704 0.300470 0.010138
0.651228 0.292754 0.009048
0.764993 0.285013 0.007986
0.858927 0.277254 0.006952
0.931000 0.269480 0.005947
0.980371 0.261695 0.004970
1.000000 0.253904 0.004023
1.000000 0.246112 0.003104
1.000000 0.238324 0.002214
1.000000 0.230544 0.001353
1.000000 0.222778 0.000522
0.009388 0.438825 0.013145
0.008583 0.432157 0.011982
0.053867 0.425414 0.010846
0.138967 0.418597 0.009738
0.246070 0.411709 0.008658
0.364538 0.404750 0.007606
0.484973 0.397723 0.006583
0.612218 0.390630 0.005588
0.730930 0.383472 0.004622
0.831010 0.376252 0.003685
0.909922 0.368973 0.002776
0.966585 0.361636 0.001897
1.000000 0.354244 0.001047
1.000000 0.346801 0.000227
1.000000 0.339309 0.000000
1.000000 0.331771 0.000000
1.000000 0.324191 0.000000
0.006741 0.521146 0.009342
0.005989 0.514849 0.008272
0.033741 0.508461 0.007231
0.109755 0.501982 0.006218
0.211005 0.495903 0.005233
0.326681 0.489955 0.004277
0.446955 0.483926 0.003351
0.572154 0.477815 0.002453
0.695271 0.471625 0.001584
0.801133 0.465353 0.000745
0.886784 0.459003 0.000000
0.951840 0.452573 0.000000
0.993315 0.446065 0.000000
1.000000 0.439480 0.000000
1.000000 0.432819 0.000000
1.000000 0.426083 0.000000
1.000000 0.419274 0.000000
0.004275 0.595441 0.005856
0.003577 0.590282 0.004882
0.017061 0.585042 0.003937
0.083037 0.579721 0.003021
0.177478 0.574317 0.002133
0.289482 0.568828 0.001276
0.408852 0.563253 0.000447
0.532444 0.557592 0.000000
0.661887 0.551844 0.000000
0.775075 0.546007 0.000000
0.867952 0.540081 0.000000
0.938484 0.534065 0.000000
0.985646 0.527959 0.000000
1.000000 0.521763 0.000000
1.000000 0.515475 0.000000
1.000000 0.509096 0.000000
1.000000 0.502626 0.000000
0.001993 0.656321 0.002694
0.001350 0.652065 0.001818
0.004106 0.647750 0.000970
0.059101 0.643377 0.000153
0.147392 0.638941 0.000000
0.257526 0.634443 0.000000
0.378228 0.629878 0.000000
0.499986 0.625247 0.000000
0.632392 0.620546 0.000000
0.749905 0.615775 0.000000
0.847853 0.610931 0.000000
0.923809 0.606012 0.000000
0.976602 0.601018 0.000000
1.000000 0.595946 0.000000
1.000000 0.590795 0.000000
1.000000 0.585564 0.000000
1.000000 0.580250 0.000000
0.000000 0.707730 0.000000
0.000000 0.704034 0.000000
0.000000 0.700308 0.000000
0.042215 0.696550 0.000000
0.123962 0.692757 0.000000
0.230004 0.688929 0.000000
0.349125 0.685062 0.000000
0.471387 0.681155 0.000000
0.602043 0.677205 0.000000
0.723621 0.673210 0.000000
0.826507 0.669168 0.000000
0.907824 0.665076 0.000000
0.966199 0.660934 0.000000
1.000000 0.656739 0.000000
1.000000 0.652488 0.000000
1.000000 0.648179 0.000000
1.000000 0.643811 0.000000
0.000000 0.754357 0.000000
0.000000 0.750861 0.000000
0.000000 0.747362 0.000000
0.027624 0.743858 0.000000
0.101904 0.740346 0.000000
0.203214 0.736826 0.000000
0.320191 0.733294 0.000000
0.442508 0.729749 0.000000
0.570925 0.726190 0.000000
0.696270 0.722613 0.000000
0.803936 0.719017 0.000000
0.890543 0.715400 0.000000
0.954452 0.711759 0.000000
0.994737 0.708093 0.000000
1.000000 0.704400 0.000000
1.000000 0.700677 0.000000
1.000000 0.696922 0.000000
0.000000 0.800579 0.000000
0.000000 0.796984 0.000000
0.000000 0.793404 0.000000
0.015199 0.789839 0.000000
0.081372 0.786287 0.000000
0.177304 0.782748 0.000000
0.291549 0.779219 0.000000
0.413442 0.775700 0.000000
0.539134 0.772189 0.000000
0.667909 0.768684 0.000000
0.780168 0.765185 0.000000
0.871976 0.761689 0.000000
0.941372 0.758195 0.000000
0.987356 0.754702 0.000000
1.000000 0.751207 0.000000
1.000000 0.747708 0.000000
1.000000 0.744204 0.000000
0.000000 0.849441 0.000000
0.000000 0.845585 0.000000
0.000000 0.841750 0.000000
0.005083 0.837937 0.000000
0.062523 0.834144 0.000000
0.152425 0.830373 0.000000
0.263332 0.826623 0.000000
0.384294 0.822894 0.000000
0.506777 0.819186 0.000000
0.638603 0.815498 0.000000
0.755236 0.811829 0.000000
0.852139 0.808180 0.000000
0.926971 0.804549 0.000000
0.978596 0.800935 0.000000
1.000000 0.797338 0.000000
1.000000 0.793757 0.000000
1.000000 0.790190 0.000000
0.000000 0.901517 0.000000
0.000000 0.897472 0.000000
0.000000 0.893433 0.000000
0.000000 0.889400 0.000000
0.045510 0.885376 0.000000
0.128730 0.881364 0.000000
0.235675 0.877364 0.000000
0.355171 0.873378 0.000000
0.477364 0.869407 0.000000
0.608425 0.865454 0.000000
0.729180 0.861517 0.000000
0.831051 0.857600 0.000000
0.911258 0.853701 0.000000
0.968475 0.849823 0.000000
1.000000 0.845965 0.000000
1.000000 0.842128 0.000000
1.000000 0.838312 0.000000
0.000000 0.953649 0.000000
0.000000 0.949816 0.000000
0.000000 0.945944 0.000000
0.000000 0.942038 0.000000
0.030486 0.938101 0.000000
0.106373 0.934137 0.000000
0.208721 0.930152 0.000000
0.326192 0.926147 0.000000
0.448535 0.922128 0.000000
0.577459 0.918097 0.000000
0.702047 0.914057 0.000000
0.808732 0.910012 0.000000
0.894245 0.905965 0.000000
0.957007 0.901917 0.000000
0.996098 0.897872 0.000000
1.000000 0.893831 0.000000
1.000000 0.889798 0.000000
0.000000 0.997775 0.000000
0.000000 0.994962 0.000000
0.000000 0.992032 0.000000
0.000000 0.988994 0.000000
0.017598 0.985854 0.000000
0.085511 0.982618 0.000000
0.182616 0.979293 0.000000
0.297478 0.975885 0.000000
0.419501 0.972400 0.000000
0.545800 0.968845 0.000000
0.673891 0.965224 0.000000
0.785211 0.961544 0.000000
0.875944 0.957809 0.000000
0.944203 0.954025 0.000000
0.989006 0.950197 0.000000
1.000000 0.946328 0.000000
1.000000 0.942425 0.000000
0.000000 1.000000 0.000000
0.000000 1.000000 0.000000
0.000000 1.000000 0.000000
0.000000 1.000000 0.000000
0.006991 1.000000 0.000000
0.066299 1.000000 0.000000
0.157510 1.000000 0.000000
0.269162 1.000000 0.000000
0.390361 1.000000 0.000000
0.513551 1.000000 0.000000
0.644775 1.000000 0.000000
0.760518 1.000000 0.000000
0.856371 1.000000 0.000000
0.930076 0.998046 0.000000
0.980532 0.995245 0.000000
1.000000 0.992327 0.000000
1.000000 0.989299 0.000000
0.024895 0.000000 0.049862
0.094225 0.000000 0.043894
0.192822 0.000000 0.038218
0.308572 0.000000 0.032838
0.431168 0.000000 0.029935
0.551789 0.000000 0.028439
0.678258 0.000000 0.026968
0.789737 0.000000 0.025524
0.879997 0.000000 0.024105
0.947162 0.000000 0.022713
0.990511 0.000000 0.021347
1.000000 0.000000 0.020008
1.000000 0.000000 0.018695
1.000000 0.000000 0.017409
1.000000 0.000000 0.016150
1.000000 0.000000 0.014919
1.000000 0.000000 0.013714
0.021396 0.057381 0.030954
0.068936 0.051789 0.029388
0.159931 0.046363 0.027901
0.271273 0.041108 0.026439
0.392402 0.036032 0.025004
0.514014 0.031139 0.023595
0.639694 0.026436 0.022213
0.756595 0.021927 0.020856
0.853436 0.017617 0.019527
0.927836 0.013513 0.018224
0.978844 0.009618 0.016948
1.000000 0.005938 0.015699
1.000000 0.002478 0.014477
1.000000 0.000000 0.013283
1.000000 0.000000 0.012116
1.000000 0.000000 0.010977
1.000000 0.000000 0.009866
0.018065 0.143165 0.025914
0.046648 0.135958 0.024488
0.129084 0.128838 0.023089
0.235081 0.121809 0.021716
0.353902 0.114879 0.020369
0.475813 0.108052 0.019049
0.599917 0.101336 0.017756
0.721709 0.094737 0.016490
0.824777 0.088261 0.015251
0.906175 0.081914 0.014039
0.964645 0.075703 0.012855
0.999606 0.069633 0.011698
1.000000 0.063711 0.010569
1.000000 0.057943 0.009468
1.000000 0.052334 0.008395
1.000000 0.046891 0.007351
1.000000 0.041620 0.006334
0.014906 0.242697 0.021222
0.027644 0.234912 0.019885
0.100568 0.227138 0.018575
0.200270 0.219380 0.017292
0.315911 0.211642 0.016036
0.437383 0.203932 0.014806
0.559140 0.196253 0.013605
0.685236 0.188613 0.012430
0.794135 0.181015 0.011284
0.882265 0.173467 0.010165
0.947995 0.165973 0.009074
0.990636 0.158540 0.008012
1.000000 0.151174 0.006977
1.000000 0.143881 0.005971
1.000000 0.136667 0.004994
1.000000 0.129537 0.004045
1.000000 0.122499 0.003126
0.011921 0.343522 0.016831
0.012197 0.336010 0.015585
0.074673 0.328453 0.014366
0.167119 0.320855 0.013174
0.278679 0.313220 0.012010
0.398935 0.305551 0.010873
0.518914 0.297852 0.009765
0.647344 0.290127 0.008684
0.761631 0.282380 0.007632
0.856201 0.274615 0.006608
0.928975 0.266837 0.005612
0.979091 0.259050 0.004645
1.000000 0.251258 0.003707
1.000000 0.243467 0.002798
1.000000 0.235681 0.001918
1.000000 0.227905 0.001068
1.000000 0.220145 0.000247
0.009113 0.436569 0.012747
0.008313 0.429875 0.011593
0.051687 0.423107 0.010466
0.135913 0.416266 0.009368
0.242468 0.409354 0.008298
0.360694 0.402372 0.007256
0.481145 0.395322 0.006242
0.608218 0.388206 0.005257
0.727400 0.381027 0.004301
0.828081 0.373787 0.003373
0.907670 0.366487 0.002475
0.965058 0.359132 0.001605
0.999603 0.351722 0.000765
1.000000 0.344262 0.000000
1.000000 0.336754 0.000000
1.000000 0.329201 0.000000
1.000000 0.321608 0.000000
0.006484 0.519018 0.008975
0.005737 0.512690 0.007915
0.031896 0.506271 0.006883
0.106940 0.499786 0.005880
0.207547 0.493892 0.004905
0.322891 0.487916 0.003960
0.443109 0.481860 0.003043
0.568059 0.475722 0.002155
0.691589 0.469504 0.001296
0.798012 0.463206 0.000467
0.884941 0.456828 0.000000
0.950552 0.450371 0.000000
0.992604 0.443837 0.000000
1.000000 0.437226 0.000000
1.000000 0.430540 0.000000
1.000000 0.423779 0.000000
1.000000 0.416945 0.000000
0.004036 0.593698 0.005522
0.003344 0.588512 0.004558
0.015580 0.583245 0.003622
0.080489 0.577895 0.002716
0.174190 0.572462 0.001839
0.285773 0.566944 0.000991
0.405009 0.561341 0.000172
0.529190 0.555650 0.000000
0.658950 0.549872 0.000000
0.772586 0.544005 0.000000
0.865980 0.538048 0.000000
0.937062 0.532002 0.000000
0.984795 0.525865 0.000000
1.000000 0.519638 0.000000
1.000000 0.513319 0.000000
1.000000 0.506909 0.000000
1.000000 0.500408 0.000000
0.001773 0.654882 0.002393
0.001136 0.650606 0.001527
0.003015 0.646272 0.000689
0.057062 0.641877 0.000000
0.144969 0.637421 0.000000
0.254718 0.632900 0.000000
0.375286 0.628313 0.000000
0.497114 0.623658 0.000000
0.629366 0.618934 0.000000
0.747302 0.614138 0.000000
0.845755 0.609269 0.000000
0.922254 0.604325 0.000000
0.975613 0.599304 0.000000
1.000000 0.594205 0.000000
1.000000 0.589027 0.000000
1.000000 0.583768 0.000000
1.000000 0.578427 0.000000
0.000000 0.706478 0.000000
0.000000 0.702772 0.000000
0.000000 0.699035 0.000000
0.040648 0.695266 0.000000
0.121671 0.691462 0.000000
0.227263 0.687620 0.000000
0.346194 0.683740 0.000000
0.468483 0.679818 0.000000
0.598935 0.675853 0.000000
0.720908 0.671842 0.000000
0.824284 0.667784 0.000000
0.906139 0.663676 0.000000
0.965074 0.659515 0.000000
1.000000 0.655301 0.000000
1.000000 0.651031 0.000000
1.000000 0.646703 0.000000
1.000000 0.642314 0.000000
0.000000 0.753170 0.000000
0.000000 0.749673 0.000000
0.000000 0.746173 0.000000
0.026269 0.742666 0.000000
0.099759 0.739152 0.000000
0.200556 0.735628 0.000000
0.317284 0.732092 0.000000
0.439580 0.728542 0.000000
0.567745 0.724977 0.000000
0.693452 0.721394 0.000000
0.801590 0.717791 0.000000
0.888726 0.714166 0.000000
0.953192 0.710517 0.000000
0.994055 0.706842 0.000000
1.000000 0.703139 0.000000
1.000000 0.699406 0.000000
1.000000 0.695640 0.000000
0.000000 0.799356 0.000000
0.000000 0.795766 0.000000
0.000000 0.792192 0.000000
0.014070 0.788631 0.000000
0.079390 0.785084 0.000000
0.174744 0.781548 0.000000
0.288679 0.778023 0.000000
0.410502 0.774507 0.000000
0.535892 0.770998 0.000000
0.664993 0.767495 0.000000
0.777703 0.763998 0.000000
0.870031 0.760503 0.000000
0.939978 0.757009 0.000000
0.986534 0.753515 0.000000
1.000000 0.750019 0.000000
1.000000 0.746519 0.000000
1.000000 0.743013 0.000000
0.000000 0.848129 0.000000
0.000000 0.844281 0.000000
0.000000 0.840453 0.000000
0.004195 0.836646 0.000000
0.060720 0.832861 0.000000
0.149977 0.829097 0.000000
0.260512 0.825354 0.000000
0.381351 0.821632 0.000000
0.503484 0.817931 0.000000
0.635594 0.814249 0.000000
0.752656 0.810588 0.000000
0.850067 0.806944 0.000000
0.925444 0.803319 0.000000
0.977636 0.799712 0.000000
1.000000 0.796120 0.000000
1.000000 0.792544 0.000000
1.000000 0.788982 0.000000
0.000000 0.900143 0.000000
0.000000 0.896100 0.000000
0.000000 0.892062 0.000000
0.000000 0.888032 0.000000
0.043901 0.884012 0.000000
0.126409 0.880004 0.000000
0.232920 0.876009 0.000000
0.352237 0.872028 0.000000
0.474466 0.868063 0.000000
0.605333 0.864115 0.000000
0.726489 0.860185 0.000000
0.828853 0.856274 0.000000
0.909599 0.852382 0.000000
0.967378 0.848511 0.000000
1.000000 0.844660 0.000000
1.000000 0.840830 0.000000
1.000000 0.837021 0.000000
0.000000 0.952352 0.000000
0.000000 0.948505 0.000000
0.000000 0.944621 0.000000
0.000000 0.940704 0.000000
0.029086 0.936757 0.000000
0.104197 0.932786 0.000000
0.206045 0.928794 0.000000
0.323279 0.924784 0.000000
0.445612 0.920760 0.000000
0.574293 0.916726 0.000000
0.699250 0.912684 0.000000
0.806412 0.908638 0.000000
0.892456 0.904590 0.000000
0.955775 0.900543 0.000000
0.995445 0.896499 0.000000
1.000000 0.892461 0.000000
1.000000 0.888430 0.000000
0.000000 0.996833 0.000000
0.000000 0.993979 0.000000
0.000000 0.991012 0.000000
0.000000 0.987939 0.000000
0.016422 0.984765 0.000000
0.083494 0.981498 0.000000
0.180034 0.978145 0.000000
0.294600 0.974710 0.000000
0.416562 0.971201 0.000000
0.542569 0.967622 0.000000
0.670994 0.963981 0.000000
0.782771 0.960281 0.000000
0.874026 0.956529 0.000000
0.942837 0.952730 0.000000
0.988213 0.948887 0.000000
1.000000 0.945006 0.000000
1.000000 0.941092 0.000000
0.000000 1.000000 0.000000
0.000000 1.000000 0.000000
0.000000 1.000000 0.000000
0.000000 1.000000 0.000000
0.006052 1.000000 0.000000
0.064457 1.000000 0.000000
0.155037 1.000000 0.000000
0.266330 1.000000 0.000000
0.387417 1.000000 0.000000
0.510267 1.000000 0.000000
0.641785 1.000000 0.000000
0.757962 1.000000 0.000000
0.854324 0.999829 0.000000
0.928577 0.997108 0.000000
0.979600 0.994266 0.000000
1.000000 0.991310 0.000000
1.000000 0.988247 0.000000
0.024534 0.000000 0.128886
0.091544 0.000000 0.120034
0.189417 0.000000 0.111429
0.304764 0.000000 0.103079
0.427250 0.000000 0.094987
0.548000 0.000000 0.087158
0.674426 0.000000 0.079599
0.786474 0.000000 0.072313
0.877414 0.000000 0.065306
0.945319 0.000000 0.058583
0.989450 0.000000 0.052147
1.000000 0.000000 0.046003
1.000000 0.000000 0.040156
1.000000 0.000000 0.034609
1.000000 0.000000 0.029367
1.000000 0.000000 0.024434
1.000000 0.000000 0.019814
0.021052 0.055464 0.100102
0.066545 0.049927 0.092106
0.156720 0.044559 0.084375
0.267565 0.039364 0.076915
0.388499 0.034350 0.069730
0.510174 0.029521 0.062826
0.635730 0.024882 0.056206
0.753150 0.020440 0.049876
0.850636 0.016200 0.043840
0.925754 0.012166 0.038101
0.977524 0.008344 0.032665
1.000000 0.004738 0.027536
1.000000 0.001353 0.022716
1.000000 0.000000 0.018210
1.000000 0.000000 0.014023
1.000000 0.000000 0.010596
1.000000 0.000000 0.009495
0.017739 0.140708 0.074267
0.044576 0.133530 0.067184
0.126094 0.126440 0.060382
0.231500 0.119444 0.053868
0.350040 0.112548 0.047644
0.471940 0.105759 0.041716
0.595842 0.099082 0.036087
0.718096 0.092524 0.030762
0.821772 0.086091 0.025745
0.903862 0.079790 0.021039
0.963074 0.073625 0.016649
0.998820 0.067605 0.012578
1.000000 0.061734 0.010192
1.000000 0.056020 0.009101
1.000000 0.050467 0.008037
1.000000 0.045081 0.007002
1.000000 0.039869 0.005996
0.014597 0.240053 0.051568
0.025918 0.232271 0.045451
0.097830 0.224501 0.039632
0.196843 0.216749 0.034113
0.312113 0.209021 0.028900
0.433498 0.201320 0.023995
0.554977 0.193654 0.019404
0.681472 0.186027 0.015129
0.790936 0.178446 0.011175
0.879730 0.170915 0.009791
0.946181 0.163442 0.008710
0.989586 0.156031 0.007657
1.000000 0.148689 0.006632
1.000000 0.141422 0.005636
1.000000 0.134236 0.004669
1.000000 0.127137 0.003730
1.000000 0.120131 0.002820
0.011630 0.340976 0.032180
0.010846 0.333448 0.027078
0.072216 0.325877 0.022287
0.163876 0.318267 0.017811
0.274973 0.310620 0.013653
0.395062 0.302940 0.010494
0.515119 0.295232 0.009395
0.643447 0.287499 0.008324
0.758251 0.279745 0.007281
0.853454 0.271975 0.006266
0.926927 0.264193 0.005281
0.977786 0.256404 0.004324
1.000000 0.248612 0.003395
1.000000 0.240822 0.002496
1.000000 0.233039 0.001626
1.000000 0.225268 0.000786
1.000000 0.217514 0.000000
0.008839 0.434304 0.016260
0.008044 0.427585 0.012218
0.049540 0.420792 0.010090
0.132882 0.413926 0.009001
0.238880 0.406990 0.007941
0.356854 0.399985 0.006908
0.477314 0.392913 0.005904
0.604207 0.385775 0.004929
0.723854 0.378575 0.003982
0.825132 0.371314 0.003065
0.905396 0.363996 0.002176
0.963506 0.356621 0.001317
0.998820 0.349194 0.000487
1.000000 0.341717 0.000000
1.000000 0.334194 0.000000
1.000000 0.326627 0.000000
1.000000 0.319020 0.000000
0.006228 0.516879 0.008612
0.005487 0.510520 0.007562
0.030086 0.504070 0.006539
0.104151 0.497794 0.005546
0.204103 0.491872 0.004581
0.319109 0.485869 0.003645
0.439262 0.479784 0.002738
0.563955 0.473619 0.001860
0.687892 0.467374 0.001011
0.794873 0.461049 0.000192
0.883085 0.454644 0.000000
0.949250 0.448161 0.000000
0.991879 0.441601 0.000000
1.000000 0.434964 0.000000
1.000000 0.428252 0.000000
1.000000 0.421466 0.000000
1.000000 0.414608 0.000000
0.003799 0.591945 0.005191
0.003112 0.586732 0.004237
0.014137 0.581437 0.003311
0.077971 0.576060 0.002415
0.170921 0.570598 0.001548
0.282073 0.565051 0.000710
0.401496 0.559418 0.000000
0.525930 0.553698 0.000000
0.656004 0.547889 0.000000
0.770085 0.541992 0.000000
0.863996 0.536005 0.000000
0.935627 0.529928 0.000000
0.983930 0.523760 0.000000
1.000000 0.517502 0.000000
1.000000 0.511152 0.000000
1.000000 0.504711 0.000000
1.000000 0.498374 0.000000
0.001554 0.653436 0.002096
0.000923 0.649141 0.001239
0.001966 0.644786 0.000412
0.055317 0.640371 0.000000
0.142558 0.635893 0.000000
0.251917 0.631350 0.000000
0.372344 0.626740 0.000000
0.494239 0.622062 0.000000
0.626331 0.617313 0.000000
0.744687 0.612493 0.000000
0.843643 0.607598 0.000000
0.920687 0.602628 0.000000
0.974611 0.597581 0.000000
1.000000 0.592456 0.000000
1.000000 0.587251 0.000000
1.000000 0.581964 0.000000
1.000000 0.576594 0.000000
0.000000 0.705222 0.000000
0.000000 0.701506 0.000000
0.000000 0.697759 0.000000
0.039102 0.693978 0.000000
0.119393 0.690161 0.000000
0.224531 0.686307 0.000000
0.343266 0.682413 0.000000
0.465576 0.678477 0.000000
0.595819 0.674496 0.000000
0.718183 0.670469 0.000000
0.822048 0.666394 0.000000
0.904439 0.662269 0.000000
0.963936 0.658090 0.000000
0.999625 0.653857 0.000000
1.000000 0.649568 0.000000
1.000000 0.645219 0.000000
1.000000 0.640810 0.000000
0.000000 0.751983 0.000000
0.000000 0.748485 0.000000
0.000000 0.744983 0.000000
0.024936 0.741474 0.000000
0.097630 0.737956 0.000000
0.197907 0.734428 0.000000
0.314380 0.730888 0.000000
0.436651 0.727333 0.000000
0.564557 0.723762 0.000000
0.690624 0.720172 0.000000
0.799233 0.716562 0.000000
0.886897 0.712930 0.000000
0.951918 0.709272 0.000000
0.993358 0.705588 0.000000
1.000000 0.701875 0.000000
1.000000 0.698130 0.000000
1.000000 0.694353 0.000000
0.000000 0.798135 0.000000
0.000000 0.794551 0.000000
0.000000 0.790981 0.000000
0.012966 0.787425 0.000000
0.077426 0.783882 0.000000
0.172193 0.780350 0.000000
0.285813 0.776828 0.000000
0.407560 0.773314 0.000000
0.532643 0.769808 0.000000
0.662066 0.766307 0.000000
0.775227 0.762810 0.000000
0.868072 0.759316 0.000000
0.938571 0.755823 0.000000
0.985698 0.752328 0.000000
1.000000 0.748831 0.000000
1.000000 0.745329 0.000000
1.000000 0.741821 0.000000
0.000000 0.846820 0.000000
0.000000 0.842978 0.000000
0.000000 0.839158 0.000000
0.003333 0.835358 0.000000
0.058935 0.831581 0.000000
0.147541 0.827824 0.000000
0.257698 0.824088 0.000000
0.378408 0.820373 0.000000
0.500186 0.816678 0.000000
0.632577 0.813004 0.000000
0.750065 0.809348 0.000000
0.847981 0.805711 0.000000
0.923904 0.802092 0.000000
0.976662 0.798490 0.000000
1.000000 0.794904 0.000000
1.000000 0.791333 0.000000
1.000000 0.787776 0.000000
0.000000 0.898769 0.000000
0.000000 0.894728 0.000000
0.000000 0.890693 0.000000
0.000000 0.886666 0.000000
0.042312 0.882650 0.000000
0.124103 0.878646 0.000000
0.230172 0.874655 0.000000
0.349305 0.870679 0.000000
0.471565 0.866720 0.000000
0.602233 0.862778 0.000000
0.723787 0.858854 0.000000
0.826643 0.854950 0.000000
0.907927 0.851065 0.000000
0.966268 0.847200 0.000000
1.000000 0.843357 0.000000
1.000000 0.839534 0.000000
1.000000 0.835733 0.000000
0.000000 0.951050 0.000000
0.000000 0.947190 0.000000
0.000000 0.943294 0.000000
0.000000 0.939367 0.000000
0.027707 0.935411 0.000000
0.102035 0.931432 0.000000
0.203377 0.927434 0.000000
0.320369 0.923419 0.000000
0.442687 0.919391 0.000000
0.571120 0.915354 0.000000
0.696443 0.911310 0.000000
0.804079 0.907263 0.000000
0.890653 0.903215 0.000000
0.954529 0.899169 0.000000
0.994778 0.895127 0.000000
1.000000 0.891091 0.000000
1.000000 0.887063 0.000000
0.000000 0.995877 0.000000
0.000000 0.992984 0.000000
0.000000 0.989980 0.000000
0.000000 0.986872 0.000000
0.015268 0.983666 0.000000
0.081494 0.980369 0.000000
0.177462 0.976987 0.000000
0.291725 0.973526 0.000000
0.413622 0.969993 0.000000
0.539333 0.966393 0.000000
0.668088 0.962731 0.000000
0.780319 0.959013 0.000000
0.872094 0.955244 0.000000
0.941457 0.951429 0.000000
0.987406 0.947573 0.000000
1.000000 0.943681 0.000000
1.000000 0.939756 0.000000
0.000000 1.000000 0.000000
0.000000 1.000000 0.000000
0.000000 1.000000 0.000000
0.000000 1.000000 0.000000
0.005138 1.000000 0.000000
0.062634 1.000000 0.000000
0.152576 1.000000 0.000000
0.263505 1.000000 0.000000
0.384474 1.000000 0.000000
0.506979 1.000000 0.000000
0.638787 1.000000 0.000000
0.755394 1.000000 0.000000
0.852266 0.998919 0.000000
0.927064 0.996156 0.000000
0.978655 0.993275 0.000000
1.000000 0.990282 0.000000
1.000000 0.987183 0.000000
0.024175 0.000000 0.236594
0.088891 0.000000 0.225387
0.186031 0.000000 0.214364
0.300965 0.000000 0.203533
0.423331 0.000000 0.192901
0.544206 0.000000 0.182473
0.670579 0.000000 0.172257
0.783193 0.000000 0.162260
0.874809 0.000000 0.152486
0.943452 0.000000 0.142943
0.988363 0.000000 0.133637
1.000000 0.000000 0.124573
1.000000 0.000000 0.115758
1.000000 0.000000 0.107197
1.000000 0.000000 0.098895
1.000000 0.000000 0.090860
1.000000 0.000000 0.083094
0.020710 0.053565 0.199639
0.064185 0.048085 0.189081
0.153529 0.042775 0.178729
0.263868 0.037641 0.168592
