Fotico/Resources/LUTs/disco.cube
# Disco
LUT_3D_SIZE 9
0.025258 0.000000 0.036723
0.196245 0.000000 0.033536
0.435088 0.000000 0.030449
0.682076 0.000000 0.027465
0.882558 0.000000 0.024584
0.991544 0.000000 0.021808
1.000000 0.000000 0.019138
1.000000 0.000000 0.016575
1.000000 0.000000 0.014120
0.018394 0.145630 0.026404
0.132097 0.131246 0.023561
0.357770 0.117221 0.020823
0.603981 0.103604 0.018192
0.827762 0.090446 0.015669
0.966191 0.077797 0.013254
1.000000 0.065705 0.010949
1.000000 0.054220 0.008756
1.000000 0.043390 0.006676
0.012215 0.346063 0.017261
0.077160 0.331024 0.014777
0.282396 0.315817 0.012402
0.522704 0.300470 0.010138
0.764993 0.285013 0.007986
0.931000 0.269480 0.005947
1.000000 0.253904 0.004023
1.000000 0.238324 0.002214
1.000000 0.222778 0.000522
0.006741 0.521146 0.009342
0.033741 0.508461 0.007231
0.211005 0.495903 0.005233
0.446955 0.483926 0.003351
0.695271 0.471625 0.001584
0.886784 0.459003 0.000000
0.993315 0.446065 0.000000
1.000000 0.432819 0.000000
1.000000 0.419274 0.000000
0.001993 0.656321 0.002694
0.004106 0.647750 0.000970
0.147392 0.638941 0.000000
0.378228 0.629878 0.000000
0.632392 0.620546 0.000000
0.847853 0.610931 0.000000
0.976602 0.601018 0.000000
1.000000 0.590795 0.000000
1.000000 0.580250 0.000000
0.000000 0.754357 0.000000
0.000000 0.747362 0.000000
0.101904 0.740346 0.000000
0.320191 0.733294 0.000000
0.570925 0.726190 0.000000
0.803936 0.719017 0.000000
0.954452 0.711759 0.000000
1.000000 0.704400 0.000000
1.000000 0.696922 0.000000
0.000000 0.849441 0.000000
0.000000 0.841750 0.000000
0.062523 0.834144 0.000000
0.263332 0.826623 0.000000
0.506777 0.819186 0.000000
0.755236 0.811829 0.000000
0.926971 0.804549 0.000000
1.000000 0.797338 0.000000
1.000000 0.790190 0.000000
0.000000 0.953649 0.000000
0.000000 0.945944 0.000000
0.030486 0.938101 0.000000
0.208721 0.930152 0.000000
0.448535 0.922128 0.000000
0.702047 0.914057 0.000000
0.894245 0.905965 0.000000
0.996098 0.897872 0.000000
1.000000 0.889798 0.000000
0.000000 1.000000 0.000000
0.000000 1.000000 0.000000
0.006991 1.000000 0.000000
0.157510 1.000000 0.000000
0.390361 1.000000 0.000000
0.644775 1.000000 0.000000
0.856371 1.000000 0.000000
0.980532 0.995245 0.000000
1.000000 0.989299 0.000000
0.024534 0.000000 0.128886
0.189417 0.000000 0.111429
0.427250 0.000000 0.094987
0.674426 0.000000 0.079599
0.877414 0.000000 0.065306
0.989450 0.000000 0.052147
1.000000 0.000000 0.040156
1.000000 0.000000 0.029367
1.000000 0.000000 0.019814
0.017739 0.140708 0.074267
0.126094 0.126440 0.060382
0.350040 0.112548 0.047644
0.595842 0.099082 0.036087
0.821772 0.086091 0.025745
0.963074 0.073625 0.016649
1.000000 0.061734 0.010192
1.000000 0.050467 0.008037
1.000000 0.039869 0.005996
0.011630 0.340976 0.032180
0.072216 0.325877 0.022287
0.274973 0.310620 0.013653
0.515119 0.295232 0.009395
0.758251 0.279745 0.007281
0.926927 0.264193 0.005281
1.000000 0.248612 0.003395
1.000000 0.233039 0.001626
1.000000 0.217514 0.000000
0.006228 0.516879 0.008612
0.030086 0.504070 0.006539
0.204103 0.491872 0.004581
0.439262 0.479784 0.002738
0.687892 0.467374 0.001011
0.883085 0.454644 0.000000
0.991879 0.441601 0.000000
1.000000 0.428252 0.000000
1.000000 0.414608 0.000000
0.001554 0.653436 0.002096
0.001966 0.644786 0.000412
0.142558 0.635893 0.000000
0.372344 0.626740 0.000000
0.626331 0.617313 0.000000
0.843643 0.607598 0.000000
0.974611 0.597581 0.000000
1.000000 0.587251 0.000000
1.000000 0.576594 0.000000
0.000000 0.751983 0.000000
0.000000 0.744983 0.000000
0.097630 0.737956 0.000000
0.314380 0.730888 0.000000
0.564557 0.723762 0.000000
0.799233 0.716562 0.000000
0.951918 0.709272 0.000000
1.000000 0.701875 0.000000
1.000000 0.694353 0.000000
0.000000 0.846820 0.000000
0.000000 0.839158 0.000000
0.058935 0.831581 0.000000
0.257698 0.824088 0.000000
0.500186 0.816678 0.000000
0.750065 0.809348 0.000000
0.923904 0.802092 0.000000
1.000000 0.794904 0.000000
1.000000 0.787776 0.000000
0.000000 0.951050 0.000000
0.000000 0.943294 0.000000
0.027707 0.935411 0.000000
0.203377 0.927434 0.000000
0.442687 0.919391 0.000000
0.696443 0.911310 0.000000
0.890653 0.903215 0.000000
0.994778 0.895127 0.000000
1.000000 0.887063 0.000000
0.000000 1.000000 0.000000
0.000000 1.000000 0.000000
0.005138 1.000000 0.000000
0.152576 1.000000 0.000000
0.384474 1.000000 0.000000
0.638787 1.000000 0.000000
0.852266 0.998919 0.000000
0.978655 0.993275 0.000000
1.000000 0.987183 0.000000
0.023818 0.000000 0.366202
0.182662 0.000000 0.340726
0.419414 0.000000 0.315697
0.666719 0.000000 0.291177
0.872181 0.000000 0.267231
0.987250 0.000000 0.243918
1.000000 0.000000 0.221300
1.000000 0.000000 0.199433
1.000000 0.000000 0.178375
0.017090 0.135824 0.282390
0.120188 0.121678 0.258667
0.342331 0.107925 0.235600
0.587663 0.094614 0.213249
0.815701 0.081796 0.191670
0.959857 0.069520 0.170919
1.000000 0.057836 0.151051
1.000000 0.046790 0.132117
1.000000 0.036431 0.114169
0.011052 0.335868 0.205300
0.067392 0.320712 0.184017
0.267593 0.305407 0.163581
0.507515 0.289982 0.144047
0.751440 0.274469 0.125466
0.922760 0.258903 0.107888
1.000000 0.243320 0.091361
1.000000 0.227759 0.075930
1.000000 0.212260 0.063034
0.005723 0.512570 0.137169
0.026575 0.499676 0.118948
0.197266 0.487803 0.101747
0.431567 0.475606 0.085614
0.680455 0.463086 0.070594
0.879333 0.450249 0.059477
0.990385 0.437101 0.050143
1.000000 0.423651 0.041456
1.000000 0.409909 0.033424
0.001124 0.650525 0.080015
0.000091 0.641794 0.065744
0.137776 0.632814 0.056005
0.366463 0.623570 0.046905
0.620235 0.614047 0.038455
0.839383 0.604231 0.030664
0.972564 0.594109 0.023537
1.000000 0.583669 0.017082
1.000000 0.572900 0.011304
0.000000 0.749608 0.043753
0.000000 0.742600 0.035542
0.093420 0.735561 0.027992
0.308583 0.728475 0.021109
0.558163 0.721326 0.014900
0.794481 0.714098 0.009369
0.949330 0.706773 0.004520
1.000000 0.699335 0.000357
1.000000 0.691767 0.000000
0.000000 0.844208 0.018771
0.000000 0.836575 0.012808
0.055424 0.829027 0.007525
0.252088 0.821563 0.002925
0.494415 0.814180 0.000000
0.744848 0.806876 0.000000
0.920783 0.799644 0.000000
1.000000 0.792477 0.000000
1.000000 0.785367 0.000000
0.000000 0.948433 0.001421
0.000000 0.940630 0.000000
0.025017 0.932711 0.000000
0.198069 0.924708 0.000000
0.436830 0.916650 0.000000
0.690797 0.908562 0.000000
0.887009 0.900467 0.000000
0.993401 0.892385 0.000000
1.000000 0.884333 0.000000
0.000000 1.000000 0.000000
0.000000 1.000000 0.000000
0.003385 1.000000 0.000000
0.147690 1.000000 0.000000
0.378588 1.000000 0.000000
0.632762 1.000000 0.000000
0.848110 0.997056 0.000000
0.976722 0.991254 0.000000
1.000000 0.985022 0.000000
0.023108 0.000000 0.659595
0.175983 0.000000 0.630317
0.411582 0.000000 0.600613
0.658957 0.000000 0.571853
0.866859 0.000000 0.545146
0.984944 0.000000 0.518334
1.000000 0.000000 0.491488
1.000000 0.000000 0.464681
1.000000 0.000000 0.437982
0.016449 0.130979 0.562146
0.114381 0.116961 0.535393
0.334647 0.103352 0.508560
0.579446 0.090204 0.481721
0.809551 0.077564 0.454944
0.956542 0.065483 0.428302
1.000000 0.054010 0.401864
1.000000 0.043193 0.375700
1.000000 0.033078 0.349879
0.010482 0.330740 0.471961
0.062689 0.315530 0.445226
0.260257 0.300180 0.418650
0.499895 0.284722 0.392304
0.744560 0.269187 0.366257
0.918502 0.253611 0.340577
1.000000 0.238031 0.315333
1.000000 0.222487 0.290592
1.000000 0.207018 0.270919
0.005225 0.508219 0.382783
0.023208 0.495680 0.356862
0.190497 0.483697 0.331333
0.423873 0.471390 0.306264
0.673264 0.458762 0.282111
0.875530 0.445819 0.264577
0.988835 0.432567 0.247407
1.000000 0.419016 0.230627
1.000000 0.405178 0.214262
0.000701 0.647587 0.297265
0.000000 0.638773 0.275687
0.133045 0.629705 0.258282
0.360587 0.620368 0.241252
0.614106 0.610747 0.224620
0.835071 0.600828 0.208411
0.970462 0.590600 0.192647
1.000000 0.580049 0.177352
1.000000 0.569166 0.162546
0.000000 0.747230 0.235149
0.000000 0.740214 0.218669
0.089275 0.733161 0.202619
0.302799 0.726055 0.187024
0.551743 0.718881 0.171904
0.789681 0.711622 0.157281
0.946688 0.704260 0.143175
1.000000 0.696780 0.129604
1.000000 0.689164 0.116586
0.000000 0.841606 0.181463
0.000000 0.834002 0.166522
0.051989 0.826482 0.152085
0.246504 0.819047 0.138171
0.488654 0.811691 0.124800
0.739585 0.804412 0.111988
0.917609 0.797203 0.099751
1.000000 0.790057 0.088104
1.000000 0.782964 0.077062
0.000000 0.945798 0.133240
0.000000 0.937952 0.120070
0.022416 0.930001 0.107465
0.192798 0.921976 0.095442
0.430967 0.913905 0.084014
0.685111 0.905812 0.073195
0.883313 0.897720 0.062998
0.991968 0.889646 0.053433
1.000000 0.881609 0.044512
0.000000 1.000000 0.091211
0.000000 1.000000 0.080004
0.001733 1.000000 0.069410
0.142853 1.000000 0.059442
0.372704 1.000000 0.050110
0.626703 1.000000 0.041425
0.843903 0.995137 0.033396
0.974734 0.989183 0.026029
1.000000 0.982818 0.019331
0.022405 0.000000 0.928183
0.169381 0.000000 0.910428
0.403757 0.000000 0.891209
0.651141 0.000000 0.870606
0.861450 0.000000 0.848702
0.982533 0.000000 0.825581
1.000000 0.000000 0.801332
1.000000 0.000000 0.776044
1.000000 0.000000 0.749807
0.015815 0.126175 0.862777
0.108674 0.112291 0.840420
0.326988 0.098833 0.816879
0.571192 0.085852 0.792241
0.803322 0.073396 0.766597
0.953128 0.061517 0.740038
1.000000 0.050261 0.712659
1.000000 0.039677 0.684556
1.000000 0.029810 0.655824
0.009918 0.325592 0.783016
0.058112 0.310331 0.757029
0.252969 0.294941 0.730160
0.492260 0.279453 0.702507
0.737612 0.263900 0.674163
0.914152 0.248319 0.645227
1.000000 0.232746 0.615797
1.000000 0.217223 0.586220
1.000000 0.201790 0.563236
0.004735 0.503826 0.692262
0.019989 0.491647 0.663692
0.183796 0.479554 0.634565
0.416180 0.467137 0.604980
0.667457 0.454401 0.577871
0.871674 0.441352 0.554833
0.987229 0.427998 0.531680
1.000000 0.414348 0.508460
1.000000 0.400415 0.487477
0.000285 0.644621 0.594115
0.000000 0.635723 0.569500
0.128368 0.626565 0.546414
0.354715 0.617133 0.523232
0.607945 0.607412 0.500000
0.830710 0.597390 0.480311
0.968306 0.587053 0.460652
1.000000 0.576391 0.441056
1.000000 0.565393 0.421552
0.000000 0.744851 0.514777
0.000000 0.737824 0.492830
0.085196 0.730754 0.473148
0.297031 0.723627 0.453509
0.545298 0.716426 0.433943
0.784832 0.709134 0.414481
0.943992 0.701734 0.395154
1.000000 0.694210 0.375991
1.000000 0.686544 0.357024
0.000000 0.839014 0.446376
0.000000 0.831439 0.426844
0.048634 0.823948 0.407428
0.240946 0.816540 0.388157
0.482879 0.809211 0.369062
0.734278 0.801957 0.350172
0.914382 0.794770 0.331518
1.000000 0.787642 0.313126
1.000000 0.780565 0.295026
0.000000 0.943147 0.381183
0.000000 0.935262 0.362160
0.019905 0.927283 0.343352
0.187565 0.919239 0.324790
0.425098 0.911158 0.306501
0.679385 0.903063 0.288514
0.879565 0.894975 0.270855
0.990478 0.886912 0.253552
1.000000 0.878890 0.236629
0.000000 1.000000 0.318099
0.000000 1.000000 0.299916
0.000183 1.000000 0.282046
0.138067 1.000000 0.264513
0.366824 1.000000 0.247345
0.620610 0.998817 0.230567
0.839645 0.993164 0.214202
0.972691 0.987065 0.198276
1.000000 0.980573 0.182809
0.021709 0.000000 1.000000
0.162858 0.000000 1.000000
0.395939 0.000000 1.000000
0.643274 0.000000 1.000000
0.855953 0.000000 1.000000
0.980018 0.000000 0.999952
1.000000 0.000000 0.992691
1.000000 0.000000 0.983596
1.000000 0.000000 0.972724
0.015188 0.121415 1.000000
0.103071 0.107670 1.000000
0.319357 0.094369 0.997524
0.562904 0.081560 0.989590
0.797016 0.069295 0.979841
0.949617 0.057622 0.968337
1.000000 0.046589 0.955137
1.000000 0.036243 0.940307
1.000000 0.026631 0.923913
0.009362 0.320425 0.986247
0.053661 0.305118 0.975853
0.245730 0.289691 0.963724
0.484613 0.274177 0.949924
0.730598 0.258610 0.934516
0.909711 0.243027 0.917570
1.000000 0.227467 0.899155
1.000000 0.211970 0.881208
1.000000 0.196578 0.865415
0.004252 0.499456 0.944497
0.016920 0.487577 0.928521
0.177168 0.475373 0.911032
0.408490 0.462848 0.892100
0.661610 0.450005 0.875548
0.867767 0.436851 0.859476
0.985566 0.423395 0.842659
1.000000 0.409648 0.825131
1.000000 0.395622 0.806928
0.000000 0.641628 0.885367
0.000000 0.632643 0.869785
0.123746 0.623394 0.853438
0.348849 0.613865 0.836358
0.601751 0.604043 0.818580
0.826298 0.593915 0.800140
0.966094 0.583469 0.781076
1.000000 0.572694 0.761427
1.000000 0.561580 0.741233
0.000000 0.742468 0.829964
0.000000 0.735428 0.811941
0.081185 0.728341 0.793270
0.291279 0.721191 0.773988
0.538829 0.713961 0.754136
0.779936 0.706634 0.733754
0.941242 0.699194 0.712884
1.000000 0.691623 0.691569
1.000000 0.683905 0.669854
0.000000 0.836432 0.766825
0.000000 0.828885 0.746775
0.045358 0.821423 0.726210
0.235415 0.814042 0.705173
0.477091 0.806739 0.683707
0.728927 0.799509 0.661858
0.911102 0.792343 0.639669
1.000000 0.785234 0.617188
1.000000 0.778172 0.594462
0.000000 0.940482 0.697406
0.000000 0.932561 0.675795
0.017487 0.924557 0.653816
0.182372 0.916498 0.631516
0.419224 0.908409 0.608940
0.673619 0.900314 0.586136
0.875764 0.892233 0.563152
0.988932 0.884182 0.540034
1.000000 0.876177 0.516833
0.000000 1.000000 0.623327
0.000000 1.000000 0.600662
0.000000 1.000000 0.577787
0.133334 1.000000 0.554748
0.360947 1.000000 0.531595
0.614483 0.996951 0.508375
0.835337 0.991140 0.487405
0.970593 0.984901 0.467732
1.000000 0.978288 0.448109
0.021019 0.000000 0.988902
0.156418 0.000000 0.991348
0.388132 0.000000 0.993639
0.635356 0.000000 0.995776
0.850371 0.000000 0.997761
0.977399 0.000000 0.999594
1.000000 0.000000 1.000000
1.000000 0.000000 1.000000
1.000000 0.000000 1.000000
0.014568 0.116701 0.996516
0.097574 0.103101 0.998445
0.311756 0.089961 1.000000
0.554584 0.077331 1.000000
0.790633 0.065262 1.000000
0.946009 0.053801 1.000000
1.000000 0.042996 1.000000
1.000000 0.032895 1.000000
1.000000 0.023541 1.000000
0.008814 0.315242 1.000000
0.049339 0.299890 1.000000
0.238542 0.284430 1.000000
0.476953 0.268894 1.000000
0.723519 0.253318 1.000000
0.905181 0.237738 1.000000
0.998745 0.222195 1.000000
1.000000 0.206728 1.000000
1.000000 0.191382 1.000000
0.003777 0.495458 1.000000
0.014003 0.483469 1.000000
0.170614 0.471155 1.000000
0.401219 0.458521 1.000000
0.655726 0.445572 1.000000
0.863808 0.432315 1.000000
0.983848 0.418758 1.000000
1.000000 0.404915 0.999361
1.000000 0.390798 0.994079
0.000000 0.638605 1.000000
0.000000 0.629532 1.000000
0.119179 0.620190 1.000000
0.342990 0.610563 1.000000
0.595526 0.600639 0.997557
0.821837 0.590404 0.991902
0.963828 0.579847 0.985235
1.000000 0.568958 0.977569
1.000000 0.557727 0.968920
0.000000 0.740082 1.000000
0.000000 0.733028 0.995616
0.077242 0.725921 0.989592
0.285544 0.718745 0.982559
0.532337 0.711484 0.974533
0.774993 0.704121 0.965530
0.938438 0.696638 0.955569
1.000000 0.689020 0.944670
1.000000 0.681247 0.932855
0.000000 0.833860 0.979751
0.000000 0.826342 0.971367
0.042163 0.818907 0.962014
0.229913 0.811554 0.951709
0.471291 0.804276 0.940473
0.723532 0.797068 0.928331
0.907769 0.789923 0.915304
1.000000 0.782831 0.901421
1.000000 0.775782 0.886708
0.000000 0.937803 0.947725
0.000000 0.929851 0.936157
0.015161 0.921825 0.923689
0.177220 0.913753 0.910348
0.413345 0.905660 0.896159
0.667813 0.897567 0.881152
0.871912 0.889495 0.865356
0.987329 0.881458 0.848803
1.000000 0.873471 0.831528
0.000000 1.000000 0.905279
0.000000 1.000000 0.890789
0.000000 1.000000 0.875491
0.128653 1.000000 0.859416
0.355074 1.000000 0.842596
0.608323 0.995029 0.825065
0.830978 0.989067 0.806860
0.968439 0.982695 0.788016
1.000000 0.975966 0.768574
0.020337 0.000000 0.989750
0.150063 0.000000 0.992143
0.380336 0.000000 0.994382
0.627389 0.000000 0.996467
0.844704 0.000000 0.998400
0.974677 0.000000 1.000000
1.000000 0.000000 1.000000
1.000000 0.000000 1.000000
1.000000 0.000000 1.000000
0.013955 0.112034 0.997188
0.092184 0.098584 0.999066
0.304187 0.085612 1.000000
0.546234 0.073167 1.000000
0.784176 0.061299 1.000000
0.942304 0.050055 1.000000
1.000000 0.039484 1.000000
1.000000 0.029632 1.000000
1.000000 0.020543 1.000000
0.008272 0.310043 1.000000
0.045149 0.294651 1.000000
0.231409 0.279161 1.000000
0.469283 0.263607 1.000000
0.716377 0.248025 1.000000
0.900561 0.232454 1.000000
0.997167 0.216931 1.000000
1.000000 0.201501 1.000000
1.000000 0.186206 1.000000
0.003309 0.491423 1.000000
0.011239 0.479323 1.000000
0.164136 0.466901 1.000000
0.395332 0.454159 1.000000
0.649805 0.441104 1.000000
0.859798 0.427744 1.000000
0.982074 0.414089 1.000000
1.000000 0.400150 1.000000
1.000000 0.385944 1.000000
0.000000 0.635553 1.000000
0.000000 0.626390 1.000000
0.114670 0.616953 1.000000
0.337139 0.607227 1.000000
0.589270 0.597198 1.000000
0.817325 0.586856 1.000000
0.961506 0.576187 1.000000
1.000000 0.565182 1.000000
1.000000 0.553833 1.000000
0.000000 0.737691 1.000000
0.000000 0.730621 1.000000
0.073369 0.723493 1.000000
0.279827 0.716290 1.000000
0.525823 0.708996 1.000000
0.770002 0.701594 1.000000
0.935580 0.694067 1.000000
1.000000 0.686398 1.000000
1.000000 0.678570 1.000000
0.000000 0.831297 1.000000
0.000000 0.823808 1.000000
0.039051 0.816401 1.000000
0.224441 0.809074 1.000000
0.465480 0.801821 1.000000
0.718093 0.794635 1.000000
0.904383 0.787509 1.000000
0.999607 0.780433 1.000000
1.000000 0.773397 1.000000
0.000000 0.935113 1.000000
0.000000 0.927132 1.000000
0.012930 0.919088 1.000000
0.172109 0.911006 1.000000
0.407463 0.902911 1.000000
0.661970 0.894823 1.000000
0.868008 0.886761 1.000000
0.985670 0.878740 1.000000
1.000000 0.870773 1.000000
0.000000 1.000000 1.000000
0.000000 1.000000 1.000000
0.000000 1.000000 1.000000
0.124027 1.000000 1.000000
0.349208 0.998715 1.000000
0.602131 0.993054 0.999344
0.826570 0.986946 0.994058
0.966231 0.980447 0.987754
1.000000 0.973609 0.980446
0.019662 0.000000 0.990580
0.143794 0.000000 0.992921
0.372554 0.000000 0.995107
0.619376 0.000000 0.997141
0.838953 0.000000 0.999022
0.971853 0.000000 1.000000
1.000000 0.000000 1.000000
1.000000 0.000000 1.000000
1.000000 0.000000 1.000000
0.013349 0.107416 0.997843
0.086906 0.094123 0.999670
0.296653 0.081324 1.000000
0.537855 0.069070 1.000000
0.777644 0.057408 1.000000
0.938504 0.046388 1.000000
1.000000 0.036056 1.000000
1.000000 0.026457 1.000000
1.000000 0.017637 1.000000
0.007738 0.304828 1.000000
0.041092 0.289399 1.000000
0.224331 0.273884 1.000000
0.461605 0.258317 1.000000
0.709171 0.242734 1.000000
0.895852 0.227175 1.000000
0.995896 0.211679 1.000000
1.000000 0.196289 1.000000
1.000000 0.181051 1.000000
0.002849 0.487350 1.000000
0.008633 0.475140 1.000000
0.157737 0.462609 1.000000
0.389446 0.449760 1.000000
0.643847 0.436601 1.000000
0.855736 0.423139 1.000000
0.980244 0.409386 1.000000
1.000000 0.395355 1.000000
1.000000 0.381061 1.000000
0.000000 0.632471 1.000000
0.000000 0.623217 1.000000
0.110219 0.613683 1.000000
0.331296 0.603856 1.000000
0.582984 0.593722 1.000000
0.812764 0.583270 1.000000
0.959131 0.572488 1.000000
1.000000 0.561367 1.000000
1.000000 0.549899 1.000000
0.000000 0.735296 1.000000
0.000000 0.728207 1.000000
0.069567 0.721056 1.000000
0.274131 0.713824 1.000000
0.519288 0.706495 1.000000
0.764965 0.699053 1.000000
0.932668 0.691480 1.000000
1.000000 0.683758 1.000000
1.000000 0.675872 1.000000
0.000000 0.828744 1.000000
0.000000 0.821283 1.000000
0.036022 0.813904 1.000000
0.219000 0.806603 1.000000
0.459658 0.799373 1.000000
0.712612 0.792209 1.000000
0.900944 0.785100 1.000000
0.998454 0.778039 1.000000
1.000000 0.771014 1.000000
0.000000 0.932411 1.000000
0.000000 0.924406 1.000000
0.010794 0.916346 1.000000
0.167042 0.908257 1.000000
0.401579 0.900162 1.000000
0.656088 0.892081 1.000000
0.864052 0.884031 1.000000
0.983955 0.876027 1.000000
1.000000 0.868081 1.000000
0.000000 1.000000 1.000000
0.000000 1.000000 1.000000
0.000000 1.000000 1.000000
0.119457 1.000000 1.000000
0.343349 0.996846 1.000000
0.595908 0.991027 1.000000
0.822111 0.984780 1.000000
0.963968 0.978160 1.000000
1.000000 0.971217 1.000000
