Fotico/Resources/LUTs/disposable.cube
TITLE "Disposable"
LUT_3D_SIZE 9
0.127705 0.097296 0.010747
0.163596 0.098191 0.006204
0.270558 0.094502 0.000000
0.404246 0.094029 0.000000
0.576766 0.096960 0.000000
0.720144 0.101668 0.000000
0.830485 0.106558 0.000000
0.918384 0.111419 0.002633
0.918592 0.112085 0.002694
0.124818 0.129526 0.012061
0.157371 0.130646 0.011387
0.273935 0.132490 0.000000
0.409739 0.131031 0.000000
0.584415 0.134689 0.000000
0.729541 0.140494 0.000000
0.841205 0.146353 0.002273
0.930956 0.151968 0.006337
0.931326 0.153169 0.006446
0.126269 0.220350 0.019472
0.159493 0.221941 0.020126
0.268556 0.230008 0.020321
0.423221 0.239330 0.008579
0.610938 0.243123 0.006547
0.760521 0.250570 0.012598
0.875561 0.258322 0.018352
0.964241 0.265501 0.023488
0.964964 0.268175 0.024290
0.140034 0.333674 0.037950
0.174484 0.336338 0.039591
0.284785 0.345484 0.045405
0.434088 0.364199 0.047369
0.639240 0.383103 0.039872
0.807262 0.392713 0.037507
0.927149 0.402136 0.043802
1.000000 0.409987 0.047236
1.000000 0.413705 0.046980
0.169772 0.470677 0.070416
0.205483 0.474505 0.073132
0.319802 0.487393 0.082392
0.467576 0.505775 0.094263
0.671717 0.539657 0.091996
0.843118 0.558519 0.084260
0.972829 0.568327 0.077885
1.000000 0.574317 0.074349
1.000000 0.577299 0.074080
0.210068 0.605654 0.106541
0.246597 0.610245 0.108957
0.362590 0.624643 0.116391
0.509753 0.642442 0.125280
0.698985 0.667596 0.132195
0.868244 0.693958 0.122778
0.996303 0.707056 0.115032
1.000000 0.713299 0.110888
1.000000 0.715501 0.110066
0.245072 0.719469 0.131973
0.281113 0.723676 0.134040
0.395643 0.736845 0.140358
0.541017 0.753068 0.147815
0.724588 0.772690 0.156294
0.885261 0.797656 0.151608
1.000000 0.814275 0.142706
1.000000 0.820728 0.137860
1.000000 0.822409 0.136656
0.273844 0.820772 0.152553
0.309460 0.824627 0.154302
0.422685 0.836672 0.159599
0.566446 0.851452 0.165741
0.748000 0.869229 0.172528
0.897759 0.885242 0.174962
1.000000 0.905538 0.165322
1.000000 0.912395 0.159671
1.000000 0.913700 0.158180
0.290931 0.885366 0.164587
0.326277 0.888993 0.166128
0.438668 0.900305 0.170758
0.581389 0.914143 0.176037
0.761636 0.930716 0.181711
0.908193 0.943409 0.185470
1.000000 0.961555 0.178657
1.000000 0.968903 0.172392
1.000000 0.970013 0.170743
0.126563 0.097434 0.024108
0.162484 0.098033 0.019608
0.267919 0.094878 0.015022
0.401694 0.095022 0.012587
0.574319 0.098355 0.011531
0.717781 0.103286 0.012440
0.828187 0.108315 0.014233
0.917127 0.113126 0.016341
0.917455 0.113727 0.015350
0.124064 0.130008 0.025263
0.156367 0.130865 0.024906
0.271762 0.132208 0.013299
0.407262 0.131566 0.012223
0.582046 0.135776 0.012928
0.727259 0.141874 0.015304
0.838990 0.147909 0.018226
0.929591 0.153606 0.021280
0.930031 0.154789 0.020800
0.125730 0.221030 0.032968
0.158982 0.222642 0.033662
0.267828 0.230521 0.034261
0.422593 0.239485 0.022665
0.608781 0.243561 0.022356
0.758458 0.251426 0.028518
0.873571 0.259428 0.034337
0.962816 0.266792 0.039535
0.963546 0.269485 0.040351
0.139738 0.334577 0.051681
0.174215 0.337260 0.053351
0.284596 0.346473 0.059247
0.433698 0.365026 0.061582
0.638971 0.383637 0.054171
0.805461 0.393161 0.053390
0.925457 0.402866 0.059505
1.000000 0.410808 0.062948
1.000000 0.414497 0.062690
0.169739 0.471818 0.084267
0.205475 0.475666 0.086998
0.319871 0.488619 0.096302
0.467776 0.507106 0.108052
0.671581 0.540671 0.106034
0.842943 0.559267 0.098287
0.972625 0.568851 0.091909
1.000000 0.574731 0.088350
1.000000 0.577716 0.088084
0.210233 0.606962 0.120216
0.246756 0.611544 0.122627
0.362723 0.625915 0.130047
0.509851 0.643678 0.138925
0.698752 0.668516 0.146096
0.867969 0.694830 0.136696
0.995999 0.707770 0.128961
1.000000 0.713952 0.124800
1.000000 0.716147 0.123981
0.245151 0.720698 0.145539
0.281186 0.724896 0.147603
0.395690 0.738038 0.153916
0.541030 0.754225 0.161372
0.724556 0.773803 0.169861
0.884902 0.798493 0.165470
1.000000 0.815043 0.156591
1.000000 0.821486 0.151738
1.000000 0.823153 0.150538
0.273845 0.821928 0.166041
0.309454 0.825775 0.167789
0.422655 0.837793 0.173090
0.566383 0.852538 0.179241
0.747893 0.870271 0.186054
0.897352 0.885974 0.188789
1.000000 0.906277 0.179201
1.000000 0.913179 0.173555
1.000000 0.914465 0.172070
0.290881 0.886475 0.178035
0.326220 0.890094 0.179577
0.438587 0.901379 0.184215
0.581275 0.915183 0.189513
0.761479 0.931712 0.195225
0.908001 0.944369 0.199035
1.000000 0.962235 0.192553
1.000000 0.969671 0.186305
1.000000 0.970759 0.184666
0.126127 0.100188 0.075220
0.154420 0.099119 0.078173
0.257142 0.100274 0.077032
0.391258 0.101715 0.075297
0.564296 0.105895 0.074964
0.708120 0.111351 0.076431
0.818822 0.116754 0.078640
0.908975 0.121896 0.081109
0.911444 0.122684 0.080387
0.120896 0.132055 0.079720
0.153137 0.132801 0.079695
0.261173 0.133134 0.075785
0.397066 0.135695 0.075287
0.572335 0.141755 0.076695
0.717942 0.148807 0.079604
0.829974 0.155418 0.082896
0.921197 0.161542 0.086242
0.924093 0.162924 0.086021
0.123465 0.223911 0.088440
0.156836 0.225610 0.089256
0.264774 0.232676 0.091418
0.419194 0.239717 0.081011
0.599966 0.246308 0.086832
0.750050 0.255868 0.093380
0.865475 0.264854 0.099451
0.957059 0.272954 0.104927
0.957818 0.275724 0.105829
0.138494 0.338390 0.108052
0.173087 0.341161 0.109820
0.283806 0.350649 0.116012
0.432078 0.368538 0.119858
0.637857 0.385684 0.112814
0.798372 0.395774 0.118177
0.918491 0.406414 0.123890
0.997575 0.414741 0.127351
0.998652 0.418303 0.127066
0.169612 0.476642 0.141297
0.205457 0.480576 0.144097
0.320176 0.493802 0.153605
0.468564 0.512672 0.164830
0.670964 0.544898 0.163825
0.842163 0.562284 0.155994
0.971720 0.570887 0.149567
1.000000 0.576278 0.145868
1.000000 0.579273 0.145581
0.210880 0.612432 0.176673
0.247372 0.616978 0.179059
0.363231 0.631232 0.186407
0.510211 0.648845 0.195204
0.697755 0.672358 0.203393
0.866765 0.698462 0.193998
0.994671 0.710701 0.186246
1.000000 0.716596 0.181955
1.000000 0.718760 0.181107
0.245436 0.725835 0.201600
0.281441 0.729997 0.203648
0.395839 0.743022 0.209911
0.541034 0.759061 0.217317
0.724370 0.778447 0.225769
0.883344 0.801985 0.222517
1.000000 0.818240 0.213654
1.000000 0.824616 0.208681
1.000000 0.826224 0.207446
0.273799 0.826761 0.221801
0.309379 0.830572 0.223538
0.422476 0.842475 0.228810
0.566062 0.857071 0.234941
0.747384 0.874613 0.241758
0.895624 0.889023 0.245628
1.000000 0.909353 0.236135
1.000000 0.916439 0.230387
1.000000 0.917644 0.228861
0.290620 0.891110 0.233627
0.325930 0.894693 0.235163
0.438195 0.905864 0.239787
0.580743 0.919519 0.245084
0.760761 0.935859 0.250831
0.907127 0.948361 0.254704
1.000000 0.965053 0.249448
1.000000 0.972868 0.243115
1.000000 0.973864 0.241433
0.131616 0.111023 0.135953
0.151315 0.104012 0.146262
0.252486 0.103778 0.148451
0.384823 0.107978 0.149464
0.555542 0.115701 0.152784
0.697401 0.124053 0.157245
0.807802 0.130436 0.160785
0.898248 0.135839 0.163835
0.904748 0.136969 0.163530
0.136858 0.135655 0.131487
0.161177 0.141717 0.139234
0.253043 0.139083 0.151483
0.387083 0.144814 0.153826
0.560428 0.154015 0.158490
0.706519 0.161537 0.162308
0.818915 0.168483 0.166138
0.910431 0.174867 0.169855
0.916984 0.176538 0.169982
0.120513 0.227813 0.160339
0.154043 0.229629 0.161286
0.261414 0.236053 0.164835
0.407193 0.242060 0.163601
0.588641 0.252911 0.170024
0.739274 0.264345 0.177026
0.855116 0.274369 0.183416
0.949409 0.283271 0.189249
0.950514 0.286145 0.190292
0.136905 0.343534 0.181066
0.171652 0.346420 0.182947
0.282820 0.356277 0.189490
0.430008 0.373300 0.195291
0.633082 0.387963 0.191930
0.789475 0.400829 0.201521
0.909421 0.412458 0.207112
0.990503 0.421292 0.210585
0.991563 0.424669 0.210253
0.169516 0.483136 0.215307
0.205505 0.487185 0.218200
0.320655 0.500777 0.227994
0.469509 0.519992 0.238428
0.670058 0.550390 0.238734
0.841039 0.565855 0.230762
0.969229 0.573079 0.225368
1.000000 0.578551 0.226990
1.000000 0.581423 0.226015
0.211639 0.619628 0.249991
0.248090 0.624126 0.252342
0.363805 0.638224 0.259579
0.510588 0.655637 0.268243
0.696438 0.677401 0.277720
0.865075 0.703174 0.268276
0.992817 0.714353 0.260449
1.000000 0.719770 0.255931
1.000000 0.721891 0.255010
0.245713 0.732588 0.274464
0.281679 0.736702 0.276481
0.395936 0.749573 0.282652
0.540937 0.765411 0.289947
0.724017 0.784540 0.298275
0.881183 0.806560 0.296446
1.000000 0.822390 0.287529
1.000000 0.828609 0.282325
1.000000 0.830132 0.281000
0.273636 0.833109 0.294291
0.309177 0.836873 0.296004
0.422137 0.848621 0.301199
0.565531 0.863018 0.307241
0.746601 0.880305 0.313964
0.893819 0.893586 0.318662
1.000000 0.913377 0.309761
1.000000 0.920687 0.303780
1.000000 0.921778 0.302149
0.290169 0.897195 0.305897
0.325442 0.900731 0.307411
0.437572 0.911747 0.311969
0.579930 0.925203 0.317192
0.759698 0.941288 0.322866
0.905855 0.953580 0.326698
1.000000 0.968708 0.322939
1.000000 0.977051 0.316375
1.000000 0.977917 0.314577
0.138298 0.123837 0.208927
0.156736 0.118235 0.220219
0.247744 0.107407 0.233590
0.380766 0.112187 0.235226
0.552326 0.120651 0.239315
0.694859 0.129610 0.244386
0.804532 0.137664 0.249299
0.893840 0.144950 0.253935
0.904826 0.146842 0.254331
0.149095 0.153667 0.200283
0.168596 0.155736 0.212917
0.248869 0.143239 0.237135
0.383592 0.149550 0.240084
0.557283 0.159971 0.245856
0.701547 0.170539 0.252311
0.812532 0.179820 0.258281
0.902896 0.188098 0.263772
0.913481 0.190502 0.264601
0.141459 0.221605 0.223587
0.173697 0.226310 0.226082
0.270145 0.247444 0.240924
0.397741 0.251794 0.258048
0.576856 0.267232 0.268137
0.727076 0.280422 0.276950
0.843377 0.290930 0.283942
0.938037 0.300192 0.290175
0.942288 0.303327 0.291544
0.135101 0.349966 0.268683
0.170037 0.352994 0.270693
0.281756 0.363301 0.277640
0.427637 0.379227 0.285797
0.621331 0.393762 0.292667
0.778730 0.410065 0.301292
0.898465 0.422659 0.306731
0.982062 0.431981 0.310215
0.983102 0.435097 0.309820
0.169546 0.491224 0.304193
0.205712 0.495413 0.307200
0.321826 0.509785 0.316532
0.470537 0.528835 0.326635
0.668836 0.556800 0.328519
0.839550 0.569162 0.320358
0.957505 0.576727 0.324298
1.000000 0.582880 0.325981
1.000000 0.585548 0.324954
0.212437 0.628321 0.337938
0.248840 0.632760 0.340244
0.364379 0.646667 0.347339
0.510921 0.663833 0.355826
0.695901 0.684659 0.365690
0.862895 0.708702 0.357304
0.990434 0.718286 0.349359
1.000000 0.722926 0.344533
1.000000 0.724996 0.343498
0.245922 0.740740 0.361896
0.281840 0.744795 0.363873
0.395926 0.757475 0.369915
0.540690 0.773067 0.377051
0.723457 0.791882 0.385189
0.878424 0.812052 0.385044
1.000000 0.827278 0.376024
1.000000 0.833157 0.370500
1.000000 0.834569 0.369037
0.273306 0.840766 0.381287
0.308801 0.844471 0.382963
0.421592 0.856029 0.388042
0.564753 0.870180 0.393942
0.745513 0.887153 0.400497
0.892472 0.900176 0.405070
1.000000 0.918204 0.397914
1.000000 0.925740 0.391602
1.000000 0.926680 0.389812
0.289488 0.904529 0.392624
0.324715 0.908005 0.394105
0.436678 0.918832 0.398556
0.578805 0.932044 0.403649
0.758265 0.947814 0.409170
0.904166 0.959849 0.412890
1.000000 0.973001 0.410847
1.000000 0.982074 0.403988
1.000000 0.982769 0.402016
0.144200 0.135098 0.272244
0.163164 0.130762 0.284392
0.243719 0.110733 0.307450
0.377344 0.116023 0.309592
0.549641 0.125137 0.314312
0.692767 0.134629 0.319886
0.802886 0.143089 0.325173
0.892552 0.150703 0.330105
0.907571 0.153034 0.330909
0.155485 0.166773 0.264049
0.175142 0.167700 0.276827
0.245344 0.147028 0.311422
0.380667 0.153848 0.314867
0.555093 0.164918 0.321254
0.699947 0.176020 0.328200
0.811377 0.185706 0.334533
0.902098 0.194313 0.340312
0.916316 0.197128 0.341519
0.164981 0.232459 0.273481
0.197391 0.240004 0.276096
0.278403 0.261314 0.306352
0.396093 0.257276 0.333851
0.575934 0.273363 0.344514
0.725199 0.288589 0.354977
0.839973 0.301422 0.363992
0.933390 0.312572 0.371939
0.940058 0.316530 0.373202
0.154408 0.339941 0.325077
0.187972 0.344649 0.328650
0.295242 0.360710 0.340596
0.425942 0.385686 0.363724
0.611581 0.406133 0.379811
0.769469 0.423168 0.387659
0.888913 0.435620 0.392912
0.974771 0.444910 0.396395
0.975793 0.447746 0.395943
0.169721 0.498470 0.381305
0.206041 0.502781 0.384412
0.322839 0.517679 0.393047
0.471335 0.536512 0.402976
0.667668 0.561853 0.406233
0.829577 0.572603 0.405993
0.947260 0.581793 0.409894
1.000000 0.588622 0.411627
1.000000 0.591079 0.410550
0.213032 0.635865 0.414085
0.249392 0.640253 0.416351
0.364778 0.653992 0.423318
0.511109 0.670941 0.431644
0.695811 0.691490 0.441310
0.860885 0.713239 0.434362
0.988247 0.721017 0.426302
1.000000 0.724748 0.421221
1.000000 0.726802 0.420097
0.246000 0.747809 0.437611
0.281876 0.751813 0.439550
0.395812 0.764325 0.445473
0.540367 0.779701 0.452461
0.722860 0.798238 0.460415
0.875906 0.816780 0.461723
1.000000 0.831354 0.452599
1.000000 0.836735 0.446777
1.000000 0.838047 0.445178
0.272909 0.847400 0.456627
0.308364 0.851053 0.458269
0.421008 0.862444 0.463237
0.563964 0.876380 0.468999
0.744452 0.893076 0.475385
0.891183 0.905871 0.479826
1.000000 0.922363 0.474175
1.000000 0.930026 0.467552
1.000000 0.930825 0.465605
0.288781 0.910879 0.467732
0.323969 0.914304 0.469179
0.435788 0.924964 0.473525
0.577711 0.937960 0.478487
0.756901 0.953454 0.483848
0.902575 0.965261 0.487445
1.000000 0.976652 0.486849
1.000000 0.986404 0.479736
1.000000 0.986940 0.477595
0.149359 0.144891 0.326657
0.168735 0.141290 0.339209
0.240500 0.114129 0.370523
0.374492 0.119454 0.373479
0.547429 0.129130 0.378725
0.691067 0.139085 0.384720
0.801572 0.147897 0.390322
0.891548 0.155796 0.395504
0.909956 0.158499 0.396651
0.161067 0.177623 0.318840
0.180860 0.178047 0.331738
0.246940 0.158443 0.367487
0.378247 0.157680 0.379106
0.553309 0.169312 0.386009
0.698675 0.180875 0.393367
0.810490 0.190914 0.400008
0.901520 0.199804 0.406031
0.918780 0.202970 0.407557
0.185233 0.247323 0.316393
0.217792 0.256756 0.319111
0.285601 0.273071 0.362551
0.394779 0.262135 0.398960
0.575250 0.278782 0.410111
0.725021 0.294470 0.420962
0.840178 0.307654 0.430267
0.934087 0.319237 0.438161
0.942736 0.323491 0.439120
0.175878 0.341062 0.369014
0.209582 0.346964 0.372685
0.317254 0.368788 0.384941
0.434744 0.399618 0.421717
0.612149 0.413362 0.445897
0.766690 0.433309 0.456435
0.883570 0.447960 0.463990
0.969551 0.458937 0.469299
0.970349 0.461794 0.469040
0.180241 0.494851 0.438514
0.215181 0.501000 0.443089
0.326282 0.521874 0.456587
0.471952 0.543095 0.468433
0.665505 0.564971 0.473897
0.820880 0.578041 0.479484
0.938403 0.588506 0.483277
1.000000 0.595829 0.485054
1.000000 0.598062 0.483932
0.213471 0.642335 0.479390
0.249795 0.646677 0.481621
0.365049 0.660271 0.488476
0.511197 0.677033 0.496661
0.695659 0.697340 0.506151
0.859076 0.716753 0.500438
0.984633 0.722629 0.493833
1.000000 0.726690 0.494276
1.000000 0.728570 0.492597
0.245990 0.753866 0.502551
0.281832 0.757825 0.504457
0.395638 0.770193 0.510275
0.540014 0.785381 0.517129
0.722268 0.803678 0.524919
0.873656 0.820793 0.527474
0.999499 0.834650 0.518252
1.000000 0.839379 0.512163
1.000000 0.840642 0.510490
0.272489 0.853080 0.521248
0.307910 0.856689 0.522858
0.420428 0.867936 0.527727
0.563206 0.881684 0.533364
0.743458 0.898139 0.539594
0.889992 0.910737 0.543912
1.000000 0.925905 0.539551
1.000000 0.933594 0.532648
1.000000 0.934264 0.530556
0.288092 0.916313 0.532152
0.323247 0.919694 0.533569
0.434941 0.930210 0.537819
0.576689 0.943019 0.542661
0.755645 0.958273 0.547873
0.901122 0.969882 0.551352
1.000000 0.979752 0.551995
1.000000 0.990091 0.544652
1.000000 0.990481 0.542353
0.155150 0.155817 0.386657
0.174677 0.152583 0.399342
0.241821 0.126635 0.431729
0.371456 0.123382 0.443909
0.545101 0.133682 0.449724
0.689307 0.144149 0.456176
0.800241 0.153352 0.462119
0.890560 0.161566 0.467574
0.912613 0.164675 0.469094
0.167325 0.189455 0.379252
0.187269 0.189561 0.392282
0.251252 0.171382 0.429096
0.375689 0.162052 0.449921
0.551457 0.174308 0.457382
0.697389 0.186383 0.465189
0.809631 0.196812 0.472166
0.901004 0.206018 0.478456
0.921526 0.209565 0.480327
0.205323 0.266030 0.365919
0.226318 0.273252 0.379821
0.293652 0.286104 0.424502
0.393450 0.267646 0.470729
0.574619 0.284916 0.482412
0.724951 0.301115 0.493691
0.840532 0.314689 0.503315
0.935128 0.326844 0.510608
0.945681 0.331147 0.511626
0.199614 0.350654 0.417504
0.233474 0.358102 0.421284
0.341590 0.386273 0.433879
0.444662 0.414430 0.485194
0.613138 0.420936 0.518256
0.767451 0.440663 0.528615
0.884158 0.455145 0.536036
0.972401 0.466141 0.541389
0.972975 0.469126 0.541223
0.205022 0.487473 0.487844
0.239977 0.493997 0.492265
0.350680 0.514682 0.506086
0.490890 0.541446 0.523148
0.659423 0.572773 0.551767
0.811530 0.590074 0.560105
0.928775 0.600560 0.564053
1.000000 0.607812 0.565905
1.000000 0.609698 0.564712
0.216069 0.647306 0.549620
0.250509 0.653398 0.553194
0.365272 0.667168 0.560174
0.511218 0.683721 0.568201
0.695413 0.703761 0.577494
0.856996 0.719686 0.573143
0.974218 0.725592 0.574128
1.000000 0.730658 0.574649
1.000000 0.732322 0.572923
0.245901 0.760518 0.574013
0.281704 0.764427 0.575883
0.395368 0.776634 0.581582
0.539545 0.791614 0.588286
0.721535 0.809643 0.595888
0.871078 0.825118 0.599807
0.996761 0.837902 0.590484
1.000000 0.841554 0.584092
1.000000 0.842799 0.582364
0.271943 0.859313 0.592360
0.307327 0.862872 0.593935
0.419705 0.873958 0.598691
0.562287 0.887498 0.604184
0.742278 0.903687 0.610236
0.888593 0.916065 0.614411
1.000000 0.929771 0.611472
1.000000 0.937337 0.604250
1.000000 0.937901 0.602042
0.287248 0.922273 0.603042
0.322367 0.925604 0.604425
0.433924 0.935960 0.608566
0.575477 0.948561 0.613269
0.754173 0.963548 0.618308
0.899433 0.974938 0.621650
1.000000 0.983127 0.623655
1.000000 0.994108 0.616049
1.000000 0.994328 0.613566
0.159124 0.163271 0.427180
0.178754 0.160237 0.439954
0.243948 0.135163 0.473064
0.369474 0.126120 0.491468
0.543599 0.136844 0.497661
0.688191 0.147659 0.504418
0.799415 0.157126 0.510591
0.889968 0.165554 0.516228
0.914425 0.168935 0.517995
0.171616 0.197434 0.420051
0.191664 0.197407 0.433170
0.254983 0.180204 0.470702
0.374032 0.165091 0.497738
0.550278 0.177771 0.505571
0.696595 0.190194 0.513679
0.809126 0.200887 0.520880
0.900732 0.210307 0.527350
0.923397 0.214108 0.529450
0.210430 0.277080 0.407413
0.231527 0.283624 0.421400
0.299160 0.294969 0.466334
0.393838 0.274268 0.516471
0.574268 0.289151 0.531228
0.724982 0.305697 0.542795
0.840850 0.319536 0.552635
0.935789 0.331963 0.559430
0.947665 0.336302 0.560490
0.215685 0.360076 0.450278
0.249650 0.368502 0.454130
0.358067 0.400305 0.466955
0.451436 0.424473 0.528058
0.613763 0.426034 0.567023
0.767923 0.445611 0.577262
0.884513 0.459978 0.584592
0.974320 0.470990 0.589976
0.974884 0.473924 0.589772
0.222065 0.488847 0.521126
0.256994 0.495732 0.525517
0.367603 0.518050 0.539244
0.507683 0.549262 0.556185
0.659607 0.577458 0.600167
0.811337 0.594829 0.608557
0.926095 0.607514 0.614477
1.000000 0.616430 0.618009
1.000000 0.618619 0.617185
0.230979 0.637759 0.584029
0.265395 0.643817 0.588053
0.374538 0.662866 0.600483
0.512877 0.686568 0.615133
0.695201 0.708076 0.625581
0.851581 0.721408 0.625892
0.967149 0.729384 0.628247
1.000000 0.735116 0.628822
1.000000 0.736587 0.627062
0.245793 0.764989 0.622188
0.281571 0.768864 0.624032
0.395139 0.780962 0.629650
0.539181 0.795801 0.636251
0.720993 0.813649 0.643723
0.869308 0.827953 0.648526
0.994862 0.839696 0.639169
1.000000 0.842343 0.633069
1.000000 0.843568 0.630848
0.271526 0.863501 0.640298
0.306884 0.867026 0.641849
0.419169 0.878003 0.646527
0.561618 0.891402 0.651921
0.741433 0.907410 0.657849
0.887599 0.919639 0.661924
1.000000 0.932355 0.659945
1.000000 0.939690 0.652503
1.000000 0.940219 0.650259
0.286628 0.926275 0.650830
0.321723 0.929573 0.652190
0.433187 0.939819 0.656255
0.574609 0.952280 0.660862
0.753130 0.967086 0.665780
0.898242 0.978327 0.669026
1.000000 0.986338 0.671021
1.000000 0.996783 0.664161
1.000000 0.996926 0.661603
