Fotico/Resources/LUTs/disposable.cube
TITLE "Disposable"
LUT_3D_SIZE 5
0.127705 0.097296 0.010747
0.270558 0.094502 0.000000
0.576766 0.096960 0.000000
0.830485 0.106558 0.000000
0.918592 0.112085 0.002694
0.126269 0.220350 0.019472
0.268556 0.230008 0.020321
0.610938 0.243123 0.006547
0.875561 0.258322 0.018352
0.964964 0.268175 0.024290
0.169772 0.470677 0.070416
0.319802 0.487393 0.082392
0.671717 0.539657 0.091996
0.972829 0.568327 0.077885
1.000000 0.577299 0.074080
0.245072 0.719469 0.131973
0.395643 0.736845 0.140358
0.724588 0.772690 0.156294
1.000000 0.814275 0.142706
1.000000 0.822409 0.136656
0.290931 0.885366 0.164587
0.438668 0.900305 0.170758
0.761636 0.930716 0.181711
1.000000 0.961555 0.178657
1.000000 0.970013 0.170743
0.126127 0.100188 0.075220
0.257142 0.100274 0.077032
0.564296 0.105895 0.074964
0.818822 0.116754 0.078640
0.911444 0.122684 0.080387
0.123465 0.223911 0.088440
0.264774 0.232676 0.091418
0.599966 0.246308 0.086832
0.865475 0.264854 0.099451
0.957818 0.275724 0.105829
0.169612 0.476642 0.141297
0.320176 0.493802 0.153605
0.670964 0.544898 0.163825
0.971720 0.570887 0.149567
1.000000 0.579273 0.145581
0.245436 0.725835 0.201600
0.395839 0.743022 0.209911
0.724370 0.778447 0.225769
1.000000 0.818240 0.213654
1.000000 0.826224 0.207446
0.290620 0.891110 0.233627
0.438195 0.905864 0.239787
0.760761 0.935859 0.250831
1.000000 0.965053 0.249448
1.000000 0.973864 0.241433
0.138298 0.123837 0.208927
0.247744 0.107407 0.233590
0.552326 0.120651 0.239315
0.804532 0.137664 0.249299
0.904826 0.146842 0.254331
0.141459 0.221605 0.223587
0.270145 0.247444 0.240924
0.576856 0.267232 0.268137
0.843377 0.290930 0.283942
0.942288 0.303327 0.291544
0.169546 0.491224 0.304193
0.321826 0.509785 0.316532
0.668836 0.556800 0.328519
0.957505 0.576727 0.324298
1.000000 0.585548 0.324954
0.245922 0.740740 0.361896
0.395926 0.757475 0.369915
0.723457 0.791882 0.385189
1.000000 0.827278 0.376024
1.000000 0.834569 0.369037
0.289488 0.904529 0.392624
0.436678 0.918832 0.398556
0.758265 0.947814 0.409170
1.000000 0.973001 0.410847
1.000000 0.982769 0.402016
0.149359 0.144891 0.326657
0.240500 0.114129 0.370523
0.547429 0.129130 0.378725
0.801572 0.147897 0.390322
0.909956 0.158499 0.396651
0.185233 0.247323 0.316393
0.285601 0.273071 0.362551
0.575250 0.278782 0.410111
0.840178 0.307654 0.430267
0.942736 0.323491 0.439120
0.180241 0.494851 0.438514
0.326282 0.521874 0.456587
0.665505 0.564971 0.473897
0.938403 0.588506 0.483277
1.000000 0.598062 0.483932
0.245990 0.753866 0.502551
0.395638 0.770193 0.510275
0.722268 0.803678 0.524919
0.999499 0.834650 0.518252
1.000000 0.840642 0.510490
0.288092 0.916313 0.532152
0.434941 0.930210 0.537819
0.755645 0.958273 0.547873
1.000000 0.979752 0.551995
1.000000 0.990481 0.542353
0.159124 0.163271 0.427180
0.243948 0.135163 0.473064
0.543599 0.136844 0.497661
0.799415 0.157126 0.510591
0.914425 0.168935 0.517995
0.210430 0.277080 0.407413
0.299160 0.294969 0.466334
0.574268 0.289151 0.531228
0.840850 0.319536 0.552635
0.947665 0.336302 0.560490
0.222065 0.488847 0.521126
0.367603 0.518050 0.539244
0.659607 0.577458 0.600167
0.926095 0.607514 0.614477
1.000000 0.618619 0.617185
0.245793 0.764989 0.622188
0.395139 0.780962 0.629650
0.720993 0.813649 0.643723
0.994862 0.839696 0.639169
1.000000 0.843568 0.630848
0.286628 0.926275 0.650830
0.433187 0.939819 0.656255
0.753130 0.967086 0.665780
1.000000 0.986338 0.671021
1.000000 0.996926 0.661603
