Fotico/Resources/LUTs/disposable.cube
TITLE "Disposable"
LUT_3D_SIZE 33
0.127705 0.097296 0.010747
0.132033 0.097655 0.010195
0.135986 0.097899 0.009691
0.145172 0.098225 0.008526
0.163596 0.098191 0.006204
0.188852 0.097306 0.003058
0.215741 0.096010 0.001437
0.242635 0.095114 0.000682
0.270558 0.094502 0.000000
0.300093 0.094103 0.000000
0.331748 0.093889 0.000000
0.366038 0.093858 0.000000
0.404246 0.094029 0.000000
0.446868 0.094444 0.000000
0.491497 0.095106 0.000000
0.535637 0.095973 0.000000
0.576766 0.096960 0.000000
0.614939 0.098024 0.000000
0.651735 0.099182 0.000000
0.686892 0.100406 0.000000
0.720144 0.101668 0.000000
0.751212 0.102937 0.000000
0.779678 0.104174 0.000000
0.805892 0.105376 0.000000
0.830485 0.106558 0.000000
0.854022 0.107792 0.000000
0.877172 0.109052 0.000602
0.899581 0.110313 0.001704
0.918384 0.111419 0.002633
0.918446 0.111618 0.002651
0.918498 0.111783 0.002667
0.918543 0.111928 0.002680
0.918592 0.112085 0.002694
0.126612 0.101656 0.011378
0.130911 0.102154 0.010867
0.134876 0.102547 0.010374
0.144081 0.103156 0.009221
0.162540 0.103536 0.006924
0.187844 0.103027 0.003813
0.216108 0.101766 0.000985
0.243058 0.100745 0.000272
0.271038 0.100055 0.000000
0.300632 0.099609 0.000000
0.332351 0.099370 0.000000
0.366708 0.099332 0.000000
0.404992 0.099513 0.000000
0.447696 0.099952 0.000000
0.492412 0.100651 0.000000
0.536637 0.101561 0.000000
0.577843 0.102594 0.000000
0.616089 0.103705 0.000000
0.652954 0.104910 0.000000
0.688177 0.106180 0.000000
0.721490 0.107487 0.000000
0.752617 0.108799 0.000000
0.781134 0.110077 0.000000
0.807397 0.111317 0.000000
0.832035 0.112535 0.000000
0.855618 0.113800 0.000005
0.878813 0.115090 0.001146
0.901267 0.116380 0.002253
0.920291 0.117524 0.003195
0.920361 0.117749 0.003216
0.920419 0.117935 0.003233
0.920470 0.118097 0.003248
0.920524 0.118270 0.003264
0.126174 0.106337 0.011487
0.130006 0.106378 0.011430
0.133852 0.106779 0.011028
0.143077 0.107687 0.009908
0.161570 0.108497 0.007636
0.186920 0.108380 0.004558
0.215960 0.107362 0.001085
0.243493 0.106202 0.000000
0.271527 0.105427 0.000000
0.301178 0.104927 0.000000
0.332956 0.104658 0.000000
0.367378 0.104608 0.000000
0.405733 0.104792 0.000000
0.448517 0.105250 0.000000
0.493314 0.105980 0.000000
0.537619 0.106929 0.000000
0.578900 0.108004 0.000000
0.617214 0.109157 0.000000
0.654145 0.110405 0.000000
0.689430 0.111718 0.000000
0.722803 0.113067 0.000000
0.753984 0.114419 0.000000
0.782552 0.115734 0.000000
0.808860 0.117010 0.000000
0.833541 0.118261 0.000000
0.857169 0.119554 0.000521
0.880407 0.120872 0.001666
0.902904 0.122190 0.002778
0.922111 0.123367 0.003731
0.922190 0.123618 0.003754
0.922254 0.123824 0.003773
0.922309 0.124001 0.003789
0.922368 0.124191 0.003807
0.125597 0.114640 0.011623
0.129443 0.114692 0.011577
0.132956 0.114740 0.011535
0.141418 0.115178 0.011131
0.159966 0.116821 0.008932
0.185396 0.117458 0.005911
0.214525 0.117017 0.002505
0.244325 0.115907 0.000000
0.272452 0.114957 0.000000
0.302201 0.114343 0.000000
0.334083 0.114005 0.000000
0.368617 0.113920 0.000000
0.407095 0.114099 0.000000
0.450015 0.114579 0.000000
0.494954 0.115354 0.000000
0.539398 0.116365 0.000000
0.580808 0.117506 0.000000
0.619241 0.118728 0.000000
0.656286 0.120047 0.000000
0.691679 0.121432 0.000000
0.725153 0.122852 0.000000
0.756429 0.124272 0.000000
0.785084 0.125650 0.000000
0.811471 0.126985 0.000000
0.836226 0.128293 0.000351
0.859939 0.129630 0.001424
0.883253 0.130997 0.002577
0.905822 0.132362 0.003697
0.925286 0.133593 0.004667
0.925378 0.133888 0.004694
0.925452 0.134128 0.004715
0.925516 0.134334 0.004734
0.925584 0.134552 0.004754
0.124818 0.129526 0.012061
0.128689 0.129598 0.012032
0.132223 0.129665 0.012006
0.140438 0.129825 0.011951
0.157371 0.130646 0.011387
0.182944 0.132868 0.008498
0.212231 0.133621 0.005209
0.242511 0.133364 0.001869
0.273935 0.132490 0.000000
0.304247 0.131601 0.000000
0.336313 0.131088 0.000000
0.371043 0.130898 0.000000
0.409739 0.131031 0.000000
0.452899 0.131519 0.000000
0.498088 0.132348 0.000000
0.542778 0.133446 0.000000
0.584415 0.134689 0.000000
0.623057 0.136020 0.000000
0.660303 0.137455 0.000000
0.695887 0.138958 0.000000
0.729541 0.140494 0.000000
0.760984 0.142028 0.000169
0.789791 0.143514 0.000867
0.816319 0.144949 0.001567
0.841205 0.146353 0.002273
0.865087 0.147756 0.003046
0.888533 0.149206 0.004214
0.911230 0.150653 0.005348
0.930956 0.151968 0.006337
0.931072 0.152344 0.006371
0.931164 0.152645 0.006398
0.931243 0.152900 0.006421
0.931326 0.153169 0.006446
0.124258 0.149667 0.013028
0.128160 0.149766 0.013023
0.131724 0.149857 0.013019
0.140006 0.150073 0.013014
0.156614 0.150524 0.013018
0.180159 0.151975 0.012288
0.209665 0.154682 0.009176
0.240157 0.155819 0.005999
0.271799 0.156020 0.002768
0.305252 0.155601 0.000000
0.339733 0.154835 0.000000
0.374723 0.154420 0.000000
0.413706 0.154417 0.000000
0.457185 0.154852 0.000000
0.502703 0.155702 0.000000
0.547717 0.156873 0.000000
0.589654 0.158221 0.000000
0.628573 0.159671 0.000000
0.666084 0.161238 0.000071
0.701921 0.162879 0.000884
0.735812 0.164556 0.001744
0.767476 0.166227 0.002626
0.796485 0.167844 0.003501
0.823198 0.169404 0.004363
0.848257 0.170928 0.005222
0.872310 0.172445 0.006090
0.895963 0.173987 0.006987
0.918856 0.175526 0.007894
0.938571 0.176921 0.008700
0.938731 0.177399 0.008627
0.938847 0.177782 0.008661
0.938945 0.178105 0.008690
0.939048 0.178443 0.008720
0.124262 0.172474 0.014611
0.128199 0.172602 0.014633
0.131795 0.172720 0.014653
0.140152 0.172999 0.014704
0.156907 0.173574 0.014820
0.179871 0.174401 0.015013
0.207455 0.176659 0.014068
0.238183 0.179675 0.011074
0.270064 0.181303 0.008031
0.303767 0.182044 0.004889
0.339870 0.182158 0.001610
0.378955 0.181795 0.000000
0.418705 0.181530 0.000000
0.462533 0.181819 0.000000
0.508415 0.182621 0.000000
0.553786 0.183818 0.000000
0.596053 0.185238 0.000715
0.635277 0.186787 0.001636
0.673080 0.188472 0.002634
0.709194 0.190243 0.003689
0.743348 0.192055 0.004776
0.775256 0.193861 0.005872
0.804487 0.195610 0.006942
0.831404 0.197295 0.007984
0.856654 0.198941 0.009011
0.880890 0.200577 0.010041
0.904722 0.202240 0.011096
0.927788 0.203898 0.012157
0.946956 0.205376 0.013068
0.947142 0.205982 0.013085
0.947287 0.206457 0.013114
0.947407 0.206855 0.013148
0.947531 0.207270 0.013192
0.124916 0.195747 0.016726
0.128888 0.195904 0.016774
0.132516 0.196049 0.016818
0.140946 0.196389 0.016925
0.157847 0.197089 0.017154
0.181008 0.198086 0.017501
0.207534 0.199283 0.017947
0.236870 0.202384 0.016660
0.268988 0.205690 0.013805
0.302939 0.207782 0.010862
0.339306 0.209036 0.007798
0.378675 0.209674 0.004581
0.422515 0.209834 0.001125
0.468494 0.209897 0.000158
0.514736 0.210576 0.001086
0.560461 0.211740 0.002161
0.603055 0.213187 0.003304
0.642581 0.214799 0.004486
0.680675 0.216571 0.005736
0.717065 0.218447 0.007031
0.751478 0.220372 0.008345
0.783627 0.222296 0.009653
0.813079 0.224159 0.010917
0.840199 0.225957 0.012137
0.865639 0.227713 0.013331
0.890056 0.229459 0.014520
0.914067 0.231232 0.015732
0.937304 0.233001 0.016944
0.955409 0.234539 0.017934
0.955620 0.235271 0.018064
0.955783 0.235843 0.018177
0.955917 0.236320 0.018280
0.956056 0.236815 0.018393
0.126269 0.220350 0.019472
0.130278 0.220537 0.019547
0.133938 0.220709 0.019616
0.142443 0.221113 0.019781
0.159493 0.221941 0.020126
0.182855 0.223113 0.020633
0.209609 0.224511 0.021262
0.237268 0.226018 0.021968
0.268556 0.230008 0.020321
0.302762 0.233703 0.017585
0.339399 0.236299 0.014742
0.379059 0.238103 0.011767
0.423221 0.239330 0.008579
0.472449 0.240089 0.005181
0.521919 0.240629 0.003727
0.568007 0.241696 0.005114
0.610938 0.243123 0.006547
0.650775 0.244762 0.007999
0.689166 0.246594 0.009508
0.725840 0.248550 0.011050
0.760521 0.250570 0.012598
0.792919 0.252596 0.014122
0.822598 0.254564 0.015585
0.849926 0.256464 0.016988
0.875561 0.258322 0.018352
0.900165 0.260170 0.019706
0.924359 0.262048 0.021078
0.947774 0.263922 0.022445
0.964241 0.265501 0.023488
0.964477 0.266366 0.023732
0.964659 0.267038 0.023932
0.964809 0.267597 0.024105
0.964964 0.268175 0.024290
0.128395 0.246447 0.022917
0.132440 0.246665 0.023020
0.136133 0.246866 0.023116
0.144715 0.247335 0.023341
0.161918 0.248295 0.023807
0.185487 0.249649 0.024480
0.212475 0.251254 0.025300
0.240373 0.252975 0.026203
0.269323 0.254828 0.027201
0.303300 0.259839 0.025143
0.340216 0.264006 0.022531
0.380175 0.267164 0.019805
0.424669 0.269617 0.016896
0.474264 0.271507 0.013809
0.526154 0.272887 0.010756
0.576522 0.273932 0.008779
0.619800 0.275286 0.010513
0.659957 0.276913 0.012242
0.698656 0.278772 0.014018
0.735623 0.280784 0.015815
0.770579 0.282879 0.017603
0.803234 0.284991 0.019351
0.833147 0.287049 0.021018
0.860691 0.289041 0.022608
0.886528 0.290992 0.024147
0.911325 0.292935 0.025668
0.935708 0.294911 0.027205
0.959306 0.296884 0.028730
0.973502 0.298492 0.029800
0.973763 0.299495 0.030160
0.973965 0.300272 0.030448
0.974131 0.300916 0.030693
0.974302 0.301580 0.030951
0.131353 0.273993 0.027108
0.135435 0.274243 0.027240
0.139162 0.274473 0.027362
0.147822 0.275010 0.027649
0.165180 0.276106 0.028241
0.188960 0.277645 0.029085
0.216187 0.279463 0.030102
0.244330 0.281405 0.031209
0.273533 0.283486 0.032418
0.304722 0.286118 0.033419
0.341820 0.291981 0.031188
0.382086 0.296693 0.028720
0.426919 0.300543 0.026098
0.476890 0.303712 0.023332
0.529172 0.306215 0.020613
0.580840 0.308166 0.018102
0.628947 0.309683 0.015921
0.670157 0.311235 0.017251
0.709172 0.313086 0.019301
0.746439 0.315125 0.021357
0.781679 0.317271 0.023391
0.814597 0.319450 0.025367
0.844752 0.321582 0.027242
0.872517 0.323654 0.029023
0.898560 0.325687 0.030741
0.923556 0.327716 0.032433
0.948134 0.329782 0.034137
0.971919 0.331847 0.035824
0.983166 0.333481 0.036889
0.983513 0.334730 0.037107
0.983808 0.335733 0.037125
0.984047 0.336545 0.037136
0.984289 0.337367 0.037143
0.135193 0.302934 0.032079
0.139313 0.303217 0.032241
0.143075 0.303476 0.032391
0.151814 0.304083 0.032742
0.169329 0.305318 0.033462
0.193322 0.307048 0.034482
0.220792 0.309084 0.035700
0.249184 0.311251 0.037016
0.278643 0.313566 0.038443
0.309785 0.316088 0.040019
0.344269 0.320066 0.040631
0.384844 0.326533 0.038525
0.430023 0.331958 0.036197
0.480378 0.336559 0.033758
0.533058 0.340310 0.031382
0.585119 0.343319 0.029208
0.633590 0.345706 0.027340
0.678546 0.347681 0.025741
0.720732 0.349497 0.025379
0.758306 0.351531 0.027700
0.793835 0.353703 0.029982
0.827024 0.355928 0.032190
0.857424 0.358118 0.034277
0.885416 0.360256 0.036252
0.911671 0.362359 0.038151
0.937181 0.364663 0.039529
0.962277 0.366991 0.040746
0.986495 0.369247 0.041902
0.993623 0.370945 0.042216
0.994003 0.372238 0.042196
0.994288 0.373209 0.042175
0.994520 0.373997 0.042153
0.994755 0.374793 0.042126
0.140034 0.333674 0.037950
0.144192 0.333991 0.038144
0.147988 0.334281 0.038322
0.156808 0.334960 0.038739
0.174484 0.336338 0.039591
0.198696 0.338265 0.040794
0.226415 0.340527 0.042222
0.255062 0.342927 0.043754
0.284785 0.345484 0.045405
0.316205 0.348261 0.047218
0.349863 0.351320 0.049239
0.388527 0.356963 0.049356
0.434088 0.364199 0.047369
0.484837 0.370414 0.045267
0.537929 0.375564 0.043244
0.590394 0.379751 0.041417
0.639240 0.383103 0.039872
0.684544 0.385884 0.038570
0.728184 0.388352 0.037436
0.769853 0.390572 0.036462
0.807262 0.392713 0.037507
0.840917 0.395092 0.039675
0.871987 0.397587 0.041186
0.900495 0.399921 0.042549
0.927149 0.402136 0.043802
0.952653 0.404278 0.044982
0.977656 0.406398 0.046121
1.000000 0.408459 0.047204
1.000000 0.409987 0.047236
1.000000 0.411237 0.047161
1.000000 0.412176 0.047097
1.000000 0.412937 0.047041
1.000000 0.413705 0.046980
0.146047 0.366714 0.044887
0.150244 0.367066 0.045114
0.154076 0.367388 0.045321
0.162979 0.368142 0.045808
0.180821 0.369670 0.046800
0.205259 0.371803 0.048193
0.233235 0.374301 0.049839
0.262147 0.376945 0.051597
0.292144 0.379755 0.053483
0.323853 0.382800 0.055544
0.357819 0.386145 0.057830
0.394591 0.389864 0.060394
0.439272 0.397645 0.059843
0.490433 0.405696 0.058094
0.543954 0.412428 0.056437
0.596841 0.417941 0.054972
0.646078 0.422372 0.053762
0.691743 0.426052 0.052770
0.735867 0.429435 0.051711
0.778228 0.432683 0.050158
0.818113 0.435493 0.048655
0.855220 0.437918 0.047220
0.888100 0.440038 0.046809
0.916497 0.442072 0.048080
0.943048 0.444018 0.049248
0.968453 0.445914 0.050346
0.993359 0.447801 0.051405
1.000000 0.449620 0.052305
1.000000 0.451053 0.052162
1.000000 0.452257 0.052030
1.000000 0.453162 0.051923
1.000000 0.453894 0.051831
1.000000 0.454607 0.051728
0.153154 0.401221 0.052772
0.157390 0.401609 0.053031
0.161258 0.401964 0.053269
0.170244 0.402793 0.053826
0.188252 0.404474 0.054959
0.212917 0.406817 0.056546
0.241153 0.409554 0.058414
0.270332 0.412447 0.060401
0.300606 0.415514 0.062524
0.332606 0.418831 0.064836
0.366883 0.422468 0.067390
0.403992 0.426502 0.070245
0.445691 0.431534 0.073125
0.497097 0.441411 0.071951
0.551052 0.449876 0.070664
0.604366 0.456835 0.069565
0.654414 0.462776 0.067873
0.700698 0.467629 0.066138
0.745087 0.471774 0.064423
0.787294 0.475330 0.062746
0.827033 0.478385 0.061124
0.864006 0.481004 0.059579
0.897748 0.483228 0.058138
0.928710 0.485143 0.056789
0.957662 0.486832 0.055504
0.984107 0.488431 0.055442
1.000000 0.490065 0.056419
1.000000 0.491647 0.057041
1.000000 0.493025 0.056830
1.000000 0.494181 0.056639
1.000000 0.495049 0.056488
1.000000 0.495753 0.056361
1.000000 0.496416 0.056224
0.161163 0.436231 0.061385
0.165438 0.436654 0.061677
0.169340 0.437041 0.061945
0.178407 0.437946 0.062571
0.196577 0.439778 0.063843
0.221463 0.442327 0.065620
0.249952 0.445301 0.067706
0.279394 0.448439 0.069918
0.309938 0.451761 0.072275
0.342224 0.455346 0.074834
0.376808 0.459270 0.077652
0.414246 0.463616 0.080791
0.455941 0.468572 0.084396
0.504667 0.476554 0.086279
0.559558 0.487250 0.084364
0.613486 0.495845 0.082314
0.663441 0.502569 0.080350
0.709558 0.507958 0.078480
0.753786 0.512530 0.076636
0.795842 0.516429 0.074835
0.835438 0.519758 0.073097
0.872277 0.522598 0.071443
0.905898 0.524997 0.069902
0.936750 0.527052 0.068462
0.965597 0.528859 0.067091
0.993202 0.530491 0.065759
1.000000 0.532005 0.064433
1.000000 0.533430 0.063689
1.000000 0.534748 0.063679
1.000000 0.535852 0.063658
1.000000 0.536680 0.063635
1.000000 0.537350 0.063611
1.000000 0.537970 0.063578
0.169772 0.470677 0.070416
0.174082 0.471134 0.070739
0.178018 0.471553 0.071035
0.187160 0.472529 0.071728
0.205483 0.474505 0.073132
0.230579 0.477253 0.075091
0.259309 0.480455 0.077384
0.288999 0.483827 0.079812
0.319802 0.487393 0.082392
0.352361 0.491236 0.085186
0.387236 0.495437 0.088255
0.425196 0.500242 0.091314
0.467576 0.505775 0.094263
0.514574 0.511858 0.097477
0.568197 0.522598 0.096300
0.621936 0.532192 0.094100
0.671717 0.539657 0.091996
0.717674 0.545608 0.089997
0.761749 0.550633 0.088029
0.803659 0.554896 0.086109
0.843118 0.558519 0.084260
0.879831 0.561595 0.082501
0.913335 0.564183 0.080865
0.944080 0.566393 0.079337
0.972829 0.568327 0.077885
1.000000 0.570069 0.076474
1.000000 0.571681 0.075070
1.000000 0.573095 0.074431
1.000000 0.574317 0.074349
1.000000 0.575340 0.074267
1.000000 0.576107 0.074197
1.000000 0.576728 0.074136
1.000000 0.577299 0.074080
0.178903 0.504590 0.079803
0.183247 0.505080 0.080157
0.187214 0.505528 0.080480
0.196428 0.506574 0.081235
0.214896 0.508689 0.082766
0.240192 0.511627 0.084899
0.269151 0.515047 0.087392
0.299078 0.518646 0.090025
0.330267 0.522556 0.092592
0.363391 0.526876 0.094906
0.398729 0.531456 0.097342
0.436819 0.536359 0.099930
0.479039 0.541752 0.102752
0.525860 0.547679 0.105823
0.576179 0.555504 0.107292
0.629705 0.566086 0.105133
0.679319 0.574318 0.102895
0.725122 0.580855 0.100772
0.769050 0.586352 0.098684
0.810820 0.590996 0.096651
0.850148 0.594929 0.094694
0.886739 0.598257 0.092835
0.920132 0.601046 0.091107
0.950775 0.603420 0.089494
0.979428 0.605493 0.087963
1.000000 0.607354 0.086476
1.000000 0.609071 0.084998
1.000000 0.610431 0.084445
1.000000 0.611563 0.084293
1.000000 0.612510 0.084152
1.000000 0.613220 0.084037
1.000000 0.613793 0.083939
1.000000 0.614326 0.083870
0.188658 0.538556 0.089664
0.193034 0.539078 0.090046
0.197030 0.539555 0.090396
0.206314 0.540669 0.091213
0.224922 0.542920 0.092867
0.250637 0.546219 0.094786
0.280068 0.550037 0.096835
0.310378 0.553949 0.098923
0.341713 0.557973 0.101055
0.374711 0.562186 0.103272
0.409916 0.566652 0.105604
0.447865 0.571433 0.108080
0.489929 0.576688 0.110777
0.536578 0.582463 0.113710
0.585121 0.588411 0.116695
0.636950 0.598263 0.115628
0.686425 0.607321 0.113285
0.732077 0.614471 0.111040
0.775862 0.620465 0.108835
0.817496 0.625513 0.106691
0.856696 0.629775 0.104628
0.893167 0.633369 0.102671
0.926452 0.636375 0.100853
0.956995 0.638925 0.099158
0.985555 0.641147 0.097548
1.000000 0.643137 0.095987
1.000000 0.644969 0.094436
1.000000 0.646239 0.093951
1.000000 0.647284 0.093730
1.000000 0.648158 0.093531
1.000000 0.648811 0.093373
1.000000 0.649339 0.093239
1.000000 0.649843 0.093164
0.199414 0.572635 0.098732
0.203847 0.573205 0.099038
0.207894 0.573724 0.099317
0.217288 0.574929 0.099963
0.236087 0.577336 0.101248
0.261775 0.580615 0.102989
0.291092 0.584340 0.104956
0.321288 0.588159 0.106957
0.352506 0.592084 0.109000
0.385383 0.596194 0.111123
0.420459 0.600550 0.113354
0.458271 0.605210 0.115721
0.500184 0.610333 0.118297
0.546666 0.615960 0.121095
0.595037 0.621753 0.123940
0.643822 0.628752 0.125347
0.693004 0.638481 0.123105
0.738511 0.646266 0.120743
0.782156 0.652774 0.118424
0.823658 0.658242 0.116171
0.862733 0.662847 0.114006
0.899089 0.666721 0.111953
0.932268 0.669952 0.110048
0.962715 0.672689 0.108271
0.991184 0.675068 0.106587
1.000000 0.677195 0.104953
1.000000 0.679149 0.103331
1.000000 0.680300 0.102896
1.000000 0.681262 0.102610
1.000000 0.682065 0.102354
1.000000 0.682666 0.102153
1.000000 0.683150 0.101985
1.000000 0.683634 0.101910
0.210068 0.605654 0.106541
0.214483 0.606210 0.106835
0.218514 0.606717 0.107103
0.227871 0.607894 0.107723
0.246597 0.610245 0.108957
0.272188 0.613446 0.110628
0.301397 0.617084 0.112515
0.331484 0.620811 0.114433
0.362590 0.624643 0.116391
0.395351 0.628653 0.118423
0.430305 0.632902 0.120558
0.467985 0.637447 0.122820
0.509753 0.642442 0.125280
0.556076 0.647927 0.127948
0.604281 0.653571 0.130658
0.651661 0.659056 0.133253
0.698985 0.667596 0.132195
0.744402 0.676072 0.129828
0.787914 0.683105 0.127400
0.829288 0.689002 0.125042
0.868244 0.693958 0.122778
0.904489 0.698119 0.120633
0.937567 0.701584 0.118643
0.967921 0.704513 0.116789
0.996303 0.707056 0.115032
1.000000 0.709325 0.113328
1.000000 0.711406 0.111637
1.000000 0.712416 0.111238
1.000000 0.713299 0.110888
1.000000 0.714036 0.110578
1.000000 0.714587 0.110335
1.000000 0.715030 0.110133
1.000000 0.715501 0.110066
0.219932 0.636851 0.113745
0.224331 0.637395 0.114027
0.228346 0.637890 0.114284
0.237668 0.639040 0.114880
0.256326 0.641338 0.116065
0.281826 0.644466 0.117670
0.310933 0.648019 0.119480
0.340917 0.651660 0.121320
0.371918 0.655402 0.123196
0.404568 0.659317 0.125142
0.439406 0.663465 0.127185
0.476962 0.667900 0.129348
0.518592 0.672773 0.131697
0.564764 0.678123 0.134242
0.612812 0.683626 0.136823
0.660038 0.688971 0.139291
0.704706 0.694899 0.140514
0.749737 0.703737 0.138250
0.793122 0.711297 0.135717
0.834376 0.717625 0.133260
0.873219 0.722934 0.130901
0.909358 0.727386 0.128669
0.942340 0.731087 0.126598
0.972605 0.734211 0.124670
1.000000 0.736920 0.122843
1.000000 0.739334 0.121072
1.000000 0.741496 0.119371
1.000000 0.742401 0.118938
1.000000 0.743211 0.118526
1.000000 0.743886 0.118164
1.000000 0.744389 0.117882
1.000000 0.744798 0.117658
1.000000 0.745259 0.117593
0.228947 0.665936 0.120304
0.233331 0.666468 0.120576
0.237332 0.666953 0.120823
0.246622 0.668078 0.121396
0.265217 0.670325 0.122536
0.290632 0.673384 0.124079
0.319644 0.676859 0.125817
0.349531 0.680418 0.127583
0.380434 0.684076 0.129383
0.412982 0.687902 0.131248
0.447711 0.691955 0.133204
0.485150 0.696287 0.135274
0.526652 0.701046 0.137518
0.572682 0.706268 0.139948
0.620583 0.711638 0.142407
0.667665 0.716852 0.144756
0.711274 0.721623 0.146869
0.754479 0.729069 0.145776
0.797772 0.737166 0.143325
0.838913 0.743918 0.140774
0.877649 0.749577 0.138327
0.913689 0.754315 0.136011
0.946581 0.758251 0.133865
0.976763 0.761569 0.131867
1.000000 0.764442 0.129974
1.000000 0.767001 0.128141
1.000000 0.769209 0.126448
1.000000 0.770039 0.125953
1.000000 0.770782 0.125483
1.000000 0.771400 0.125072
1.000000 0.771860 0.124753
1.000000 0.772242 0.124519
1.000000 0.772695 0.124452
0.237262 0.693286 0.126332
0.241631 0.693806 0.126594
0.245619 0.694281 0.126832
0.254879 0.695382 0.127383
0.273415 0.697581 0.128480
0.298751 0.700576 0.129963
0.327674 0.703976 0.131634
0.357470 0.707458 0.133331
0.388281 0.711036 0.135058
0.420732 0.714778 0.136846
0.455358 0.718740 0.138721
0.492688 0.722975 0.140701
0.534068 0.727625 0.142848
0.579964 0.732727 0.145167
0.627725 0.737971 0.147511
0.674671 0.743061 0.149747
0.718154 0.747717 0.151755
0.759071 0.752843 0.152704
0.801921 0.761085 0.150304
0.842991 0.768293 0.147707
0.881627 0.774297 0.145176
0.917573 0.779320 0.142781
0.950380 0.783487 0.140562
0.980484 0.786998 0.138498
1.000000 0.790036 0.136543
1.000000 0.792739 0.134650
1.000000 0.794988 0.132957
1.000000 0.795749 0.132401
1.000000 0.796429 0.131877
1.000000 0.796993 0.131419
1.000000 0.797413 0.131065
1.000000 0.797775 0.130827
1.000000 0.798220 0.130756
0.245072 0.719469 0.131973
0.249427 0.719979 0.132225
0.253403 0.720444 0.132454
0.262634 0.721523 0.132985
0.281113 0.723676 0.134040
0.306373 0.726607 0.135466
0.335211 0.729936 0.137072
0.364921 0.733344 0.138701
0.395643 0.736845 0.140358
0.428001 0.740505 0.142073
0.462529 0.744381 0.143869
0.499753 0.748522 0.145764
0.541017 0.753068 0.147815
0.586783 0.758052 0.150028
0.634411 0.763175 0.152262
0.681226 0.768145 0.154388
0.724588 0.772690 0.156294
0.764613 0.776834 0.158000
0.805789 0.783721 0.156724
0.846723 0.791305 0.154221
0.885261 0.797656 0.151608
0.921118 0.802964 0.149138
0.953842 0.807366 0.146850
0.983870 0.811071 0.144721
1.000000 0.814275 0.142706
1.000000 0.817124 0.140755
1.000000 0.819413 0.139051
1.000000 0.820108 0.138438
1.000000 0.820728 0.137860
1.000000 0.821242 0.137357
1.000000 0.821624 0.136969
1.000000 0.821972 0.136731
1.000000 0.822409 0.136656
0.252554 0.745042 0.137357
0.256896 0.745541 0.137600
0.260860 0.745996 0.137820
0.270064 0.747052 0.138331
0.288488 0.749161 0.139345
0.313674 0.752030 0.140715
0.342428 0.755288 0.142257
0.372054 0.758624 0.143820
0.402688 0.762049 0.145408
0.434956 0.765629 0.147051
0.469387 0.769419 0.148768
0.506507 0.773468 0.150579
0.547657 0.777911 0.152537
0.593297 0.782781 0.154646
0.640794 0.787785 0.156771
0.687480 0.792637 0.158788
0.730722 0.797072 0.160594
0.770638 0.801115 0.162207
0.809674 0.805803 0.162874
0.850140 0.813414 0.160371
0.888643 0.820175 0.157771
0.924411 0.825775 0.155226
0.957054 0.830416 0.152868
0.987009 0.834320 0.150677
1.000000 0.837694 0.148602
1.000000 0.840693 0.146594
1.000000 0.843025 0.144871
1.000000 0.843658 0.144200
1.000000 0.844220 0.143570
1.000000 0.844685 0.143022
1.000000 0.845030 0.142600
1.000000 0.845369 0.142366
1.000000 0.845798 0.142289
0.259888 0.770607 0.142614
0.264217 0.771096 0.142847
0.268169 0.771541 0.143058
0.277345 0.772575 0.143548
0.295714 0.774638 0.144522
0.320826 0.777445 0.145836
0.349498 0.780632 0.147313
0.379038 0.783894 0.148809
0.409586 0.787243 0.150328
0.441762 0.790743 0.151898
0.476097 0.794447 0.153537
0.513114 0.798403 0.155263
0.554149 0.802742 0.157126
0.599662 0.807497 0.159130
0.647027 0.812380 0.161145
0.693583 0.817114 0.163054
0.736706 0.821439 0.164759
0.776511 0.825380 0.166277
0.814683 0.829113 0.167683
0.853542 0.835370 0.166313
0.891854 0.842392 0.163811
0.927534 0.848297 0.161190
0.960096 0.853187 0.158763
0.989976 0.857300 0.156507
1.000000 0.860852 0.154372
1.000000 0.864008 0.152306
1.000000 0.866392 0.150555
1.000000 0.866962 0.149826
1.000000 0.867468 0.149143
