Fotico/Resources/LUTs/dorado.cube
# Dorado
LUT_3D_SIZE 5
0.021029 0.011368 0.000000
0.299063 0.015616 0.000000
0.593870 0.019945 0.000000
0.895657 0.024036 0.000000
1.000000 0.025805 0.000000
0.053725 0.284322 0.000000
0.329262 0.287570 0.000000
0.620366 0.290418 0.000000
0.917365 0.292594 0.000000
1.000000 0.293335 0.000000
0.074867 0.552654 0.000000
0.345215 0.553826 0.000000
0.630258 0.554250 0.000000
0.920667 0.553789 0.000000
1.000000 0.553258 0.000000
0.077450 0.813562 0.000000
0.341638 0.812270 0.000000
0.620268 0.810129 0.000000
0.904468 0.807185 0.000000
1.000000 0.805557 0.000000
0.065184 1.000000 0.000000
0.325089 1.000000 0.000000
0.599750 1.000000 0.000000
0.880642 1.000000 0.000000
1.000000 1.000000 0.000000
0.023795 0.012474 0.203574
0.301756 0.016692 0.203574
0.596391 0.020953 0.203574
0.897908 0.024936 0.203574
1.000000 0.026642 0.203574
0.055942 0.285208 0.203574
0.331148 0.288324 0.203574
0.621836 0.291006 0.203574
0.918353 0.292989 0.203574
1.000000 0.293634 0.203574
0.075801 0.553027 0.203574
0.345671 0.554008 0.203574
0.630190 0.554223 0.203574
0.920064 0.553548 0.203574
1.000000 0.552918 0.203574
0.076791 0.813298 0.203574
0.340511 0.811820 0.203574
0.618685 0.809496 0.203574
0.902474 0.806388 0.203574
1.000000 0.804692 0.203574
0.063375 1.000000 0.203574
0.322936 1.000000 0.203574
0.597307 1.000000 0.203574
0.877992 1.000000 0.203574
1.000000 1.000000 0.203574
0.026586 0.013591 0.409877
0.304450 0.017770 0.409877
0.598889 0.021952 0.409877
0.900111 0.025817 0.409877
1.000000 0.027455 0.409877
0.058107 0.286075 0.409877
0.332962 0.289050 0.409877
0.623214 0.291557 0.409877
0.919231 0.293340 0.409877
1.000000 0.293885 0.409877
0.076623 0.553356 0.409877
0.346003 0.554141 0.409877
0.629991 0.554143 0.409877
0.919327 0.553253 0.409877
1.000000 0.552525 0.409877
0.075997 0.812980 0.409877
0.339252 0.811316 0.409877
0.616975 0.808812 0.409877
0.900366 0.805544 0.409877
1.000000 0.803783 0.409877
0.061444 1.000000 0.409877
0.320674 1.000000 0.409877
0.594772 1.000000 0.409877
0.875271 1.000000 0.409877
1.000000 1.000000 0.409877
0.029290 0.014673 0.610870
0.307037 0.018805 0.610870
0.601262 0.022902 0.610870
0.902176 0.026643 0.610870
1.000000 0.028211 0.610870
0.060135 0.286886 0.610870
0.334631 0.289718 0.610870
0.624444 0.292049 0.610870
0.919966 0.293634 0.610870
1.000000 0.294080 0.610870
0.077302 0.553628 0.610870
0.346201 0.554220 0.610870
0.629671 0.554015 0.610870
0.918487 0.552918 0.610870
1.000000 0.552094 0.610870
0.075103 0.812623 0.610870
0.337913 0.810780 0.610870
0.615210 0.808106 0.610870
0.898230 0.804690 0.610870
1.000000 0.802870 0.610870
0.059474 1.000000 0.610870
0.318398 1.000000 0.610870
0.592251 1.000000 0.610870
0.872593 1.000000 0.610870
1.000000 1.000000 0.610870
0.031928 0.015728 0.808546
0.309540 0.019806 0.808546
0.603533 0.023810 0.808546
0.904126 0.027423 0.808546
1.000000 0.028919 0.808546
0.062045 0.287650 0.808546
0.336174 0.290335 0.808546
0.625545 0.292490 0.808546
0.920570 0.293876 0.808546
1.000000 0.294225 0.808546
0.077852 0.553847 0.808546
0.346274 0.554250 0.808546
0.629236 0.553841 0.808546
0.917547 0.552541 0.808546
1.000000 0.551627 0.808546
0.074110 0.812226 0.808546
0.336492 0.810212 0.808546
0.613384 0.807375 0.808546
0.896056 0.803820 0.808546
1.000000 0.801946 0.808546
0.057453 1.000000 0.808546
0.316094 1.000000 0.808546
0.589726 1.000000 0.808546
0.869936 1.000000 0.808546
1.000000 1.000000 0.808546
