Fotico/Resources/LUTs/dorado.cube
# Dorado
LUT_3D_SIZE 9
0.021029 0.011368 0.000000
0.156363 0.013447 0.000000
0.299063 0.015616 0.000000
0.445302 0.017795 0.000000
0.593870 0.019945 0.000000
0.744126 0.022034 0.000000
0.895657 0.024036 0.000000
1.000000 0.025805 0.000000
1.000000 0.025805 0.000000
0.038195 0.148172 0.000000
0.173189 0.150115 0.000000
0.315395 0.152086 0.000000
0.460983 0.154004 0.000000
0.608747 0.155833 0.000000
0.758050 0.157541 0.000000
0.908486 0.159105 0.000000
1.000000 0.160415 0.000000
1.000000 0.160415 0.000000
0.053725 0.284322 0.000000
0.187969 0.285965 0.000000
0.329262 0.287570 0.000000
0.473793 0.289066 0.000000
0.620366 0.290418 0.000000
0.768356 0.291601 0.000000
0.917365 0.292594 0.000000
1.000000 0.293335 0.000000
1.000000 0.293335 0.000000
0.066304 0.419291 0.000000
0.199449 0.420494 0.000000
0.339490 0.421599 0.000000
0.482648 0.422546 0.000000
0.627745 0.423307 0.000000
0.774170 0.423864 0.000000
0.921543 0.424203 0.000000
1.000000 0.424312 0.000000
1.000000 0.424312 0.000000
0.074867 0.552654 0.000000
0.206660 0.553316 0.000000
0.345215 0.553826 0.000000
0.486800 0.554144 0.000000
0.630258 0.554250 0.000000
0.775001 0.554134 0.000000
0.920667 0.553789 0.000000
1.000000 0.553258 0.000000
1.000000 0.553258 0.000000
0.078690 0.684120 0.000000
0.208990 0.684186 0.000000
0.345952 0.684058 0.000000
0.485895 0.683720 0.000000
0.627694 0.683162 0.000000
0.770778 0.682383 0.000000
0.914810 0.681384 0.000000
1.000000 0.680257 0.000000
1.000000 0.680257 0.000000
0.077450 0.813562 0.000000
0.206243 0.813024 0.000000
0.341638 0.812270 0.000000
0.480012 0.811304 0.000000
0.620268 0.810129 0.000000
0.761860 0.808753 0.000000
0.904468 0.807185 0.000000
1.000000 0.805557 0.000000
1.000000 0.805557 0.000000
0.071251 0.941019 0.000000
0.198651 0.939925 0.000000
0.332638 0.938608 0.000000
0.469648 0.937096 0.000000
0.608610 0.935403 0.000000
0.749000 0.933546 0.000000
0.890516 0.931542 0.000000
1.000000 0.929551 0.000000
1.000000 0.929551 0.000000
0.065184 1.000000 0.000000
0.191836 1.000000 0.000000
0.325089 1.000000 0.000000
0.461412 1.000000 0.000000
0.599750 1.000000 0.000000
0.739591 1.000000 0.000000
0.880642 1.000000 0.000000
1.000000 1.000000 0.000000
1.000000 1.000000 0.000000
0.022343 0.011894 0.096658
0.157666 0.013969 0.096658
0.300346 0.016128 0.096658
0.446551 0.018294 0.096658
0.595074 0.020426 0.096658
0.745273 0.022493 0.096658
0.896735 0.024467 0.096658
1.000000 0.026206 0.096658
1.000000 0.026206 0.096658
0.039436 0.148668 0.096658
0.174387 0.150594 0.096658
0.316538 0.152543 0.096658
0.462059 0.154435 0.096658
0.609747 0.156233 0.096658
0.758963 0.157906 0.096658
0.909301 0.159431 0.096658
1.000000 0.160702 0.096658
1.000000 0.160702 0.096658
0.054787 0.284746 0.096658
0.188959 0.286361 0.096658
0.330169 0.287933 0.096658
0.474607 0.289392 0.096658
0.621078 0.290703 0.096658
0.768957 0.291841 0.096658
0.917849 0.292787 0.096658
1.000000 0.293483 0.096658
1.000000 0.293483 0.096658
0.067097 0.419608 0.096658
0.200149 0.420774 0.096658
0.340085 0.421837 0.096658
0.483130 0.422738 0.096658
0.628108 0.423452 0.096658
0.774409 0.423960 0.096658
0.921655 0.424247 0.096658
1.000000 0.424308 0.096658
1.000000 0.424308 0.096658
0.075325 0.552837 0.096658
0.207010 0.553456 0.096658
0.345447 0.553919 0.096658
0.486909 0.554187 0.096658
0.630242 0.554243 0.096658
0.774857 0.554077 0.096658
0.920396 0.553681 0.096658
1.000000 0.553103 0.096658
1.000000 0.553103 0.096658
0.078774 0.684154 0.096658
0.208960 0.684174 0.096658
0.345801 0.683998 0.096658
0.485623 0.683611 0.096658
0.627299 0.683004 0.096658
0.770264 0.682177 0.096658
0.914180 0.681132 0.096658
1.000000 0.679963 0.096658
1.000000 0.679963 0.096658
0.077152 0.813443 0.096658
0.205836 0.812861 0.096658
0.341118 0.812062 0.096658
0.479381 0.811051 0.096658
0.619529 0.809833 0.096658
0.761019 0.808416 0.096658
0.903532 0.806811 0.096658
1.000000 0.805150 0.096658
1.000000 0.805150 0.096658
0.070597 0.940758 0.096658
0.197901 0.939625 0.096658
0.331792 0.938270 0.096658
0.468711 0.936721 0.096658
0.607590 0.934995 0.096658
0.747904 0.933108 0.096658
0.889354 0.931077 0.096658
1.000000 0.929065 0.096658
1.000000 0.929065 0.096658
0.064337 1.000000 0.096658
0.190904 1.000000 0.096658
0.324077 1.000000 0.096658
0.460325 1.000000 0.096658
0.598598 1.000000 0.096658
0.738382 1.000000 0.096658
0.879388 1.000000 0.096658
1.000000 1.000000 0.096658
1.000000 1.000000 0.096658
0.023795 0.012474 0.203574
0.159103 0.014543 0.203574
0.301756 0.016692 0.203574
0.447921 0.018842 0.203574
0.596391 0.020953 0.203574
0.746524 0.022994 0.203574
0.897908 0.024936 0.203574
1.000000 0.026642 0.203574
1.000000 0.026642 0.203574
0.040796 0.149213 0.203574
0.175698 0.151119 0.203574
0.317785 0.153042 0.203574
0.463231 0.154904 0.203574
0.610830 0.156666 0.203574
0.759948 0.158300 0.203574
0.910177 0.159781 0.203574
1.000000 0.161008 0.203574
1.000000 0.161008 0.203574
0.055942 0.285208 0.203574
0.190033 0.286790 0.203574
0.331148 0.288324 0.203574
0.475480 0.289741 0.203574
0.621836 0.291006 0.203574
0.769591 0.292095 0.203574
0.918353 0.292989 0.203574
1.000000 0.293634 0.203574
1.000000 0.293634 0.203574
0.067948 0.419949 0.203574
0.200894 0.421072 0.203574
0.340713 0.422088 0.203574
0.483632 0.422939 0.203574
0.628477 0.423600 0.203574
0.774640 0.424052 0.203574
0.921744 0.424283 0.203574
1.000000 0.424291 0.203574
1.000000 0.424291 0.203574
0.075801 0.553027 0.203574
0.207364 0.553598 0.203574
0.345671 0.554008 0.203574
0.486996 0.554222 0.203574
0.630190 0.554223 0.203574
0.774665 0.554000 0.203574
0.920064 0.553548 0.203574
1.000000 0.552918 0.203574
1.000000 0.552918 0.203574
0.078834 0.684178 0.203574
0.208893 0.684147 0.203574
0.345601 0.683918 0.203574
0.485288 0.683477 0.203574
0.626831 0.682817 0.203574
0.769665 0.681937 0.203574
0.913454 0.680842 0.203574
1.000000 0.679628 0.203574
1.000000 0.679628 0.203574
0.076791 0.813298 0.203574
0.205353 0.812668 0.203574
0.340511 0.811820 0.203574
0.478653 0.810760 0.203574
0.618685 0.809496 0.203574
0.760064 0.808034 0.203574
0.902474 0.806388 0.203574
1.000000 0.804692 0.203574
1.000000 0.804692 0.203574
0.069845 0.940457 0.203574
0.197043 0.939282 0.203574
0.330831 0.937885 0.203574
0.467652 0.936297 0.203574
0.606440 0.934535 0.203574
0.746673 0.932615 0.203574
0.888054 0.930557 0.203574
1.000000 0.928523 0.203574
1.000000 0.928523 0.203574
0.063375 1.000000 0.203574
0.189851 1.000000 0.203574
0.322936 1.000000 0.203574
0.459105 1.000000 0.203574
0.597307 1.000000 0.203574
0.737033 1.000000 0.203574
0.877992 1.000000 0.203574
1.000000 1.000000 0.203574
1.000000 1.000000 0.203574
0.025204 0.013038 0.307608
0.160496 0.015100 0.307608
0.303119 0.017238 0.307608
0.449243 0.019371 0.307608
0.597658 0.021460 0.307608
0.747724 0.023474 0.307608
0.899029 0.025384 0.307608
1.000000 0.027056 0.307608
1.000000 0.027056 0.307608
0.042108 0.149737 0.307608
0.176958 0.151623 0.307608
0.318981 0.153520 0.307608
0.464351 0.155352 0.307608
0.611862 0.157079 0.307608
0.760881 0.158674 0.307608
0.911001 0.160111 0.307608
1.000000 0.161294 0.307608
1.000000 0.161294 0.307608
0.057044 0.285649 0.307608
0.191054 0.287199 0.307608
0.332075 0.288695 0.307608
0.476303 0.290070 0.307608
0.622545 0.291290 0.307608
0.770179 0.292330 0.307608
0.918811 0.293172 0.307608
1.000000 0.293767 0.307608
1.000000 0.293767 0.307608
0.068749 0.420269 0.307608
0.201590 0.421351 0.307608
0.341293 0.422320 0.307608
0.484088 0.423122 0.307608
0.628803 0.423730 0.307608
0.774831 0.424129 0.307608
0.921798 0.424304 0.307608
1.000000 0.424260 0.307608
1.000000 0.424260 0.307608
0.076231 0.553199 0.307608
0.207675 0.553722 0.307608
0.345854 0.554082 0.307608
0.487047 0.554243 0.307608
0.630106 0.554189 0.307608
0.774445 0.553912 0.307608
0.919708 0.553406 0.307608
1.000000 0.552726 0.307608
1.000000 0.552726 0.307608
0.078858 0.684187 0.307608
0.208794 0.684107 0.307608
0.345373 0.683827 0.307608
0.484930 0.683334 0.307608
0.626344 0.682622 0.307608
0.769052 0.681692 0.307608
0.912719 0.680548 0.307608
1.000000 0.679290 0.307608
1.000000 0.679290 0.307608
0.076406 0.813144 0.307608
0.204852 0.812468 0.307608
0.339891 0.811571 0.307608
0.477916 0.810465 0.307608
0.617835 0.809156 0.307608
0.759109 0.807652 0.307608
0.901422 0.805967 0.307608
1.000000 0.804238 0.307608
1.000000 0.804238 0.307608
0.069085 0.940153 0.307608
0.196182 0.938937 0.307608
0.329871 0.937501 0.307608
0.466598 0.935876 0.307608
0.605300 0.934079 0.307608
0.745458 0.932129 0.307608
0.886773 0.930045 0.307608
1.000000 0.927991 0.307608
1.000000 0.927991 0.307608
0.062413 1.000000 0.307608
0.188803 1.000000 0.307608
0.321805 1.000000 0.307608
0.457899 1.000000 0.307608
0.596036 1.000000 0.307608
0.735707 1.000000 0.307608
0.876624 1.000000 0.307608
1.000000 1.000000 0.307608
1.000000 1.000000 0.307608
0.026586 0.013591 0.409877
0.161859 0.015646 0.409877
0.304450 0.017770 0.409877
0.450530 0.019886 0.409877
0.598889 0.021952 0.409877
0.748887 0.023938 0.409877
0.900111 0.025817 0.409877
1.000000 0.027455 0.409877
1.000000 0.027455 0.409877
0.043385 0.150248 0.409877
0.178182 0.152112 0.409877
0.320139 0.153983 0.409877
0.465431 0.155784 0.409877
0.612854 0.157476 0.409877
0.761773 0.159031 0.409877
0.911785 0.160424 0.409877
1.000000 0.161564 0.409877
1.000000 0.161564 0.409877
0.058107 0.286075 0.409877
0.192035 0.287591 0.409877
0.332962 0.289050 0.409877
0.477085 0.290383 0.409877
0.623214 0.291557 0.409877
0.770726 0.292549 0.409877
0.919231 0.293340 0.409877
1.000000 0.293885 0.409877
1.000000 0.293885 0.409877
0.069508 0.420573 0.409877
0.202246 0.421613 0.409877
0.341833 0.422536 0.409877
0.484506 0.423289 0.409877
0.629092 0.423846 0.409877
0.774987 0.424191 0.409877
0.921818 0.424312 0.409877
1.000000 0.424216 0.409877
1.000000 0.424216 0.409877
0.076623 0.553356 0.409877
0.207950 0.553832 0.409877
0.346003 0.554141 0.409877
0.487065 0.554250 0.409877
0.629991 0.554143 0.409877
0.774196 0.553812 0.409877
0.919327 0.553253 0.409877
1.000000 0.552525 0.409877
1.000000 0.552525 0.409877
0.078848 0.684184 0.409877
0.208664 0.684055 0.409877
0.345117 0.683725 0.409877
0.484547 0.683180 0.409877
0.625834 0.682418 0.409877
0.768419 0.681439 0.409877
0.911968 0.680248 0.409877
1.000000 0.678948 0.409877
1.000000 0.678948 0.409877
0.075997 0.812980 0.409877
0.204329 0.812258 0.409877
0.339252 0.811316 0.409877
0.477164 0.810164 0.409877
0.616975 0.808812 0.409877
0.758146 0.807267 0.409877
0.900366 0.805544 0.409877
1.000000 0.803783 0.409877
1.000000 0.803783 0.409877
0.068310 0.939843 0.409877
0.195310 0.938589 0.409877
0.328903 0.937114 0.409877
0.465540 0.935453 0.409877
0.604161 0.933624 0.409877
0.744247 0.931645 0.409877
0.885501 0.929536 0.409877
1.000000 0.927463 0.409877
1.000000 0.927463 0.409877
0.061444 1.000000 0.409877
0.187751 1.000000 0.409877
0.320674 1.000000 0.409877
0.456697 1.000000 0.409877
0.594772 1.000000 0.409877
0.734393 1.000000 0.409877
0.875271 1.000000 0.409877
1.000000 1.000000 0.409877
1.000000 1.000000 0.409877
0.027947 0.014136 0.510871
0.163198 0.016181 0.510871
0.305755 0.018292 0.510871
0.451789 0.020389 0.510871
0.600089 0.022432 0.510871
0.750016 0.024390 0.510871
0.901159 0.026236 0.510871
1.000000 0.027839 0.510871
1.000000 0.027839 0.510871
0.044633 0.150747 0.510871
0.179375 0.152590 0.510871
0.321265 0.154434 0.510871
0.466477 0.156202 0.510871
0.613810 0.157858 0.510871
0.762630 0.159373 0.510871
0.912533 0.160723 0.510871
1.000000 0.161819 0.510871
1.000000 0.161819 0.510871
0.059137 0.286486 0.510871
0.192982 0.287970 0.510871
0.333813 0.289390 0.510871
0.477831 0.290681 0.510871
0.623846 0.291810 0.510871
0.771237 0.292754 0.510871
0.919615 0.293494 0.510871
1.000000 0.293989 0.510871
1.000000 0.293989 0.510871
0.070232 0.420862 0.510871
0.202865 0.421861 0.510871
0.342338 0.422738 0.510871
0.484888 0.423442 0.510871
0.629346 0.423948 0.510871
0.775109 0.424240 0.510871
0.921806 0.424308 0.510871
1.000000 0.424161 0.510871
1.000000 0.424161 0.510871
0.076979 0.553498 0.510871
0.208190 0.553928 0.510871
0.346118 0.554187 0.510871
0.487051 0.554244 0.510871
0.629846 0.554085 0.510871
0.773919 0.553701 0.510871
0.918920 0.553091 0.510871
1.000000 0.552314 0.510871
1.000000 0.552314 0.510871
0.078808 0.684167 0.510871
0.208504 0.683991 0.510871
0.344833 0.683611 0.510871
0.484138 0.683016 0.510871
0.625302 0.682205 0.510871
0.767767 0.681178 0.510871
0.911201 0.679941 0.510871
1.000000 0.678600 0.510871
1.000000 0.678600 0.510871
0.075563 0.812807 0.510871
0.203783 0.812040 0.510871
0.338593 0.811052 0.510871
0.476394 0.809857 0.510871
0.616100 0.808462 0.510871
0.757173 0.806878 0.510871
0.899302 0.805119 0.510871
1.000000 0.803328 0.510871
1.000000 0.803328 0.510871
0.067518 0.939527 0.510871
0.194424 0.938234 0.510871
0.327924 0.936722 0.510871
0.464476 0.935027 0.510871
0.603018 0.933166 0.510871
0.743035 0.931160 0.510871
0.884232 0.929028 0.510871
1.000000 0.926938 0.510871
1.000000 0.926938 0.510871
0.060465 1.000000 0.510871
0.186691 1.000000 0.510871
0.319539 1.000000 0.510871
0.455494 1.000000 0.510871
0.593511 1.000000 0.510871
0.733085 1.000000 0.510871
0.873929 1.000000 0.510871
1.000000 1.000000 0.510871
1.000000 1.000000 0.510871
0.029290 0.014673 0.610870
0.164516 0.016709 0.610870
0.307037 0.018805 0.610870
0.453022 0.020883 0.610870
0.601262 0.022902 0.610870
0.751117 0.024831 0.610870
0.902176 0.026643 0.610870
1.000000 0.028211 0.610870
1.000000 0.028211 0.610870
0.045855 0.151236 0.610870
0.180541 0.153056 0.610870
0.322361 0.154872 0.610870
0.467493 0.156609 0.610870
0.614735 0.158228 0.610870
0.763454 0.159703 0.610870
0.913247 0.161009 0.610870
1.000000 0.162061 0.610870
1.000000 0.162061 0.610870
0.060135 0.286886 0.610870
0.193896 0.288335 0.610870
0.334631 0.289718 0.610870
0.478543 0.290966 0.610870
0.624444 0.292049 0.610870
0.771714 0.292945 0.610870
0.919966 0.293634 0.610870
1.000000 0.294080 0.610870
1.000000 0.294080 0.610870
0.070922 0.421138 0.610870
0.203451 0.422095 0.610870
0.342808 0.422926 0.610870
0.485236 0.423581 0.610870
0.629567 0.424036 0.610870
0.775200 0.424276 0.610870
0.921763 0.424290 0.610870
1.000000 0.424094 0.610870
1.000000 0.424094 0.610870
0.077302 0.553628 0.610870
0.208397 0.554011 0.610870
0.346201 0.554220 0.610870
0.487006 0.554226 0.610870
0.629671 0.554015 0.610870
0.773615 0.553580 0.610870
0.918487 0.552918 0.610870
1.000000 0.552094 0.610870
1.000000 0.552094 0.610870
0.078737 0.684139 0.610870
0.208315 0.683916 0.610870
0.344522 0.683486 0.610870
0.483703 0.682843 0.610870
0.624746 0.681983 0.610870
0.767094 0.680909 0.610870
0.910415 0.679626 0.610870
1.000000 0.678246 0.610870
1.000000 0.678246 0.610870
0.075103 0.812623 0.610870
0.203214 0.811813 0.610870
0.337913 0.810780 0.610870
0.475607 0.809542 0.610870
0.615210 0.808106 0.610870
0.756188 0.806484 0.610870
0.898230 0.804690 0.610870
1.000000 0.802870 0.610870
1.000000 0.802870 0.610870
0.066710 0.939203 0.610870
0.193523 0.937874 0.610870
0.326934 0.936326 0.610870
0.463402 0.934597 0.610870
0.601870 0.932707 0.610870
0.741822 0.930675 0.610870
0.882964 0.928521 0.610870
1.000000 0.926415 0.610870
1.000000 0.926415 0.610870
0.059474 1.000000 0.610870
0.185623 1.000000 0.610870
0.318398 1.000000 0.610870
0.454288 1.000000 0.610870
0.592251 1.000000 0.610870
0.731781 1.000000 0.610870
0.872593 1.000000 0.610870
1.000000 1.000000 0.610870
1.000000 1.000000 0.610870
0.030616 0.015203 0.710053
0.165816 0.017228 0.710053
0.308299 0.019310 0.710053
0.454232 0.021367 0.710053
0.602410 0.023361 0.710053
0.752191 0.025260 0.710053
0.903165 0.027039 0.710053
1.000000 0.028571 0.710053
1.000000 0.028571 0.710053
0.047053 0.151715 0.710053
0.181681 0.153512 0.710053
0.323430 0.155300 0.710053
0.468480 0.157004 0.710053
0.615630 0.158586 0.710053
0.764247 0.160020 0.710053
0.913929 0.161282 0.710053
1.000000 0.162290 0.710053
1.000000 0.162290 0.710053
0.061104 0.287273 0.710053
0.194780 0.288689 0.710053
0.335418 0.290032 0.710053
0.479223 0.291238 0.710053
0.625010 0.292276 0.710053
0.772159 0.293122 0.710053
0.920284 0.293761 0.710053
1.000000 0.294159 0.710053
1.000000 0.294159 0.710053
0.071579 0.421401 0.710053
0.204004 0.422316 0.710053
0.343246 0.423101 0.710053
0.485552 0.423707 0.710053
0.629757 0.424112 0.710053
0.775259 0.424300 0.710053
0.921690 0.424261 0.710053
1.000000 0.424015 0.710053
1.000000 0.424015 0.710053
0.077593 0.553744 0.710053
0.208572 0.554081 0.710053
0.346253 0.554241 0.710053
0.486931 0.554196 0.710053
0.629467 0.553934 0.710053
0.773283 0.553447 0.710053
0.918029 0.552735 0.710053
1.000000 0.551865 0.710053
1.000000 0.551865 0.710053
0.078635 0.684098 0.710053
0.208098 0.683829 0.710053
0.344183 0.683351 0.710053
0.483243 0.682659 0.710053
0.624167 0.681751 0.710053
0.766399 0.680631 0.710053
0.909611 0.679305 0.710053
1.000000 0.677886 0.710053
1.000000 0.677886 0.710053
0.074619 0.812429 0.710053
0.202622 0.811576 0.710053
0.337213 0.810500 0.710053
0.474801 0.809219 0.710053
0.614305 0.807744 0.710053
0.755190 0.806085 0.710053
0.897148 0.804257 0.710053
1.000000 0.802409 0.710053
1.000000 0.802409 0.710053
0.065883 0.938873 0.710053
0.192607 0.937508 0.710053
0.325931 0.935925 0.710053
0.462319 0.934164 0.710053
0.600714 0.932245 0.710053
0.740604 0.930188 0.710053
0.881695 0.928013 0.710053
1.000000 0.925893 0.710053
1.000000 0.925893 0.710053
0.058470 1.000000 0.710053
0.184545 1.000000 0.710053
0.317250 1.000000 0.710053
0.453078 1.000000 0.710053
0.590989 1.000000 0.710053
0.730479 1.000000 0.710053
0.871262 1.000000 0.710053
1.000000 1.000000 0.710053
1.000000 1.000000 0.710053
0.031928 0.015728 0.808546
0.167098 0.017741 0.808546
0.309540 0.019806 0.808546
0.455421 0.021842 0.808546
0.603533 0.023810 0.808546
0.753239 0.025679 0.808546
0.904126 0.027423 0.808546
1.000000 0.028919 0.808546
1.000000 0.028919 0.808546
0.048229 0.152186 0.808546
0.182797 0.153958 0.808546
0.324474 0.155717 0.808546
0.469440 0.157387 0.808546
0.616496 0.158932 0.808546
0.765009 0.160325 0.808546
0.914581 0.161543 0.808546
1.000000 0.162506 0.808546
1.000000 0.162506 0.808546
0.062045 0.287650 0.808546
0.195635 0.289031 0.808546
0.336174 0.290335 0.808546
0.479873 0.291498 0.808546
0.625545 0.292490 0.808546
0.772572 0.293288 0.808546
0.920570 0.293876 0.808546
1.000000 0.294225 0.808546
1.000000 0.294225 0.808546
0.072206 0.421652 0.808546
0.204525 0.422525 0.808546
0.343652 0.423264 0.808546
0.485837 0.423821 0.808546
0.629915 0.424175 0.808546
0.775287 0.424311 0.808546
0.921588 0.424220 0.808546
1.000000 0.423925 0.808546
1.000000 0.423925 0.808546
0.077852 0.553847 0.808546
0.208716 0.554138 0.808546
0.346274 0.554250 0.808546
0.486827 0.554154 0.808546
0.629236 0.553841 0.808546
0.772925 0.553304 0.808546
0.917547 0.552541 0.808546
1.000000 0.551627 0.808546
1.000000 0.551627 0.808546
0.078505 0.684046 0.808546
0.207852 0.683730 0.808546
0.343818 0.683205 0.808546
0.482759 0.682465 0.808546
0.623566 0.681510 0.808546
0.765685 0.680345 0.808546
0.908789 0.678976 0.808546
1.000000 0.677520 0.808546
1.000000 0.677520 0.808546
0.074110 0.812226 0.808546
0.202007 0.811330 0.808546
0.336492 0.810212 0.808546
0.473977 0.808890 0.808546
0.613384 0.807375 0.808546
0.754179 0.805680 0.808546
0.896056 0.803820 0.808546
1.000000 0.801946 0.808546
1.000000 0.801946 0.808546
0.065039 0.938535 0.808546
0.191676 0.937135 0.808546
0.324915 0.935519 0.808546
0.461226 0.933727 0.808546
0.599552 0.931780 0.808546
0.739383 0.929699 0.808546
0.880426 0.927506 0.808546
1.000000 0.925371 0.808546
1.000000 0.925371 0.808546
0.057453 1.000000 0.808546
0.183456 1.000000 0.808546
0.316094 1.000000 0.808546
0.451864 1.000000 0.808546
0.589726 1.000000 0.808546
0.729179 1.000000 0.808546
0.869936 1.000000 0.808546
1.000000 1.000000 0.808546
1.000000 1.000000 0.808546
