Fotico/Resources/LUTs/dorado.cube
# Dorado
LUT_3D_SIZE 17
0.021029 0.011368 0.000000
0.087194 0.012386 0.000000
0.156363 0.013447 0.000000
0.227151 0.014527 0.000000
0.299063 0.015616 0.000000
0.371837 0.016707 0.000000
0.445302 0.017795 0.000000
0.519342 0.018875 0.000000
0.593870 0.019945 0.000000
0.668817 0.020999 0.000000
0.744126 0.022034 0.000000
0.819753 0.023048 0.000000
0.895657 0.024036 0.000000
0.971804 0.024995 0.000000
1.000000 0.025805 0.000000
1.000000 0.025805 0.000000
1.000000 0.025805 0.000000
0.029728 0.079817 0.000000
0.095844 0.080815 0.000000
0.164946 0.081849 0.000000
0.235647 0.082894 0.000000
0.307454 0.083941 0.000000
0.380102 0.084982 0.000000
0.453423 0.086012 0.000000
0.527298 0.087027 0.000000
0.601642 0.088022 0.000000
0.676386 0.088995 0.000000
0.751473 0.089942 0.000000
0.826859 0.090859 0.000000
0.902504 0.091743 0.000000
0.978375 0.092592 0.000000
1.000000 0.093300 0.000000
1.000000 0.093300 0.000000
1.000000 0.093300 0.000000
0.038195 0.148172 0.000000
0.104210 0.149130 0.000000
0.173189 0.150115 0.000000
0.243749 0.151104 0.000000
0.315395 0.152086 0.000000
0.387862 0.153054 0.000000
0.460983 0.154004 0.000000
0.534640 0.154932 0.000000
0.608747 0.155833 0.000000
0.683235 0.156704 0.000000
0.758050 0.157541 0.000000
0.833147 0.158343 0.000000
0.908486 0.159105 0.000000
0.984035 0.159825 0.000000
1.000000 0.160415 0.000000
1.000000 0.160415 0.000000
1.000000 0.160415 0.000000
0.046251 0.216364 0.000000
0.112114 0.217261 0.000000
0.180919 0.218176 0.000000
0.251284 0.219086 0.000000
0.322716 0.219983 0.000000
0.394951 0.220858 0.000000
0.467821 0.221709 0.000000
0.541211 0.222529 0.000000
0.615033 0.223316 0.000000
0.689220 0.224066 0.000000
0.763718 0.224777 0.000000
0.838482 0.225446 0.000000
0.913475 0.226069 0.000000
0.988664 0.226645 0.000000
1.000000 0.227106 0.000000
1.000000 0.227106 0.000000
1.000000 0.227106 0.000000
0.053725 0.284322 0.000000
0.119387 0.285139 0.000000
0.187969 0.285965 0.000000
0.258091 0.286778 0.000000
0.329262 0.287570 0.000000
0.401218 0.288334 0.000000
0.473793 0.289066 0.000000
0.546871 0.289762 0.000000
0.620366 0.290418 0.000000
0.694212 0.291032 0.000000
0.768356 0.291601 0.000000
0.842752 0.292122 0.000000
0.917365 0.292594 0.000000
0.992163 0.293014 0.000000
1.000000 0.293335 0.000000
1.000000 0.293335 0.000000
1.000000 0.293335 0.000000
0.060457 0.351983 0.000000
0.125876 0.352703 0.000000
0.194190 0.353422 0.000000
0.264026 0.354121 0.000000
0.334893 0.354791 0.000000
0.406530 0.355428 0.000000
0.478770 0.356026 0.000000
0.551500 0.356582 0.000000
0.624634 0.357094 0.000000
0.698106 0.357558 0.000000
0.771864 0.357973 0.000000
0.845865 0.358336 0.000000
0.920074 0.358646 0.000000
0.994459 0.358901 0.000000
1.000000 0.359076 0.000000
1.000000 0.359076 0.000000
1.000000 0.359076 0.000000
0.066304 0.419291 0.000000
0.131441 0.419898 0.000000
0.199449 0.420494 0.000000
0.268962 0.421064 0.000000
0.339490 0.421599 0.000000
0.410774 0.422094 0.000000
0.482648 0.422546 0.000000
0.555000 0.422951 0.000000
0.627745 0.423307 0.000000
0.700819 0.423612 0.000000
0.774170 0.423864 0.000000
0.847756 0.424061 0.000000
0.921543 0.424203 0.000000
0.995502 0.424287 0.000000
1.000000 0.424312 0.000000
1.000000 0.424312 0.000000
1.000000 0.424312 0.000000
0.071141 0.486195 0.000000
0.135964 0.486676 0.000000
0.203636 0.487138 0.000000
0.272795 0.487566 0.000000
0.342956 0.487954 0.000000
0.413859 0.488297 0.000000
0.485344 0.488593 0.000000
0.557296 0.488838 0.000000
0.629633 0.489031 0.000000
0.702292 0.489170 0.000000
0.775223 0.489254 0.000000
0.848384 0.489281 0.000000
0.921742 0.489251 0.000000
0.995270 0.489163 0.000000
1.000000 0.489038 0.000000
1.000000 0.489038 0.000000
1.000000 0.489038 0.000000
0.074867 0.552654 0.000000
0.139350 0.552999 0.000000
0.206660 0.553316 0.000000
0.275443 0.553594 0.000000
0.345215 0.553826 0.000000
0.415721 0.554010 0.000000
0.486800 0.554144 0.000000
0.558339 0.554224 0.000000
0.630258 0.554250 0.000000
0.702495 0.554220 0.000000
0.775001 0.554134 0.000000
0.847735 0.553991 0.000000
0.920667 0.553789 0.000000
0.993768 0.553531 0.000000
1.000000 0.553258 0.000000
1.000000 0.553258 0.000000
1.000000 0.553258 0.000000
0.077401 0.618636 0.000000
0.141526 0.618838 0.000000
0.208458 0.619004 0.000000
0.276849 0.619125 0.000000
0.346221 0.619197 0.000000
0.416320 0.619218 0.000000
0.486985 0.619187 0.000000
0.558107 0.619100 0.000000
0.629607 0.618958 0.000000
0.701423 0.618760 0.000000
0.773509 0.618506 0.000000
0.845824 0.618195 0.000000
0.918339 0.617827 0.000000
0.991028 0.617403 0.000000
1.000000 0.616989 0.000000
1.000000 0.616989 0.000000
1.000000 0.616989 0.000000
0.078690 0.684120 0.000000
0.142447 0.684175 0.000000
0.208990 0.684186 0.000000
0.276984 0.684148 0.000000
0.345952 0.684058 0.000000
0.415642 0.683916 0.000000
0.485895 0.683720 0.000000
0.556606 0.683468 0.000000
0.627694 0.683162 0.000000
0.699100 0.682800 0.000000
0.770778 0.682383 0.000000
0.842691 0.681911 0.000000
0.914810 0.681384 0.000000
0.987109 0.680804 0.000000
1.000000 0.680257 0.000000
1.000000 0.680257 0.000000
1.000000 0.680257 0.000000
0.078707 0.749096 0.000000
0.142091 0.749002 0.000000
0.208247 0.748857 0.000000
0.275845 0.748661 0.000000
0.344413 0.748412 0.000000
0.413702 0.748109 0.000000
0.483555 0.747752 0.000000
0.553866 0.747341 0.000000
0.624558 0.746876 0.000000
0.695574 0.746358 0.000000
0.766868 0.745787 0.000000
0.838403 0.745164 0.000000
0.910153 0.744490 0.000000
0.982093 0.743767 0.000000
1.000000 0.743097 0.000000
1.000000 0.743097 0.000000
1.000000 0.743097 0.000000
0.077450 0.813562 0.000000
0.140468 0.813321 0.000000
0.206243 0.813024 0.000000
0.273456 0.812674 0.000000
0.341638 0.812270 0.000000
0.410541 0.811813 0.000000
0.480012 0.811304 0.000000
0.549947 0.810742 0.000000
0.620268 0.810129 0.000000
0.690921 0.809465 0.000000
0.761860 0.808753 0.000000
0.833051 0.807992 0.000000
0.904468 0.807185 0.000000
0.976087 0.806333 0.000000
1.000000 0.805557 0.000000
1.000000 0.805557 0.000000
1.000000 0.805557 0.000000
0.074947 0.877529 0.000000
0.137611 0.877147 0.000000
0.203022 0.876704 0.000000
0.269868 0.876208 0.000000
0.337685 0.875658 0.000000
0.406228 0.875057 0.000000
0.475344 0.874405 0.000000
0.544931 0.873705 0.000000
0.614914 0.872956 0.000000
0.685239 0.872161 0.000000
0.755861 0.871322 0.000000
0.826749 0.870440 0.000000
0.897876 0.869517 0.000000
0.969219 0.868555 0.000000
1.000000 0.867687 0.000000
1.000000 0.867687 0.000000
1.000000 0.867687 0.000000
0.071251 0.941019 0.000000
0.133581 0.940504 0.000000
0.198651 0.939925 0.000000
0.265157 0.939292 0.000000
0.332638 0.938608 0.000000
0.400852 0.937875 0.000000
0.469648 0.937096 0.000000
0.538925 0.936271 0.000000
0.608610 0.935403 0.000000
0.678649 0.934494 0.000000
0.749000 0.933546 0.000000
0.819631 0.932561 0.000000
0.890516 0.931542 0.000000
0.961636 0.930490 0.000000
1.000000 0.929551 0.000000
1.000000 0.929551 0.000000
1.000000 0.929551 0.000000
0.066440 1.000000 0.000000
0.128464 1.000000 0.000000
0.193224 1.000000 0.000000
0.259424 1.000000 0.000000
0.326606 1.000000 0.000000
0.394530 1.000000 0.000000
0.463047 0.999424 0.000000
0.532058 0.998493 0.000000
0.601491 0.997524 0.000000
0.671292 0.996520 0.000000
0.741422 0.995484 0.000000
0.811848 0.994417 0.000000
0.882547 0.993323 0.000000
0.953498 0.992204 0.000000
1.000000 0.991212 0.000000
1.000000 0.991212 0.000000
1.000000 0.991212 0.000000
0.065184 1.000000 0.000000
0.127142 1.000000 0.000000
0.191836 1.000000 0.000000
0.257970 1.000000 0.000000
0.325089 1.000000 0.000000
0.392952 1.000000 0.000000
0.461412 1.000000 0.000000
0.530369 1.000000 0.000000
0.599750 1.000000 0.000000
0.669504 1.000000 0.000000
0.739591 1.000000 0.000000
0.809978 1.000000 0.000000
0.880642 1.000000 0.000000
0.951562 1.000000 0.000000
1.000000 1.000000 0.000000
1.000000 1.000000 0.000000
1.000000 1.000000 0.000000
0.021587 0.011592 0.041058
0.087751 0.012609 0.041058
0.156917 0.013669 0.041058
0.227701 0.014747 0.041058
0.299609 0.015834 0.041058
0.372376 0.016922 0.041058
0.445833 0.018007 0.041058
0.519865 0.019084 0.041058
0.594383 0.020150 0.041058
0.669318 0.021199 0.041058
0.744615 0.022230 0.041058
0.820228 0.023238 0.041058
0.896117 0.024220 0.041058
0.972248 0.025173 0.041058
1.000000 0.025976 0.041058
1.000000 0.025976 0.041058
1.000000 0.025976 0.041058
0.030277 0.080036 0.041058
0.096388 0.081033 0.041058
0.165484 0.082064 0.041058
0.236178 0.083106 0.041058
0.307976 0.084149 0.041058
0.380614 0.085186 0.041058
0.453923 0.086212 0.041058
0.527787 0.087222 0.041058
0.602117 0.088212 0.041058
0.676846 0.089179 0.041058
0.751917 0.090119 0.041058
0.827286 0.091030 0.041058
0.902913 0.091907 0.041058
0.978765 0.092748 0.041058
1.000000 0.093448 0.041058
1.000000 0.093448 0.041058
1.000000 0.093448 0.041058
0.038723 0.148384 0.041058
0.104730 0.149338 0.041058
0.173700 0.150319 0.041058
0.244249 0.151304 0.041058
0.315882 0.152280 0.041058
0.388336 0.153244 0.041058
0.461442 0.154188 0.041058
0.535084 0.155109 0.041058
0.609174 0.156004 0.041058
0.683644 0.156867 0.041058
0.758441 0.157697 0.041058
0.833517 0.158491 0.041058
0.908835 0.159244 0.041058
0.984362 0.159956 0.041058
1.000000 0.160538 0.041058
1.000000 0.160538 0.041058
1.000000 0.160538 0.041058
0.046747 0.216562 0.041058
0.112599 0.217454 0.041058
0.181390 0.218364 0.041058
0.251741 0.219269 0.041058
0.323158 0.220160 0.041058
0.395376 0.221029 0.041058
0.468229 0.221872 0.041058
0.541600 0.222685 0.041058
0.615403 0.223464 0.041058
0.689569 0.224206 0.041058
0.764046 0.224908 0.041058
0.838788 0.225568 0.041058
0.913757 0.226182 0.041058
0.988922 0.226748 0.041058
1.000000 0.227201 0.041058
1.000000 0.227201 0.041058
1.000000 0.227201 0.041058
0.054178 0.284503 0.041058
0.119826 0.285314 0.041058
0.188392 0.286134 0.041058
0.258497 0.286940 0.041058
0.329650 0.287725 0.041058
0.401586 0.288482 0.041058
0.474141 0.289205 0.041058
0.547198 0.289893 0.041058
0.620671 0.290540 0.041058
0.694494 0.291145 0.041058
0.768614 0.291704 0.041058
0.842986 0.292216 0.041058
0.917574 0.292677 0.041058
0.992346 0.293087 0.041058
1.000000 0.293400 0.041058
1.000000 0.293400 0.041058
1.000000 0.293400 0.041058
0.060858 0.352143 0.041058
0.126260 0.352856 0.041058
0.194555 0.353568 0.041058
0.264372 0.354259 0.041058
0.335218 0.354921 0.041058
0.406833 0.355549 0.041058
0.479052 0.356138 0.041058
0.551758 0.356685 0.041058
0.624868 0.357188 0.041058
0.698315 0.357642 0.041058
0.772048 0.358047 0.041058
0.846023 0.358399 0.041058
0.920205 0.358699 0.041058
0.994563 0.358942 0.041058
1.000000 0.359109 0.041058
1.000000 0.359109 0.041058
1.000000 0.359109 0.041058
0.066644 0.419427 0.041058
0.131762 0.420026 0.041058
0.199750 0.420614 0.041058
0.269241 0.421175 0.041058
0.339746 0.421701 0.041058
0.411006 0.422187 0.041058
0.482856 0.422629 0.041058
0.555183 0.423024 0.041058
0.627902 0.423370 0.041058
0.700950 0.423665 0.041058
0.774275 0.423906 0.041058
0.847834 0.424093 0.041058
0.921594 0.424223 0.041058
0.995525 0.424296 0.041058
1.000000 0.424312 0.041058
1.000000 0.424312 0.041058
1.000000 0.424312 0.041058
0.071413 0.486303 0.041058
0.136215 0.486776 0.041058
0.203864 0.487229 0.041058
0.273000 0.487648 0.041058
0.343136 0.488026 0.041058
0.414015 0.488359 0.041058
0.485474 0.488645 0.041058
0.557400 0.488880 0.041058
0.629711 0.489062 0.041058
0.702343 0.489191 0.041058
0.775247 0.489264 0.041058
0.848381 0.489280 0.041058
0.921712 0.489239 0.041058
0.995212 0.489139 0.041058
1.000000 0.489005 0.041058
1.000000 0.489005 0.041058
1.000000 0.489005 0.041058
0.075065 0.552733 0.041058
0.139526 0.553069 0.041058
0.206812 0.553377 0.041058
0.275570 0.553645 0.041058
0.345317 0.553867 0.041058
0.415797 0.554041 0.041058
0.486849 0.554164 0.041058
0.558362 0.554233 0.041058
0.630255 0.554249 0.041058
0.702465 0.554208 0.041058
0.774943 0.554111 0.041058
0.847651 0.553957 0.041058
0.920555 0.553745 0.041058
0.993630 0.553475 0.041058
1.000000 0.553193 0.041058
1.000000 0.553193 0.041058
1.000000 0.553193 0.041058
0.077521 0.618684 0.041058
0.141623 0.618877 0.041058
0.208530 0.619033 0.041058
0.276896 0.619144 0.041058
0.346242 0.619206 0.041058
0.416314 0.619216 0.041058
0.486953 0.619174 0.041058
0.558049 0.619077 0.041058
0.629522 0.618924 0.041058
0.701312 0.618716 0.041058
0.773371 0.618451 0.041058
0.845660 0.618129 0.041058
0.918149 0.617751 0.041058
0.990813 0.617317 0.041058
1.000000 0.616894 0.041058
1.000000 0.616894 0.041058
1.000000 0.616894 0.041058
0.078730 0.684136 0.041058
0.142462 0.684181 0.041058
0.208981 0.684182 0.041058
0.276949 0.684134 0.041058
0.345891 0.684034 0.041058
0.415555 0.683882 0.041058
0.485783 0.683675 0.041058
0.556467 0.683413 0.041058
0.627530 0.683096 0.041058
0.698910 0.682724 0.041058
0.770563 0.682297 0.041058
0.842451 0.681815 0.041058
0.914545 0.681278 0.041058
0.986820 0.680689 0.041058
1.000000 0.680133 0.041058
1.000000 0.680133 0.041058
1.000000 0.680133 0.041058
0.078664 0.749079 0.041058
0.142025 0.748975 0.041058
0.208157 0.748821 0.041058
0.275730 0.748615 0.041058
0.344273 0.748355 0.041058
0.413536 0.748043 0.041058
0.483364 0.747676 0.041058
0.553650 0.747255 0.041058
0.624318 0.746780 0.041058
0.695310 0.746252 0.041058
0.766580 0.745672 0.041058
0.838093 0.745040 0.041058
0.909820 0.744357 0.041058
0.981738 0.743625 0.041058
1.000000 0.742948 0.041058
1.000000 0.742948 0.041058
1.000000 0.742948 0.041058
0.077327 0.813512 0.041058
0.140322 0.813262 0.041058
0.206073 0.812956 0.041058
0.273262 0.812597 0.041058
0.341420 0.812183 0.041058
0.410300 0.811717 0.041058
0.479747 0.811198 0.041058
0.549658 0.810627 0.041058
0.619957 0.810005 0.041058
0.690588 0.809332 0.041058
0.761505 0.808611 0.041058
0.832676 0.807842 0.041058
0.904073 0.807027 0.041058
0.975673 0.806168 0.041058
1.000000 0.805385 0.041058
1.000000 0.805385 0.041058
1.000000 0.805385 0.041058
0.074746 0.877449 0.041058
0.137388 0.877058 0.041058
0.202776 0.876606 0.041058
0.269600 0.876100 0.041058
0.337395 0.875542 0.041058
0.405915 0.874932 0.041058
0.475010 0.874272 0.041058
0.544576 0.873563 0.041058
0.614539 0.872806 0.041058
0.684844 0.872004 0.041058
0.755448 0.871157 0.041058
0.826318 0.870267 0.041058
0.897427 0.869337 0.041058
0.968755 0.868369 0.041058
1.000000 0.867497 0.041058
1.000000 0.867497 0.041058
1.000000 0.867497 0.041058
0.070976 0.940910 0.041058
0.133286 0.940386 0.041058
0.198335 0.939799 0.041058
0.264821 0.939157 0.041058
0.332282 0.938465 0.041058
0.400476 0.937725 0.041058
0.469253 0.936938 0.041058
0.538511 0.936106 0.041058
0.608179 0.935231 0.041058
0.678201 0.934315 0.041058
0.748536 0.933361 0.041058
0.819153 0.932370 0.041058
0.890024 0.931345 0.041058
0.961131 0.930288 0.041058
1.000000 0.929345 0.041058
1.000000 0.929345 0.041058
1.000000 0.929345 0.041058
0.066098 1.000000 0.041058
0.128103 1.000000 0.041058
0.192844 1.000000 0.041058
0.259026 1.000000 0.041058
0.326190 1.000000 0.041058
0.394097 1.000000 0.041058
0.462598 0.999244 0.041058
0.531594 0.998307 0.041058
0.601012 0.997333 0.041058
0.670800 0.996324 0.041058
0.740918 0.995282 0.041058
0.811333 0.994211 0.041058
0.882021 0.993113 0.041058
0.952964 0.991990 0.041058
1.000000 0.990996 0.041058
1.000000 0.990996 0.041058
1.000000 0.990996 0.041058
0.064827 1.000000 0.041058
0.126767 1.000000 0.041058
0.191442 1.000000 0.041058
0.257559 1.000000 0.041058
0.324661 1.000000 0.041058
0.392508 1.000000 0.041058
0.460952 1.000000 0.041058
0.529894 1.000000 0.041058
0.599262 1.000000 0.041058
0.669004 1.000000 0.041058
0.739079 1.000000 0.041058
0.809456 1.000000 0.041058
0.880110 1.000000 0.041058
0.951023 1.000000 0.041058
1.000000 1.000000 0.041058
1.000000 1.000000 0.041058
1.000000 1.000000 0.041058
0.022343 0.011894 0.096658
0.088504 0.012910 0.096658
0.157666 0.013969 0.096658
0.228445 0.015045 0.096658
0.300346 0.016128 0.096658
0.373103 0.017213 0.096658
0.446551 0.018294 0.096658
0.520570 0.019366 0.096658
0.595074 0.020426 0.096658
0.669993 0.021470 0.096658
0.745273 0.022493 0.096658
0.820867 0.023493 0.096658
0.896735 0.024467 0.096658
0.972844 0.025411 0.096658
1.000000 0.026206 0.096658
1.000000 0.026206 0.096658
1.000000 0.026206 0.096658
0.031019 0.080333 0.096658
0.097123 0.081327 0.096658
0.166210 0.082355 0.096658
0.236894 0.083393 0.096658
0.308680 0.084431 0.096658
0.381304 0.085462 0.096658
0.454598 0.086482 0.096658
0.528444 0.087485 0.096658
0.602756 0.088468 0.096658
0.677464 0.089427 0.096658
0.752514 0.090358 0.096658
0.827859 0.091259 0.096658
0.903461 0.092126 0.096658
0.979286 0.092957 0.096658
1.000000 0.093647 0.096658
1.000000 0.093647 0.096658
1.000000 0.093647 0.096658
0.039436 0.148668 0.096658
0.105431 0.149619 0.096658
0.174387 0.150594 0.096658
0.244921 0.151573 0.096658
0.316538 0.152543 0.096658
0.388973 0.153499 0.096658
0.462059 0.154435 0.096658
0.535680 0.155348 0.096658
0.609747 0.156233 0.096658
0.684193 0.157087 0.096658
0.758963 0.157906 0.096658
0.834012 0.158689 0.096658
0.909301 0.159431 0.096658
0.984798 0.160130 0.096658
1.000000 0.160702 0.096658
1.000000 0.160702 0.096658
1.000000 0.160702 0.096658
0.047415 0.216829 0.096658
0.113251 0.217715 0.096658
0.182025 0.218618 0.096658
0.252356 0.219515 0.096658
0.323752 0.220397 0.096658
0.395948 0.221257 0.096658
0.468777 0.222091 0.096658
0.542122 0.222894 0.096658
0.615898 0.223662 0.096658
0.690036 0.224393 0.096658
0.764483 0.225083 0.096658
0.839194 0.225730 0.096658
0.914132 0.226332 0.096658
0.989264 0.226885 0.096658
1.000000 0.227326 0.096658
1.000000 0.227326 0.096658
1.000000 0.227326 0.096658
0.054787 0.284746 0.096658
0.120416 0.285550 0.096658
0.188959 0.286361 0.096658
0.259041 0.287158 0.096658
0.330169 0.287933 0.096658
0.402079 0.288679 0.096658
0.474607 0.289392 0.096658
0.547635 0.290067 0.096658
0.621078 0.290703 0.096658
0.694869 0.291295 0.096658
0.768957 0.291841 0.096658
0.843295 0.292340 0.096658
0.917849 0.292787 0.096658
0.992586 0.293183 0.096658
1.000000 0.293483 0.096658
1.000000 0.293483 0.096658
1.000000 0.293483 0.096658
0.061395 0.352358 0.096658
0.126773 0.353062 0.096658
0.195044 0.353763 0.096658
0.264834 0.354444 0.096658
0.335652 0.355095 0.096658
0.407238 0.355711 0.096658
0.479425 0.356288 0.096658
0.552100 0.356822 0.096658
0.625177 0.357311 0.096658
0.698591 0.357752 0.096658
0.772289 0.358143 0.096658
0.846229 0.358482 0.096658
0.920375 0.358766 0.096658
0.994696 0.358996 0.096658
1.000000 0.359149 0.096658
1.000000 0.359149 0.096658
1.000000 0.359149 0.096658
0.067097 0.419608 0.096658
0.132189 0.420197 0.096658
0.200149 0.420774 0.096658
0.269610 0.421323 0.096658
0.340085 0.421837 0.096658
0.411313 0.422310 0.096658
0.483130 0.422738 0.096658
0.555423 0.423120 0.096658
0.628108 0.423452 0.096658
0.701120 0.423733 0.096658
0.774409 0.423960 0.096658
0.847932 0.424132 0.096658
0.921655 0.424247 0.096658
0.995549 0.424305 0.096658
1.000000 0.424308 0.096658
1.000000 0.424308 0.096658
1.000000 0.424308 0.096658
0.071774 0.486448 0.096658
0.136548 0.486909 0.096658
0.204166 0.487350 0.096658
0.273270 0.487756 0.096658
0.343373 0.488121 0.096658
0.414218 0.488441 0.096658
0.485642 0.488712 0.096658
0.557533 0.488933 0.096658
0.629808 0.489101 0.096658
0.702404 0.489215 0.096658
0.775271 0.489273 0.096658
0.848368 0.489275 0.096658
0.921662 0.489219 0.096658
0.995125 0.489105 0.096658
1.000000 0.488957 0.096658
1.000000 0.488957 0.096658
1.000000 0.488957 0.096658
0.075325 0.552837 0.096658
0.139756 0.553161 0.096658
0.207010 0.553456 0.096658
0.275734 0.553710 0.096658
0.345447 0.553919 0.096658
0.415892 0.554079 0.096658
0.486909 0.554187 0.096658
0.558386 0.554243 0.096658
0.630242 0.554243 0.096658
0.702415 0.554188 0.096658
0.774857 0.554077 0.096658
0.847528 0.553908 0.096658
0.920396 0.553681 0.096658
0.993434 0.553397 0.096658
1.000000 0.553103 0.096658
1.000000 0.553103 0.096658
1.000000 0.553103 0.096658
0.077675 0.618746 0.096658
0.141746 0.618926 0.096658
0.208619 0.619068 0.096658
0.276951 0.619166 0.096658
0.346262 0.619214 0.096658
0.416299 0.619210 0.096658
0.486902 0.619154 0.096658
0.557962 0.619042 0.096658
0.629400 0.618875 0.096658
0.701154 0.618652 0.096658
0.773176 0.618373 0.096658
0.845430 0.618037 0.096658
0.917884 0.617645 0.096658
0.990513 0.617197 0.096658
1.000000 0.616762 0.096658
1.000000 0.616762 0.096658
1.000000 0.616762 0.096658
0.078774 0.684154 0.096658
0.142475 0.684186 0.096658
0.208960 0.684174 0.096658
0.276894 0.684112 0.096658
0.345801 0.683998 0.096658
0.415430 0.683831 0.096658
0.485623 0.683611 0.096658
0.556272 0.683335 0.096658
0.627299 0.683004 0.096658
0.698646 0.682618 0.096658
0.770264 0.682177 0.096658
0.842119 0.681682 0.096658
0.914180 0.681132 0.096658
0.986423 0.680530 0.096658
1.000000 0.679963 0.096658
1.000000 0.679963 0.096658
1.000000 0.679963 0.096658
0.078599 0.749052 0.096658
0.141928 0.748936 0.096658
0.208026 0.748769 0.096658
0.275565 0.748549 0.096658
0.344074 0.748276 0.096658
0.413304 0.747950 0.096658
0.483098 0.747569 0.096658
0.553351 0.747135 0.096658
0.623986 0.746647 0.096658
0.694945 0.746106 0.096658
0.766183 0.745513 0.096658
0.837665 0.744869 0.096658
0.909362 0.744174 0.096658
0.981251 0.743430 0.096658
1.000000 0.742744 0.096658
1.000000 0.742744 0.096658
1.000000 0.742744 0.096658
0.077152 0.813443 0.096658
0.140116 0.813180 0.096658
0.205836 0.812861 0.096658
0.272992 0.812488 0.096658
0.341118 0.812062 0.096658
0.409965 0.811583 0.096658
0.479381 0.811051 0.096658
0.549261 0.810468 0.096658
0.619529 0.809833 0.096658
0.690130 0.809149 0.096658
0.761019 0.808416 0.096658
0.832162 0.807636 0.096658
0.903532 0.806811 0.096658
0.975107 0.805941 0.096658
1.000000 0.805150 0.096658
1.000000 0.805150 0.096658
1.000000 0.805150 0.096658
0.074466 0.877337 0.096658
0.137078 0.876934 0.096658
0.202437 0.876470 0.096658
0.269230 0.875952 0.096658
0.336994 0.875382 0.096658
0.405485 0.874760 0.096658
0.474551 0.874088 0.096658
0.544089 0.873368 0.096658
0.614025 0.872600 0.096658
0.684304 0.871787 0.096658
0.754883 0.870931 0.096658
0.825729 0.870032 0.096658
0.896816 0.869093 0.096658
0.968122 0.868116 0.096658
1.000000 0.867237 0.096658
1.000000 0.867237 0.096658
1.000000 0.867237 0.096658
0.070597 0.940758 0.096658
0.132879 0.940223 0.096658
0.197901 0.939625 0.096658
0.264359 0.938973 0.096658
0.331792 0.938270 0.096658
0.399960 0.937518 0.096658
0.468711 0.936721 0.096658
0.537945 0.935879 0.096658
0.607590 0.934995 0.096658
0.677589 0.934070 0.096658
0.747904 0.933108 0.096658
0.818501 0.932109 0.096658
0.889354 0.931077 0.096658
0.960445 0.930014 0.096658
1.000000 0.929065 0.096658
1.000000 0.929065 0.096658
1.000000 0.929065 0.096658
0.065627 1.000000 0.096658
0.127608 1.000000 0.096658
0.192324 1.000000 0.096658
0.258482 1.000000 0.096658
0.325622 1.000000 0.096658
0.393506 0.999906 0.096658
0.461986 0.998999 0.096658
0.530961 0.998054 0.096658
0.600360 0.997072 0.096658
0.670130 0.996056 0.096658
0.740231 0.995008 0.096658
0.810632 0.993930 0.096658
0.881307 0.992827 0.096658
0.952238 0.991700 0.096658
1.000000 0.990702 0.096658
1.000000 0.990702 0.096658
1.000000 0.990702 0.096658
0.064337 1.000000 0.096658
0.126253 1.000000 0.096658
0.190904 1.000000 0.096658
0.256998 1.000000 0.096658
0.324077 1.000000 0.096658
0.391902 1.000000 0.096658
0.460325 1.000000 0.096658
0.529248 1.000000 0.096658
0.598598 1.000000 0.096658
0.668323 1.000000 0.096658
0.738382 1.000000 0.096658
0.808746 1.000000 0.096658
0.879388 1.000000 0.096658
0.950291 1.000000 0.096658
1.000000 1.000000 0.096658
1.000000 1.000000 0.096658
1.000000 1.000000 0.096658
0.023076 0.012187 0.150601
0.089234 0.013202 0.150601
0.158392 0.014259 0.150601
0.229165 0.015333 0.150601
0.301058 0.016413 0.150601
0.373807 0.017495 0.150601
0.447244 0.018571 0.150601
0.521250 0.019639 0.150601
0.595740 0.020693 0.150601
0.670644 0.021730 0.150601
0.745907 0.022746 0.150601
0.821482 0.023739 0.150601
0.897330 0.024705 0.150601
0.973416 0.025640 0.150601
1.000000 0.026427 0.150601
1.000000 0.026427 0.150601
1.000000 0.026427 0.150601
0.031737 0.080620 0.150601
0.097834 0.081611 0.150601
0.166912 0.082636 0.150601
0.237585 0.083669 0.150601
