Fotico/Resources/LUTs/drama.cube
# Drama
LUT_3D_SIZE 9
0.000000 0.000000 0.000000
0.000000 0.000000 0.000000
0.070834 0.000000 0.000000
0.246655 0.000000 0.000000
0.450267 0.000000 0.000000
0.649204 0.000000 0.000000
0.811686 0.000000 0.000000
0.900615 0.003835 0.003835
0.900615 0.003835 0.003835
0.000000 0.000000 0.000000
0.000000 0.000000 0.000000
0.070834 0.000000 0.000000
0.246655 0.000000 0.000000
0.450267 0.000000 0.000000
0.649204 0.000000 0.000000
0.811686 0.000000 0.000000
0.900615 0.003835 0.003835
0.900615 0.003835 0.003835
0.000000 0.079419 0.000000
0.000000 0.079419 0.000000
0.083037 0.083037 0.000000
0.258154 0.089574 0.000000
0.461431 0.097432 0.000000
0.660168 0.105259 0.006130
0.822529 0.111721 0.013427
0.911402 0.115279 0.017359
0.911402 0.115279 0.017359
0.001521 0.269357 0.001521
0.001521 0.269357 0.001521
0.104937 0.272763 0.005758
0.278932 0.278932 0.013070
0.481632 0.286367 0.021623
0.680017 0.293792 0.030005
0.842164 0.299938 0.036860
0.930938 0.303325 0.040614
0.930938 0.303325 0.040614
0.030656 0.489436 0.030656
0.030656 0.489436 0.030656
0.131068 0.492742 0.034443
0.303906 0.498732 0.041256
0.505956 0.505956 0.049404
0.703935 0.513175 0.057485
0.865831 0.519153 0.064138
0.954488 0.522450 0.067793
0.954488 0.522450 0.067793
0.058116 0.704491 0.058116
0.058116 0.704491 0.058116
0.156940 0.707738 0.061789
0.328778 0.713621 0.068419
0.530222 0.720718 0.076378
0.727811 0.727811 0.084296
0.889466 0.733686 0.090828
0.978010 0.736926 0.094422
0.978010 0.736926 0.094422
0.080355 0.880147 0.080355
0.080355 0.880147 0.080355
0.178214 0.883358 0.083970
0.349315 0.889176 0.090504
0.550286 0.896196 0.098358
0.747565 0.903213 0.106181
0.909025 0.909025 0.112641
0.997477 0.912231 0.116197
0.997477 0.912231 0.116197
0.092488 0.976289 0.092488
0.092488 0.976289 0.092488
0.189896 0.979483 0.096078
0.360620 0.985272 0.102570
0.561340 0.992256 0.110377
0.758453 0.999237 0.118156
0.919807 1.000000 0.124583
1.000000 1.000000 0.128121
1.000000 1.000000 0.128121
0.092488 0.976289 0.092488
0.092488 0.976289 0.092488
0.189896 0.979483 0.096078
0.360620 0.985272 0.102570
0.561340 0.992256 0.110377
0.758453 0.999237 0.118156
0.919807 1.000000 0.124583
1.000000 1.000000 0.128121
1.000000 1.000000 0.128121
0.000000 0.000000 0.000000
0.000000 0.000000 0.000000
0.070834 0.000000 0.000000
0.246655 0.000000 0.000000
0.450267 0.000000 0.000000
0.649204 0.000000 0.000000
0.811686 0.000000 0.000000
0.900615 0.003835 0.003835
0.900615 0.003835 0.003835
0.000000 0.000000 0.000000
0.000000 0.000000 0.000000
0.070834 0.000000 0.000000
0.246655 0.000000 0.000000
0.450267 0.000000 0.000000
0.649204 0.000000 0.000000
0.811686 0.000000 0.000000
0.900615 0.003835 0.003835
0.900615 0.003835 0.003835
0.000000 0.079419 0.000000
0.000000 0.079419 0.000000
0.083037 0.083037 0.000000
0.258154 0.089574 0.000000
0.461431 0.097432 0.000000
0.660168 0.105259 0.006130
0.822529 0.111721 0.013427
0.911402 0.115279 0.017359
0.911402 0.115279 0.017359
0.001521 0.269357 0.001521
0.001521 0.269357 0.001521
0.104937 0.272763 0.005758
0.278932 0.278932 0.013070
0.481632 0.286367 0.021623
0.680017 0.293792 0.030005
0.842164 0.299938 0.036860
0.930938 0.303325 0.040614
0.930938 0.303325 0.040614
0.030656 0.489436 0.030656
0.030656 0.489436 0.030656
0.131068 0.492742 0.034443
0.303906 0.498732 0.041256
0.505956 0.505956 0.049404
0.703935 0.513175 0.057485
0.865831 0.519153 0.064138
0.954488 0.522450 0.067793
0.954488 0.522450 0.067793
0.058116 0.704491 0.058116
0.058116 0.704491 0.058116
0.156940 0.707738 0.061789
0.328778 0.713621 0.068419
0.530222 0.720718 0.076378
0.727811 0.727811 0.084296
0.889466 0.733686 0.090828
0.978010 0.736926 0.094422
0.978010 0.736926 0.094422
0.080355 0.880147 0.080355
0.080355 0.880147 0.080355
0.178214 0.883358 0.083970
0.349315 0.889176 0.090504
0.550286 0.896196 0.098358
0.747565 0.903213 0.106181
0.909025 0.909025 0.112641
0.997477 0.912231 0.116197
0.997477 0.912231 0.116197
0.092488 0.976289 0.092488
0.092488 0.976289 0.092488
0.189896 0.979483 0.096078
0.360620 0.985272 0.102570
0.561340 0.992256 0.110377
0.758453 0.999237 0.118156
0.919807 1.000000 0.124583
1.000000 1.000000 0.128121
1.000000 1.000000 0.128121
0.092488 0.976289 0.092488
0.092488 0.976289 0.092488
0.189896 0.979483 0.096078
0.360620 0.985272 0.102570
0.561340 0.992256 0.110377
0.758453 0.999237 0.118156
0.919807 1.000000 0.124583
1.000000 1.000000 0.128121
1.000000 1.000000 0.128121
0.000000 0.000000 0.068426
0.000000 0.000000 0.068426
0.072070 0.000000 0.072070
0.247817 0.000000 0.078652
0.451395 0.000000 0.086559
0.650312 0.000000 0.094430
0.812781 0.000977 0.100926
0.901704 0.005254 0.104502
0.901704 0.005254 0.104502
0.000000 0.000000 0.068426
0.000000 0.000000 0.068426
0.072070 0.000000 0.072070
0.247817 0.000000 0.078652
0.451395 0.000000 0.086559
0.650312 0.000000 0.094430
0.812781 0.000977 0.100926
0.901704 0.005254 0.104502
0.901704 0.005254 0.104502
0.000000 0.080649 0.080649
0.000000 0.080649 0.080649
0.084264 0.084264 0.084264
0.259313 0.090796 0.090796
0.462557 0.098649 0.098649
0.661275 0.106471 0.106471
0.823623 0.112930 0.112930
0.912491 0.116486 0.116486
0.912491 0.116486 0.116486
0.002991 0.270514 0.102577
0.002991 0.270514 0.102577
0.106149 0.273920 0.106149
0.280086 0.280086 0.112609
0.482756 0.287520 0.120381
0.681122 0.294944 0.128129
0.843257 0.301088 0.134530
0.932025 0.304476 0.138055
0.932025 0.304476 0.138055
0.031945 0.490559 0.128735
0.031945 0.490559 0.128735
0.132267 0.493865 0.132267
0.305056 0.499854 0.138659
0.507077 0.507077 0.146353
0.705037 0.514296 0.154027
0.866922 0.520273 0.160371
0.955574 0.523569 0.163866
0.955574 0.523569 0.163866
0.059364 0.705594 0.154627
0.059364 0.705594 0.154627
0.158128 0.708840 0.158128
0.329924 0.714723 0.164464
0.531341 0.721819 0.172095
0.728912 0.728912 0.179708
0.890555 0.734787 0.186004
0.979094 0.738027 0.189473
0.979094 0.738027 0.189473
0.081584 0.881237 0.175916
0.081584 0.881237 0.175916
0.179395 0.884448 0.179395
0.350457 0.890266 0.185691
0.551403 0.897285 0.193277
0.748665 0.904302 0.200847
0.910114 0.910114 0.207109
0.998561 0.913319 0.210560
0.998561 0.913319 0.210560
0.093708 0.977374 0.187605
0.093708 0.977374 0.187605
0.191073 0.980568 0.191073
0.361760 0.986356 0.197350
0.562455 0.993340 0.204913
0.759551 1.000000 0.212462
0.920895 1.000000 0.218706
1.000000 1.000000 0.222148
1.000000 1.000000 0.222148
0.093708 0.977374 0.187605
0.093708 0.977374 0.187605
0.191073 0.980568 0.191073
0.361760 0.986356 0.197350
0.562455 0.993340 0.204913
0.759551 1.000000 0.212462
0.920895 1.000000 0.218706
1.000000 1.000000 0.222148
1.000000 1.000000 0.222148
0.000000 0.000000 0.240294
0.000000 0.000000 0.240294
0.074308 0.000000 0.243720
0.249922 0.000000 0.249922
0.453438 0.000000 0.257398
0.652318 0.000000 0.264862
0.814765 0.003646 0.271039
0.903678 0.007781 0.274444
0.903678 0.007781 0.274444
0.000000 0.000000 0.240294
0.000000 0.000000 0.240294
0.074308 0.000000 0.243720
0.249922 0.000000 0.249922
0.453438 0.000000 0.257398
0.652318 0.000000 0.264862
0.814765 0.003646 0.271039
0.903678 0.007781 0.274444
0.903678 0.007781 0.274444
0.000000 0.082875 0.251808
0.000000 0.082875 0.251808
0.086485 0.086485 0.255226
0.261414 0.093009 0.261414
0.464598 0.100853 0.268873
0.663280 0.108667 0.276321
0.825606 0.115119 0.282486
0.914464 0.118672 0.285884
0.914464 0.118672 0.285884
0.005573 0.272611 0.272611
0.005573 0.272611 0.272611
0.108345 0.276015 0.276015
0.282179 0.282179 0.282179
0.484793 0.289610 0.289610
0.683124 0.297031 0.297031
0.845238 0.303174 0.303174
0.933996 0.306560 0.306560
0.933996 0.306560 0.306560
0.034274 0.492594 0.297613
0.034274 0.492594 0.297613
0.134440 0.495899 0.301002
0.307140 0.501887 0.307140
0.509109 0.509109 0.314540
0.707036 0.516326 0.321931
0.868900 0.522302 0.328049
0.957543 0.525598 0.331421
0.957543 0.525598 0.331421
0.061624 0.707592 0.322510
0.061624 0.707592 0.322510
0.160281 0.710838 0.325885
0.331999 0.716720 0.331999
0.533368 0.723815 0.339371
0.730907 0.730907 0.346734
0.892531 0.736781 0.352829
0.981060 0.740021 0.356190
0.981060 0.740021 0.356190
0.083808 0.883214 0.343066
0.083808 0.883214 0.343066
0.181534 0.886424 0.346431
0.352526 0.892242 0.352526
0.553426 0.899260 0.359876
0.750657 0.906276 0.367218
0.912087 0.912087 0.373296
1.000000 0.915292 0.376647
1.000000 0.915292 0.376647
0.095917 0.979340 0.354380
0.095917 0.979340 0.354380
0.193206 0.982534 0.357740
0.363826 0.988322 0.363826
0.564477 0.995304 0.371164
0.761542 1.000000 0.378495
0.922867 1.000000 0.384564
1.000000 1.000000 0.387910
1.000000 1.000000 0.387910
0.095917 0.979340 0.354380
0.095917 0.979340 0.354380
0.193206 0.982534 0.357740
0.363826 0.988322 0.363826
0.564477 0.995304 0.371164
0.761542 1.000000 0.378495
0.922867 1.000000 0.384564
1.000000 1.000000 0.387910
1.000000 1.000000 0.387910
0.000000 0.000000 0.439295
0.000000 0.000000 0.439295
0.077005 0.000000 0.442620
0.252462 0.000000 0.448641
0.455904 0.000000 0.455904
0.654740 0.000000 0.463160
0.817160 0.006732 0.469169
0.906061 0.010777 0.472482
0.906061 0.010777 0.472482
0.000000 0.000000 0.439295
0.000000 0.000000 0.439295
0.077005 0.000000 0.442620
0.252462 0.000000 0.448641
0.455904 0.000000 0.455904
0.654740 0.000000 0.463160
0.817160 0.006732 0.469169
0.906061 0.010777 0.472482
0.906061 0.010777 0.472482
0.000000 0.085558 0.450473
0.000000 0.085558 0.450473
0.089162 0.089162 0.453793
0.263948 0.095677 0.459808
0.467061 0.103510 0.467061
0.665699 0.111314 0.474309
0.827999 0.117759 0.480310
0.916845 0.121307 0.483620
0.916845 0.121307 0.483620
0.008610 0.275140 0.470698
0.008610 0.275140 0.470698
0.110993 0.278542 0.474011
0.284704 0.284704 0.480012
0.487250 0.292131 0.487250
0.685540 0.299550 0.494483
0.847628 0.305689 0.500472
0.936375 0.309074 0.503774
0.936375 0.309074 0.503774
0.037074 0.495049 0.495049
0.037074 0.495049 0.495049
0.137059 0.498354 0.498354
0.309654 0.504340 0.504340
0.511561 0.511561 0.511561
0.709448 0.518776 0.518776
0.871287 0.524750 0.524750
0.959918 0.528045 0.528045
0.959918 0.528045 0.528045
0.064346 0.710004 0.519341
0.064346 0.710004 0.519341
0.162878 0.713249 0.522638
0.334504 0.719130 0.528610
0.535813 0.726224 0.535813
0.733315 0.733315 0.543012
0.894915 0.739188 0.548973
0.983433 0.742427 0.552261
0.983433 0.742427 0.552261
0.086490 0.885599 0.539425
0.086490 0.885599 0.539425
0.184115 0.888809 0.542716
0.355023 0.894625 0.548677
0.555867 0.901643 0.555867
0.753062 0.908658 0.563053
0.914468 0.914468 0.569003
1.000000 0.917673 0.572285
1.000000 0.917673 0.572285
0.098581 0.981713 0.550490
0.098581 0.981713 0.550490
0.195779 0.984906 0.553777
0.366319 0.990693 0.559732
0.566916 0.997675 0.566916
0.763945 1.000000 0.574094
0.925247 1.000000 0.580039
1.000000 1.000000 0.583317
1.000000 1.000000 0.583317
0.098581 0.981713 0.550490
0.098581 0.981713 0.550490
0.195779 0.984906 0.553777
0.366319 0.990693 0.559732
0.566916 0.997675 0.566916
0.763945 1.000000 0.574094
0.925247 1.000000 0.580039
1.000000 1.000000 0.583317
1.000000 1.000000 0.583317
0.000000 0.000000 0.633719
0.000000 0.000000 0.633719
0.079698 0.000000 0.636983
0.255001 0.000000 0.642897
0.458369 0.000000 0.650031
0.657161 0.002250 0.657161
0.819554 0.009746 0.663065
0.908443 0.013731 0.666322
0.908443 0.013731 0.666322
0.000000 0.000000 0.633719
0.000000 0.000000 0.633719
0.079698 0.000000 0.636983
0.255001 0.000000 0.642897
0.458369 0.000000 0.650031
0.657161 0.002250 0.657161
0.819554 0.009746 0.663065
0.908443 0.013731 0.666322
0.908443 0.013731 0.666322
0.000000 0.088236 0.644696
0.000000 0.088236 0.644696
0.091835 0.091835 0.647957
0.266481 0.098340 0.653866
0.469523 0.106163 0.660994
0.668118 0.113958 0.668118
0.830392 0.120395 0.674018
0.919225 0.123940 0.677272
0.919225 0.123940 0.677272
0.011593 0.277668 0.664568
0.011593 0.277668 0.664568
0.113637 0.281068 0.667824
0.287227 0.287227 0.673724
0.489707 0.294652 0.680842
0.687955 0.302067 0.687955
0.850018 0.308204 0.693846
0.938753 0.311587 0.697096
0.938753 0.311587 0.697096
0.039864 0.497504 0.688512
0.039864 0.497504 0.688512
0.139676 0.500808 0.691763
0.312167 0.506793 0.697653
0.514011 0.514011 0.704757
0.711859 0.521225 0.711859
0.873674 0.527198 0.717740
0.962293 0.530492 0.720984
0.962293 0.530492 0.720984
0.067062 0.712415 0.712415
0.067062 0.712415 0.712415
0.165473 0.715660 0.715660
0.337007 0.721540 0.721540
0.538259 0.728633 0.728633
0.735722 0.735722 0.735722
0.897298 0.741594 0.741594
0.985805 0.744832 0.744832
0.985805 0.744832 0.744832
0.089167 0.887984 0.732190
0.089167 0.887984 0.732190
0.186694 0.891193 0.735430
0.357519 0.897009 0.741302
0.558308 0.904026 0.748386
0.755466 0.911039 0.755466
0.916849 0.916849 0.761330
1.000000 0.920053 0.764564
1.000000 0.920053 0.764564
0.101240 0.984085 0.743088
0.101240 0.984085 0.743088
0.198350 0.987278 0.746327
0.368811 0.993065 0.752194
0.569354 1.000000 0.759272
0.766347 1.000000 0.766347
0.927626 1.000000 0.772207
1.000000 1.000000 0.775439
1.000000 1.000000 0.775439
0.101240 0.984085 0.743088
0.101240 0.984085 0.743088
0.198350 0.987278 0.746327
0.368811 0.993065 0.752194
0.569354 1.000000 0.759272
0.766347 1.000000 0.766347
0.927626 1.000000 0.772207
1.000000 1.000000 0.775439
1.000000 1.000000 0.775439
0.000000 0.000000 0.792511
0.000000 0.000000 0.792511
0.081925 0.000000 0.795739
0.257103 0.000000 0.801587
0.460411 0.000000 0.808643
0.659166 0.004857 0.815696
0.821538 0.012207 0.821538
0.910416 0.016155 0.824760
0.910416 0.016155 0.824760
0.000000 0.000000 0.792511
0.000000 0.000000 0.792511
0.081925 0.000000 0.795739
0.257103 0.000000 0.801587
0.460411 0.000000 0.808643
0.659166 0.004857 0.815696
0.821538 0.012207 0.821538
0.910416 0.016155 0.824760
0.910416 0.016155 0.824760
0.000000 0.090452 0.803367
0.000000 0.090452 0.803367
0.094047 0.094047 0.806592
0.268579 0.100545 0.812437
0.471563 0.108359 0.819488
0.670122 0.116146 0.826537
0.832374 0.122578 0.832374
0.921198 0.126119 0.835594
0.921198 0.126119 0.835594
0.014036 0.279761 0.823025
0.014036 0.279761 0.823025
0.115826 0.283161 0.826246
0.289317 0.289317 0.832084
0.491742 0.296739 0.839127
0.689956 0.304152 0.846167
0.851998 0.310287 0.851998
0.940723 0.313669 0.855214
0.940723 0.313669 0.855214
0.042168 0.499538 0.846718
0.042168 0.499538 0.846718
0.141842 0.502841 0.849935
0.314248 0.508825 0.855765
0.516042 0.516042 0.862798
0.713856 0.523254 0.869828
0.875651 0.529226 0.875651
0.964261 0.532519 0.878863
0.964261 0.532519 0.878863
0.069309 0.714413 0.870379
0.069309 0.714413 0.870379
0.167621 0.717657 0.873592
0.339080 0.723536 0.879413
0.540284 0.730628 0.886437
0.737717 0.737717 0.893458
0.899273 0.743587 0.899273
0.987771 0.746826 0.902480
0.987771 0.746826 0.902480
0.091382 0.889959 0.889959
0.091382 0.889959 0.889959
0.188829 0.893168 0.893168
0.359587 0.898984 0.898984
0.560330 0.905999 0.905999
0.757457 0.913012 0.913012
0.918821 0.918821 0.918821
1.000000 0.922025 0.922025
1.000000 0.922025 0.922025
0.103442 0.986051 0.900753
0.103442 0.986051 0.900753
0.200479 0.989244 0.903960
0.370875 0.995029 0.909772
0.571374 1.000000 0.916783
0.768338 1.000000 0.923792
0.929598 1.000000 0.929598
1.000000 1.000000 0.932800
1.000000 1.000000 0.932800
0.103442 0.986051 0.900753
0.103442 0.986051 0.900753
0.200479 0.989244 0.903960
0.370875 0.995029 0.909772
0.571374 1.000000 0.916783
0.768338 1.000000 0.923792
0.929598 1.000000 0.929598
1.000000 1.000000 0.932800
1.000000 1.000000 0.932800
0.000000 0.000000 0.879420
0.000000 0.000000 0.879420
0.083153 0.000000 0.882631
0.258263 0.000000 0.888450
0.461537 0.000000 0.895470
0.660272 0.006262 0.902487
0.822632 0.013554 0.908299
0.911505 0.017484 0.911505
0.911505 0.017484 0.911505
0.000000 0.000000 0.879420
0.000000 0.000000 0.879420
0.083153 0.000000 0.882631
0.258263 0.000000 0.888450
0.461537 0.000000 0.895470
0.660272 0.006262 0.902487
0.822632 0.013554 0.908299
0.911505 0.017484 0.911505
0.911505 0.017484 0.911505
0.000000 0.091674 0.890220
0.000000 0.091674 0.890220
0.095266 0.095266 0.893429
0.269736 0.101760 0.899244
0.472688 0.109570 0.906260
0.671227 0.117352 0.913273
0.833468 0.123781 0.919082
0.922286 0.127321 0.922286
0.922286 0.127321 0.922286
0.015374 0.280916 0.909778
0.015374 0.280916 0.909778
0.117032 0.284315 0.912984
0.290470 0.290470 0.918793
0.492865 0.297891 0.925801
0.691060 0.305302 0.932807
0.853090 0.311435 0.938609
0.941810 0.314817 0.941810
0.941810 0.314817 0.941810
0.043437 0.500660 0.933355
0.043437 0.500660 0.933355
0.143037 0.503962 0.936557
0.315396 0.509945 0.942358
0.517162 0.517162 0.949358
0.714958 0.524373 0.956354
0.876742 0.530345 0.962150
0.965347 0.533638 0.965347
0.965347 0.533638 0.965347
0.070546 0.715514 0.956903
0.070546 0.715514 0.956903
0.168805 0.718759 0.960100
0.340224 0.724637 0.965894
0.541402 0.731729 0.972885
0.738817 0.738817 0.979873
0.900362 0.744687 0.985662
0.988855 0.747925 0.988855
0.988855 0.747925 0.988855
0.092603 0.891049 0.976391
0.092603 0.891049 0.976391
0.190007 0.894258 0.979586
0.360727 0.900073 0.985374
0.561445 0.907088 0.992358
0.758556 0.914101 0.999339
0.919909 0.919909 1.000000
1.000000 0.923113 1.000000
1.000000 0.923113 1.000000
0.104655 0.987135 0.987135
0.104655 0.987135 0.987135
0.201653 0.990328 0.990328
0.372014 0.996113 0.996113
0.572488 1.000000 1.000000
0.769436 1.000000 1.000000
0.930685 1.000000 1.000000
1.000000 1.000000 1.000000
1.000000 1.000000 1.000000
0.104655 0.987135 0.987135
0.104655 0.987135 0.987135
0.201653 0.990328 0.990328
0.372014 0.996113 0.996113
0.572488 1.000000 1.000000
0.769436 1.000000 1.000000
0.930685 1.000000 1.000000
1.000000 1.000000 1.000000
1.000000 1.000000 1.000000
0.000000 0.000000 0.879420
0.000000 0.000000 0.879420
0.083153 0.000000 0.882631
0.258263 0.000000 0.888450
0.461537 0.000000 0.895470
0.660272 0.006262 0.902487
0.822632 0.013554 0.908299
0.911505 0.017484 0.911505
0.911505 0.017484 0.911505
0.000000 0.000000 0.879420
0.000000 0.000000 0.879420
0.083153 0.000000 0.882631
0.258263 0.000000 0.888450
0.461537 0.000000 0.895470
0.660272 0.006262 0.902487
0.822632 0.013554 0.908299
0.911505 0.017484 0.911505
0.911505 0.017484 0.911505
0.000000 0.091674 0.890220
0.000000 0.091674 0.890220
0.095266 0.095266 0.893429
0.269736 0.101760 0.899244
0.472688 0.109570 0.906260
0.671227 0.117352 0.913273
0.833468 0.123781 0.919082
0.922286 0.127321 0.922286
0.922286 0.127321 0.922286
0.015374 0.280916 0.909778
0.015374 0.280916 0.909778
0.117032 0.284315 0.912984
0.290470 0.290470 0.918793
0.492865 0.297891 0.925801
0.691060 0.305302 0.932807
0.853090 0.311435 0.938609
0.941810 0.314817 0.941810
0.941810 0.314817 0.941810
0.043437 0.500660 0.933355
0.043437 0.500660 0.933355
0.143037 0.503962 0.936557
0.315396 0.509945 0.942358
0.517162 0.517162 0.949358
0.714958 0.524373 0.956354
0.876742 0.530345 0.962150
0.965347 0.533638 0.965347
0.965347 0.533638 0.965347
0.070546 0.715514 0.956903
0.070546 0.715514 0.956903
0.168805 0.718759 0.960100
0.340224 0.724637 0.965894
0.541402 0.731729 0.972885
0.738817 0.738817 0.979873
0.900362 0.744687 0.985662
0.988855 0.747925 0.988855
0.988855 0.747925 0.988855
0.092603 0.891049 0.976391
0.092603 0.891049 0.976391
0.190007 0.894258 0.979586
0.360727 0.900073 0.985374
0.561445 0.907088 0.992358
0.758556 0.914101 0.999339
0.919909 0.919909 1.000000
1.000000 0.923113 1.000000
1.000000 0.923113 1.000000
0.104655 0.987135 0.987135
0.104655 0.987135 0.987135
0.201653 0.990328 0.990328
0.372014 0.996113 0.996113
0.572488 1.000000 1.000000
0.769436 1.000000 1.000000
0.930685 1.000000 1.000000
1.000000 1.000000 1.000000
1.000000 1.000000 1.000000
0.104655 0.987135 0.987135
0.104655 0.987135 0.987135
0.201653 0.990328 0.990328
0.372014 0.996113 0.996113
0.572488 1.000000 1.000000
0.769436 1.000000 1.000000
0.930685 1.000000 1.000000
1.000000 1.000000 1.000000
1.000000 1.000000 1.000000
