Fotico/Resources/LUTs/drama.cube
# Drama
LUT_3D_SIZE 5
0.000000 0.000000 0.000000
0.070834 0.000000 0.000000
0.450267 0.000000 0.000000
0.811686 0.000000 0.000000
0.900615 0.003835 0.003835
0.000000 0.079419 0.000000
0.083037 0.083037 0.000000
0.461431 0.097432 0.000000
0.822529 0.111721 0.013427
0.911402 0.115279 0.017359
0.030656 0.489436 0.030656
0.131068 0.492742 0.034443
0.505956 0.505956 0.049404
0.865831 0.519153 0.064138
0.954488 0.522450 0.067793
0.080355 0.880147 0.080355
0.178214 0.883358 0.083970
0.550286 0.896196 0.098358
0.909025 0.909025 0.112641
0.997477 0.912231 0.116197
0.092488 0.976289 0.092488
0.189896 0.979483 0.096078
0.561340 0.992256 0.110377
0.919807 1.000000 0.124583
1.000000 1.000000 0.128121
0.000000 0.000000 0.068426
0.072070 0.000000 0.072070
0.451395 0.000000 0.086559
0.812781 0.000977 0.100926
0.901704 0.005254 0.104502
0.000000 0.080649 0.080649
0.084264 0.084264 0.084264
0.462557 0.098649 0.098649
0.823623 0.112930 0.112930
0.912491 0.116486 0.116486
0.031945 0.490559 0.128735
0.132267 0.493865 0.132267
0.507077 0.507077 0.146353
0.866922 0.520273 0.160371
0.955574 0.523569 0.163866
0.081584 0.881237 0.175916
0.179395 0.884448 0.179395
0.551403 0.897285 0.193277
0.910114 0.910114 0.207109
0.998561 0.913319 0.210560
0.093708 0.977374 0.187605
0.191073 0.980568 0.191073
0.562455 0.993340 0.204913
0.920895 1.000000 0.218706
1.000000 1.000000 0.222148
0.000000 0.000000 0.439295
0.077005 0.000000 0.442620
0.455904 0.000000 0.455904
0.817160 0.006732 0.469169
0.906061 0.010777 0.472482
0.000000 0.085558 0.450473
0.089162 0.089162 0.453793
0.467061 0.103510 0.467061
0.827999 0.117759 0.480310
0.916845 0.121307 0.483620
0.037074 0.495049 0.495049
0.137059 0.498354 0.498354
0.511561 0.511561 0.511561
0.871287 0.524750 0.524750
0.959918 0.528045 0.528045
0.086490 0.885599 0.539425
0.184115 0.888809 0.542716
0.555867 0.901643 0.555867
0.914468 0.914468 0.569003
1.000000 0.917673 0.572285
0.098581 0.981713 0.550490
0.195779 0.984906 0.553777
0.566916 0.997675 0.566916
0.925247 1.000000 0.580039
1.000000 1.000000 0.583317
0.000000 0.000000 0.792511
0.081925 0.000000 0.795739
0.460411 0.000000 0.808643
0.821538 0.012207 0.821538
0.910416 0.016155 0.824760
0.000000 0.090452 0.803367
0.094047 0.094047 0.806592
0.471563 0.108359 0.819488
0.832374 0.122578 0.832374
0.921198 0.126119 0.835594
0.042168 0.499538 0.846718
0.141842 0.502841 0.849935
0.516042 0.516042 0.862798
0.875651 0.529226 0.875651
0.964261 0.532519 0.878863
0.091382 0.889959 0.889959
0.188829 0.893168 0.893168
0.560330 0.905999 0.905999
0.918821 0.918821 0.918821
1.000000 0.922025 0.922025
0.103442 0.986051 0.900753
0.200479 0.989244 0.903960
0.571374 1.000000 0.916783
0.929598 1.000000 0.929598
1.000000 1.000000 0.932800
0.000000 0.000000 0.879420
0.083153 0.000000 0.882631
0.461537 0.000000 0.895470
0.822632 0.013554 0.908299
0.911505 0.017484 0.911505
0.000000 0.091674 0.890220
0.095266 0.095266 0.893429
0.472688 0.109570 0.906260
0.833468 0.123781 0.919082
0.922286 0.127321 0.922286
0.043437 0.500660 0.933355
0.143037 0.503962 0.936557
0.517162 0.517162 0.949358
0.876742 0.530345 0.962150
0.965347 0.533638 0.965347
0.092603 0.891049 0.976391
0.190007 0.894258 0.979586
0.561445 0.907088 0.992358
0.919909 0.919909 1.000000
1.000000 0.923113 1.000000
0.104655 0.987135 0.987135
0.201653 0.990328 0.990328
0.572488 1.000000 1.000000
0.930685 1.000000 1.000000
1.000000 1.000000 1.000000
