Fotico/Resources/LUTs/drama.cube
# Drama
LUT_3D_SIZE 17
0.000000 0.000000 0.000000
0.000000 0.000000 0.000000
0.000000 0.000000 0.000000
0.002654 0.000000 0.000000
0.070834 0.000000 0.000000
0.153220 0.000000 0.000000
0.246655 0.000000 0.000000
0.347034 0.000000 0.000000
0.450267 0.000000 0.000000
0.552319 0.000000 0.000000
0.649204 0.000000 0.000000
0.736973 0.000000 0.000000
0.811686 0.000000 0.000000
0.869403 0.002336 0.002336
0.900615 0.003835 0.003835
0.900615 0.003835 0.003835
0.900615 0.003835 0.003835
0.000000 0.000000 0.000000
0.000000 0.000000 0.000000
0.000000 0.000000 0.000000
0.002654 0.000000 0.000000
0.070834 0.000000 0.000000
0.153220 0.000000 0.000000
0.246655 0.000000 0.000000
0.347034 0.000000 0.000000
0.450267 0.000000 0.000000
0.552319 0.000000 0.000000
0.649204 0.000000 0.000000
0.736973 0.000000 0.000000
0.811686 0.000000 0.000000
0.869403 0.002336 0.002336
0.900615 0.003835 0.003835
0.900615 0.003835 0.003835
0.900615 0.003835 0.003835
0.000000 0.000000 0.000000
0.000000 0.000000 0.000000
0.000000 0.000000 0.000000
0.002654 0.000000 0.000000
0.070834 0.000000 0.000000
0.153220 0.000000 0.000000
0.246655 0.000000 0.000000
0.347034 0.000000 0.000000
0.450267 0.000000 0.000000
0.552319 0.000000 0.000000
0.649204 0.000000 0.000000
0.736973 0.000000 0.000000
0.811686 0.000000 0.000000
0.869403 0.002336 0.002336
0.900615 0.003835 0.003835
0.900615 0.003835 0.003835
0.900615 0.003835 0.003835
0.000000 0.006137 0.000000
0.000000 0.006137 0.000000
0.000000 0.006137 0.000000
0.007576 0.007576 0.000000
0.075135 0.010197 0.000000
0.157362 0.013527 0.000000
0.250700 0.017366 0.000000
0.351012 0.021525 0.000000
0.454193 0.025824 0.000000
0.556205 0.030087 0.000000
0.653060 0.034143 0.000000
0.740804 0.037823 0.001009
0.815499 0.040958 0.004601
0.873203 0.043382 0.007276
0.904408 0.044693 0.008704
0.904408 0.044693 0.008704
0.904408 0.044693 0.008704
0.000000 0.079419 0.000000
0.000000 0.079419 0.000000
0.000000 0.079419 0.000000
0.016272 0.080692 0.000000
0.083037 0.083037 0.000000
0.164987 0.086055 0.000000
0.258154 0.089574 0.000000
0.358343 0.093423 0.000000
0.461431 0.097432 0.000000
0.563371 0.101433 0.001608
0.660168 0.105259 0.006130
0.747868 0.108743 0.010096
0.822529 0.111721 0.013427
0.880209 0.114029 0.015983
0.911402 0.115279 0.017359
0.911402 0.115279 0.017359
0.911402 0.115279 0.017359
0.000000 0.168394 0.000000
0.000000 0.168394 0.000000
0.000000 0.168394 0.000000
0.027144 0.169620 0.000000
0.093169 0.171881 0.000000
0.174792 0.174792 0.000000
0.267747 0.178191 0.000000
0.367782 0.181911 0.004083
0.470753 0.185791 0.008678
0.572601 0.189667 0.013148
0.669326 0.193376 0.017358
0.756969 0.196758 0.021155
0.831588 0.199650 0.024377
0.889238 0.201892 0.026862
0.920415 0.203107 0.028205
0.920415 0.203107 0.028205
0.920415 0.203107 0.028205
0.001521 0.269357 0.001521
0.001521 0.269357 0.001521
0.001521 0.269357 0.001521
0.039573 0.270555 0.003042
0.104937 0.272763 0.005758
0.186212 0.275609 0.009167
0.278932 0.278932 0.013070
0.378794 0.282571 0.017282
0.481632 0.286367 0.021623
0.583375 0.290160 0.025921
0.680017 0.293792 0.030005
0.767595 0.297104 0.033707
0.842164 0.299938 0.036860
0.899779 0.302135 0.039296
0.930938 0.303325 0.040614
0.930938 0.303325 0.040614
0.930938 0.303325 0.040614
0.016177 0.377849 0.016177
0.016177 0.377849 0.016177
0.016177 0.377849 0.016177
0.052972 0.379026 0.017553
0.117759 0.381198 0.020077
0.198687 0.383996 0.023307
0.291165 0.387265 0.027053
0.390845 0.390845 0.031129
0.493541 0.394580 0.035355
0.595172 0.398314 0.039557
0.691725 0.401889 0.043561
0.779233 0.405150 0.047198
0.853748 0.407940 0.050300
0.911325 0.410103 0.052700
0.942464 0.411276 0.053999
0.942464 0.411276 0.053999
0.942464 0.411276 0.053999
0.030656 0.489436 0.030656
0.030656 0.489436 0.030656
0.030656 0.489436 0.030656
0.066779 0.490598 0.031990
0.131068 0.492742 0.034443
0.211668 0.495505 0.037593
0.303906 0.498732 0.041256
0.403404 0.502267 0.045252
0.505956 0.505956 0.049404
0.607473 0.509644 0.053539
0.703935 0.513175 0.057485
0.791370 0.516397 0.061074
0.865831 0.519153 0.064138
0.923369 0.521291 0.066509
0.954488 0.522450 0.067793
0.954488 0.522450 0.067793
0.954488 0.522450 0.067793
0.044788 0.599753 0.044788
0.044788 0.599753 0.044788
0.044788 0.599753 0.044788
0.080443 0.600904 0.046097
0.144310 0.603026 0.048507
0.224609 0.605762 0.051605
0.316621 0.608956 0.055213
0.415943 0.612457 0.059154
0.518356 0.616109 0.063253
0.619761 0.619761 0.067339
0.716134 0.623258 0.071241
0.803499 0.626449 0.074793
0.877905 0.629179 0.077827
0.935405 0.631296 0.080176
0.966504 0.632444 0.081448
0.966504 0.632444 0.081448
0.966504 0.632444 0.081448
0.058116 0.704491 0.058116
0.058116 0.704491 0.058116
0.058116 0.704491 0.058116
0.093424 0.705633 0.059408
0.156940 0.707738 0.061789
0.236971 0.710451 0.064851
0.328778 0.713621 0.068419
0.427938 0.717094 0.072319
0.530222 0.720718 0.076378
0.631522 0.724341 0.080427
0.727811 0.727811 0.084296
0.815110 0.730977 0.087819
0.889466 0.733686 0.090828
0.946928 0.735787 0.093160
0.978010 0.736926 0.094422
0.978010 0.736926 0.094422
0.978010 0.736926 0.094422
0.070142 0.799375 0.070142
0.070142 0.799375 0.070142
0.070142 0.799375 0.070142
0.105190 0.800509 0.071423
0.168419 0.802601 0.073782
0.248223 0.805298 0.076818
0.339851 0.808448 0.080356
0.438868 0.811899 0.084226
0.541037 0.815501 0.088255
0.642244 0.819101 0.092275
0.738458 0.822550 0.096119
0.825697 0.825697 0.099619
0.900007 0.828390 0.102610
0.957437 0.830478 0.104927
0.988501 0.831610 0.106182
0.988501 0.831610 0.106182
0.988501 0.831610 0.106182
0.080355 0.880147 0.080355
0.080355 0.880147 0.080355
0.080355 0.880147 0.080355
0.115210 0.881276 0.081627
0.178214 0.883358 0.083970
0.257835 0.886042 0.086987
0.349315 0.889176 0.090504
0.448214 0.892611 0.094351
0.550286 0.896196 0.098358
0.651415 0.899780 0.102357
0.747565 0.903213 0.106181
0.834754 0.906344 0.109664
0.909025 0.909025 0.112641
0.966427 0.911104 0.114948
0.997477 0.912231 0.116197
0.997477 0.912231 0.116197
0.997477 0.912231 0.116197
0.088232 0.942546 0.088232
0.088232 0.942546 0.088232
0.088232 0.942546 0.088232
0.122952 0.943671 0.089498
0.185793 0.945746 0.091831
0.265278 0.948420 0.094834
0.356647 0.951544 0.098336
0.455456 0.954968 0.102168
0.557455 0.958540 0.106159
0.658524 0.962112 0.110143
0.754626 0.965534 0.113954
0.841776 0.968655 0.117424
0.916017 0.971326 0.120391
0.973398 0.973398 0.122690
1.000000 0.974521 0.123936
1.000000 0.974521 0.123936
1.000000 0.974521 0.123936
0.092488 0.976289 0.092488
0.092488 0.976289 0.092488
0.092488 0.976289 0.092488
0.127139 0.977412 0.093751
0.189896 0.979483 0.096078
0.269309 0.982153 0.099075
0.360620 0.985272 0.102570
0.459380 0.988689 0.106393
0.561340 0.992256 0.110377
0.662377 0.995822 0.114353
0.758453 0.999237 0.118156
0.845582 1.000000 0.121621
0.919807 1.000000 0.124583
0.977177 1.000000 0.126878
1.000000 1.000000 0.128121
1.000000 1.000000 0.128121
1.000000 1.000000 0.128121
0.092488 0.976289 0.092488
0.092488 0.976289 0.092488
0.092488 0.976289 0.092488
0.127139 0.977412 0.093751
0.189896 0.979483 0.096078
0.269309 0.982153 0.099075
0.360620 0.985272 0.102570
0.459380 0.988689 0.106393
0.561340 0.992256 0.110377
0.662377 0.995822 0.114353
0.758453 0.999237 0.118156
0.845582 1.000000 0.121621
0.919807 1.000000 0.124583
0.977177 1.000000 0.126878
1.000000 1.000000 0.128121
1.000000 1.000000 0.128121
1.000000 1.000000 0.128121
0.092488 0.976289 0.092488
0.092488 0.976289 0.092488
0.092488 0.976289 0.092488
0.127139 0.977412 0.093751
0.189896 0.979483 0.096078
0.269309 0.982153 0.099075
0.360620 0.985272 0.102570
0.459380 0.988689 0.106393
0.561340 0.992256 0.110377
0.662377 0.995822 0.114353
0.758453 0.999237 0.118156
0.845582 1.000000 0.121621
0.919807 1.000000 0.124583
0.977177 1.000000 0.126878
1.000000 1.000000 0.128121
1.000000 1.000000 0.128121
1.000000 1.000000 0.128121
0.000000 0.000000 0.000000
0.000000 0.000000 0.000000
0.000000 0.000000 0.000000
0.002654 0.000000 0.000000
0.070834 0.000000 0.000000
0.153220 0.000000 0.000000
0.246655 0.000000 0.000000
0.347034 0.000000 0.000000
0.450267 0.000000 0.000000
0.552319 0.000000 0.000000
0.649204 0.000000 0.000000
0.736973 0.000000 0.000000
0.811686 0.000000 0.000000
0.869403 0.002336 0.002336
0.900615 0.003835 0.003835
0.900615 0.003835 0.003835
0.900615 0.003835 0.003835
0.000000 0.000000 0.000000
0.000000 0.000000 0.000000
0.000000 0.000000 0.000000
0.002654 0.000000 0.000000
0.070834 0.000000 0.000000
0.153220 0.000000 0.000000
0.246655 0.000000 0.000000
0.347034 0.000000 0.000000
0.450267 0.000000 0.000000
0.552319 0.000000 0.000000
0.649204 0.000000 0.000000
0.736973 0.000000 0.000000
0.811686 0.000000 0.000000
0.869403 0.002336 0.002336
0.900615 0.003835 0.003835
0.900615 0.003835 0.003835
0.900615 0.003835 0.003835
0.000000 0.000000 0.000000
0.000000 0.000000 0.000000
0.000000 0.000000 0.000000
0.002654 0.000000 0.000000
0.070834 0.000000 0.000000
0.153220 0.000000 0.000000
0.246655 0.000000 0.000000
0.347034 0.000000 0.000000
0.450267 0.000000 0.000000
0.552319 0.000000 0.000000
0.649204 0.000000 0.000000
0.736973 0.000000 0.000000
0.811686 0.000000 0.000000
0.869403 0.002336 0.002336
0.900615 0.003835 0.003835
0.900615 0.003835 0.003835
0.900615 0.003835 0.003835
0.000000 0.006137 0.000000
0.000000 0.006137 0.000000
0.000000 0.006137 0.000000
0.007576 0.007576 0.000000
0.075135 0.010197 0.000000
0.157362 0.013527 0.000000
0.250700 0.017366 0.000000
0.351012 0.021525 0.000000
0.454193 0.025824 0.000000
0.556205 0.030087 0.000000
0.653060 0.034143 0.000000
0.740804 0.037823 0.001009
0.815499 0.040958 0.004601
0.873203 0.043382 0.007276
0.904408 0.044693 0.008704
0.904408 0.044693 0.008704
0.904408 0.044693 0.008704
0.000000 0.079419 0.000000
0.000000 0.079419 0.000000
0.000000 0.079419 0.000000
0.016272 0.080692 0.000000
0.083037 0.083037 0.000000
0.164987 0.086055 0.000000
0.258154 0.089574 0.000000
0.358343 0.093423 0.000000
0.461431 0.097432 0.000000
0.563371 0.101433 0.001608
0.660168 0.105259 0.006130
0.747868 0.108743 0.010096
0.822529 0.111721 0.013427
0.880209 0.114029 0.015983
0.911402 0.115279 0.017359
0.911402 0.115279 0.017359
0.911402 0.115279 0.017359
0.000000 0.168394 0.000000
0.000000 0.168394 0.000000
0.000000 0.168394 0.000000
0.027144 0.169620 0.000000
0.093169 0.171881 0.000000
0.174792 0.174792 0.000000
0.267747 0.178191 0.000000
0.367782 0.181911 0.004083
0.470753 0.185791 0.008678
0.572601 0.189667 0.013148
0.669326 0.193376 0.017358
0.756969 0.196758 0.021155
0.831588 0.199650 0.024377
0.889238 0.201892 0.026862
0.920415 0.203107 0.028205
0.920415 0.203107 0.028205
0.920415 0.203107 0.028205
0.001521 0.269357 0.001521
0.001521 0.269357 0.001521
0.001521 0.269357 0.001521
0.039573 0.270555 0.003042
0.104937 0.272763 0.005758
0.186212 0.275609 0.009167
0.278932 0.278932 0.013070
0.378794 0.282571 0.017282
0.481632 0.286367 0.021623
0.583375 0.290160 0.025921
0.680017 0.293792 0.030005
0.767595 0.297104 0.033707
0.842164 0.299938 0.036860
0.899779 0.302135 0.039296
0.930938 0.303325 0.040614
0.930938 0.303325 0.040614
0.930938 0.303325 0.040614
0.016177 0.377849 0.016177
0.016177 0.377849 0.016177
0.016177 0.377849 0.016177
0.052972 0.379026 0.017553
0.117759 0.381198 0.020077
0.198687 0.383996 0.023307
0.291165 0.387265 0.027053
0.390845 0.390845 0.031129
0.493541 0.394580 0.035355
0.595172 0.398314 0.039557
0.691725 0.401889 0.043561
0.779233 0.405150 0.047198
0.853748 0.407940 0.050300
0.911325 0.410103 0.052700
0.942464 0.411276 0.053999
0.942464 0.411276 0.053999
0.942464 0.411276 0.053999
0.030656 0.489436 0.030656
0.030656 0.489436 0.030656
0.030656 0.489436 0.030656
0.066779 0.490598 0.031990
0.131068 0.492742 0.034443
0.211668 0.495505 0.037593
0.303906 0.498732 0.041256
0.403404 0.502267 0.045252
0.505956 0.505956 0.049404
0.607473 0.509644 0.053539
0.703935 0.513175 0.057485
0.791370 0.516397 0.061074
0.865831 0.519153 0.064138
0.923369 0.521291 0.066509
0.954488 0.522450 0.067793
0.954488 0.522450 0.067793
0.954488 0.522450 0.067793
0.044788 0.599753 0.044788
0.044788 0.599753 0.044788
0.044788 0.599753 0.044788
0.080443 0.600904 0.046097
0.144310 0.603026 0.048507
0.224609 0.605762 0.051605
0.316621 0.608956 0.055213
0.415943 0.612457 0.059154
0.518356 0.616109 0.063253
0.619761 0.619761 0.067339
0.716134 0.623258 0.071241
0.803499 0.626449 0.074793
0.877905 0.629179 0.077827
0.935405 0.631296 0.080176
0.966504 0.632444 0.081448
0.966504 0.632444 0.081448
0.966504 0.632444 0.081448
0.058116 0.704491 0.058116
0.058116 0.704491 0.058116
0.058116 0.704491 0.058116
0.093424 0.705633 0.059408
0.156940 0.707738 0.061789
0.236971 0.710451 0.064851
0.328778 0.713621 0.068419
0.427938 0.717094 0.072319
0.530222 0.720718 0.076378
0.631522 0.724341 0.080427
0.727811 0.727811 0.084296
0.815110 0.730977 0.087819
0.889466 0.733686 0.090828
0.946928 0.735787 0.093160
0.978010 0.736926 0.094422
0.978010 0.736926 0.094422
0.978010 0.736926 0.094422
0.070142 0.799375 0.070142
0.070142 0.799375 0.070142
0.070142 0.799375 0.070142
0.105190 0.800509 0.071423
0.168419 0.802601 0.073782
0.248223 0.805298 0.076818
0.339851 0.808448 0.080356
0.438868 0.811899 0.084226
0.541037 0.815501 0.088255
0.642244 0.819101 0.092275
0.738458 0.822550 0.096119
0.825697 0.825697 0.099619
0.900007 0.828390 0.102610
0.957437 0.830478 0.104927
0.988501 0.831610 0.106182
0.988501 0.831610 0.106182
0.988501 0.831610 0.106182
0.080355 0.880147 0.080355
0.080355 0.880147 0.080355
0.080355 0.880147 0.080355
0.115210 0.881276 0.081627
0.178214 0.883358 0.083970
0.257835 0.886042 0.086987
0.349315 0.889176 0.090504
0.448214 0.892611 0.094351
0.550286 0.896196 0.098358
0.651415 0.899780 0.102357
0.747565 0.903213 0.106181
0.834754 0.906344 0.109664
0.909025 0.909025 0.112641
0.966427 0.911104 0.114948
0.997477 0.912231 0.116197
0.997477 0.912231 0.116197
0.997477 0.912231 0.116197
0.088232 0.942546 0.088232
0.088232 0.942546 0.088232
0.088232 0.942546 0.088232
0.122952 0.943671 0.089498
0.185793 0.945746 0.091831
0.265278 0.948420 0.094834
0.356647 0.951544 0.098336
0.455456 0.954968 0.102168
0.557455 0.958540 0.106159
0.658524 0.962112 0.110143
0.754626 0.965534 0.113954
0.841776 0.968655 0.117424
0.916017 0.971326 0.120391
0.973398 0.973398 0.122690
1.000000 0.974521 0.123936
1.000000 0.974521 0.123936
1.000000 0.974521 0.123936
0.092488 0.976289 0.092488
0.092488 0.976289 0.092488
0.092488 0.976289 0.092488
0.127139 0.977412 0.093751
0.189896 0.979483 0.096078
0.269309 0.982153 0.099075
0.360620 0.985272 0.102570
0.459380 0.988689 0.106393
0.561340 0.992256 0.110377
0.662377 0.995822 0.114353
0.758453 0.999237 0.118156
0.845582 1.000000 0.121621
0.919807 1.000000 0.124583
0.977177 1.000000 0.126878
1.000000 1.000000 0.128121
1.000000 1.000000 0.128121
1.000000 1.000000 0.128121
0.092488 0.976289 0.092488
0.092488 0.976289 0.092488
0.092488 0.976289 0.092488
0.127139 0.977412 0.093751
0.189896 0.979483 0.096078
0.269309 0.982153 0.099075
0.360620 0.985272 0.102570
0.459380 0.988689 0.106393
0.561340 0.992256 0.110377
0.662377 0.995822 0.114353
0.758453 0.999237 0.118156
0.845582 1.000000 0.121621
0.919807 1.000000 0.124583
0.977177 1.000000 0.126878
1.000000 1.000000 0.128121
1.000000 1.000000 0.128121
1.000000 1.000000 0.128121
0.092488 0.976289 0.092488
0.092488 0.976289 0.092488
0.092488 0.976289 0.092488
0.127139 0.977412 0.093751
0.189896 0.979483 0.096078
0.269309 0.982153 0.099075
0.360620 0.985272 0.102570
0.459380 0.988689 0.106393
0.561340 0.992256 0.110377
0.662377 0.995822 0.114353
0.758453 0.999237 0.118156
0.845582 1.000000 0.121621
0.919807 1.000000 0.124583
0.977177 1.000000 0.126878
1.000000 1.000000 0.128121
1.000000 1.000000 0.128121
1.000000 1.000000 0.128121
0.000000 0.000000 0.000000
0.000000 0.000000 0.000000
0.000000 0.000000 0.000000
0.002654 0.000000 0.000000
0.070834 0.000000 0.000000
0.153220 0.000000 0.000000
0.246655 0.000000 0.000000
0.347034 0.000000 0.000000
0.450267 0.000000 0.000000
0.552319 0.000000 0.000000
0.649204 0.000000 0.000000
0.736973 0.000000 0.000000
0.811686 0.000000 0.000000
0.869403 0.002336 0.002336
0.900615 0.003835 0.003835
0.900615 0.003835 0.003835
0.900615 0.003835 0.003835
0.000000 0.000000 0.000000
0.000000 0.000000 0.000000
0.000000 0.000000 0.000000
0.002654 0.000000 0.000000
0.070834 0.000000 0.000000
0.153220 0.000000 0.000000
0.246655 0.000000 0.000000
0.347034 0.000000 0.000000
0.450267 0.000000 0.000000
0.552319 0.000000 0.000000
0.649204 0.000000 0.000000
0.736973 0.000000 0.000000
0.811686 0.000000 0.000000
0.869403 0.002336 0.002336
0.900615 0.003835 0.003835
0.900615 0.003835 0.003835
0.900615 0.003835 0.003835
0.000000 0.000000 0.000000
0.000000 0.000000 0.000000
0.000000 0.000000 0.000000
0.002654 0.000000 0.000000
0.070834 0.000000 0.000000
0.153220 0.000000 0.000000
0.246655 0.000000 0.000000
0.347034 0.000000 0.000000
0.450267 0.000000 0.000000
0.552319 0.000000 0.000000
0.649204 0.000000 0.000000
0.736973 0.000000 0.000000
0.811686 0.000000 0.000000
0.869403 0.002336 0.002336
0.900615 0.003835 0.003835
0.900615 0.003835 0.003835
0.900615 0.003835 0.003835
0.000000 0.006137 0.000000
0.000000 0.006137 0.000000
0.000000 0.006137 0.000000
0.007576 0.007576 0.000000
0.075135 0.010197 0.000000
0.157362 0.013527 0.000000
0.250700 0.017366 0.000000
0.351012 0.021525 0.000000
0.454193 0.025824 0.000000
0.556205 0.030087 0.000000
0.653060 0.034143 0.000000
0.740804 0.037823 0.001009
0.815499 0.040958 0.004601
0.873203 0.043382 0.007276
0.904408 0.044693 0.008704
0.904408 0.044693 0.008704
0.904408 0.044693 0.008704
0.000000 0.079419 0.000000
0.000000 0.079419 0.000000
0.000000 0.079419 0.000000
0.016272 0.080692 0.000000
0.083037 0.083037 0.000000
0.164987 0.086055 0.000000
0.258154 0.089574 0.000000
0.358343 0.093423 0.000000
0.461431 0.097432 0.000000
0.563371 0.101433 0.001608
0.660168 0.105259 0.006130
0.747868 0.108743 0.010096
0.822529 0.111721 0.013427
0.880209 0.114029 0.015983
0.911402 0.115279 0.017359
0.911402 0.115279 0.017359
0.911402 0.115279 0.017359
0.000000 0.168394 0.000000
0.000000 0.168394 0.000000
0.000000 0.168394 0.000000
0.027144 0.169620 0.000000
0.093169 0.171881 0.000000
0.174792 0.174792 0.000000
0.267747 0.178191 0.000000
0.367782 0.181911 0.004083
0.470753 0.185791 0.008678
0.572601 0.189667 0.013148
0.669326 0.193376 0.017358
0.756969 0.196758 0.021155
0.831588 0.199650 0.024377
0.889238 0.201892 0.026862
0.920415 0.203107 0.028205
0.920415 0.203107 0.028205
0.920415 0.203107 0.028205
0.001521 0.269357 0.001521
0.001521 0.269357 0.001521
0.001521 0.269357 0.001521
0.039573 0.270555 0.003042
0.104937 0.272763 0.005758
0.186212 0.275609 0.009167
0.278932 0.278932 0.013070
0.378794 0.282571 0.017282
0.481632 0.286367 0.021623
0.583375 0.290160 0.025921
0.680017 0.293792 0.030005
0.767595 0.297104 0.033707
0.842164 0.299938 0.036860
0.899779 0.302135 0.039296
0.930938 0.303325 0.040614
0.930938 0.303325 0.040614
0.930938 0.303325 0.040614
0.016177 0.377849 0.016177
0.016177 0.377849 0.016177
0.016177 0.377849 0.016177
0.052972 0.379026 0.017553
0.117759 0.381198 0.020077
0.198687 0.383996 0.023307
0.291165 0.387265 0.027053
0.390845 0.390845 0.031129
0.493541 0.394580 0.035355
0.595172 0.398314 0.039557
0.691725 0.401889 0.043561
0.779233 0.405150 0.047198
0.853748 0.407940 0.050300
0.911325 0.410103 0.052700
0.942464 0.411276 0.053999
0.942464 0.411276 0.053999
0.942464 0.411276 0.053999
0.030656 0.489436 0.030656
0.030656 0.489436 0.030656
0.030656 0.489436 0.030656
0.066779 0.490598 0.031990
0.131068 0.492742 0.034443
0.211668 0.495505 0.037593
0.303906 0.498732 0.041256
0.403404 0.502267 0.045252
0.505956 0.505956 0.049404
0.607473 0.509644 0.053539
0.703935 0.513175 0.057485
0.791370 0.516397 0.061074
0.865831 0.519153 0.064138
0.923369 0.521291 0.066509
0.954488 0.522450 0.067793
0.954488 0.522450 0.067793
0.954488 0.522450 0.067793
0.044788 0.599753 0.044788
0.044788 0.599753 0.044788
0.044788 0.599753 0.044788
0.080443 0.600904 0.046097
0.144310 0.603026 0.048507
0.224609 0.605762 0.051605
0.316621 0.608956 0.055213
0.415943 0.612457 0.059154
0.518356 0.616109 0.063253
0.619761 0.619761 0.067339
0.716134 0.623258 0.071241
0.803499 0.626449 0.074793
0.877905 0.629179 0.077827
0.935405 0.631296 0.080176
0.966504 0.632444 0.081448
0.966504 0.632444 0.081448
0.966504 0.632444 0.081448
0.058116 0.704491 0.058116
0.058116 0.704491 0.058116
0.058116 0.704491 0.058116
0.093424 0.705633 0.059408
0.156940 0.707738 0.061789
0.236971 0.710451 0.064851
0.328778 0.713621 0.068419
0.427938 0.717094 0.072319
0.530222 0.720718 0.076378
0.631522 0.724341 0.080427
0.727811 0.727811 0.084296
0.815110 0.730977 0.087819
0.889466 0.733686 0.090828
0.946928 0.735787 0.093160
0.978010 0.736926 0.094422
0.978010 0.736926 0.094422
0.978010 0.736926 0.094422
0.070142 0.799375 0.070142
0.070142 0.799375 0.070142
0.070142 0.799375 0.070142
0.105190 0.800509 0.071423
0.168419 0.802601 0.073782
0.248223 0.805298 0.076818
0.339851 0.808448 0.080356
0.438868 0.811899 0.084226
0.541037 0.815501 0.088255
0.642244 0.819101 0.092275
0.738458 0.822550 0.096119
0.825697 0.825697 0.099619
0.900007 0.828390 0.102610
0.957437 0.830478 0.104927
0.988501 0.831610 0.106182
0.988501 0.831610 0.106182
0.988501 0.831610 0.106182
0.080355 0.880147 0.080355
0.080355 0.880147 0.080355
0.080355 0.880147 0.080355
0.115210 0.881276 0.081627
0.178214 0.883358 0.083970
0.257835 0.886042 0.086987
0.349315 0.889176 0.090504
0.448214 0.892611 0.094351
0.550286 0.896196 0.098358
0.651415 0.899780 0.102357
0.747565 0.903213 0.106181
0.834754 0.906344 0.109664
0.909025 0.909025 0.112641
0.966427 0.911104 0.114948
0.997477 0.912231 0.116197
0.997477 0.912231 0.116197
0.997477 0.912231 0.116197
0.088232 0.942546 0.088232
0.088232 0.942546 0.088232
0.088232 0.942546 0.088232
0.122952 0.943671 0.089498
0.185793 0.945746 0.091831
0.265278 0.948420 0.094834
0.356647 0.951544 0.098336
0.455456 0.954968 0.102168
0.557455 0.958540 0.106159
0.658524 0.962112 0.110143
0.754626 0.965534 0.113954
0.841776 0.968655 0.117424
0.916017 0.971326 0.120391
0.973398 0.973398 0.122690
1.000000 0.974521 0.123936
1.000000 0.974521 0.123936
1.000000 0.974521 0.123936
0.092488 0.976289 0.092488
0.092488 0.976289 0.092488
0.092488 0.976289 0.092488
0.127139 0.977412 0.093751
0.189896 0.979483 0.096078
0.269309 0.982153 0.099075
0.360620 0.985272 0.102570
0.459380 0.988689 0.106393
0.561340 0.992256 0.110377
0.662377 0.995822 0.114353
0.758453 0.999237 0.118156
0.845582 1.000000 0.121621
0.919807 1.000000 0.124583
0.977177 1.000000 0.126878
1.000000 1.000000 0.128121
1.000000 1.000000 0.128121
1.000000 1.000000 0.128121
0.092488 0.976289 0.092488
0.092488 0.976289 0.092488
0.092488 0.976289 0.092488
0.127139 0.977412 0.093751
0.189896 0.979483 0.096078
0.269309 0.982153 0.099075
0.360620 0.985272 0.102570
0.459380 0.988689 0.106393
0.561340 0.992256 0.110377
0.662377 0.995822 0.114353
0.758453 0.999237 0.118156
0.845582 1.000000 0.121621
0.919807 1.000000 0.124583
0.977177 1.000000 0.126878
1.000000 1.000000 0.128121
1.000000 1.000000 0.128121
1.000000 1.000000 0.128121
0.092488 0.976289 0.092488
0.092488 0.976289 0.092488
0.092488 0.976289 0.092488
0.127139 0.977412 0.093751
0.189896 0.979483 0.096078
0.269309 0.982153 0.099075
0.360620 0.985272 0.102570
0.459380 0.988689 0.106393
0.561340 0.992256 0.110377
0.662377 0.995822 0.114353
0.758453 0.999237 0.118156
0.845582 1.000000 0.121621
0.919807 1.000000 0.124583
0.977177 1.000000 0.126878
1.000000 1.000000 0.128121
1.000000 1.000000 0.128121
1.000000 1.000000 0.128121
0.000000 0.000000 0.001646
0.000000 0.000000 0.001646
0.000000 0.000000 0.001646
0.003164 0.000000 0.003164
0.071268 0.000000 0.005876
0.153638 0.000000 0.009282
0.247063 0.000000 0.013184
0.347436 0.000000 0.017393
0.450663 0.000000 0.021733
0.552711 0.000000 0.026030
0.649594 0.000000 0.030114
0.737359 0.000000 0.033815
0.812071 0.000000 0.036968
0.869787 0.002850 0.039404
0.900998 0.004336 0.040721
0.900998 0.004336 0.040721
0.900998 0.004336 0.040721
0.000000 0.000000 0.001646
0.000000 0.000000 0.001646
0.000000 0.000000 0.001646
0.003164 0.000000 0.003164
