Fotico/Resources/LUTs/ft_dream.cube
TITLE "Dream"
LUT_3D_SIZE 33
DOMAIN_MIN 0.0 0.0 0.0
DOMAIN_MAX 1.0 1.0 1.0
0.243491 0.234659 0.245837
0.283007 0.235297 0.246553
0.319201 0.233313 0.244400
0.355035 0.231435 0.242351
0.390072 0.229628 0.240361
0.425311 0.228024 0.238590
0.460665 0.226538 0.236945
0.496099 0.225132 0.235384
0.531491 0.223786 0.233887
0.564743 0.222491 0.232443
0.598035 0.221240 0.231044
0.631365 0.220029 0.229687
0.664730 0.219170 0.228368
0.698130 0.218345 0.227087
0.731562 0.217545 0.225841
0.765027 0.216770 0.224631
0.798524 0.216020 0.223455
0.828104 0.215295 0.222314
0.850671 0.214595 0.221209
0.870772 0.213851 0.220061
0.870713 0.212955 0.219163
0.870713 0.212955 0.219163
0.870713 0.212955 0.219163
0.870713 0.212955 0.219163
0.870713 0.212955 0.219163
0.870713 0.212955 0.219163
0.870713 0.212955 0.219163
0.870713 0.212955 0.219163
0.870713 0.212955 0.219163
0.870713 0.212955 0.219163
0.870713 0.212955 0.219163
0.870713 0.212955 0.219163
0.870713 0.212955 0.219163
0.238512 0.266875 0.240652
0.274009 0.265533 0.239167
0.309532 0.264218 0.237710
0.356045 0.267822 0.238629
0.397759 0.267217 0.237135
0.436272 0.265199 0.234975
0.474813 0.263209 0.232844
0.513383 0.261248 0.230742
0.550564 0.259315 0.228668
0.586699 0.257411 0.226624
0.622863 0.255537 0.224610
0.659055 0.253693 0.222626
0.695276 0.251880 0.220673
0.730538 0.250135 0.219179
0.763741 0.248563 0.218104
0.797022 0.247105 0.217088
0.826975 0.245744 0.216127
0.849442 0.244471 0.215214
0.871949 0.243277 0.214346
0.894493 0.242155 0.213521
0.895351 0.241016 0.212708
0.895351 0.241016 0.212708
0.895351 0.241016 0.212708
0.895351 0.241016 0.212708
0.895351 0.241016 0.212708
0.895351 0.241016 0.212708
0.895351 0.241016 0.212708
0.895351 0.241016 0.212708
0.895351 0.241016 0.212708
0.895351 0.241016 0.212708
0.895351 0.241016 0.212708
0.895351 0.241016 0.212708
0.895351 0.241016 0.212708
0.233831 0.299388 0.235765
0.269420 0.298138 0.234373
0.305036 0.296915 0.233008
0.340680 0.295721 0.231671
0.376353 0.294555 0.230363
0.412055 0.293418 0.229085
0.455616 0.294252 0.227083
0.506728 0.295475 0.223884
0.544432 0.293642 0.221911
0.580663 0.291839 0.219978
0.616924 0.290068 0.218592
0.653214 0.288329 0.217229
0.689535 0.286621 0.215890
0.725887 0.284947 0.214575
0.762271 0.283306 0.213284
0.798686 0.281699 0.212019
0.830177 0.280126 0.210779
0.854708 0.278589 0.209566
0.879262 0.277089 0.208379
0.903839 0.275625 0.207220
0.908252 0.274558 0.206438
0.908252 0.274558 0.206438
0.908252 0.274558 0.206438
0.908252 0.274558 0.206438
0.908252 0.274558 0.206438
0.908252 0.274558 0.206438
0.908252 0.274558 0.206438
0.908252 0.274558 0.206438
0.908252 0.274558 0.206438
0.908252 0.274558 0.206438
0.908252 0.274558 0.206438
0.908252 0.274558 0.206438
0.908252 0.274558 0.206438
0.229463 0.332213 0.231192
0.265146 0.331058 0.229895
0.300859 0.329931 0.228627
0.336601 0.328834 0.227388
0.372374 0.327767 0.226181
0.408176 0.326731 0.225003
0.444010 0.325725 0.223857
0.479876 0.324751 0.222743
0.515774 0.323808 0.221661
0.556652 0.323856 0.219147
0.603979 0.324170 0.215605
0.647718 0.323329 0.212821
0.684145 0.321734 0.211565
0.720606 0.320175 0.210335
0.757100 0.318651 0.209131
0.793629 0.317163 0.207954
0.826854 0.315713 0.206805
0.851465 0.314301 0.205685
0.876100 0.312928 0.204594
0.900762 0.311595 0.203533
0.908330 0.310640 0.202816
0.908330 0.310640 0.202816
0.908330 0.310640 0.202816
0.908330 0.310640 0.202816
0.908330 0.310640 0.202816
0.908330 0.310640 0.202816
0.908330 0.310640 0.202816
0.908330 0.310640 0.202816
0.908330 0.310640 0.202816
0.908330 0.310640 0.202816
0.908330 0.310640 0.202816
0.908330 0.310640 0.202816
0.908330 0.310640 0.202816
0.225420 0.365362 0.226945
0.261204 0.364306 0.225748
0.297018 0.363281 0.224582
0.332863 0.362287 0.223448
0.368740 0.361324 0.222345
0.404650 0.360393 0.221275
0.440592 0.359495 0.220238
0.476568 0.358630 0.219445
0.512578 0.357799 0.218741
0.547422 0.357002 0.218064
0.581175 0.356241 0.217412
0.614961 0.355516 0.216787
0.654644 0.355294 0.214517
0.701253 0.355094 0.210427
0.748020 0.354307 0.206461
0.788972 0.353050 0.204204
0.823808 0.351732 0.203154
0.848505 0.350456 0.202135
0.873231 0.349223 0.201149
0.897984 0.348034 0.200197
0.908413 0.347196 0.199555
0.908413 0.347196 0.199555
0.908413 0.347196 0.199555
0.908413 0.347196 0.199555
0.908413 0.347196 0.199555
0.908413 0.347196 0.199555
0.908413 0.347196 0.199555
0.908413 0.347196 0.199555
0.908413 0.347196 0.199555
0.908413 0.347196 0.199555
0.908413 0.347196 0.199555
0.908413 0.347196 0.199555
0.908413 0.347196 0.199555
0.221720 0.398852 0.223043
0.257609 0.397901 0.221952
0.293530 0.396982 0.220894
0.329485 0.396096 0.219905
0.365473 0.395243 0.219186
0.401496 0.394425 0.218492
0.437554 0.393641 0.217823
0.473648 0.392893 0.217181
0.509778 0.392180 0.216566
0.544917 0.391505 0.215979
0.578788 0.390868 0.215419
0.612695 0.390270 0.214889
0.646640 0.389712 0.214388
0.680625 0.389195 0.213918
0.714649 0.388720 0.213479
0.754283 0.388459 0.211177
0.800550 0.388049 0.206828
0.838177 0.387226 0.202647
0.869558 0.386068 0.198616
0.895544 0.384993 0.197256
0.908505 0.384285 0.196702
0.908505 0.384285 0.196702
0.908505 0.384285 0.196702
0.908505 0.384285 0.196702
0.908505 0.384285 0.196702
0.908505 0.384285 0.196702
0.908505 0.384285 0.196702
0.908505 0.384285 0.196702
0.908505 0.384285 0.196702
0.908505 0.384285 0.196702
0.908505 0.384285 0.196702
0.908505 0.384285 0.196702
0.908505 0.384285 0.196702
0.218826 0.432701 0.219640
0.254383 0.431861 0.218930
0.290418 0.431055 0.218245
0.326489 0.430284 0.217587
0.362596 0.429549 0.216954
0.398740 0.428850 0.216349
0.434922 0.428189 0.215772
0.471143 0.427566 0.215223
0.507403 0.426982 0.214703
0.542820 0.426439 0.214213
0.576819 0.425937 0.213754
0.610859 0.425477 0.213328
0.644940 0.425062 0.212934
0.679065 0.424692 0.212575
0.713236 0.424369 0.212251
0.747453 0.424095 0.211965
0.781720 0.423873 0.211718
0.816038 0.423703 0.211512
0.844062 0.423564 0.209304
0.875113 0.423155 0.204898
0.893973 0.422678 0.202265
0.893973 0.422678 0.202265
0.893973 0.422678 0.202265
0.893973 0.422678 0.202265
0.893973 0.422678 0.202265
0.893973 0.422678 0.202265
0.893973 0.422678 0.202265
0.893973 0.422678 0.202265
0.893973 0.422678 0.202265
0.893973 0.422678 0.202265
0.893973 0.422678 0.202265
0.893973 0.422678 0.202265
0.893973 0.422678 0.202265
0.216682 0.466932 0.217353
0.251550 0.466210 0.216731
0.287707 0.465525 0.216136
0.323903 0.464878 0.215568
0.360138 0.464269 0.215030
0.396413 0.463700 0.214521
0.432730 0.463171 0.214042
0.469089 0.462684 0.213595
0.505493 0.462241 0.213180
0.541171 0.461842 0.212799
0.575312 0.461489 0.212453
0.609499 0.461184 0.212143
0.643734 0.460928 0.211870
0.678020 0.460725 0.211638
0.712358 0.460575 0.211448
0.746751 0.460483 0.211302
0.781205 0.460451 0.211205
0.815723 0.460483 0.211161
0.840384 0.460582 0.211179
0.863732 0.460759 0.211293
0.879351 0.460912 0.211391
0.879351 0.460912 0.211391
0.879351 0.460912 0.211391
0.879351 0.460912 0.211391
0.879351 0.460912 0.211391
0.879351 0.460912 0.211391
0.879351 0.460912 0.211391
0.879351 0.460912 0.211391
0.879351 0.460912 0.211391
0.879351 0.460912 0.211391
0.879351 0.460912 0.211391
0.879351 0.460912 0.211391
0.879351 0.460912 0.211391
0.214839 0.501571 0.215369
0.249139 0.500977 0.214841
0.285429 0.500422 0.214343
0.321761 0.499909 0.213876
0.358136 0.499438 0.213440
0.394556 0.499010 0.213038
0.431022 0.498628 0.212669
0.467535 0.498292 0.212335
0.504098 0.498005 0.212039
0.540023 0.497768 0.211781
0.574327 0.497584 0.211564
0.608685 0.497455 0.211389
0.643100 0.497384 0.211261
0.677576 0.497375 0.211182
0.712120 0.497431 0.211159
0.746756 0.497555 0.211213
0.781515 0.497767 0.211350
0.816371 0.498078 0.211555
0.841072 0.498505 0.211841
0.864682 0.499085 0.212237
0.881262 0.499635 0.212633
0.881262 0.499635 0.212633
0.881262 0.499635 0.212633
0.881262 0.499635 0.212633
0.881262 0.499635 0.212633
0.881262 0.499635 0.212633
0.881262 0.499635 0.212633
0.881262 0.499635 0.212633
0.881262 0.499635 0.212633
0.881262 0.499635 0.212633
0.881262 0.499635 0.212633
0.881262 0.499635 0.212633
0.881262 0.499635 0.212633
0.213321 0.536223 0.213714
0.247189 0.535797 0.213290
0.283625 0.535412 0.212899
0.320108 0.535070 0.212543
0.356640 0.534773 0.212223
0.393222 0.534521 0.211940
0.429857 0.534317 0.211697
0.466547 0.534163 0.211495
0.503296 0.534062 0.211337
0.539456 0.534017 0.211226
0.573956 0.534030 0.211167
0.608526 0.534105 0.211166
0.643211 0.534248 0.211256
0.678005 0.534479 0.211416
0.712899 0.534807 0.211649
0.747913 0.535253 0.211970
0.783103 0.535872 0.212425
0.818393 0.536588 0.213046
0.842568 0.537184 0.213661
0.866164 0.537701 0.214270
0.882617 0.538026 0.214692
0.882617 0.538026 0.214692
0.882617 0.538026 0.214692
0.882617 0.538026 0.214692
0.882617 0.538026 0.214692
0.882617 0.538026 0.214692
0.882617 0.538026 0.214692
0.882617 0.538026 0.214692
0.882617 0.538026 0.214692
0.882617 0.538026 0.214692
0.882617 0.538026 0.214692
0.882617 0.538026 0.214692
0.882617 0.538026 0.214692
0.212162 0.569495 0.212423
0.245751 0.569213 0.212116
0.282352 0.568979 0.211847
0.319007 0.568793 0.211619
0.355718 0.568658 0.211432
0.392490 0.568577 0.211291
0.429325 0.568552 0.211198
0.466231 0.568588 0.211159
0.503219 0.568686 0.211187
0.539679 0.568860 0.211306
0.574508 0.569125 0.211492
0.609443 0.569492 0.211754
0.644510 0.569990 0.212116
0.679784 0.570692 0.212652
0.715019 0.571353 0.213271
0.750158 0.571918 0.213883
0.785227 0.572412 0.214490
0.820160 0.572848 0.215093
0.843668 0.573232 0.215692
0.867145 0.573570 0.216287
0.883523 0.573781 0.216701
0.883523 0.573781 0.216701
0.883523 0.573781 0.216701
0.883523 0.573781 0.216701
0.883523 0.573781 0.216701
0.883523 0.573781 0.216701
0.883523 0.573781 0.216701
0.883523 0.573781 0.216701
0.883523 0.573781 0.216701
0.883523 0.573781 0.216701
0.883523 0.573781 0.216701
0.883523 0.573781 0.216701
0.883523 0.573781 0.216701
0.211410 0.603276 0.211546
0.244897 0.603160 0.211375
0.281692 0.603099 0.211251
0.318552 0.603096 0.211178
0.355485 0.603155 0.211160
0.392523 0.603277 0.211223
0.429688 0.603484 0.211366
0.466958 0.603784 0.211577
0.504349 0.604194 0.211872
0.541134 0.604754 0.212282
0.576438 0.605485 0.212878
0.611633 0.606106 0.213494
0.646744 0.606643 0.214105
0.681791 0.607115 0.214710
0.716783 0.607531 0.215311
0.751727 0.607898 0.215909
0.786626 0.608221 0.216503
0.820999 0.608502 0.217095
0.844413 0.608746 0.217683
0.867803 0.608953 0.218269
0.884123 0.609077 0.218677
0.884123 0.609077 0.218677
0.884123 0.609077 0.218677
0.884123 0.609077 0.218677
0.884123 0.609077 0.218677
0.884123 0.609077 0.218677
0.884123 0.609077 0.218677
0.884123 0.609077 0.218677
0.884123 0.609077 0.218677
0.884123 0.609077 0.218677
0.884123 0.609077 0.218677
0.884123 0.609077 0.218677
0.884123 0.609077 0.218677
0.211137 0.637648 0.211164
0.244750 0.637729 0.211170
0.281841 0.637880 0.211268
0.319043 0.638119 0.211434
0.356354 0.638457 0.211674
0.393797 0.638915 0.212005
0.431443 0.639561 0.212481
0.469149 0.640261 0.213103
0.506735 0.640848 0.213717
0.543323 0.641360 0.214325
0.578349 0.641810 0.214929
0.613322 0.642208 0.215529
0.648249 0.642559 0.216126
0.683134 0.642866 0.216719
0.717979 0.643133 0.217309
0.752787 0.643363 0.217897
0.787560 0.643558 0.218482
0.821546 0.643719 0.219064
0.844885 0.643848 0.219645
0.868203 0.643947 0.220307
0.884475 0.643999 0.220861
0.884475 0.643999 0.220861
0.884475 0.643999 0.220861
0.884475 0.643999 0.220861
0.884475 0.643999 0.220861
0.884475 0.643999 0.220861
0.884475 0.643999 0.220861
0.884475 0.643999 0.220861
0.884475 0.643999 0.220861
0.884475 0.643999 0.220861
0.884475 0.643999 0.220861
0.884475 0.643999 0.220861
0.884475 0.643999 0.220861
0.211590 0.672768 0.211512
0.245768 0.673146 0.211783
0.283269 0.673658 0.212155
0.320990 0.674373 0.212709
0.358643 0.675023 0.213328
0.396197 0.675580 0.213939
0.433679 0.676068 0.214546
0.471099 0.676499 0.215148
0.508466 0.676879 0.215747
0.544766 0.677213 0.216342
0.579636 0.677506 0.216934
0.614467 0.677759 0.217523
0.649262 0.677976 0.218110
0.684023 0.678158 0.218694
0.718751 0.678308 0.219276
0.753449 0.678426 0.219855
0.788116 0.678514 0.220596
0.821853 0.678573 0.221388
0.845126 0.678604 0.222178
0.868381 0.678608 0.222965
0.884609 0.678595 0.223512
0.884609 0.678595 0.223512
0.884609 0.678595 0.223512
0.884609 0.678595 0.223512
0.884609 0.678595 0.223512
0.884609 0.678595 0.223512
0.884609 0.678595 0.223512
0.884609 0.678595 0.223512
0.884609 0.678595 0.223512
0.884609 0.678595 0.223512
0.884609 0.678595 0.223512
0.884609 0.678595 0.223512
0.884609 0.678595 0.223512
0.213183 0.709163 0.212937
0.248123 0.709773 0.213551
0.285649 0.710303 0.214161
0.323108 0.710769 0.214765
0.360508 0.711181 0.215366
0.397857 0.711544 0.215964
0.435159 0.711862 0.216558
0.472418 0.712140 0.217149
0.509637 0.712380 0.217737
0.545733 0.712584 0.218323
0.580482 0.712754 0.218906
0.615199 0.712892 0.219487
0.649885 0.712999 0.220091
0.684542 0.713076 0.220885
0.719171 0.713125 0.221676
0.753772 0.713146 0.222465
0.788347 0.713141 0.223250
0.821947 0.713109 0.224034
0.845162 0.713052 0.224814
0.868360 0.712971 0.225592
0.884550 0.712900 0.226134
0.884550 0.712900 0.226134
0.884550 0.712900 0.226134
0.884550 0.712900 0.226134
0.884550 0.712900 0.226134
0.884550 0.712900 0.226134
0.884550 0.712900 0.226134
0.884550 0.712900 0.226134
0.884550 0.712900 0.226134
0.884550 0.712900 0.226134
0.884550 0.712900 0.226134
0.884550 0.712900 0.226134
0.884550 0.712900 0.226134
0.215444 0.745490 0.215005
0.249910 0.745856 0.215584
0.287241 0.746203 0.216180
0.324528 0.746506 0.216773
0.361772 0.746770 0.217363
0.398977 0.746996 0.217951
0.436145 0.747188 0.218536
0.473277 0.747346 0.219118
0.510376 0.747473 0.219698
0.546318 0.747569 0.220380
0.580964 0.747635 0.221173
0.615583 0.747674 0.221963
0.650175 0.747685 0.222751
0.684740 0.747670 0.223536
0.719280 0.747629 0.224318
0.753795 0.747564 0.225098
0.788286 0.747473 0.225875
0.821852 0.747360 0.226650
0.845013 0.747223 0.227423
0.868159 0.747064 0.228193
0.884313 0.746939 0.228730
0.884313 0.746939 0.228730
0.884313 0.746939 0.228730
0.884313 0.746939 0.228730
0.884313 0.746939 0.228730
0.884313 0.746939 0.228730
0.884313 0.746939 0.228730
0.884313 0.746939 0.228730
0.884313 0.746939 0.228730
0.884313 0.746939 0.228730
0.884313 0.746939 0.228730
0.884313 0.746939 0.228730
0.884313 0.746939 0.228730
0.217682 0.781211 0.217037
0.251120 0.781395 0.217578
0.288312 0.781608 0.218164
0.325466 0.781787 0.218748
0.362587 0.781934 0.219329
0.399674 0.782049 0.219909
0.436729 0.782134 0.220669
0.473754 0.782191 0.221461
0.510750 0.782219 0.222250
0.546574 0.782221 0.223037
0.581130 0.782196 0.223821
0.615660 0.782146 0.224602
0.650167 0.782071 0.225381
0.684649 0.781973 0.226158
0.719109 0.781851 0.226932
0.753545 0.781706 0.227703
0.787960 0.781538 0.228473
0.821582 0.781349 0.229240
0.844693 0.781138 0.230005
0.867791 0.780906 0.230768
0.883912 0.780731 0.231300
0.883912 0.780731 0.231300
0.883912 0.780731 0.231300
0.883912 0.780731 0.231300
0.883912 0.780731 0.231300
0.883912 0.780731 0.231300
0.883912 0.780731 0.231300
0.883912 0.780731 0.231300
0.883912 0.780731 0.231300
0.883912 0.780731 0.231300
0.883912 0.780731 0.231300
0.883912 0.780731 0.231300
0.883912 0.780731 0.231300
0.219904 0.816498 0.219045
0.251892 0.816517 0.219541
0.288967 0.816622 0.220164
0.326011 0.816696 0.220958
0.363025 0.816742 0.221749
0.400010 0.816761 0.222537
0.436967 0.816753 0.223323
0.473896 0.816719 0.224106
0.510799 0.816660 0.224886
0.546535 0.816576 0.225664
0.581010 0.816469 0.226440
0.615460 0.816338 0.227213
0.649889 0.816185 0.227984
0.684295 0.816010 0.228753
0.718680 0.815812 0.229519
0.753044 0.815594 0.230283
0.787387 0.815354 0.231046
0.821149 0.815094 0.231806
0.844215 0.814814 0.232564
0.867267 0.814514 0.233320
0.883357 0.814293 0.233847
0.883357 0.814293 0.233847
0.883357 0.814293 0.233847
0.883357 0.814293 0.233847
0.883357 0.814293 0.233847
0.883357 0.814293 0.233847
0.883357 0.814293 0.233847
0.883357 0.814293 0.233847
0.883357 0.814293 0.233847
0.883357 0.814293 0.233847
0.883357 0.814293 0.233847
0.883357 0.814293 0.233847
0.883357 0.814293 0.233847
0.222910 0.841132 0.221422
0.252293 0.841040 0.222036
0.289267 0.841046 0.222823
0.326214 0.841034 0.223608
0.363133 0.841005 0.224390
0.400027 0.840959 0.225170
0.436894 0.840897 0.225947
0.473737 0.840819 0.226721
0.510555 0.840726 0.227494
0.546230 0.840617 0.228264
0.580628 0.840494 0.229032
0.615005 0.840356 0.229798
0.649361 0.840204 0.230561
0.683696 0.840038 0.231323
0.718012 0.839858 0.232082
0.752307 0.839665 0.232840
0.786583 0.839458 0.233595
0.820564 0.839239 0.234349
0.843586 0.839006 0.235100
0.866595 0.838761 0.235850
0.882656 0.838583 0.236372
0.882656 0.838583 0.236372
0.882656 0.838583 0.236372
0.882656 0.838583 0.236372
0.882656 0.838583 0.236372
0.882656 0.838583 0.236372
0.882656 0.838583 0.236372
0.882656 0.838583 0.236372
0.882656 0.838583 0.236372
0.882656 0.838583 0.236372
0.882656 0.838583 0.236372
0.882656 0.838583 0.236372
0.882656 0.838583 0.236372
0.225936 0.864410 0.224134
0.252367 0.864214 0.224674
0.289251 0.864162 0.225453
0.326109 0.864095 0.226229
0.362943 0.864011 0.227003
0.399752 0.863912 0.227774
0.436537 0.863798 0.228544
0.473300 0.863669 0.229311
0.510039 0.863526 0.230076
0.545676 0.863369 0.230839
0.580004 0.863198 0.231599
0.614312 0.863013 0.232358
0.648600 0.862815 0.233115
0.682868 0.862604 0.233870
0.717118 0.862379 0.234622
0.751349 0.862142 0.235373
0.785561 0.861893 0.236122
0.819755 0.861631 0.236870
0.842816 0.861357 0.237615
0.865784 0.861071 0.238358
0.881816 0.860864 0.238877
0.881816 0.860864 0.238877
0.881816 0.860864 0.238877
0.881816 0.860864 0.238877
0.881816 0.860864 0.238877
0.881816 0.860864 0.238877
0.881816 0.860864 0.238877
0.881816 0.860864 0.238877
0.881816 0.860864 0.238877
0.881816 0.860864 0.238877
0.881816 0.860864 0.238877
0.881816 0.860864 0.238877
0.881816 0.860864 0.238877
0.228039 0.880552 0.226015
0.252242 0.880285 0.226499
0.289067 0.880196 0.227273
0.325868 0.880091 0.228043
0.362645 0.879972 0.228812
0.399400 0.879838 0.229578
0.436131 0.879690 0.230342
0.472841 0.879528 0.231104
0.509529 0.879352 0.231865
0.545151 0.879163 0.232623
0.579432 0.878960 0.233379
0.613694 0.878744 0.234133
0.647937 0.878515 0.234885
0.682161 0.878274 0.235635
0.716367 0.878020 0.236383
0.750555 0.877754 0.237130
0.784724 0.877476 0.237875
0.818876 0.877186 0.238618
0.842197 0.876884 0.239359
0.865138 0.876570 0.240098
0.881151 0.876344 0.240614
0.881151 0.876344 0.240614
0.881151 0.876344 0.240614
0.881151 0.876344 0.240614
0.881151 0.876344 0.240614
0.881151 0.876344 0.240614
0.881151 0.876344 0.240614
0.881151 0.876344 0.240614
0.881151 0.876344 0.240614
0.881151 0.876344 0.240614
0.881151 0.876344 0.240614
0.881151 0.876344 0.240614
0.881151 0.876344 0.240614
0.228039 0.880552 0.226015
0.252242 0.880285 0.226499
0.289067 0.880196 0.227273
0.325868 0.880091 0.228043
0.362645 0.879972 0.228812
0.399400 0.879838 0.229578
0.436131 0.879690 0.230342
0.472841 0.879528 0.231104
0.509529 0.879352 0.231865
0.545151 0.879163 0.232623
0.579432 0.878960 0.233379
0.613694 0.878744 0.234133
0.647937 0.878515 0.234885
0.682161 0.878274 0.235635
0.716367 0.878020 0.236383
0.750555 0.877754 0.237130
0.784724 0.877476 0.237875
0.818876 0.877186 0.238618
0.842197 0.876884 0.239359
0.865138 0.876570 0.240098
0.881151 0.876344 0.240614
0.881151 0.876344 0.240614
0.881151 0.876344 0.240614
0.881151 0.876344 0.240614
0.881151 0.876344 0.240614
0.881151 0.876344 0.240614
0.881151 0.876344 0.240614
0.881151 0.876344 0.240614
0.881151 0.876344 0.240614
0.881151 0.876344 0.240614
0.881151 0.876344 0.240614
0.881151 0.876344 0.240614
0.881151 0.876344 0.240614
0.228039 0.880552 0.226015
0.252242 0.880285 0.226499
0.289067 0.880196 0.227273
0.325868 0.880091 0.228043
0.362645 0.879972 0.228812
0.399400 0.879838 0.229578
0.436131 0.879690 0.230342
0.472841 0.879528 0.231104
0.509529 0.879352 0.231865
0.545151 0.879163 0.232623
0.579432 0.878960 0.233379
0.613694 0.878744 0.234133
0.647937 0.878515 0.234885
0.682161 0.878274 0.235635
0.716367 0.878020 0.236383
0.750555 0.877754 0.237130
0.784724 0.877476 0.237875
0.818876 0.877186 0.238618
0.842197 0.876884 0.239359
0.865138 0.876570 0.240098
0.881151 0.876344 0.240614
0.881151 0.876344 0.240614
0.881151 0.876344 0.240614
0.881151 0.876344 0.240614
0.881151 0.876344 0.240614
0.881151 0.876344 0.240614
0.881151 0.876344 0.240614
0.881151 0.876344 0.240614
0.881151 0.876344 0.240614
0.881151 0.876344 0.240614
0.881151 0.876344 0.240614
0.881151 0.876344 0.240614
0.881151 0.876344 0.240614
0.228039 0.880552 0.226015
0.252242 0.880285 0.226499
0.289067 0.880196 0.227273
0.325868 0.880091 0.228043
0.362645 0.879972 0.228812
0.399400 0.879838 0.229578
0.436131 0.879690 0.230342
0.472841 0.879528 0.231104
0.509529 0.879352 0.231865
0.545151 0.879163 0.232623
0.579432 0.878960 0.233379
0.613694 0.878744 0.234133
0.647937 0.878515 0.234885
0.682161 0.878274 0.235635
0.716367 0.878020 0.236383
0.750555 0.877754 0.237130
0.784724 0.877476 0.237875
0.818876 0.877186 0.238618
0.842197 0.876884 0.239359
0.865138 0.876570 0.240098
0.881151 0.876344 0.240614
0.881151 0.876344 0.240614
0.881151 0.876344 0.240614
0.881151 0.876344 0.240614
0.881151 0.876344 0.240614
0.881151 0.876344 0.240614
0.881151 0.876344 0.240614
0.881151 0.876344 0.240614
0.881151 0.876344 0.240614
0.881151 0.876344 0.240614
0.881151 0.876344 0.240614
0.881151 0.876344 0.240614
0.881151 0.876344 0.240614
0.228039 0.880552 0.226015
0.252242 0.880285 0.226499
0.289067 0.880196 0.227273
0.325868 0.880091 0.228043
0.362645 0.879972 0.228812
0.399400 0.879838 0.229578
0.436131 0.879690 0.230342
0.472841 0.879528 0.231104
0.509529 0.879352 0.231865
0.545151 0.879163 0.232623
0.579432 0.878960 0.233379
0.613694 0.878744 0.234133
0.647937 0.878515 0.234885
0.682161 0.878274 0.235635
0.716367 0.878020 0.236383
0.750555 0.877754 0.237130
0.784724 0.877476 0.237875
0.818876 0.877186 0.238618
0.842197 0.876884 0.239359
0.865138 0.876570 0.240098
0.881151 0.876344 0.240614
0.881151 0.876344 0.240614
0.881151 0.876344 0.240614
0.881151 0.876344 0.240614
0.881151 0.876344 0.240614
0.881151 0.876344 0.240614
0.881151 0.876344 0.240614
0.881151 0.876344 0.240614
0.881151 0.876344 0.240614
0.881151 0.876344 0.240614
0.881151 0.876344 0.240614
0.881151 0.876344 0.240614
0.881151 0.876344 0.240614
0.228039 0.880552 0.226015
0.252242 0.880285 0.226499
0.289067 0.880196 0.227273
0.325868 0.880091 0.228043
0.362645 0.879972 0.228812
0.399400 0.879838 0.229578
0.436131 0.879690 0.230342
0.472841 0.879528 0.231104
0.509529 0.879352 0.231865
0.545151 0.879163 0.232623
0.579432 0.878960 0.233379
0.613694 0.878744 0.234133
0.647937 0.878515 0.234885
0.682161 0.878274 0.235635
0.716367 0.878020 0.236383
0.750555 0.877754 0.237130
0.784724 0.877476 0.237875
0.818876 0.877186 0.238618
0.842197 0.876884 0.239359
0.865138 0.876570 0.240098
0.881151 0.876344 0.240614
0.881151 0.876344 0.240614
0.881151 0.876344 0.240614
0.881151 0.876344 0.240614
0.881151 0.876344 0.240614
0.881151 0.876344 0.240614
0.881151 0.876344 0.240614
0.881151 0.876344 0.240614
0.881151 0.876344 0.240614
0.881151 0.876344 0.240614
0.881151 0.876344 0.240614
0.881151 0.876344 0.240614
0.881151 0.876344 0.240614
0.228039 0.880552 0.226015
0.252242 0.880285 0.226499
0.289067 0.880196 0.227273
0.325868 0.880091 0.228043
0.362645 0.879972 0.228812
0.399400 0.879838 0.229578
0.436131 0.879690 0.230342
0.472841 0.879528 0.231104
0.509529 0.879352 0.231865
0.545151 0.879163 0.232623
0.579432 0.878960 0.233379
0.613694 0.878744 0.234133
0.647937 0.878515 0.234885
0.682161 0.878274 0.235635
0.716367 0.878020 0.236383
0.750555 0.877754 0.237130
0.784724 0.877476 0.237875
0.818876 0.877186 0.238618
0.842197 0.876884 0.239359
0.865138 0.876570 0.240098
0.881151 0.876344 0.240614
0.881151 0.876344 0.240614
0.881151 0.876344 0.240614
0.881151 0.876344 0.240614
0.881151 0.876344 0.240614
0.881151 0.876344 0.240614
0.881151 0.876344 0.240614
0.881151 0.876344 0.240614
