Fotico/Resources/LUTs/ft_dream.cube
TITLE "Dream"
LUT_3D_SIZE 9
DOMAIN_MIN 0.0 0.0 0.0
DOMAIN_MAX 1.0 1.0 1.0
0.243491 0.234659 0.245837
0.390072 0.229628 0.240361
0.531491 0.223786 0.233887
0.664730 0.219170 0.228368
0.798524 0.216020 0.223455
0.870713 0.212955 0.219163
0.870713 0.212955 0.219163
0.870713 0.212955 0.219163
0.870713 0.212955 0.219163
0.225420 0.365362 0.226945
0.368740 0.361324 0.222345
0.512578 0.357799 0.218741
0.654644 0.355294 0.214517
0.823808 0.351732 0.203154
0.908413 0.347196 0.199555
0.908413 0.347196 0.199555
0.908413 0.347196 0.199555
0.908413 0.347196 0.199555
0.214839 0.501571 0.215369
0.358136 0.499438 0.213440
0.504098 0.498005 0.212039
0.643100 0.497384 0.211261
0.781515 0.497767 0.211350
0.881262 0.499635 0.212633
0.881262 0.499635 0.212633
0.881262 0.499635 0.212633
0.881262 0.499635 0.212633
0.211137 0.637648 0.211164
0.356354 0.638457 0.211674
0.506735 0.640848 0.213717
0.648249 0.642559 0.216126
0.787560 0.643558 0.218482
0.884475 0.643999 0.220861
0.884475 0.643999 0.220861
0.884475 0.643999 0.220861
0.884475 0.643999 0.220861
0.217682 0.781211 0.217037
0.362587 0.781934 0.219329
0.510750 0.782219 0.222250
0.650167 0.782071 0.225381
0.787960 0.781538 0.228473
0.883912 0.780731 0.231300
0.883912 0.780731 0.231300
0.883912 0.780731 0.231300
0.883912 0.780731 0.231300
0.228039 0.880552 0.226015
0.362645 0.879972 0.228812
0.509529 0.879352 0.231865
0.647937 0.878515 0.234885
0.784724 0.877476 0.237875
0.881151 0.876344 0.240614
0.881151 0.876344 0.240614
0.881151 0.876344 0.240614
0.881151 0.876344 0.240614
0.228039 0.880552 0.226015
0.362645 0.879972 0.228812
0.509529 0.879352 0.231865
0.647937 0.878515 0.234885
0.784724 0.877476 0.237875
0.881151 0.876344 0.240614
0.881151 0.876344 0.240614
0.881151 0.876344 0.240614
0.881151 0.876344 0.240614
0.228039 0.880552 0.226015
0.362645 0.879972 0.228812
0.509529 0.879352 0.231865
0.647937 0.878515 0.234885
0.784724 0.877476 0.237875
0.881151 0.876344 0.240614
0.881151 0.876344 0.240614
0.881151 0.876344 0.240614
0.881151 0.876344 0.240614
0.228039 0.880552 0.226015
0.362645 0.879972 0.228812
0.509529 0.879352 0.231865
0.647937 0.878515 0.234885
0.784724 0.877476 0.237875
0.881151 0.876344 0.240614
0.881151 0.876344 0.240614
0.881151 0.876344 0.240614
0.881151 0.876344 0.240614
0.241445 0.232724 0.391388
0.383380 0.227306 0.385398
0.564938 0.219169 0.399219
0.714866 0.212460 0.389414
0.850425 0.206101 0.380096
0.925289 0.200685 0.372247
0.925289 0.200685 0.372247
0.925289 0.200685 0.372247
0.925289 0.200685 0.372247
0.223884 0.363935 0.373007
0.367376 0.360067 0.368579
0.515830 0.357214 0.365296
0.651696 0.353775 0.361263
0.787334 0.351384 0.358326
0.877408 0.349698 0.356200
0.877408 0.349698 0.356200
0.877408 0.349698 0.356200
0.877408 0.349698 0.356200
0.214185 0.500773 0.360321
0.357468 0.498868 0.357899
0.503698 0.497696 0.356242
0.643032 0.497388 0.355510
0.787851 0.498681 0.353888
0.909122 0.500078 0.343667
0.909122 0.500078 0.343667
0.909122 0.500078 0.343667
0.909122 0.500078 0.343667
0.211198 0.637773 0.355548
0.357105 0.639117 0.356868
0.507508 0.641521 0.359286
0.648687 0.642944 0.360643
0.787782 0.643727 0.361308
0.884508 0.643995 0.361431
0.884508 0.643995 0.361431
0.884508 0.643995 0.361431
0.884508 0.643995 0.361431
0.218557 0.781531 0.361042
0.362749 0.782032 0.361409
0.510721 0.782139 0.361344
0.649975 0.781827 0.360828
0.787612 0.781139 0.359908
0.883586 0.780196 0.358726
0.883586 0.780196 0.358726
0.883586 0.780196 0.358726
0.883586 0.780196 0.358726
0.229130 0.880396 0.361067
0.362256 0.879693 0.359783
0.508981 0.878974 0.358452
0.647281 0.878042 0.356781
0.783928 0.876909 0.354789
0.880530 0.875694 0.352678
0.880530 0.875694 0.352678
0.880530 0.875694 0.352678
0.880530 0.875694 0.352678
0.229130 0.880396 0.361067
0.362256 0.879693 0.359783
0.508981 0.878974 0.358452
0.647281 0.878042 0.356781
0.783928 0.876909 0.354789
0.880530 0.875694 0.352678
0.880530 0.875694 0.352678
0.880530 0.875694 0.352678
0.880530 0.875694 0.352678
0.229130 0.880396 0.361067
0.362256 0.879693 0.359783
0.508981 0.878974 0.358452
0.647281 0.878042 0.356781
0.783928 0.876909 0.354789
0.880530 0.875694 0.352678
0.880530 0.875694 0.352678
0.880530 0.875694 0.352678
0.880530 0.875694 0.352678
0.229130 0.880396 0.361067
0.362256 0.879693 0.359783
0.508981 0.878974 0.358452
0.647281 0.878042 0.356781
0.783928 0.876909 0.354789
0.880530 0.875694 0.352678
0.880530 0.875694 0.352678
0.880530 0.875694 0.352678
0.880530 0.875694 0.352678
0.239447 0.230837 0.536535
0.381526 0.225563 0.531067
0.524046 0.220728 0.525737
0.711929 0.210261 0.554346
0.848558 0.204025 0.545790
0.925033 0.198721 0.538585
0.925033 0.198721 0.538585
0.925033 0.198721 0.538585
0.925033 0.198721 0.538585
0.222404 0.362565 0.519125
0.366072 0.358871 0.514875
0.510285 0.355717 0.511173
0.685943 0.349677 0.527464
0.832332 0.343042 0.520323
0.922459 0.337606 0.514472
0.922459 0.337606 0.514472
0.922459 0.337606 0.514472
0.922459 0.337606 0.514472
0.213586 0.500050 0.507100
0.356886 0.498382 0.504924
0.503400 0.497486 0.503557
0.646340 0.497890 0.503705
0.786493 0.498723 0.504390
0.884833 0.500927 0.506429
0.884833 0.500927 0.506429
0.884833 0.500927 0.506429
0.884833 0.500927 0.506429
0.211430 0.638042 0.503483
0.358182 0.640077 0.505524
0.508170 0.642089 0.507518
0.649070 0.643273 0.508617
0.787983 0.643872 0.509084
0.885926 0.644168 0.508250
0.885926 0.644168 0.508250
0.885926 0.644168 0.508250
0.885926 0.644168 0.508250
0.219448 0.781810 0.508960
0.362902 0.782119 0.509121
0.510717 0.782077 0.508897
0.649840 0.781634 0.508239
0.787358 0.780825 0.507189
0.883346 0.779779 0.505896
0.883346 0.779779 0.505896
0.883346 0.779779 0.505896
0.883346 0.779779 0.505896
0.230329 0.880278 0.508494
0.361971 0.879473 0.507050
0.508579 0.878681 0.505601
0.646802 0.877679 0.503819
0.783353 0.876481 0.501722
0.880086 0.875208 0.499519
0.880086 0.875208 0.499519
0.880086 0.875208 0.499519
0.880086 0.875208 0.499519
0.230329 0.880278 0.508494
0.361971 0.879473 0.507050
0.508579 0.878681 0.505601
0.646802 0.877679 0.503819
0.783353 0.876481 0.501722
0.880086 0.875208 0.499519
0.880086 0.875208 0.499519
0.880086 0.875208 0.499519
0.880086 0.875208 0.499519
0.230329 0.880278 0.508494
0.361971 0.879473 0.507050
0.508579 0.878681 0.505601
0.646802 0.877679 0.503819
0.783353 0.876481 0.501722
0.880086 0.875208 0.499519
0.880086 0.875208 0.499519
0.880086 0.875208 0.499519
0.880086 0.875208 0.499519
0.230329 0.880278 0.508494
0.361971 0.879473 0.507050
0.508579 0.878681 0.505601
0.646802 0.877679 0.503819
0.783353 0.876481 0.501722
0.880086 0.875208 0.499519
0.880086 0.875208 0.499519
0.880086 0.875208 0.499519
0.880086 0.875208 0.499519
0.237497 0.228998 0.672785
0.379723 0.223871 0.667455
0.522399 0.219412 0.662546
0.656803 0.216358 0.658082
0.846729 0.201993 0.701871
0.924777 0.196804 0.694807
0.924777 0.196804 0.694807
0.924777 0.196804 0.694807
0.924777 0.196804 0.694807
0.220984 0.361252 0.656573
0.364832 0.357738 0.652767
0.509239 0.354777 0.649488
0.646243 0.352420 0.646787
0.830956 0.340950 0.677710
0.922196 0.335755 0.672473
0.922196 0.335755 0.672473
0.922196 0.335755 0.672473
0.922196 0.335755 0.672473
0.213045 0.499404 0.645961
0.356394 0.497985 0.644168
0.503213 0.497381 0.643182
0.643383 0.497787 0.643323
0.821801 0.496441 0.663431
0.919222 0.494144 0.661143
0.919222 0.494144 0.661143
0.919222 0.494144 0.661143
0.919222 0.494144 0.661143
0.211805 0.638487 0.643752
0.359098 0.640886 0.646015
0.508736 0.642567 0.647546
0.649387 0.643536 0.648357
0.790749 0.644250 0.648989
0.886992 0.643818 0.648389
0.886992 0.643818 0.648389
0.886992 0.643818 0.648389
0.886992 0.643818 0.648389
0.220463 0.782027 0.648631
0.362999 0.782153 0.648597
0.510663 0.781970 0.648244
0.649664 0.781398 0.647501
0.787066 0.780473 0.646401
0.883083 0.779327 0.645091
0.883083 0.779327 0.645091
0.883083 0.779327 0.645091
0.883083 0.779327 0.645091
0.231524 0.880132 0.647756
0.361646 0.879228 0.646259
0.508139 0.878363 0.644795
0.646290 0.877294 0.643026
0.782745 0.876032 0.640969
0.879622 0.874702 0.638824
0.879622 0.874702 0.638824
0.879622 0.874702 0.638824
0.879622 0.874702 0.638824
0.231524 0.880132 0.647756
0.361646 0.879228 0.646259
0.508139 0.878363 0.644795
0.646290 0.877294 0.643026
0.782745 0.876032 0.640969
0.879622 0.874702 0.638824
0.879622 0.874702 0.638824
0.879622 0.874702 0.638824
0.879622 0.874702 0.638824
0.231524 0.880132 0.647756
0.361646 0.879228 0.646259
0.508139 0.878363 0.644795
0.646290 0.877294 0.643026
0.782745 0.876032 0.640969
0.879622 0.874702 0.638824
0.879622 0.874702 0.638824
0.879622 0.874702 0.638824
0.879622 0.874702 0.638824
0.231524 0.880132 0.647756
0.361646 0.879228 0.646259
0.508139 0.878363 0.644795
0.646290 0.877294 0.643026
0.782745 0.876032 0.640969
0.879622 0.874702 0.638824
0.879622 0.874702 0.638824
0.879622 0.874702 0.638824
0.879622 0.874702 0.638824
0.235596 0.227208 0.809081
0.377972 0.222230 0.803891
0.520805 0.218336 0.799131
0.655470 0.215402 0.794825
0.790025 0.212842 0.791006
0.914622 0.197796 0.833038
0.914622 0.197796 0.833038
0.914622 0.197796 0.833038
0.914622 0.197796 0.833038
0.219726 0.359999 0.793376
0.363655 0.356668 0.789744
0.508264 0.353906 0.786655
0.645539 0.351768 0.784165
0.782080 0.350331 0.782355
0.921933 0.334008 0.826441
0.921933 0.334008 0.826441
0.921933 0.334008 0.826441
0.921933 0.334008 0.826441
0.212563 0.498839 0.783422
0.355999 0.497681 0.781886
0.503147 0.497391 0.781220
0.643852 0.498248 0.781868
0.784524 0.500797 0.784118
0.918590 0.493083 0.818972
0.918590 0.493083 0.818972
0.918590 0.493083 0.818972
0.918590 0.493083 0.818972
0.212362 0.639162 0.782537
0.359868 0.641555 0.784787
0.509217 0.642964 0.786042
0.649643 0.643736 0.786654
0.788224 0.644000 0.786752
0.908379 0.641125 0.803867
0.908379 0.641125 0.803867
0.908379 0.641125 0.803867
0.908379 0.641125 0.803867
0.221684 0.782189 0.786887
0.363042 0.782137 0.786676
0.510563 0.781817 0.786186
0.649447 0.781122 0.785318
0.786736 0.780084 0.784103
0.884228 0.779116 0.783042
0.884228 0.779116 0.783042
0.884228 0.779116 0.783042
0.884228 0.779116 0.783042
0.232718 0.879960 0.785591
0.361280 0.878958 0.783949
0.507662 0.878022 0.782379
0.645745 0.876886 0.780511
0.782107 0.875561 0.778359
0.879137 0.874176 0.776131
0.879137 0.874176 0.776131
0.879137 0.874176 0.776131
0.879137 0.874176 0.776131
0.232718 0.879960 0.785591
0.361280 0.878958 0.783949
0.507662 0.878022 0.782379
0.645745 0.876886 0.780511
0.782107 0.875561 0.778359
0.879137 0.874176 0.776131
0.879137 0.874176 0.776131
0.879137 0.874176 0.776131
0.879137 0.874176 0.776131
0.232718 0.879960 0.785591
0.361280 0.878958 0.783949
0.507662 0.878022 0.782379
0.645745 0.876886 0.780511
0.782107 0.875561 0.778359
0.879137 0.874176 0.776131
0.879137 0.874176 0.776131
0.879137 0.874176 0.776131
0.879137 0.874176 0.776131
0.232718 0.879960 0.785591
0.361280 0.878958 0.783949
0.507662 0.878022 0.782379
0.645745 0.876886 0.780511
0.782107 0.875561 0.778359
0.879137 0.874176 0.776131
0.879137 0.874176 0.776131
0.879137 0.874176 0.776131
0.879137 0.874176 0.776131
0.233494 0.225156 0.864616
0.376067 0.220384 0.866053
0.519103 0.217148 0.867519
0.654073 0.214371 0.869016
0.788832 0.211972 0.870549
0.871255 0.209783 0.871762
0.871255 0.209783 0.871762
0.871255 0.209783 0.871762
0.871255 0.209783 0.871762
0.218699 0.358659 0.869570
0.362462 0.355553 0.871116
0.507305 0.353028 0.872703
0.644878 0.351144 0.874336
0.781681 0.349984 0.876027
0.877573 0.349582 0.877614
0.877573 0.349582 0.877614
0.877573 0.349582 0.877614
0.877573 0.349582 0.877614
0.212121 0.498312 0.874945
0.355684 0.497444 0.876661
0.503195 0.497491 0.878477
0.644485 0.498883 0.880542
0.785201 0.501471 0.882154
0.883500 0.502927 0.882975
0.883500 0.502927 0.882975
0.883500 0.502927 0.882975
0.883500 0.502927 0.882975
0.213156 0.640061 0.881273
0.360478 0.642079 0.882531
0.509595 0.643267 0.883226
0.649828 0.643870 0.883522
0.788267 0.643990 0.883490
0.884480 0.643727 0.883207
0.884480 0.643727 0.883207
0.884480 0.643727 0.883207
0.884480 0.643727 0.883207
0.222809 0.782290 0.883655
0.363038 0.782079 0.883407
0.510429 0.781638 0.882995
0.649212 0.780832 0.882336
0.786399 0.779691 0.881450
0.882509 0.778357 0.880442
0.882509 0.778357 0.880442
0.882509 0.778357 0.880442
0.882509 0.778357 0.880442
0.233819 0.879778 0.882531
0.360908 0.878687 0.881339
0.507188 0.877687 0.880219
0.645213 0.876490 0.878901
0.781490 0.875108 0.877397
0.878671 0.873672 0.875848
0.878671 0.873672 0.875848
0.878671 0.873672 0.875848
0.878671 0.873672 0.875848
0.233819 0.879778 0.882531
0.360908 0.878687 0.881339
0.507188 0.877687 0.880219
0.645213 0.876490 0.878901
0.781490 0.875108 0.877397
0.878671 0.873672 0.875848
0.878671 0.873672 0.875848
0.878671 0.873672 0.875848
0.878671 0.873672 0.875848
0.233819 0.879778 0.882531
0.360908 0.878687 0.881339
0.507188 0.877687 0.880219
0.645213 0.876490 0.878901
0.781490 0.875108 0.877397
0.878671 0.873672 0.875848
0.878671 0.873672 0.875848
0.878671 0.873672 0.875848
0.878671 0.873672 0.875848
0.233819 0.879778 0.882531
0.360908 0.878687 0.881339
0.507188 0.877687 0.880219
0.645213 0.876490 0.878901
0.781490 0.875108 0.877397
0.878671 0.873672 0.875848
0.878671 0.873672 0.875848
0.878671 0.873672 0.875848
0.878671 0.873672 0.875848
0.233494 0.225156 0.864616
0.376067 0.220384 0.866053
0.519103 0.217148 0.867519
0.654073 0.214371 0.869016
0.788832 0.211972 0.870549
0.871255 0.209783 0.871762
0.871255 0.209783 0.871762
0.871255 0.209783 0.871762
0.871255 0.209783 0.871762
0.218699 0.358659 0.869570
0.362462 0.355553 0.871116
0.507305 0.353028 0.872703
0.644878 0.351144 0.874336
0.781681 0.349984 0.876027
0.877573 0.349582 0.877614
0.877573 0.349582 0.877614
0.877573 0.349582 0.877614
0.877573 0.349582 0.877614
0.212121 0.498312 0.874945
0.355684 0.497444 0.876661
0.503195 0.497491 0.878477
0.644485 0.498883 0.880542
0.785201 0.501471 0.882154
0.883500 0.502927 0.882975
0.883500 0.502927 0.882975
0.883500 0.502927 0.882975
0.883500 0.502927 0.882975
0.213156 0.640061 0.881273
0.360478 0.642079 0.882531
0.509595 0.643267 0.883226
0.649828 0.643870 0.883522
0.788267 0.643990 0.883490
0.884480 0.643727 0.883207
0.884480 0.643727 0.883207
0.884480 0.643727 0.883207
0.884480 0.643727 0.883207
0.222809 0.782290 0.883655
0.363038 0.782079 0.883407
0.510429 0.781638 0.882995
0.649212 0.780832 0.882336
0.786399 0.779691 0.881450
0.882509 0.778357 0.880442
0.882509 0.778357 0.880442
0.882509 0.778357 0.880442
0.882509 0.778357 0.880442
0.233819 0.879778 0.882531
0.360908 0.878687 0.881339
0.507188 0.877687 0.880219
0.645213 0.876490 0.878901
0.781490 0.875108 0.877397
0.878671 0.873672 0.875848
0.878671 0.873672 0.875848
0.878671 0.873672 0.875848
0.878671 0.873672 0.875848
0.233819 0.879778 0.882531
0.360908 0.878687 0.881339
0.507188 0.877687 0.880219
0.645213 0.876490 0.878901
0.781490 0.875108 0.877397
0.878671 0.873672 0.875848
0.878671 0.873672 0.875848
0.878671 0.873672 0.875848
0.878671 0.873672 0.875848
0.233819 0.879778 0.882531
0.360908 0.878687 0.881339
0.507188 0.877687 0.880219
0.645213 0.876490 0.878901
0.781490 0.875108 0.877397
0.878671 0.873672 0.875848
0.878671 0.873672 0.875848
0.878671 0.873672 0.875848
0.878671 0.873672 0.875848
0.233819 0.879778 0.882531
0.360908 0.878687 0.881339
0.507188 0.877687 0.880219
0.645213 0.876490 0.878901
0.781490 0.875108 0.877397
0.878671 0.873672 0.875848
0.878671 0.873672 0.875848
0.878671 0.873672 0.875848
0.878671 0.873672 0.875848
0.233494 0.225156 0.864616
0.376067 0.220384 0.866053
0.519103 0.217148 0.867519
0.654073 0.214371 0.869016
0.788832 0.211972 0.870549
0.871255 0.209783 0.871762
0.871255 0.209783 0.871762
0.871255 0.209783 0.871762
0.871255 0.209783 0.871762
0.218699 0.358659 0.869570
0.362462 0.355553 0.871116
0.507305 0.353028 0.872703
0.644878 0.351144 0.874336
0.781681 0.349984 0.876027
0.877573 0.349582 0.877614
0.877573 0.349582 0.877614
0.877573 0.349582 0.877614
0.877573 0.349582 0.877614
0.212121 0.498312 0.874945
0.355684 0.497444 0.876661
0.503195 0.497491 0.878477
0.644485 0.498883 0.880542
0.785201 0.501471 0.882154
0.883500 0.502927 0.882975
0.883500 0.502927 0.882975
0.883500 0.502927 0.882975
0.883500 0.502927 0.882975
0.213156 0.640061 0.881273
0.360478 0.642079 0.882531
0.509595 0.643267 0.883226
0.649828 0.643870 0.883522
0.788267 0.643990 0.883490
0.884480 0.643727 0.883207
0.884480 0.643727 0.883207
0.884480 0.643727 0.883207
0.884480 0.643727 0.883207
0.222809 0.782290 0.883655
0.363038 0.782079 0.883407
0.510429 0.781638 0.882995
0.649212 0.780832 0.882336
0.786399 0.779691 0.881450
0.882509 0.778357 0.880442
0.882509 0.778357 0.880442
0.882509 0.778357 0.880442
0.882509 0.778357 0.880442
0.233819 0.879778 0.882531
0.360908 0.878687 0.881339
0.507188 0.877687 0.880219
0.645213 0.876490 0.878901
0.781490 0.875108 0.877397
0.878671 0.873672 0.875848
0.878671 0.873672 0.875848
0.878671 0.873672 0.875848
0.878671 0.873672 0.875848
0.233819 0.879778 0.882531
0.360908 0.878687 0.881339
0.507188 0.877687 0.880219
0.645213 0.876490 0.878901
0.781490 0.875108 0.877397
0.878671 0.873672 0.875848
0.878671 0.873672 0.875848
0.878671 0.873672 0.875848
0.878671 0.873672 0.875848
0.233819 0.879778 0.882531
0.360908 0.878687 0.881339
0.507188 0.877687 0.880219
0.645213 0.876490 0.878901
0.781490 0.875108 0.877397
0.878671 0.873672 0.875848
0.878671 0.873672 0.875848
0.878671 0.873672 0.875848
0.878671 0.873672 0.875848
0.233819 0.879778 0.882531
0.360908 0.878687 0.881339
0.507188 0.877687 0.880219
0.645213 0.876490 0.878901
0.781490 0.875108 0.877397
0.878671 0.873672 0.875848
0.878671 0.873672 0.875848
0.878671 0.873672 0.875848
0.878671 0.873672 0.875848
0.233494 0.225156 0.864616
0.376067 0.220384 0.866053
0.519103 0.217148 0.867519
0.654073 0.214371 0.869016
0.788832 0.211972 0.870549
0.871255 0.209783 0.871762
0.871255 0.209783 0.871762
0.871255 0.209783 0.871762
0.871255 0.209783 0.871762
0.218699 0.358659 0.869570
0.362462 0.355553 0.871116
0.507305 0.353028 0.872703
0.644878 0.351144 0.874336
0.781681 0.349984 0.876027
0.877573 0.349582 0.877614
0.877573 0.349582 0.877614
0.877573 0.349582 0.877614
0.877573 0.349582 0.877614
0.212121 0.498312 0.874945
0.355684 0.497444 0.876661
0.503195 0.497491 0.878477
0.644485 0.498883 0.880542
0.785201 0.501471 0.882154
0.883500 0.502927 0.882975
0.883500 0.502927 0.882975
0.883500 0.502927 0.882975
0.883500 0.502927 0.882975
0.213156 0.640061 0.881273
0.360478 0.642079 0.882531
0.509595 0.643267 0.883226
0.649828 0.643870 0.883522
0.788267 0.643990 0.883490
0.884480 0.643727 0.883207
0.884480 0.643727 0.883207
0.884480 0.643727 0.883207
0.884480 0.643727 0.883207
0.222809 0.782290 0.883655
0.363038 0.782079 0.883407
0.510429 0.781638 0.882995
0.649212 0.780832 0.882336
0.786399 0.779691 0.881450
0.882509 0.778357 0.880442
0.882509 0.778357 0.880442
0.882509 0.778357 0.880442
0.882509 0.778357 0.880442
0.233819 0.879778 0.882531
0.360908 0.878687 0.881339
0.507188 0.877687 0.880219
0.645213 0.876490 0.878901
0.781490 0.875108 0.877397
0.878671 0.873672 0.875848
0.878671 0.873672 0.875848
0.878671 0.873672 0.875848
0.878671 0.873672 0.875848
0.233819 0.879778 0.882531
0.360908 0.878687 0.881339
0.507188 0.877687 0.880219
0.645213 0.876490 0.878901
0.781490 0.875108 0.877397
0.878671 0.873672 0.875848
0.878671 0.873672 0.875848
0.878671 0.873672 0.875848
0.878671 0.873672 0.875848
0.233819 0.879778 0.882531
0.360908 0.878687 0.881339
0.507188 0.877687 0.880219
0.645213 0.876490 0.878901
0.781490 0.875108 0.877397
0.878671 0.873672 0.875848
0.878671 0.873672 0.875848
0.878671 0.873672 0.875848
0.878671 0.873672 0.875848
0.233819 0.879778 0.882531
0.360908 0.878687 0.881339
0.507188 0.877687 0.880219
0.645213 0.876490 0.878901
0.781490 0.875108 0.877397
0.878671 0.873672 0.875848
0.878671 0.873672 0.875848
0.878671 0.873672 0.875848
0.878671 0.873672 0.875848
