Fotico/Resources/LUTs/ft_dream.cube
TITLE "Dream"
LUT_3D_SIZE 5
DOMAIN_MIN 0.0 0.0 0.0
DOMAIN_MAX 1.0 1.0 1.0
0.243491 0.234659 0.245837
0.531491 0.223786 0.233887
0.798524 0.216020 0.223455
0.870713 0.212955 0.219163
0.870713 0.212955 0.219163
0.214839 0.501571 0.215369
0.504098 0.498005 0.212039
0.781515 0.497767 0.211350
0.881262 0.499635 0.212633
0.881262 0.499635 0.212633
0.217682 0.781211 0.217037
0.510750 0.782219 0.222250
0.787960 0.781538 0.228473
0.883912 0.780731 0.231300
0.883912 0.780731 0.231300
0.228039 0.880552 0.226015
0.509529 0.879352 0.231865
0.784724 0.877476 0.237875
0.881151 0.876344 0.240614
0.881151 0.876344 0.240614
0.228039 0.880552 0.226015
0.509529 0.879352 0.231865
0.784724 0.877476 0.237875
0.881151 0.876344 0.240614
0.881151 0.876344 0.240614
0.239447 0.230837 0.536535
0.524046 0.220728 0.525737
0.848558 0.204025 0.545790
0.925033 0.198721 0.538585
0.925033 0.198721 0.538585
0.213586 0.500050 0.507100
0.503400 0.497486 0.503557
0.786493 0.498723 0.504390
0.884833 0.500927 0.506429
0.884833 0.500927 0.506429
0.219448 0.781810 0.508960
0.510717 0.782077 0.508897
0.787358 0.780825 0.507189
0.883346 0.779779 0.505896
0.883346 0.779779 0.505896
0.230329 0.880278 0.508494
0.508579 0.878681 0.505601
0.783353 0.876481 0.501722
0.880086 0.875208 0.499519
0.880086 0.875208 0.499519
0.230329 0.880278 0.508494
0.508579 0.878681 0.505601
0.783353 0.876481 0.501722
0.880086 0.875208 0.499519
0.880086 0.875208 0.499519
0.235596 0.227208 0.809081
0.520805 0.218336 0.799131
0.790025 0.212842 0.791006
0.914622 0.197796 0.833038
0.914622 0.197796 0.833038
0.212563 0.498839 0.783422
0.503147 0.497391 0.781220
0.784524 0.500797 0.784118
0.918590 0.493083 0.818972
0.918590 0.493083 0.818972
0.221684 0.782189 0.786887
0.510563 0.781817 0.786186
0.786736 0.780084 0.784103
0.884228 0.779116 0.783042
0.884228 0.779116 0.783042
0.232718 0.879960 0.785591
0.507662 0.878022 0.782379
0.782107 0.875561 0.778359
0.879137 0.874176 0.776131
0.879137 0.874176 0.776131
0.232718 0.879960 0.785591
0.507662 0.878022 0.782379
0.782107 0.875561 0.778359
0.879137 0.874176 0.776131
0.879137 0.874176 0.776131
0.233494 0.225156 0.864616
0.519103 0.217148 0.867519
0.788832 0.211972 0.870549
0.871255 0.209783 0.871762
0.871255 0.209783 0.871762
0.212121 0.498312 0.874945
0.503195 0.497491 0.878477
0.785201 0.501471 0.882154
0.883500 0.502927 0.882975
0.883500 0.502927 0.882975
0.222809 0.782290 0.883655
0.510429 0.781638 0.882995
0.786399 0.779691 0.881450
0.882509 0.778357 0.880442
0.882509 0.778357 0.880442
0.233819 0.879778 0.882531
0.507188 0.877687 0.880219
0.781490 0.875108 0.877397
0.878671 0.873672 0.875848
0.878671 0.873672 0.875848
0.233819 0.879778 0.882531
0.507188 0.877687 0.880219
0.781490 0.875108 0.877397
0.878671 0.873672 0.875848
0.878671 0.873672 0.875848
0.233494 0.225156 0.864616
0.519103 0.217148 0.867519
0.788832 0.211972 0.870549
0.871255 0.209783 0.871762
0.871255 0.209783 0.871762
0.212121 0.498312 0.874945
0.503195 0.497491 0.878477
0.785201 0.501471 0.882154
0.883500 0.502927 0.882975
0.883500 0.502927 0.882975
0.222809 0.782290 0.883655
0.510429 0.781638 0.882995
0.786399 0.779691 0.881450
0.882509 0.778357 0.880442
0.882509 0.778357 0.880442
0.233819 0.879778 0.882531
0.507188 0.877687 0.880219
0.781490 0.875108 0.877397
0.878671 0.873672 0.875848
0.878671 0.873672 0.875848
0.233819 0.879778 0.882531
0.507188 0.877687 0.880219
0.781490 0.875108 0.877397
0.878671 0.873672 0.875848
0.878671 0.873672 0.875848
