Fotico/Resources/LUTs/ft_golden.cube
TITLE "Golden Hour"
LUT_3D_SIZE 9
DOMAIN_MIN 0.0 0.0 0.0
DOMAIN_MAX 1.0 1.0 1.0
0.096283 0.080225 0.071927
0.229246 0.071716 0.064015
0.393710 0.064185 0.057029
0.551343 0.057638 0.051011
0.699643 0.052081 0.046041
0.831801 0.047522 0.042083
0.944847 0.043971 0.039143
0.970000 0.042599 0.037910
0.970000 0.042599 0.037910
0.069364 0.198731 0.049302
0.206499 0.196021 0.033022
0.411109 0.200660 0.051452
0.563706 0.188356 0.048079
0.682487 0.170076 0.036792
0.819429 0.165146 0.036231
0.933183 0.161268 0.036728
0.970000 0.159952 0.036892
0.970000 0.159952 0.036892
0.053650 0.347553 0.037908
0.180452 0.339284 0.036677
0.347376 0.341140 0.030603
0.556863 0.346200 0.050038
0.702699 0.337133 0.051071
0.829423 0.330119 0.050822
0.937098 0.316547 0.044655
0.970000 0.309660 0.040648
0.970000 0.309660 0.040648
0.049626 0.513525 0.038090
0.167249 0.507939 0.035999
0.317711 0.501668 0.034110
0.508215 0.509374 0.033569
0.678268 0.505460 0.035408
0.826056 0.507151 0.049110
0.937217 0.501910 0.048549
0.970000 0.499468 0.048476
0.970000 0.499468 0.048476
0.042189 0.661043 0.032196
0.167111 0.659086 0.031215
0.306382 0.657048 0.030580
0.487876 0.653057 0.030000
0.657758 0.663214 0.034431
0.806405 0.659832 0.032979
0.933217 0.653162 0.047433
0.970000 0.649518 0.047337
0.970000 0.649518 0.047337
0.037850 0.801846 0.030000
0.164730 0.800268 0.030000
0.305220 0.797411 0.030000
0.469720 0.793349 0.030000
0.632501 0.788156 0.030000
0.790383 0.796765 0.034079
0.907201 0.792613 0.032588
0.953467 0.788077 0.031440
0.953467 0.788077 0.031440
0.031855 0.906961 0.030000
0.152870 0.904781 0.030000
0.292103 0.901575 0.030000
0.457507 0.897282 0.030000
0.608377 0.891926 0.030000
0.762023 0.885544 0.030000
0.887135 0.895506 0.033565
0.936781 0.893458 0.032917
0.936781 0.893458 0.032917
0.032525 0.955495 0.030000
0.145526 0.953063 0.030000
0.281195 0.949812 0.030000
0.452398 0.945511 0.030000
0.599224 0.940158 0.030000
0.746452 0.933797 0.030000
0.873540 0.942084 0.033451
0.924718 0.941341 0.033379
0.924718 0.941341 0.033379
0.032525 0.955495 0.030000
0.145526 0.953063 0.030000
0.281195 0.949812 0.030000
0.452398 0.945511 0.030000
0.599224 0.940158 0.030000
0.746452 0.933797 0.030000
0.873540 0.942084 0.033451
0.924718 0.941341 0.033379
0.924718 0.941341 0.033379
0.093345 0.077433 0.201035
0.227295 0.069232 0.195561
0.392389 0.062011 0.189394
0.549535 0.055776 0.182565
0.697906 0.050533 0.175169
0.830539 0.046291 0.167985
0.943645 0.043061 0.161823
0.970000 0.041793 0.159776
0.970000 0.041793 0.159776
0.067407 0.196348 0.180144
0.209985 0.195276 0.179141
0.373092 0.180713 0.165797
0.541027 0.174047 0.159924
0.681039 0.168407 0.155059
0.818398 0.163807 0.151285
0.932228 0.160265 0.148574
0.970000 0.159074 0.147667
0.970000 0.159074 0.147667
0.052777 0.345029 0.158222
0.178715 0.336507 0.153762
0.346260 0.334619 0.137931
0.574664 0.339283 0.142246
0.729867 0.323106 0.138737
0.810984 0.303367 0.146079
0.923709 0.298073 0.147501
0.970000 0.296513 0.148224
0.970000 0.296513 0.148224
0.049888 0.511838 0.147601
0.166667 0.506030 0.146677
0.315758 0.499556 0.146912
0.509891 0.505962 0.125798
0.717576 0.508589 0.128291
0.858878 0.497330 0.124196
0.970000 0.486154 0.118761
0.970000 0.481176 0.116191
0.970000 0.481176 0.116191
0.041601 0.660457 0.149252
0.167903 0.658433 0.151222
0.306266 0.656040 0.150315
0.486022 0.651368 0.148094
0.660430 0.661833 0.111991
0.823030 0.652792 0.108796
0.966403 0.645106 0.092467
0.970000 0.639564 0.089906
0.970000 0.639564 0.089906
0.037162 0.801484 0.147022
0.163843 0.799496 0.143744
0.305159 0.796269 0.139913
0.468221 0.791868 0.135618
0.630062 0.786364 0.130866
0.792764 0.796894 0.081942
0.919988 0.790300 0.072603
0.970000 0.783460 0.076358
0.970000 0.783460 0.076358
0.031977 0.906352 0.133897
0.151493 0.903818 0.128988
0.290029 0.900299 0.123687
0.456334 0.895719 0.118053
0.606362 0.890099 0.112106
0.759115 0.883482 0.105818
0.890020 0.897170 0.044776
0.943712 0.893950 0.042536
0.943712 0.893950 0.042536
0.032642 0.954784 0.125759
0.143957 0.952019 0.120267
0.278870 0.948472 0.114399
0.449922 0.943902 0.108219
0.597326 0.938306 0.101777
0.743738 0.931729 0.095027
0.871671 0.942643 0.046411
0.926399 0.942794 0.037708
0.926399 0.942794 0.037708
0.032642 0.954784 0.125759
0.143957 0.952019 0.120267
0.278870 0.948472 0.114399
0.449922 0.943902 0.108219
0.597326 0.938306 0.101777
0.743738 0.931729 0.095027
0.871671 0.942643 0.046411
0.926399 0.942794 0.037708
0.926399 0.942794 0.037708
0.090249 0.074539 0.357394
0.225143 0.066670 0.354814
0.390889 0.059783 0.351281
0.547624 0.053883 0.346822
0.696065 0.048980 0.341589
0.829195 0.045080 0.335519
0.942364 0.042196 0.328623
0.970000 0.041045 0.325845
0.970000 0.041045 0.325845
0.065419 0.193716 0.345265
0.199757 0.185673 0.339705
0.370616 0.178335 0.333306
0.540183 0.172016 0.326006
0.679493 0.166727 0.317853
0.817299 0.162485 0.308977
0.931213 0.159306 0.300472
0.970000 0.158254 0.297557
0.970000 0.158254 0.297557
0.051939 0.342225 0.323388
0.176947 0.333432 0.314963
0.347217 0.329569 0.311336
0.527344 0.314756 0.297958
0.675433 0.307171 0.291408
0.808127 0.301153 0.286391
0.923073 0.296778 0.283054
0.970000 0.295464 0.282158
0.970000 0.295464 0.282158
0.049041 0.509944 0.295646
0.166159 0.503903 0.289620
0.313837 0.497218 0.285207
0.506905 0.497407 0.265263
0.715640 0.504582 0.273097
0.851254 0.491261 0.270096
0.920932 0.472246 0.280601
0.967265 0.469491 0.280947
0.967265 0.469491 0.280947
0.041037 0.659790 0.282062
0.169037 0.657778 0.281719
0.306071 0.654680 0.281529
0.484023 0.649334 0.280846
0.657476 0.653888 0.248885
0.841581 0.654016 0.247978
0.965044 0.640477 0.238302
0.970000 0.634940 0.235073
0.970000 0.634940 0.235073
0.036344 0.800950 0.280523
0.162831 0.798534 0.280036
0.305259 0.794909 0.278341
0.466702 0.790121 0.272208
0.627372 0.784243 0.265463
0.790009 0.790229 0.220063
0.922163 0.781594 0.214874
0.970000 0.781431 0.200728
0.970000 0.781431 0.200728
0.032127 0.905655 0.269737
0.149994 0.902743 0.262784
0.287788 0.898863 0.255297
0.455532 0.893932 0.247357
0.604322 0.887963 0.239278
0.755733 0.881002 0.232895
0.886929 0.890172 0.182425
0.941344 0.886984 0.177863
0.941344 0.886984 0.177863
0.032798 0.954056 0.258203
0.142269 0.950930 0.250469
0.276385 0.947034 0.242215
0.447288 0.942120 0.235323
0.595626 0.936185 0.228783
0.740705 0.929270 0.221945
0.868586 0.933598 0.183152
0.923966 0.936846 0.163051
0.923966 0.936846 0.163051
0.032798 0.954056 0.258203
0.142269 0.950930 0.250469
0.276385 0.947034 0.242215
0.447288 0.942120 0.235323
0.595626 0.936185 0.228783
0.740705 0.929270 0.221945
0.868586 0.933598 0.183152
0.923966 0.936846 0.163051
0.923966 0.936846 0.163051
0.087266 0.071757 0.525351
0.222926 0.064221 0.519768
0.389310 0.057668 0.514356
0.545760 0.052106 0.511667
0.694270 0.047542 0.511415
0.827888 0.043986 0.510329
0.941117 0.041449 0.508423
0.970000 0.040421 0.507035
0.970000 0.040421 0.507035
0.063567 0.191012 0.511891
0.196952 0.183067 0.511300
0.368066 0.176074 0.509895
0.539274 0.170103 0.507595
0.677987 0.165168 0.504435
0.816228 0.161285 0.500562
0.930222 0.158473 0.495936
0.970000 0.157565 0.493859
0.970000 0.157565 0.493859
0.051232 0.339328 0.506785
0.175307 0.330266 0.503340
0.337649 0.320600 0.499168
0.525419 0.312008 0.494247
0.675108 0.304948 0.488547
0.807389 0.299478 0.482150
0.922476 0.295688 0.475229
0.970000 0.294633 0.472409
0.970000 0.294633 0.472409
0.048029 0.507968 0.492507
0.165773 0.501701 0.486506
0.312095 0.494816 0.479894
0.506864 0.491447 0.476687
0.669347 0.481040 0.467419
0.809980 0.475686 0.462113
0.918154 0.469952 0.456220
0.966509 0.467580 0.453745
0.966509 0.467580 0.453745
0.040539 0.659096 0.470832
0.169130 0.657073 0.465616
0.305862 0.653080 0.459862
0.482050 0.647099 0.453945
0.654211 0.645309 0.432206
0.839286 0.649442 0.433928
0.956470 0.633993 0.426204
0.970000 0.624269 0.428842
0.970000 0.624269 0.428842
0.035457 0.800267 0.451718
0.161753 0.797431 0.446097
0.305399 0.793411 0.440901
0.465230 0.788241 0.436253
0.624730 0.781993 0.432128
0.787139 0.783566 0.397173
0.940169 0.781969 0.393575
0.970000 0.775834 0.388645
0.970000 0.775834 0.388645
0.032267 0.904822 0.434757
0.148445 0.901540 0.430659
0.285486 0.897304 0.427328
0.454806 0.892026 0.423066
0.602349 0.885710 0.414575
0.752420 0.878406 0.405630
0.883721 0.883056 0.350548
0.938530 0.879729 0.344185
0.938530 0.879729 0.344185
0.032949 0.953197 0.429071
0.140542 0.949722 0.425613
0.273848 0.945479 0.417832
0.444606 0.940222 0.409020
0.593999 0.933949 0.399855
0.737744 0.926698 0.390293
0.865870 0.923780 0.360990
0.920572 0.929621 0.323538
0.920572 0.929621 0.323538
0.032949 0.953197 0.429071
0.140542 0.949722 0.425613
0.273848 0.945479 0.417832
0.444606 0.940222 0.409020
0.593999 0.933949 0.399855
0.737744 0.926698 0.390293
0.865870 0.923780 0.360990
0.920572 0.929621 0.323538
0.920572 0.929621 0.323538
0.084388 0.069088 0.678191
0.220626 0.061885 0.673456
0.387613 0.055668 0.668875
0.544612 0.050444 0.664452
0.692503 0.046221 0.660329
0.826609 0.043010 0.656461
0.939904 0.040820 0.652854
0.970000 0.039921 0.651303
0.970000 0.039921 0.651303
0.061826 0.188241 0.663079
0.194266 0.180579 0.659013
0.365433 0.173931 0.655228
0.538301 0.168311 0.651641
0.676535 0.163731 0.650461
0.815198 0.160209 0.651439
0.929274 0.157767 0.651775
0.970000 0.157008 0.651576
0.970000 0.157008 0.651576
0.050662 0.336339 0.650588
0.173807 0.327012 0.651063
0.334296 0.317513 0.651776
0.523433 0.309436 0.651867
0.674732 0.302909 0.651300
0.806701 0.297996 0.650142
0.921937 0.294810 0.648567
0.970000 0.294034 0.647804
0.970000 0.294034 0.647804
0.047069 0.505914 0.651949
0.165533 0.499428 0.651116
0.310561 0.492355 0.649769
0.499966 0.485006 0.648031
0.668748 0.479358 0.645931
0.810086 0.473754 0.641261
0.917429 0.468046 0.634533
0.965705 0.465713 0.631153
0.965705 0.465713 0.631153
0.040139 0.658394 0.647461
0.168818 0.655991 0.644416
0.305670 0.651262 0.638926
0.480129 0.644675 0.631520
0.652817 0.639131 0.624949
0.802928 0.627709 0.613525
0.914283 0.619398 0.604973
0.958077 0.616034 0.601521
0.958077 0.616034 0.601521
0.034520 0.799447 0.628279
0.160635 0.796200 0.619088
0.303900 0.791788 0.610222
0.463840 0.786241 0.601850
0.622153 0.779503 0.593947
0.783857 0.774247 0.575090
0.937328 0.777295 0.571968
0.970000 0.770620 0.567512
0.970000 0.770620 0.567512
0.032415 0.903862 0.598649
0.146855 0.900216 0.591080
0.283120 0.895623 0.583873
0.454139 0.889997 0.577245
0.600431 0.883335 0.571257
0.749166 0.875691 0.565846
0.880407 0.875950 0.533952
0.935606 0.872439 0.530261
0.935606 0.872439 0.530261
0.033095 0.952210 0.586478
0.138764 0.948389 0.579718
0.271243 0.943801 0.573433
0.441860 0.938203 0.567761
0.592434 0.931597 0.562749
0.734854 0.924012 0.558369
0.863764 0.915471 0.551889
0.917066 0.922281 0.513310
0.917066 0.922281 0.513310
0.033095 0.952210 0.586478
0.138764 0.948389 0.579718
0.271243 0.943801 0.573433
0.441860 0.938203 0.567761
0.592434 0.931597 0.562749
0.734854 0.924012 0.558369
0.863764 0.915471 0.551889
0.917066 0.922281 0.513310
0.917066 0.922281 0.513310
0.081621 0.066531 0.818316
0.218251 0.059662 0.814777
0.385816 0.053782 0.811360
0.544344 0.048897 0.808065
0.690755 0.045017 0.804989
0.825343 0.042151 0.802115
0.938706 0.040312 0.799444
0.970000 0.039547 0.798301
0.970000 0.039547 0.798301
0.060196 0.185525 0.807015
0.191689 0.178207 0.803985
0.362692 0.171907 0.801178
0.537236 0.166638 0.798529
0.675807 0.162415 0.796049
0.814196 0.159257 0.793843
0.928364 0.157188 0.791892
0.970000 0.156584 0.791125
0.970000 0.156584 0.791125
0.050204 0.333259 0.797746
0.172426 0.323674 0.795324
0.331120 0.314599 0.793184
0.521379 0.307043 0.791322
0.674311 0.301055 0.789705
0.806071 0.296713 0.790045
0.921474 0.294156 0.792202
0.970000 0.293687 0.793053
0.970000 0.293687 0.793053
0.046158 0.503783 0.790864
0.165447 0.497087 0.789309
0.309254 0.489841 0.790960
0.497563 0.482830 0.793010
0.667832 0.477508 0.794372
0.810014 0.471811 0.793675
0.916635 0.466167 0.791535
0.964840 0.463881 0.790232
0.964840 0.463881 0.790232
0.039968 0.657754 0.793744
0.168357 0.654623 0.794226
0.305478 0.649226 0.792975
0.478239 0.642057 0.790344
0.646909 0.633431 0.786446
0.801460 0.624845 0.781370
0.913618 0.616699 0.773675
0.957753 0.613409 0.769829
0.957753 0.613409 0.769829
0.033518 0.798484 0.788967
0.159469 0.794837 0.784626
0.302084 0.790042 0.778869
0.462539 0.784123 0.770234
0.619662 0.776235 0.760163
0.782033 0.767916 0.750804
0.900401 0.754836 0.737646
0.947954 0.750435 0.733129
0.947954 0.750435 0.733129
0.032581 0.902780 0.766249
0.145245 0.898780 0.756011
0.280729 0.893832 0.744539
0.451854 0.887857 0.733586
0.598599 0.880851 0.723280
0.745991 0.872864 0.713561
0.876554 0.867044 0.694549
0.943933 0.870741 0.696233
0.943933 0.870741 0.696233
0.033261 0.951105 0.748128
0.136970 0.946948 0.737710
0.268610 0.942013 0.727104
0.439079 0.936074 0.717118
0.590942 0.929131 0.707795
0.732026 0.921208 0.699116
0.860604 0.912335 0.691054
0.913333 0.913899 0.670611
0.913333 0.913899 0.670611
0.033261 0.951105 0.748128
0.136970 0.946948 0.737710
0.268610 0.942013 0.727104
0.439079 0.936074 0.717118
0.590942 0.929131 0.707795
0.732026 0.921208 0.699116
0.860604 0.912335 0.691054
0.913333 0.913899 0.670611
0.913333 0.913899 0.670611
0.078965 0.064088 0.934027
0.215804 0.057554 0.930546
0.383920 0.052011 0.927195
0.543992 0.047466 0.923967
0.689034 0.043929 0.920950
0.824100 0.041411 0.918144
0.937531 0.039923 0.915543
0.970000 0.039297 0.914437
0.970000 0.039297 0.914437
0.058681 0.182926 0.922912
0.189227 0.175952 0.919943
0.359858 0.170001 0.917207
0.536092 0.165086 0.914636
0.675971 0.161222 0.912238
0.813218 0.158431 0.910110
0.927479 0.156738 0.908250
0.970000 0.156294 0.907528
0.970000 0.156294 0.907528
0.049868 0.330088 0.913868
0.171166 0.320424 0.911516
0.328108 0.311861 0.909458
0.519237 0.304830 0.907693
0.673820 0.299391 0.906188
0.806019 0.295633 0.904998
0.921091 0.293746 0.904303
0.970000 0.293650 0.904228
0.970000 0.293650 0.904228
0.045281 0.501577 0.907271
0.165493 0.494681 0.905826
0.308160 0.487288 0.904761
0.495462 0.480946 0.904270
0.666633 0.475585 0.903140
0.809771 0.469871 0.900872
0.915767 0.464313 0.899628
0.963905 0.462081 0.899596
0.963905 0.462081 0.899596
0.039851 0.657024 0.904036
0.167776 0.653005 0.902317
0.305287 0.646978 0.899805
0.476366 0.639243 0.899543
0.643885 0.630454 0.898684
0.799850 0.622025 0.896658
0.912817 0.614051 0.893543
0.957296 0.610838 0.891913
0.957296 0.610838 0.891913
0.032439 0.797374 0.899257
0.158231 0.793334 0.897962
0.300179 0.788160 0.895537
0.461290 0.781875 0.892048
0.617226 0.772804 0.887481
0.776532 0.761935 0.881844
0.898419 0.751290 0.875175
0.946324 0.746978 0.872070
0.946324 0.746978 0.872070
0.032738 0.901566 0.890422
0.143592 0.897223 0.885434
0.278295 0.891926 0.879414
0.449273 0.885606 0.872383
0.596858 0.878260 0.864385
0.742912 0.869933 0.855380
0.874181 0.862105 0.846774
0.923980 0.856597 0.841316
0.923980 0.856597 0.841316
0.033431 0.949877 0.881636
0.135150 0.945395 0.875187
0.265953 0.940118 0.867522
0.436280 0.933839 0.858869
0.589549 0.926561 0.849259
0.729298 0.918304 0.839397
0.857520 0.909097 0.830007
0.909460 0.905707 0.824299
0.909460 0.905707 0.824299
0.033431 0.949877 0.881636
0.135150 0.945395 0.875187
0.265953 0.940118 0.867522
0.436280 0.933839 0.858869
0.589549 0.926561 0.849259
0.729298 0.918304 0.839397
0.857520 0.909097 0.830007
0.909460 0.905707 0.824299
0.909460 0.905707 0.824299
0.077935 0.063106 0.963259
0.214775 0.056654 0.963863
0.382947 0.051214 0.964433
0.543618 0.046792 0.964957
0.688208 0.043396 0.965506
0.823500 0.041037 0.966078
0.936963 0.039724 0.966655
0.970000 0.039175 0.966828
0.970000 0.039175 0.966828
0.057982 0.181828 0.965212
0.188158 0.174963 0.965741
0.358508 0.169141 0.966312
0.535489 0.164373 0.966844
0.675993 0.160675 0.967329
0.812743 0.158066 0.967840
0.927051 0.156563 0.966211
0.970000 0.156201 0.965511
0.970000 0.156201 0.965511
0.049714 0.328545 0.967146
0.170587 0.318897 0.967585
0.326674 0.310563 0.967377
0.518142 0.303797 0.965661
0.673556 0.298634 0.964214
0.806349 0.295175 0.963094
0.920936 0.293644 0.962497
0.969955 0.293704 0.962461
0.969955 0.293704 0.962461
0.044860 0.500452 0.965256
0.165571 0.493461 0.963869
0.307698 0.486059 0.962875
0.494542 0.480128 0.962512
0.665949 0.474618 0.961061
0.809596 0.468915 0.958666
0.915316 0.463407 0.955670
0.963420 0.461203 0.954241
0.963420 0.461203 0.954241
0.039705 0.656511 0.962072
0.167455 0.652117 0.960185
0.305210 0.645787 0.957564
0.475451 0.637773 0.954375
0.642392 0.628987 0.950689
0.798994 0.620636 0.948860
0.912366 0.612751 0.947272
0.957017 0.609576 0.946287
0.957017 0.609576 0.946287
0.031879 0.796770 0.952967
0.157589 0.792533 0.949191
0.299196 0.787173 0.948294
0.460684 0.780706 0.946336
0.616027 0.771032 0.943307
0.774664 0.760088 0.939210
0.897382 0.749547 0.934081
0.945464 0.745279 0.931625
0.945464 0.745279 0.931625
0.032808 0.900909 0.945440
0.142747 0.896399 0.941813
0.277053 0.890929 0.937334
0.447960 0.884438 0.931847
0.596014 0.876925 0.925395
0.741406 0.868430 0.917939
0.870985 0.859008 0.909479
0.922564 0.855000 0.905620
0.922564 0.855000 0.905620
0.033508 0.949215 0.939236
0.134223 0.944574 0.934055
0.264604 0.939128 0.927935
0.434867 0.932683 0.920830
0.588885 0.925241 0.912768
0.727976 0.916818 0.903747
0.856013 0.907447 0.893737
0.907653 0.903226 0.889242
0.907653 0.903226 0.889242
0.033508 0.949215 0.939236
0.134223 0.944574 0.934055
0.264604 0.939128 0.927935
0.434867 0.932683 0.920830
0.588885 0.925241 0.912768
0.727976 0.916818 0.903747
0.856013 0.907447 0.893737
0.907653 0.903226 0.889242
0.907653 0.903226 0.889242
0.077935 0.063106 0.963259
0.214775 0.056654 0.963863
0.382947 0.051214 0.964433
0.543618 0.046792 0.964957
0.688208 0.043396 0.965506
0.823500 0.041037 0.966078
0.936963 0.039724 0.966655
0.970000 0.039175 0.966828
0.970000 0.039175 0.966828
0.057982 0.181828 0.965212
0.188158 0.174963 0.965741
0.358508 0.169141 0.966312
0.535489 0.164373 0.966844
0.675993 0.160675 0.967329
0.812743 0.158066 0.967840
0.927051 0.156563 0.966211
0.970000 0.156201 0.965511
0.970000 0.156201 0.965511
0.049714 0.328545 0.967146
0.170587 0.318897 0.967585
0.326674 0.310563 0.967377
0.518142 0.303797 0.965661
0.673556 0.298634 0.964214
0.806349 0.295175 0.963094
0.920936 0.293644 0.962497
0.969955 0.293704 0.962461
0.969955 0.293704 0.962461
0.044860 0.500452 0.965256
0.165571 0.493461 0.963869
0.307698 0.486059 0.962875
0.494542 0.480128 0.962512
0.665949 0.474618 0.961061
0.809596 0.468915 0.958666
0.915316 0.463407 0.955670
0.963420 0.461203 0.954241
0.963420 0.461203 0.954241
0.039705 0.656511 0.962072
0.167455 0.652117 0.960185
0.305210 0.645787 0.957564
0.475451 0.637773 0.954375
0.642392 0.628987 0.950689
0.798994 0.620636 0.948860
0.912366 0.612751 0.947272
0.957017 0.609576 0.946287
0.957017 0.609576 0.946287
0.031879 0.796770 0.952967
0.157589 0.792533 0.949191
0.299196 0.787173 0.948294
0.460684 0.780706 0.946336
0.616027 0.771032 0.943307
0.774664 0.760088 0.939210
0.897382 0.749547 0.934081
0.945464 0.745279 0.931625
0.945464 0.745279 0.931625
0.032808 0.900909 0.945440
0.142747 0.896399 0.941813
0.277053 0.890929 0.937334
0.447960 0.884438 0.931847
0.596014 0.876925 0.925395
0.741406 0.868430 0.917939
0.870985 0.859008 0.909479
0.922564 0.855000 0.905620
0.922564 0.855000 0.905620
0.033508 0.949215 0.939236
0.134223 0.944574 0.934055
0.264604 0.939128 0.927935
0.434867 0.932683 0.920830
0.588885 0.925241 0.912768
0.727976 0.916818 0.903747
0.856013 0.907447 0.893737
0.907653 0.903226 0.889242
0.907653 0.903226 0.889242
0.033508 0.949215 0.939236
0.134223 0.944574 0.934055
0.264604 0.939128 0.927935
0.434867 0.932683 0.920830
0.588885 0.925241 0.912768
0.727976 0.916818 0.903747
0.856013 0.907447 0.893737
0.907653 0.903226 0.889242
0.907653 0.903226 0.889242
