Fotico/Resources/LUTs/ft_golden.cube
TITLE "Golden Hour"
LUT_3D_SIZE 33
DOMAIN_MIN 0.0 0.0 0.0
DOMAIN_MAX 1.0 1.0 1.0
0.096283 0.080225 0.071927
0.130546 0.078006 0.069862
0.164128 0.075849 0.067855
0.197028 0.073752 0.065906
0.229246 0.071716 0.064015
0.268701 0.069742 0.062181
0.311311 0.067828 0.060406
0.352981 0.065976 0.058688
0.393710 0.064185 0.057029
0.433499 0.062456 0.055429
0.472347 0.060788 0.053887
0.511788 0.059182 0.052410
0.551343 0.057638 0.051011
0.588398 0.056155 0.049674
0.625466 0.054735 0.048400
0.662548 0.053377 0.047189
0.699643 0.052081 0.046041
0.736751 0.050847 0.044957
0.773873 0.049676 0.043936
0.803567 0.048568 0.042978
0.831801 0.047522 0.042083
0.860046 0.046539 0.041252
0.888301 0.045620 0.040486
0.916568 0.044764 0.039782
0.944847 0.043971 0.039143
0.970000 0.043239 0.038563
0.970000 0.042599 0.037910
0.970000 0.042599 0.037910
0.970000 0.042599 0.037910
0.970000 0.042599 0.037910
0.970000 0.042599 0.037910
0.970000 0.042599 0.037910
0.970000 0.042599 0.037910
0.088557 0.109803 0.065232
0.124194 0.108987 0.060119
0.182005 0.123203 0.074462
0.205911 0.111899 0.065927
0.223909 0.101220 0.058148
0.262249 0.099214 0.056523
0.305778 0.097269 0.054956
0.348367 0.095386 0.053447
0.390016 0.093564 0.051998
0.430725 0.091805 0.050607
0.470494 0.090107 0.049275
0.509324 0.088471 0.048002
0.546601 0.086898 0.046796
0.583704 0.085387 0.045667
0.620821 0.083938 0.044601
0.657951 0.082552 0.043598
0.695096 0.081228 0.042658
0.732254 0.079968 0.041783
0.769427 0.078770 0.040971
0.800227 0.077636 0.040222
0.828500 0.076565 0.039538
0.856785 0.075557 0.038918
0.885081 0.074614 0.038363
0.913390 0.073734 0.037871
0.941710 0.072918 0.037445
0.970000 0.072166 0.037083
0.970000 0.071571 0.036515
0.970000 0.071571 0.036515
0.970000 0.071571 0.036515
0.970000 0.071571 0.036515
0.970000 0.071571 0.036515
0.970000 0.071571 0.036515
0.970000 0.071571 0.036515
0.081463 0.139414 0.059227
0.115630 0.137321 0.057572
0.151422 0.137826 0.049838
0.209498 0.151208 0.062400
0.250032 0.147965 0.059849
0.301124 0.144807 0.057381
0.330058 0.137146 0.055211
0.353723 0.128541 0.050966
0.385711 0.123162 0.047661
0.427342 0.121373 0.046481
0.468034 0.119647 0.045360
0.507787 0.117983 0.044299
0.544311 0.116382 0.043297
0.579171 0.114843 0.042365
0.616338 0.113368 0.041508
0.653519 0.111955 0.040715
0.690715 0.110606 0.039985
0.727926 0.109320 0.039320
0.765152 0.108098 0.038719
0.797018 0.106939 0.038182
0.825333 0.105845 0.037710
0.853660 0.104815 0.037303
0.881999 0.103849 0.036960
0.910350 0.102947 0.036683
0.938714 0.102110 0.036470
0.967091 0.101339 0.036324
0.970000 0.100781 0.035876
0.970000 0.100781 0.035876
0.970000 0.100781 0.035876
0.970000 0.100781 0.035876
0.970000 0.100781 0.035876
0.970000 0.100781 0.035876
0.970000 0.100781 0.035876
0.075064 0.169055 0.053916
0.108640 0.167067 0.052465
0.142918 0.165040 0.051080
0.178854 0.166834 0.040802
0.227581 0.172604 0.047474
0.285736 0.176457 0.052269
0.332383 0.173956 0.053334
0.377388 0.171726 0.053887
0.421034 0.169686 0.054132
0.451292 0.162740 0.050807
0.480594 0.155917 0.046842
0.511278 0.150088 0.043106
0.543270 0.146094 0.040511
0.576720 0.144530 0.039783
0.612025 0.143030 0.039128
0.649260 0.141593 0.038546
0.686510 0.140220 0.038028
0.723775 0.138911 0.037575
0.761056 0.137666 0.037187
0.793949 0.136485 0.036863
0.822307 0.135369 0.036605
0.850678 0.134318 0.036413
0.879062 0.133332 0.036285
0.907459 0.132412 0.036224
0.935869 0.131557 0.036229
0.964293 0.130768 0.036299
0.970000 0.130237 0.036000
0.970000 0.130237 0.036000
0.970000 0.130237 0.036000
0.970000 0.130237 0.036000
0.970000 0.130237 0.036000
0.970000 0.130237 0.036000
0.970000 0.130237 0.036000
0.069364 0.198731 0.049302
0.102349 0.196850 0.048057
0.136038 0.194929 0.046877
0.170430 0.192970 0.045763
0.206499 0.196021 0.033022
0.244583 0.193565 0.033426
0.319786 0.205177 0.050057
0.366159 0.202814 0.050932
0.411109 0.200660 0.051452
0.454819 0.198663 0.051751
0.497399 0.196790 0.051908
0.537368 0.194842 0.051840
0.563706 0.188356 0.048079
0.590613 0.182696 0.044615
0.617819 0.177690 0.041449
0.647824 0.172978 0.038386
0.682487 0.170076 0.036792
0.719810 0.168746 0.036553
0.757149 0.167481 0.036380
0.791025 0.166281 0.036272
0.819429 0.165146 0.036231
0.847847 0.164077 0.036255
0.876278 0.163075 0.036346
0.904724 0.162138 0.036503
0.933183 0.161268 0.036728
0.961658 0.160465 0.037019
0.970000 0.159952 0.036892
0.970000 0.159952 0.036892
0.970000 0.159952 0.036892
0.970000 0.159952 0.036892
0.970000 0.159952 0.036892
0.970000 0.159952 0.036892
0.970000 0.159952 0.036892
0.064366 0.228447 0.045390
0.096763 0.226673 0.044352
0.129864 0.224860 0.043379
0.163669 0.223009 0.042472
0.197930 0.221995 0.039557
0.234110 0.225205 0.030000
0.281474 0.223474 0.030000
0.348431 0.229788 0.045500
0.401742 0.231610 0.049596
0.446640 0.229536 0.050082
0.490395 0.227591 0.050417
0.532658 0.225754 0.050654
0.568583 0.224012 0.050831
0.603662 0.222353 0.050973
0.636018 0.219610 0.050142
0.663144 0.214244 0.047002
0.693371 0.209141 0.043949
0.725274 0.204436 0.041127
0.757772 0.200166 0.038605
0.788256 0.196336 0.036418
0.816709 0.195185 0.036595
0.845176 0.194102 0.036840
0.873659 0.193085 0.037152
0.902156 0.192137 0.037531
0.930670 0.191256 0.037643
0.959200 0.190443 0.037085
0.970000 0.189941 0.036674
0.970000 0.189941 0.036674
0.970000 0.189941 0.036674
0.970000 0.189941 0.036674
0.970000 0.189941 0.036674
0.970000 0.189941 0.036674
0.970000 0.189941 0.036674
0.060078 0.265143 0.042184
0.091887 0.262843 0.041354
0.124401 0.260491 0.040590
0.157620 0.258087 0.039892
0.191545 0.255630 0.039259
0.225665 0.256368 0.034918
0.269770 0.259653 0.030000
0.318717 0.257659 0.030050
0.376648 0.260064 0.037386
0.438727 0.268284 0.049015
0.483620 0.265518 0.049498
0.527445 0.262904 0.049882
0.564703 0.260420 0.050205
0.600763 0.258054 0.050492
0.636001 0.255795 0.050762
0.670432 0.253637 0.051029
0.704069 0.251575 0.051301
0.737378 0.246476 0.049724
0.769233 0.239743 0.047021
0.796431 0.235254 0.044644
0.821383 0.231168 0.042573
0.846720 0.227593 0.040238
0.872463 0.224378 0.037790
0.899773 0.222422 0.036364
0.928346 0.221535 0.035845
0.956935 0.220717 0.035346
0.970000 0.220222 0.034987
0.970000 0.220222 0.034987
0.970000 0.220222 0.034987
0.970000 0.220222 0.034987
0.970000 0.220222 0.034987
0.970000 0.220222 0.034987
0.970000 0.220222 0.034987
0.056504 0.306309 0.039688
0.087728 0.304162 0.039068
0.119657 0.301964 0.038514
0.152292 0.299714 0.038027
0.185633 0.297413 0.037606
0.219680 0.295061 0.037252
0.258997 0.297710 0.032952
0.308279 0.300162 0.030000
0.356870 0.298453 0.030492
0.406950 0.296397 0.033103
0.472660 0.304754 0.047232
0.521835 0.305703 0.049522
0.560840 0.303152 0.049982
0.597878 0.300718 0.050408
0.634096 0.298393 0.050819
0.669511 0.296169 0.051227
0.704134 0.294041 0.051643
0.737945 0.292014 0.052047
0.774918 0.290221 0.051972
0.804481 0.288541 0.051871
0.829079 0.282569 0.048983
0.854081 0.277062 0.046186
0.879489 0.272019 0.043519
0.905256 0.267390 0.040982
0.931344 0.263134 0.038571
0.957719 0.259218 0.036283
0.970000 0.257077 0.034983
0.970000 0.257077 0.034983
0.970000 0.257077 0.034983
0.970000 0.257077 0.034983
0.970000 0.257077 0.034983
0.970000 0.257077 0.034983
0.970000 0.257077 0.034983
0.053650 0.347553 0.037908
0.084292 0.345562 0.037500
0.115639 0.343520 0.037159
0.147692 0.341427 0.036884
0.180452 0.339284 0.036677
0.213919 0.337092 0.036537
0.251177 0.334850 0.036465
0.298196 0.339360 0.032468
0.347376 0.341140 0.030603
0.395831 0.339642 0.031224
0.443041 0.337541 0.031937
0.505437 0.341569 0.042033
0.556863 0.346200 0.050038
0.594887 0.343703 0.050606
0.631886 0.341351 0.050983
0.667727 0.339178 0.051057
0.702699 0.337133 0.051071
0.736818 0.335211 0.051038
0.770180 0.333405 0.050971
0.800980 0.331706 0.050907
0.829423 0.330119 0.050822
0.857872 0.328643 0.050722
0.885721 0.326477 0.050077
0.911240 0.321297 0.047291
0.937098 0.316547 0.044655
0.963262 0.312185 0.042164
0.970000 0.309660 0.040648
0.970000 0.309660 0.040648
0.970000 0.309660 0.040648
0.970000 0.309660 0.040648
0.970000 0.309660 0.040648
0.970000 0.309660 0.040648
0.970000 0.309660 0.040648
0.051526 0.388883 0.036851
0.081587 0.387051 0.036656
0.112354 0.385169 0.036530
0.143829 0.383238 0.036471
0.176011 0.381257 0.036480
0.208901 0.379228 0.036556
0.243451 0.377151 0.036702
0.290827 0.375026 0.036915
0.337812 0.381446 0.032799
0.387073 0.382633 0.031557
0.435561 0.381290 0.032189
0.482718 0.379929 0.032537
0.537527 0.380094 0.038037
0.588415 0.385097 0.048870
0.628085 0.384886 0.050149
0.664788 0.382700 0.050249
0.700626 0.380644 0.050291
0.735617 0.378712 0.050289
0.769774 0.376899 0.050254
0.797945 0.375202 0.050196
0.826495 0.373615 0.050143
0.855057 0.372140 0.050076
0.883637 0.370779 0.050001
0.912240 0.369530 0.049921
0.940872 0.368395 0.049840
0.968534 0.365937 0.048746
0.970000 0.363019 0.046991
0.970000 0.363019 0.046991
0.970000 0.363019 0.046991
0.970000 0.363019 0.046991
0.970000 0.363019 0.046991
0.970000 0.363019 0.046991
0.970000 0.363019 0.046991
0.050140 0.430313 0.036523
0.079623 0.428643 0.036545
0.109813 0.426925 0.036636
0.140712 0.425159 0.036795
0.172319 0.423345 0.037022
0.204636 0.421484 0.037319
0.237662 0.419577 0.037685
0.283359 0.417623 0.037973
0.330929 0.415624 0.037413
0.377867 0.423903 0.033013
0.426944 0.424387 0.032284
0.474993 0.423234 0.032581
0.521878 0.422108 0.032713
0.566106 0.419762 0.034442
0.617115 0.422985 0.043317
0.661786 0.426540 0.049698
0.698491 0.424490 0.049758
0.734357 0.422566 0.049778
0.769398 0.420764 0.049767
0.797956 0.419082 0.049735
0.824067 0.417517 0.049692
0.852756 0.416068 0.049655
0.881475 0.414739 0.049612
0.910231 0.413531 0.049568
0.939034 0.412448 0.049526
0.967899 0.411495 0.049485
0.970000 0.410926 0.049420
0.970000 0.410926 0.049420
0.970000 0.410926 0.049420
0.970000 0.410926 0.049420
0.970000 0.410926 0.049420
0.970000 0.410926 0.049420
0.970000 0.410926 0.049420
0.049502 0.471855 0.036933
0.078411 0.470352 0.037174
0.108028 0.468803 0.037485
0.138355 0.467207 0.037866
0.169393 0.465565 0.037786
0.201141 0.463878 0.037224
0.233601 0.462147 0.036680
0.276971 0.460371 0.036157
0.323763 0.458553 0.035655
0.371539 0.456692 0.035174
0.418373 0.466684 0.033181
0.467240 0.466568 0.032918
0.515069 0.465681 0.033025
0.557429 0.464796 0.033021
0.596846 0.461776 0.032948
0.647224 0.463557 0.038527
0.694127 0.466304 0.047843
0.733072 0.466842 0.049475
0.769017 0.465076 0.049482
0.798367 0.463436 0.049472
0.824486 0.461923 0.049451
0.851061 0.460541 0.049427
0.880009 0.459308 0.049364
0.909084 0.458254 0.049253
0.938279 0.457392 0.049168
0.967323 0.456462 0.049021
0.970000 0.455752 0.048922
0.970000 0.455752 0.048922
0.970000 0.455752 0.048922
0.970000 0.455752 0.048922
0.970000 0.455752 0.048922
0.970000 0.455752 0.048922
0.970000 0.455752 0.048922
0.049626 0.513525 0.038090
0.077965 0.512195 0.037637
0.107015 0.510821 0.037071
0.136777 0.509401 0.036524
0.167249 0.507939 0.035999
0.198435 0.506433 0.035494
0.230333 0.504886 0.035010
0.271687 0.503297 0.034549
0.317711 0.501668 0.034110
0.364723 0.500001 0.033694
0.412531 0.499162 0.033351
0.459442 0.509953 0.033754
0.508215 0.509374 0.033569
0.552353 0.508752 0.033535
0.592616 0.508117 0.033432
0.632037 0.507460 0.033279
0.678268 0.505460 0.035408
0.725646 0.506574 0.043117
0.768818 0.509979 0.049284
0.799052 0.508478 0.049193
0.826056 0.507151 0.049110
0.852487 0.505960 0.049033
0.879477 0.504653 0.048889
0.908350 0.503304 0.048687
0.937217 0.501910 0.048549
0.966095 0.500484 0.048481
0.970000 0.499468 0.048476
0.970000 0.499468 0.048476
0.970000 0.499468 0.048476
0.970000 0.499468 0.048476
0.970000 0.499468 0.048476
0.970000 0.499468 0.048476
0.970000 0.499468 0.048476
0.048472 0.551848 0.036395
0.078306 0.550857 0.035876
0.106794 0.549829 0.035368
0.135994 0.548765 0.034882
0.165909 0.547666 0.034418
0.196539 0.546533 0.033978
0.227885 0.545367 0.033561
0.267548 0.544169 0.033169
0.312818 0.542941 0.032801
0.359083 0.541684 0.032460
0.406345 0.540400 0.032147
0.454082 0.541270 0.032405
0.501332 0.550057 0.034414
0.547277 0.549798 0.034217
0.588432 0.549517 0.034080
0.628790 0.549228 0.033896
0.668478 0.548968 0.033590
0.710917 0.546396 0.033579
0.759242 0.547312 0.038852
0.797978 0.548299 0.046671
0.827234 0.549356 0.048554
0.853951 0.547845 0.048485
0.879995 0.546322 0.048426
0.907072 0.544799 0.048362
0.935841 0.543283 0.048292
0.964571 0.541775 0.048220
0.970000 0.540720 0.048210
0.970000 0.540720 0.048210
0.970000 0.540720 0.048210
0.970000 0.540720 0.048210
0.970000 0.540720 0.048210
0.970000 0.540720 0.048210
0.970000 0.540720 0.048210
0.046108 0.588050 0.034761
0.077772 0.587222 0.034315
0.107386 0.586360 0.033880
0.136035 0.585465 0.033462
0.165402 0.584540 0.033069
0.195488 0.583584 0.032702
0.226294 0.582600 0.032361
0.264613 0.581589 0.032049
0.309154 0.580556 0.031767
0.354701 0.579501 0.031517
0.401259 0.578430 0.031301
0.448835 0.577349 0.031122
0.496618 0.579878 0.032273
0.542472 0.588372 0.034887
0.584793 0.588526 0.034532
0.626099 0.588440 0.034190
0.666400 0.588149 0.033809
0.705761 0.587692 0.033414
0.744448 0.584442 0.032600
0.789155 0.584126 0.035703
0.822981 0.583416 0.042432
0.854552 0.585623 0.048214
0.881028 0.583828 0.048150
0.906841 0.582044 0.048088
0.934015 0.580278 0.048020
0.962627 0.578533 0.047946
0.970000 0.577323 0.047930
0.970000 0.577323 0.047930
0.970000 0.577323 0.047930
0.970000 0.577323 0.047930
0.970000 0.577323 0.047930
0.970000 0.577323 0.047930
0.970000 0.577323 0.047930
0.044000 0.624434 0.033351
0.075746 0.623780 0.032978
0.107520 0.623097 0.032629
0.136940 0.622386 0.032294
0.165774 0.621650 0.031983
0.195335 0.620892 0.031703
0.225624 0.620114 0.031456
0.262989 0.619322 0.031244
0.306853 0.618521 0.031072
0.351755 0.617724 0.030945
0.397759 0.616959 0.030849
0.444870 0.616195 0.030688
0.492750 0.615202 0.030370
0.538987 0.619128 0.032031
0.580151 0.626807 0.034838
0.621886 0.626524 0.034469
0.662729 0.626090 0.034104
0.702687 0.625510 0.033744
0.741762 0.624789 0.033389
0.779986 0.623551 0.032969
0.813500 0.620011 0.033838
0.847493 0.618851 0.038990
0.879258 0.618442 0.045858
0.907405 0.618871 0.047798
0.933028 0.616882 0.047733
0.960331 0.614920 0.047662
0.970000 0.613572 0.047638
0.970000 0.613572 0.047638
0.970000 0.613572 0.047638
0.970000 0.613572 0.047638
0.970000 0.613572 0.047638
0.970000 0.613572 0.047638
0.970000 0.613572 0.047638
0.042189 0.661043 0.032196
0.074035 0.660582 0.031908
0.105916 0.660099 0.031649
0.137836 0.659599 0.031419
0.167111 0.659086 0.031215
0.196189 0.658568 0.031048
0.226026 0.658060 0.030928
0.263098 0.657622 0.030804
0.306382 0.657048 0.030580
0.350464 0.656271 0.030226
0.395396 0.655337 0.030000
0.441196 0.654262 0.030000
0.487876 0.653057 0.030000
0.534692 0.651731 0.030000
0.575345 0.656790 0.032182
0.616333 0.663732 0.034808
0.657758 0.663214 0.034431
0.698310 0.662563 0.034060
0.737990 0.661781 0.033694
0.776801 0.660871 0.033333
0.806405 0.659832 0.032979
0.837323 0.655246 0.032633
0.871403 0.653730 0.036373
0.903151 0.651612 0.042484
0.933217 0.653162 0.047433
0.958672 0.650996 0.047367
0.970000 0.649518 0.047337
0.970000 0.649518 0.047337
0.970000 0.649518 0.047337
0.970000 0.649518 0.047337
0.970000 0.649518 0.047337
0.970000 0.649518 0.047337
0.970000 0.649518 0.047337
0.040749 0.697956 0.031344
0.072731 0.697724 0.031163
0.104770 0.697490 0.031019
0.136935 0.697290 0.030863
0.169226 0.697136 0.030720
0.198387 0.696760 0.030440
0.227563 0.696204 0.030054
0.263973 0.695498 0.030000
0.305998 0.694657 0.030000
0.348904 0.693689 0.030000
0.392700 0.692601 0.030000
0.437391 0.691399 0.030000
0.482980 0.690085 0.030000
0.529470 0.688662 0.030000
0.570401 0.687134 0.030000
0.610706 0.693399 0.032370
0.651568 0.699667 0.034749
0.692741 0.698974 0.034367
0.733049 0.698155 0.033991
0.772493 0.697213 0.033621
0.803616 0.696148 0.033258
0.832283 0.694961 0.032900
0.860740 0.689927 0.031936
0.894840 0.688124 0.034410
0.926738 0.685673 0.039355
0.956888 0.684647 0.045290
0.970000 0.685199 0.047028
0.970000 0.685199 0.047028
0.970000 0.685199 0.047028
0.970000 0.685199 0.047028
0.970000 0.685199 0.047028
0.970000 0.685199 0.047028
0.970000 0.685199 0.047028
0.039967 0.735400 0.030811
0.072231 0.735472 0.030631
0.104354 0.735314 0.030300
0.136392 0.734990 0.030000
0.168360 0.734522 0.030000
0.200270 0.733923 0.030000
0.228843 0.733193 0.030000
0.264620 0.732345 0.030000
0.305543 0.731382 0.030000
0.347366 0.730310 0.030000
0.390092 0.729131 0.030000
0.433723 0.727846 0.030000
0.478261 0.726459 0.030000
0.523710 0.724971 0.030000
0.564542 0.723383 0.030000
0.605293 0.721697 0.030000
0.645291 0.729189 0.032528
0.686043 0.734813 0.034670
0.726995 0.733973 0.034285
0.767086 0.733013 0.033905
0.800001 0.731934 0.033533
0.829165 0.730736 0.033167
0.857677 0.729420 0.032807
0.885630 0.726099 0.032114
0.917883 0.722073 0.032972
0.949870 0.719339 0.036851
0.970000 0.717232 0.040533
0.970000 0.717232 0.040533
0.970000 0.717232 0.040533
0.970000 0.717232 0.040533
0.970000 0.717232 0.040533
0.970000 0.717232 0.040533
0.970000 0.717232 0.040533
0.039314 0.772617 0.030000
0.071263 0.772386 0.030000
0.103155 0.772026 0.030000
0.134996 0.771545 0.030000
0.166791 0.770946 0.030000
0.198543 0.770234 0.030000
0.230165 0.769411 0.030000
0.265380 0.768475 0.030000
0.305248 0.767434 0.030000
0.346024 0.766292 0.030000
0.387711 0.765049 0.030000
0.430309 0.763707 0.030000
0.473820 0.762267 0.030000
0.518246 0.760731 0.030000
0.558954 0.759100 0.030000
0.598831 0.757375 0.030000
0.639354 0.756330 0.030000
0.679215 0.764284 0.032661
0.719864 0.769279 0.034575
0.760613 0.768312 0.034188
0.795584 0.767229 0.033806
0.825252 0.766029 0.033431
0.854269 0.764713 0.033063
0.882637 0.763282 0.032702
0.910356 0.761735 0.032348
0.940585 0.755604 0.031961
0.962743 0.753618 0.033724
0.962743 0.753618 0.033724
0.962743 0.753618 0.033724
0.962743 0.753618 0.033724
0.962743 0.753618 0.033724
0.962743 0.753618 0.033724
0.962743 0.753618 0.033724
0.037850 0.801846 0.030000
0.069631 0.801577 0.030000
0.101370 0.801223 0.030000
0.133069 0.800786 0.030000
0.164730 0.800268 0.030000
0.196355 0.799671 0.030000
0.227946 0.798996 0.030000
0.266382 0.798243 0.030000
0.305220 0.797411 0.030000
0.344972 0.796504 0.030000
0.385638 0.795524 0.030000
0.427221 0.794473 0.030000
0.469720 0.793349 0.030000
0.513137 0.792156 0.030000
0.553683 0.790892 0.030000
0.592696 0.789558 0.030000
0.632501 0.788156 0.030000
0.672738 0.788186 0.030000
0.712551 0.794258 0.032776
0.753101 0.797586 0.034469
0.790383 0.796765 0.034079
0.820559 0.795856 0.033696
0.850088 0.794862 0.033320
0.878968 0.793780 0.032950
0.907201 0.792613 0.032588
0.934786 0.791360 0.032232
0.953467 0.788077 0.031440
0.953467 0.788077 0.031440
0.953467 0.788077 0.031440
0.953467 0.788077 0.031440
0.953467 0.788077 0.031440
0.953467 0.788077 0.031440
0.953467 0.788077 0.031440
0.035868 0.828749 0.030000
0.067519 0.828420 0.030000
0.099134 0.828013 0.030000
0.130715 0.827528 0.030000
0.162263 0.826967 0.030000
0.193779 0.826331 0.030000
0.225265 0.825620 0.030000
0.263092 0.824836 0.030000
0.305529 0.823977 0.030000
0.344270 0.823043 0.030000
0.383930 0.822037 0.030000
0.424509 0.820962 0.030000
0.466007 0.819818 0.030000
0.508425 0.818605 0.030000
0.548762 0.817323 0.030000
0.586918 0.815973 0.030000
0.625868 0.814556 0.030000
0.665614 0.813072 0.030000
0.705581 0.813938 0.030000
0.745344 0.820033 0.032874
0.784412 0.822900 0.034353
0.815102 0.822000 0.033961
0.845145 0.821015 0.033577
0.874542 0.819944 0.033199
0.903292 0.818788 0.032829
0.931396 0.817547 0.032465
0.950285 0.816647 0.032220
0.950285 0.816647 0.032220
0.950285 0.816647 0.032220
0.950285 0.816647 0.032220
0.950285 0.816647 0.032220
0.950285 0.816647 0.032220
0.950285 0.816647 0.032220
0.033468 0.855191 0.030000
0.065007 0.854821 0.030000
0.096515 0.854376 0.030000
0.127993 0.853857 0.030000
0.159442 0.853265 0.030000
0.190862 0.852600 0.030000
0.222254 0.851863 0.030000
0.258807 0.851056 0.030000
0.302084 0.850177 0.030000
0.343963 0.849227 0.030000
0.382626 0.848203 0.030000
0.422210 0.847111 0.030000
0.462715 0.845951 0.030000
0.504143 0.844724 0.030000
0.544218 0.843430 0.030000
0.581523 0.842069 0.030000
0.619624 0.840642 0.030000
0.658521 0.839150 0.030000
0.698215 0.837591 0.030000
0.737927 0.839299 0.030000
0.777637 0.845413 0.032959
0.808891 0.847826 0.034228
0.839453 0.846853 0.033836
0.869369 0.845796 0.033450
0.898640 0.844655 0.033071
0.927266 0.843429 0.032700
0.946513 0.842541 0.032449
0.946513 0.842541 0.032449
0.946513 0.842541 0.032449
0.946513 0.842541 0.032449
0.946513 0.842541 0.032449
0.946513 0.842541 0.032449
0.946513 0.842541 0.032449
0.031516 0.881238 0.030000
0.062147 0.880825 0.030000
0.093559 0.880353 0.030000
0.124944 0.879809 0.030000
0.156302 0.879194 0.030000
0.187634 0.878509 0.030000
0.218940 0.877754 0.030000
0.254115 0.876930 0.030000
0.297278 0.876036 0.030000
0.340409 0.875074 0.030000
0.381758 0.874042 0.030000
0.420355 0.872938 0.030000
0.459874 0.871768 0.030000
0.500318 0.870531 0.030000
0.540074 0.869229 0.030000
0.576532 0.867861 0.030000
0.613788 0.866428 0.030000
0.651842 0.864930 0.030000
0.690693 0.863368 0.030000
0.730342 0.861741 0.030000
0.769810 0.864294 0.030000
0.802392 0.870423 0.033031
0.833018 0.872389 0.034097
0.863457 0.871349 0.033703
0.893252 0.870225 0.033317
0.922402 0.869017 0.032937
0.942009 0.868142 0.032681
0.942009 0.868142 0.032681
0.942009 0.868142 0.032681
0.942009 0.868142 0.032681
0.942009 0.868142 0.032681
0.942009 0.868142 0.032681
0.942009 0.868142 0.032681
0.031855 0.906961 0.030000
0.058970 0.906464 0.030000
0.090295 0.905973 0.030000
0.121595 0.905412 0.030000
0.152870 0.904781 0.030000
0.184121 0.904082 0.030000
0.215347 0.903314 0.030000
0.249045 0.902479 0.030000
0.292103 0.901575 0.030000
0.335129 0.900604 0.030000
0.378125 0.899566 0.030000
0.418968 0.898459 0.030000
0.457507 0.897282 0.030000
0.496971 0.896040 0.030000
0.536346 0.894733 0.030000
0.571963 0.893361 0.030000
0.608377 0.891926 0.030000
0.645591 0.890426 0.030000
0.683602 0.888862 0.030000
0.722413 0.887235 0.030000
0.762023 0.885544 0.030000
0.796156 0.888947 0.030000
0.826244 0.895087 0.033092
0.856814 0.896610 0.033960
0.887135 0.895506 0.033565
0.916812 0.894319 0.033178
0.936781 0.893458 0.032917
0.936781 0.893458 0.032917
0.936781 0.893458 0.032917
0.936781 0.893458 0.032917
0.936781 0.893458 0.032917
0.936781 0.893458 0.032917
0.936781 0.893458 0.032917
0.032201 0.932356 0.030000
0.055504 0.931764 0.030000
0.086748 0.931259 0.030000
0.117969 0.930686 0.030000
0.149167 0.930045 0.030000
0.180341 0.929336 0.030000
0.211493 0.928560 0.030000
0.243621 0.927718 0.030000
0.286580 0.926808 0.030000
0.329508 0.925833 0.030000
0.372407 0.924791 0.030000
0.415277 0.923683 0.030000
0.455633 0.922507 0.030000
0.494123 0.921262 0.030000
0.533051 0.919954 0.030000
0.567829 0.918581 0.030000
0.603406 0.917146 0.030000
0.639782 0.915647 0.030000
0.676958 0.914084 0.030000
0.714933 0.912459 0.030000
0.753708 0.910771 0.030000
0.790095 0.909020 0.030000
0.819742 0.913273 0.030000
0.849780 0.919420 0.033145
0.880295 0.920507 0.033817
0.910502 0.919343 0.033422
0.930833 0.918497 0.033155
0.930833 0.918497 0.033155
0.930833 0.918497 0.033155
0.930833 0.918497 0.033155
0.930833 0.918497 0.033155
0.930833 0.918497 0.033155
0.930833 0.918497 0.033155
0.032525 0.955495 0.030000
0.052069 0.954803 0.030000
0.083244 0.954290 0.030000
0.114396 0.953710 0.030000
0.145526 0.953063 0.030000
0.176634 0.952349 0.030000
0.207721 0.951569 0.030000
0.238787 0.950723 0.030000
0.281195 0.949812 0.030000
0.324038 0.948834 0.030000
0.366852 0.947792 0.030000
0.409639 0.946684 0.030000
0.452398 0.945511 0.030000
0.491952 0.944270 0.030000
0.530408 0.942962 0.030000
0.564416 0.941591 0.030000
0.599224 0.940158 0.030000
0.634831 0.938661 0.030000
0.671238 0.937102 0.030000
0.708445 0.935481 0.030000
0.746452 0.933797 0.030000
0.783997 0.932051 0.030000
0.814046 0.930529 0.030000
0.843550 0.935873 0.030000
0.873540 0.942084 0.033451
0.904050 0.942171 0.033650
0.924718 0.941341 0.033379
