Fotico/Resources/LUTs/ft_golden.cube
TITLE "Golden Hour"
LUT_3D_SIZE 5
DOMAIN_MIN 0.0 0.0 0.0
DOMAIN_MAX 1.0 1.0 1.0
0.096283 0.080225 0.071927
0.393710 0.064185 0.057029
0.699643 0.052081 0.046041
0.944847 0.043971 0.039143
0.970000 0.042599 0.037910
0.053650 0.347553 0.037908
0.347376 0.341140 0.030603
0.702699 0.337133 0.051071
0.937098 0.316547 0.044655
0.970000 0.309660 0.040648
0.042189 0.661043 0.032196
0.306382 0.657048 0.030580
0.657758 0.663214 0.034431
0.933217 0.653162 0.047433
0.970000 0.649518 0.047337
0.031855 0.906961 0.030000
0.292103 0.901575 0.030000
0.608377 0.891926 0.030000
0.887135 0.895506 0.033565
0.936781 0.893458 0.032917
0.032525 0.955495 0.030000
0.281195 0.949812 0.030000
0.599224 0.940158 0.030000
0.873540 0.942084 0.033451
0.924718 0.941341 0.033379
0.090249 0.074539 0.357394
0.390889 0.059783 0.351281
0.696065 0.048980 0.341589
0.942364 0.042196 0.328623
0.970000 0.041045 0.325845
0.051939 0.342225 0.323388
0.347217 0.329569 0.311336
0.675433 0.307171 0.291408
0.923073 0.296778 0.283054
0.970000 0.295464 0.282158
0.041037 0.659790 0.282062
0.306071 0.654680 0.281529
0.657476 0.653888 0.248885
0.965044 0.640477 0.238302
0.970000 0.634940 0.235073
0.032127 0.905655 0.269737
0.287788 0.898863 0.255297
0.604322 0.887963 0.239278
0.886929 0.890172 0.182425
0.941344 0.886984 0.177863
0.032798 0.954056 0.258203
0.276385 0.947034 0.242215
0.595626 0.936185 0.228783
0.868586 0.933598 0.183152
0.923966 0.936846 0.163051
0.084388 0.069088 0.678191
0.387613 0.055668 0.668875
0.692503 0.046221 0.660329
0.939904 0.040820 0.652854
0.970000 0.039921 0.651303
0.050662 0.336339 0.650588
0.334296 0.317513 0.651776
0.674732 0.302909 0.651300
0.921937 0.294810 0.648567
0.970000 0.294034 0.647804
0.040139 0.658394 0.647461
0.305670 0.651262 0.638926
0.652817 0.639131 0.624949
0.914283 0.619398 0.604973
0.958077 0.616034 0.601521
0.032415 0.903862 0.598649
0.283120 0.895623 0.583873
0.600431 0.883335 0.571257
0.880407 0.875950 0.533952
0.935606 0.872439 0.530261
0.033095 0.952210 0.586478
0.271243 0.943801 0.573433
0.592434 0.931597 0.562749
0.863764 0.915471 0.551889
0.917066 0.922281 0.513310
0.078965 0.064088 0.934027
0.383920 0.052011 0.927195
0.689034 0.043929 0.920950
0.937531 0.039923 0.915543
0.970000 0.039297 0.914437
0.049868 0.330088 0.913868
0.328108 0.311861 0.909458
0.673820 0.299391 0.906188
0.921091 0.293746 0.904303
0.970000 0.293650 0.904228
0.039851 0.657024 0.904036
0.305287 0.646978 0.899805
0.643885 0.630454 0.898684
0.912817 0.614051 0.893543
0.957296 0.610838 0.891913
0.032738 0.901566 0.890422
0.278295 0.891926 0.879414
0.596858 0.878260 0.864385
0.874181 0.862105 0.846774
0.923980 0.856597 0.841316
0.033431 0.949877 0.881636
0.265953 0.940118 0.867522
0.589549 0.926561 0.849259
0.857520 0.909097 0.830007
0.909460 0.905707 0.824299
0.077935 0.063106 0.963259
0.382947 0.051214 0.964433
0.688208 0.043396 0.965506
0.936963 0.039724 0.966655
0.970000 0.039175 0.966828
0.049714 0.328545 0.967146
0.326674 0.310563 0.967377
0.673556 0.298634 0.964214
0.920936 0.293644 0.962497
0.969955 0.293704 0.962461
0.039705 0.656511 0.962072
0.305210 0.645787 0.957564
0.642392 0.628987 0.950689
0.912366 0.612751 0.947272
0.957017 0.609576 0.946287
0.032808 0.900909 0.945440
0.277053 0.890929 0.937334
0.596014 0.876925 0.925395
0.870985 0.859008 0.909479
0.922564 0.855000 0.905620
0.033508 0.949215 0.939236
0.264604 0.939128 0.927935
0.588885 0.925241 0.912768
0.856013 0.907447 0.893737
0.907653 0.903226 0.889242
