Fotico/Resources/LUTs/ft_lush.cube
TITLE "Lush"
LUT_3D_SIZE 5
DOMAIN_MIN 0.0 0.0 0.0
DOMAIN_MAX 1.0 1.0 1.0
0.089380 0.080956 0.074460
0.327159 0.069794 0.065487
0.585425 0.061617 0.057843
0.826119 0.053442 0.050233
1.000000 0.046147 0.043389
0.050701 0.280258 0.046605
0.269634 0.272456 0.044479
0.592843 0.255944 0.037805
0.817241 0.236834 0.035716
1.000000 0.215722 0.025939
0.035325 0.549279 0.026646
0.218015 0.540801 0.023222
0.534801 0.550007 0.028937
0.803382 0.522764 0.022934
1.000000 0.526815 0.031626
0.027587 0.795716 0.020000
0.232183 0.797023 0.020000
0.513600 0.795343 0.020000
0.795168 0.816308 0.031000
0.999922 0.812882 0.027114
0.029405 1.000000 0.020000
0.235102 1.000000 0.020000
0.530259 1.000000 0.020000
0.779025 1.000000 0.020000
1.000000 1.000000 0.033396
0.074025 0.052558 0.270406
0.323014 0.066660 0.293031
0.581539 0.058707 0.279881
0.823122 0.050795 0.262769
1.000000 0.043792 0.243227
0.048340 0.274177 0.254606
0.267023 0.255880 0.236248
0.566190 0.234272 0.217605
0.799589 0.220402 0.209385
1.000000 0.214085 0.204214
0.033883 0.546738 0.205286
0.216896 0.537575 0.202075
0.532654 0.537300 0.207032
0.835579 0.527323 0.195257
1.000000 0.514297 0.198364
0.027754 0.796469 0.209885
0.232458 0.796806 0.212137
0.513360 0.794151 0.211818
0.794421 0.806052 0.219746
1.000000 0.781353 0.211295
0.029619 1.000000 0.211349
0.235436 1.000000 0.210946
0.533969 1.000000 0.210528
0.778453 1.000000 0.210124
1.000000 1.000000 0.223152
0.070744 0.038239 0.532018
0.318994 0.063893 0.562598
0.578054 0.056098 0.553152
0.820250 0.048259 0.551137
1.000000 0.041339 0.549163
0.041004 0.223782 0.530642
0.243008 0.213941 0.517911
0.564047 0.228501 0.542686
0.797450 0.217520 0.535469
1.000000 0.212546 0.525605
0.032236 0.543521 0.529940
0.216000 0.533784 0.519968
0.531688 0.523220 0.507486
0.802329 0.512116 0.496280
1.000000 0.505933 0.490285
0.027929 0.796912 0.493420
0.232728 0.796239 0.488655
0.513554 0.792572 0.487978
0.793230 0.795489 0.497919
1.000000 0.788113 0.480639
0.029834 1.000000 0.493314
0.235782 1.000000 0.501992
0.534599 1.000000 0.505573
0.778263 1.000000 0.504963
1.000000 1.000000 0.516780
0.067753 0.023076 0.774918
0.314317 0.061005 0.813079
0.574435 0.053391 0.805283
0.817508 0.045839 0.797591
1.000000 0.039197 0.790800
0.039443 0.197000 0.758502
0.239802 0.198392 0.747797
0.562042 0.223810 0.782895
0.795754 0.215475 0.778162
1.000000 0.211618 0.780646
0.030991 0.540401 0.775925
0.210882 0.489029 0.763407
0.513323 0.482648 0.756775
0.803042 0.509521 0.786368
1.000000 0.504688 0.784694
0.028138 0.797027 0.785935
0.233057 0.795345 0.782998
0.514270 0.790664 0.776575
0.792499 0.783607 0.766798
1.000000 0.774902 0.757493
0.030067 1.000000 0.762791
0.236125 1.000000 0.754931
0.534896 1.000000 0.750575
0.778463 1.000000 0.749765
1.000000 1.000000 0.756971
0.065829 0.020000 0.939149
0.307119 0.048910 0.982738
0.572043 0.050720 0.996656
0.814777 0.043425 0.997275
1.000000 0.037019 0.997802
0.039468 0.181098 0.953792
0.236954 0.182833 0.950944
0.559548 0.219665 0.998628
0.794045 0.213735 0.996992
1.000000 0.211166 0.993585
0.028509 0.465480 0.971488
0.211407 0.450983 0.959702
0.512671 0.461880 0.956509
0.803388 0.507383 0.991599
1.000000 0.503897 0.991281
0.028316 0.796784 0.991343
0.233335 0.794092 0.992163
0.507594 0.753240 0.983573
0.780566 0.756903 0.979750
1.000000 0.772640 0.997726
0.030312 1.000000 0.997946
0.236515 1.000000 0.997485
0.535249 1.000000 0.997010
0.779126 1.000000 0.995212
1.000000 1.000000 0.986701
