Fotico/Resources/LUTs/ft_lush.cube
TITLE "Lush"
LUT_3D_SIZE 9
DOMAIN_MIN 0.0 0.0 0.0
DOMAIN_MAX 1.0 1.0 1.0
0.089380 0.080956 0.074460
0.194896 0.074415 0.069818
0.327159 0.069794 0.065487
0.458857 0.065717 0.061672
0.585425 0.061617 0.057843
0.709867 0.057455 0.053964
0.826119 0.053442 0.050233
0.931751 0.049584 0.046655
1.000000 0.046147 0.043389
0.065237 0.170400 0.059762
0.169818 0.166726 0.058028
0.337345 0.164754 0.052731
0.476054 0.152302 0.048168
0.573110 0.141768 0.046111
0.694144 0.136396 0.043066
0.813543 0.131639 0.039970
0.919826 0.127646 0.036965
1.000000 0.124642 0.034223
0.050701 0.280258 0.046605
0.145234 0.271131 0.043574
0.269634 0.272456 0.044479
0.443160 0.257761 0.036995
0.592843 0.255944 0.037805
0.706661 0.247554 0.037819
0.817241 0.236834 0.035716
0.912669 0.221761 0.029777
1.000000 0.215722 0.025939
0.038287 0.416254 0.035523
0.129361 0.409355 0.033058
0.237015 0.401305 0.030523
0.399704 0.409942 0.034357
0.554217 0.395624 0.028622
0.699184 0.391870 0.033288
0.807794 0.384696 0.033108
0.914430 0.378698 0.032727
1.000000 0.374480 0.032325
0.035325 0.549279 0.026646
0.123540 0.545391 0.024864
0.218015 0.540801 0.023222
0.372911 0.535527 0.021738
0.534801 0.550007 0.028937
0.673352 0.550239 0.027016
0.803382 0.522764 0.022934
0.911603 0.530088 0.031736
1.000000 0.526815 0.031626
0.028540 0.671219 0.020982
0.127423 0.669761 0.020138
0.216856 0.668550 0.020000
0.361491 0.666780 0.020000
0.521490 0.664154 0.020000
0.665635 0.685920 0.029765
0.800590 0.687459 0.028392
0.909668 0.662386 0.021658
1.000000 0.655331 0.025614
0.027587 0.795716 0.020000
0.127848 0.796739 0.020000
0.232183 0.797023 0.020000
0.365983 0.796549 0.020000
0.513600 0.795343 0.020000
0.654518 0.793405 0.020000
0.795168 0.816308 0.031000
0.911638 0.817843 0.029614
0.999922 0.812882 0.027114
0.028485 0.903725 0.020000
0.128804 0.905773 0.020000
0.233691 0.907077 0.020000
0.382233 0.907634 0.020000
0.517197 0.907433 0.020000
0.646667 0.906498 0.020000
0.786104 0.908047 0.020116
0.907198 0.932205 0.032136
1.000000 0.933232 0.031013
0.029405 1.000000 0.020000
0.129733 1.000000 0.020000
0.235102 1.000000 0.020000
0.385614 1.000000 0.020000
0.530259 1.000000 0.020000
0.648572 1.000000 0.020000
0.779025 1.000000 0.020000
0.897372 1.000000 0.025391
1.000000 1.000000 0.033396
0.075778 0.060482 0.159713
0.192743 0.072839 0.170659
0.325192 0.068268 0.163765
0.458164 0.064248 0.156715
0.583659 0.060295 0.149060
0.708233 0.056232 0.141420
0.824834 0.052307 0.134594
0.930553 0.048526 0.128589
1.000000 0.045154 0.123675
0.063981 0.168078 0.153668
0.170354 0.162365 0.147911
0.301934 0.152427 0.138688
0.448364 0.145710 0.132509
0.573234 0.140048 0.127365
0.692913 0.134963 0.122813
0.812532 0.130448 0.118848
0.918842 0.126694 0.115649
1.000000 0.123912 0.113337
0.049709 0.277596 0.129241
0.143654 0.268319 0.124309
0.267434 0.264881 0.122274
0.461480 0.262127 0.114723
0.606584 0.249397 0.110296
0.688957 0.230707 0.111421
0.800559 0.222511 0.111208
0.907704 0.217763 0.111021
1.000000 0.214890 0.111587
0.037465 0.414275 0.114267
0.128618 0.407149 0.112135
0.234839 0.398902 0.110630
0.397885 0.402615 0.114416
0.562327 0.384630 0.107286
0.721312 0.384963 0.099437
0.835825 0.375111 0.100385
0.944294 0.365395 0.100727
1.000000 0.356788 0.107246
0.034645 0.548121 0.109149
0.123639 0.544014 0.109967
0.217410 0.539257 0.111639
0.370970 0.533837 0.114162
0.533801 0.543642 0.119562
0.674721 0.534616 0.115659
0.835559 0.529761 0.091611
0.942061 0.523070 0.089827
1.000000 0.516974 0.087983
0.028122 0.670771 0.113456
0.127231 0.669321 0.112814
0.217576 0.668087 0.112723
0.361397 0.666044 0.112603
0.520384 0.663141 0.112457
0.665154 0.680032 0.120618
0.801058 0.681340 0.119228
0.918479 0.652276 0.105851
1.000000 0.656480 0.079957
0.027668 0.796118 0.112519
0.127933 0.796909 0.112360
0.232315 0.796958 0.112194
0.367002 0.796251 0.112043
0.513430 0.794809 0.111876
0.653340 0.792636 0.111691
0.794849 0.811413 0.121849
0.912193 0.812751 0.120448
1.000000 0.797716 0.115400
0.028585 0.904451 0.111969
0.128905 0.906265 0.111777
0.233844 0.907334 0.111582
0.384332 0.907658 0.111387
0.518126 0.907220 0.111214
0.646440 0.906049 0.111024
0.785613 0.904146 0.110815
0.906964 0.927395 0.122983
1.000000 0.928244 0.121845
0.029507 1.000000 0.111416
0.129838 1.000000 0.111217
0.235262 1.000000 0.111015
0.385777 1.000000 0.110809
0.531997 1.000000 0.110603
0.649280 1.000000 0.110411
0.778702 1.000000 0.110197
0.897311 1.000000 0.114557
1.000000 1.000000 0.124225
0.074025 0.052558 0.270406
0.190475 0.071266 0.298980
0.323014 0.066660 0.293031
0.457213 0.062608 0.286853
0.581539 0.058707 0.279881
0.706147 0.054671 0.271715
0.823122 0.050795 0.262769
0.928918 0.047083 0.253050
1.000000 0.043792 0.243227
0.055198 0.144982 0.264899
0.154486 0.139732 0.250476
0.298960 0.149892 0.268571
0.446641 0.143387 0.259761
0.572851 0.137958 0.250497
0.691191 0.133200 0.240226
0.811151 0.128984 0.229942
0.917543 0.125534 0.220813
1.000000 0.123038 0.215559
0.048340 0.274177 0.254606
0.141725 0.264737 0.245086
0.267023 0.255880 0.236248
0.425765 0.243254 0.224598
0.566190 0.234272 0.217605
0.682431 0.226837 0.213156
0.799589 0.220402 0.209385
0.906820 0.216665 0.206314
1.000000 0.214085 0.204214
0.036419 0.411731 0.220069
0.127730 0.404424 0.215059
0.232438 0.396038 0.210725
0.395812 0.394006 0.209603
0.581825 0.392707 0.202981
0.720405 0.381435 0.199498
0.800353 0.364216 0.201602
0.899288 0.357826 0.202559
1.000000 0.354440 0.203701
0.033883 0.546738 0.205286
0.123840 0.542458 0.203237
0.216896 0.537575 0.202075
0.369138 0.532038 0.201770
0.532654 0.537300 0.207032
0.683702 0.524428 0.201710
0.835579 0.527323 0.195257
0.943060 0.520889 0.197434
1.000000 0.514297 0.198364
0.027777 0.670322 0.201604
0.127224 0.668968 0.203071
0.218428 0.667490 0.205525
0.361408 0.665152 0.208632
0.519183 0.661953 0.212393
0.664537 0.673586 0.218518
0.802249 0.665245 0.214933
0.946996 0.660440 0.190827
1.000000 0.654203 0.189251
0.027754 0.796469 0.209885
0.128026 0.797009 0.212304
0.232458 0.796806 0.212137
0.368214 0.795847 0.211983
0.513360 0.794151 0.211818
0.652168 0.791723 0.211634
0.794421 0.806052 0.219746
0.912708 0.807179 0.218328
1.000000 0.781353 0.211295
0.028693 0.905150 0.211904
0.129015 0.906711 0.211711
0.234010 0.907528 0.211516
0.384498 0.907598 0.211321
0.519241 0.906908 0.211147
0.646293 0.905482 0.210959
0.784547 0.903324 0.210752
0.906628 0.922125 0.221317
1.000000 0.922786 0.219722
0.029619 1.000000 0.211349
0.129951 1.000000 0.211149
0.235436 1.000000 0.210946
0.385955 1.000000 0.210738
0.533969 1.000000 0.210528
0.650141 1.000000 0.210337
0.778453 1.000000 0.210124
0.897326 1.000000 0.210593
1.000000 1.000000 0.223152
0.072370 0.045845 0.393756
0.188350 0.069909 0.432908
0.321046 0.065265 0.431347
0.456466 0.061176 0.429560
0.579686 0.057320 0.427092
0.704307 0.053295 0.423385
0.821582 0.049435 0.418904
0.927401 0.045745 0.413658
1.000000 0.042479 0.408002
0.053161 0.131310 0.396822
0.153077 0.131147 0.391723
0.296120 0.147597 0.422099
0.444996 0.141269 0.417656
0.572467 0.136022 0.412768
0.689479 0.131524 0.406974
0.809717 0.127552 0.399968
0.916151 0.124371 0.392119
1.000000 0.122146 0.384049
0.047097 0.270826 0.414191
0.133084 0.232006 0.391122
0.245403 0.224458 0.377321
0.423211 0.239868 0.395548
0.565097 0.231246 0.387857
0.682482 0.224200 0.379672
0.798508 0.218845 0.370583
0.905841 0.215562 0.361671
1.000000 0.213290 0.354542
0.036262 0.408943 0.391364
0.126836 0.401462 0.383784
0.230017 0.392925 0.375170
0.395278 0.384908 0.367183
0.551306 0.374344 0.357523
0.680493 0.366877 0.350809
0.795303 0.360984 0.345630
0.898840 0.356419 0.341779
1.000000 0.353644 0.339642
0.033054 0.545173 0.361425
0.124065 0.540732 0.354066
0.216417 0.535740 0.348089
0.367386 0.530110 0.343414
0.531570 0.530159 0.343867
0.704273 0.532296 0.336623
0.835523 0.525020 0.333646
0.908043 0.510830 0.338835
1.000000 0.506741 0.341629
0.027459 0.669808 0.341681
0.127279 0.668564 0.339741
0.219362 0.666793 0.338971
0.361531 0.664156 0.339192
0.518026 0.660657 0.340397
0.663729 0.667543 0.349239
0.809859 0.655062 0.341466
0.947038 0.658013 0.331691
1.000000 0.652048 0.334850
0.027835 0.796731 0.339445
0.128109 0.797018 0.340996
0.232588 0.796564 0.343556
0.369534 0.795354 0.347152
0.513402 0.793406 0.351751
0.651098 0.790725 0.357339
0.793907 0.800600 0.366462
0.913896 0.793558 0.361052
1.000000 0.787717 0.332511
0.028796 0.905761 0.348671
0.129122 0.907071 0.353596
0.234175 0.907635 0.357175
0.384664 0.907453 0.356882
0.520410 0.906510 0.356619
0.646248 0.904829 0.356340
0.783566 0.902416 0.356034
0.906206 0.916766 0.368158
1.000000 0.917243 0.366396
0.029731 1.000000 0.356922
0.130066 1.000000 0.356621
0.235611 1.000000 0.356313
0.386133 1.000000 0.356000
0.534441 1.000000 0.355682
0.651105 1.000000 0.355394
0.778306 1.000000 0.355075
0.896472 1.000000 0.354720
1.000000 1.000000 0.369966
0.070744 0.038239 0.532018
0.184314 0.063300 0.559735
0.318994 0.063893 0.562598
0.455761 0.059849 0.557692
0.578054 0.056098 0.553152
0.702719 0.052108 0.551157
0.820250 0.048259 0.551137
0.926086 0.044585 0.550461
1.000000 0.041339 0.549163
0.053072 0.123462 0.522448
0.151777 0.123561 0.515471
0.293434 0.145557 0.551636
0.443499 0.139402 0.551567
0.572209 0.134335 0.551120
0.687985 0.130088 0.549975
0.808452 0.126348 0.547757
0.914899 0.123410 0.544822
1.000000 0.121423 0.541437
0.041004 0.223782 0.530642
0.130328 0.213214 0.521961
0.243008 0.213941 0.517911
0.420752 0.236804 0.545522
0.564047 0.228501 0.542686
0.682525 0.221784 0.539433
0.797450 0.217520 0.535469
0.904844 0.214524 0.530639
1.000000 0.212546 0.525605
0.036327 0.406248 0.543243
0.126127 0.398537 0.540617
0.218337 0.360655 0.521474
0.378035 0.359956 0.514674
0.549591 0.371527 0.527825
0.679976 0.364510 0.522511
0.795910 0.359106 0.516304
0.898404 0.355149 0.509116
1.000000 0.353206 0.503247
0.032236 0.543521 0.529940
0.124356 0.538894 0.525208
0.216000 0.533784 0.519968
0.365751 0.528083 0.513242
0.531688 0.523220 0.507486
0.674536 0.516821 0.500864
0.802329 0.512116 0.496280
0.903670 0.508429 0.492711
1.000000 0.505933 0.490285
0.027223 0.669296 0.510403
0.127349 0.668066 0.504229
0.220581 0.666002 0.499010
0.361792 0.663066 0.494793
0.517004 0.659267 0.491561
0.663100 0.659466 0.492084
0.827334 0.662962 0.485469
0.947003 0.655719 0.482435
1.000000 0.643715 0.486934
0.027929 0.796912 0.493420
0.128204 0.796947 0.490532
0.232728 0.796239 0.488655
0.370973 0.794776 0.487812
0.513554 0.792572 0.487978
0.650113 0.789635 0.489134
0.793230 0.795489 0.497919
0.921510 0.784944 0.490115
1.000000 0.788113 0.480639
0.028898 0.906286 0.487709
0.129222 0.907341 0.488197
0.234322 0.907651 0.489701
0.384813 0.907216 0.492221
0.521570 0.906022 0.495786
0.646299 0.904088 0.500355
0.782672 0.901422 0.505913
0.905697 0.911316 0.514998
1.000000 0.910370 0.512648
0.029834 1.000000 0.493314
0.130174 1.000000 0.497147
0.235782 1.000000 0.501992
0.386312 1.000000 0.505893
0.534599 1.000000 0.505573
0.652172 1.000000 0.505281
0.778263 1.000000 0.504963
0.895495 1.000000 0.504610
1.000000 1.000000 0.516780
0.069205 0.030649 0.653461
0.179659 0.050454 0.670991
0.316700 0.062439 0.690833
0.454762 0.058406 0.685945
0.576233 0.054736 0.681505
0.701005 0.050826 0.676787
0.818909 0.047075 0.672274
0.924844 0.043491 0.667974
1.000000 0.040319 0.664096
0.052961 0.114880 0.644139
0.150519 0.115174 0.637877
0.288656 0.139886 0.669695
0.441903 0.137625 0.671376
0.571958 0.132807 0.667541
0.686669 0.128864 0.663955
0.807360 0.125374 0.662938
0.913814 0.122675 0.663865
1.000000 0.120922 0.664084
0.039392 0.205287 0.636582
0.130005 0.205541 0.631442
0.241345 0.206548 0.625691
0.418399 0.234075 0.662289
0.563084 0.226084 0.663279
0.682652 0.219796 0.663864
0.796541 0.216406 0.663809
0.903985 0.213686 0.662888
1.000000 0.211986 0.661511
0.035389 0.387640 0.655821
0.120860 0.353275 0.644189
0.215846 0.338877 0.635495
0.372768 0.341434 0.632963
0.547918 0.368988 0.661647
0.679480 0.362396 0.660252
0.796522 0.357465 0.658495
0.898068 0.354129 0.656330
1.000000 0.352967 0.654145
0.031552 0.541934 0.661256
0.124842 0.537099 0.660461
0.215755 0.531845 0.659218
0.354017 0.497863 0.641892
0.519956 0.503970 0.641543
0.673885 0.515113 0.652805
0.802731 0.510761 0.649237
0.905020 0.507426 0.644788
1.000000 0.505251 0.639857
0.027239 0.668955 0.656642
0.127429 0.667471 0.654538
0.222251 0.665114 0.651543
0.362186 0.661880 0.647658
0.516119 0.657781 0.642868
0.662987 0.653626 0.638072
0.802149 0.647900 0.632431
0.913791 0.643858 0.628406
1.000000 0.640880 0.625482
0.028036 0.797014 0.645938
0.128312 0.796795 0.640803
0.232889 0.795834 0.635362
0.372550 0.794118 0.630785
0.513844 0.791658 0.627086
0.649248 0.788465 0.624246
0.792795 0.787982 0.624266
0.939005 0.791636 0.618883
1.000000 0.786165 0.616841
0.029013 0.906730 0.629288
0.129335 0.907531 0.625867
0.234487 0.907587 0.623327
0.384972 0.906897 0.621667
0.522832 0.905449 0.620911
0.646443 0.903259 0.621030
0.781847 0.900336 0.622007
0.905072 0.905867 0.629385
1.000000 0.895181 0.627183
0.029943 1.000000 0.621445
0.130282 1.000000 0.620922
0.235942 1.000000 0.621275
0.386471 1.000000 0.622504
0.534742 1.000000 0.624610
0.653330 1.000000 0.627618
0.778316 1.000000 0.631489
0.894606 1.000000 0.636211
1.000000 1.000000 0.644447
0.067753 0.023076 0.774918
0.176365 0.037933 0.783446
0.314317 0.061005 0.813079
0.453676 0.056985 0.808959
0.574435 0.053391 0.805283
0.699276 0.049534 0.801350
0.817508 0.045839 0.797591
0.923507 0.042312 0.794015
1.000000 0.039197 0.790800
0.052851 0.106378 0.765840
0.149337 0.106870 0.759686
0.282046 0.126857 0.781282
0.440072 0.135851 0.796922
0.571469 0.131256 0.793674
0.685191 0.127598 0.790698
0.806179 0.124401 0.787515
0.912725 0.122014 0.784481
1.000000 0.120549 0.781792
0.039443 0.197000 0.758502
0.129761 0.197166 0.753445
0.239802 0.198392 0.747797
0.413984 0.225933 0.780562
0.562042 0.223810 0.782895
0.682771 0.218551 0.780546
0.795754 0.215475 0.778162
0.903261 0.213043 0.778489
1.000000 0.211618 0.780646
0.033818 0.343386 0.761475
0.119690 0.325833 0.749666
0.215770 0.327739 0.745302
0.371491 0.330732 0.740805
0.546288 0.366726 0.778809
0.679024 0.360556 0.781125
0.797173 0.356105 0.782989
0.897923 0.353470 0.784644
1.000000 0.352846 0.785858
0.030991 0.540401 0.775925
0.124275 0.521459 0.773542
0.210882 0.489029 0.763407
0.351028 0.476843 0.756600
0.513323 0.482648 0.756775
0.673126 0.513519 0.786142
0.803042 0.509521 0.786368
0.906283 0.506538 0.785850
1.000000 0.504688 0.784694
0.027297 0.668546 0.784072
0.127503 0.666772 0.785537
0.224029 0.664121 0.786249
0.362691 0.660590 0.786214
0.504599 0.630841 0.771227
0.652908 0.639068 0.772967
0.801629 0.646435 0.781523
0.914219 0.642696 0.778182
1.000000 0.639997 0.774064
0.028138 0.797027 0.785935
0.128419 0.796558 0.784841
0.233057 0.795345 0.782998
0.374259 0.793378 0.780422
0.514270 0.790664 0.776575
0.648503 0.787216 0.771748
0.792499 0.783607 0.766798
0.913819 0.778690 0.761247
1.000000 0.774902 0.757493
0.029140 0.907093 0.779116
0.129461 0.907641 0.774826
0.234674 0.907443 0.769655
0.385154 0.906498 0.764184
0.524215 0.904796 0.759582
0.646708 0.902350 0.755860
0.781125 0.899170 0.752997
0.904657 0.898215 0.752709
1.000000 0.901017 0.748528
0.030067 1.000000 0.762791
0.130405 1.000000 0.758423
0.236125 1.000000 0.754931
0.386652 1.000000 0.752315
0.534896 1.000000 0.750575
0.654593 1.000000 0.749736
0.778463 1.000000 0.749765
0.893786 1.000000 0.750645
1.000000 1.000000 0.756971
0.066710 0.020000 0.878522
0.173818 0.025591 0.880006
0.310994 0.056688 0.917304
0.452506 0.055584 0.917526
0.572660 0.052063 0.913928
0.697571 0.048261 0.910053
0.816128 0.044622 0.906356
0.922192 0.041154 0.902844
1.000000 0.038097 0.899695
0.052743 0.097955 0.871005
0.148232 0.098649 0.865885
0.277458 0.114176 0.877412
0.438140 0.134166 0.905768
0.570897 0.129798 0.902520
0.683730 0.126423 0.899602
0.804988 0.123498 0.896467
0.911590 0.121392 0.893490
1.000000 0.120200 0.890868
0.039518 0.188660 0.864992
0.129598 0.188878 0.860773
0.238382 0.190324 0.856083
0.407756 0.211184 0.875474
0.560833 0.221581 0.892040
0.682705 0.217323 0.889725
0.794885 0.214553 0.887705
0.902498 0.212446 0.885693
1.000000 0.211348 0.884089
0.034274 0.312223 0.861203
0.120479 0.313853 0.857785
0.215814 0.315611 0.854195
0.370415 0.318967 0.850502
0.542914 0.359105 0.879536
0.678512 0.358886 0.883211
0.797825 0.354976 0.882323
0.897970 0.353130 0.882050
1.000000 0.352840 0.884007
0.029297 0.507760 0.875541
0.123090 0.478035 0.864430
0.210125 0.462223 0.855704
0.351689 0.466483 0.853687
0.512841 0.472740 0.852181
0.672256 0.512038 0.885711
0.803257 0.508393 0.889184
0.907449 0.505763 0.891913
1.000000 0.504236 0.893773
0.027355 0.668036 0.881978
0.127569 0.665967 0.883035
0.223830 0.649081 0.882497
0.355509 0.622267 0.875105
0.501800 0.612850 0.869931
0.647203 0.622048 0.872747
0.801012 0.645066 0.895275
0.914552 0.641632 0.895462
1.000000 0.639214 0.894993
0.028229 0.796949 0.891111
0.128515 0.796229 0.893269
0.233206 0.794764 0.894678
0.376069 0.792547 0.895352
0.514801 0.789580 0.895286
0.639509 0.764335 0.883037
0.784988 0.771538 0.884464
0.913314 0.777231 0.890512
1.000000 0.773724 0.887706
0.029256 0.907366 0.895360
0.129582 0.907662 0.894982
0.234859 0.907212 0.893860
0.385343 0.906015 0.891992
0.525714 0.904062 0.889395
0.647093 0.901360 0.886057
0.780506 0.897925 0.881954
0.904217 0.894248 0.877674
1.000000 0.889880 0.873337
0.030199 1.000000 0.891362
0.130541 1.000000 0.888510
0.236330 1.000000 0.884909
0.386857 1.000000 0.880560
0.535072 1.000000 0.875881
0.655980 1.000000 0.871915
0.778734 1.000000 0.868689
0.893072 1.000000 0.866182
1.000000 1.000000 0.865712
0.065829 0.020000 0.939149
0.171499 0.020000 0.941893
0.307119 0.048910 0.982738
0.451269 0.054205 0.996375
0.572043 0.050720 0.996656
0.695903 0.047006 0.996965
0.814777 0.043425 0.997275
0.920906 0.040017 0.997581
1.000000 0.037019 0.997802
0.052349 0.091219 0.946049
0.146952 0.091909 0.944653
0.273955 0.103717 0.955300
0.436117 0.132570 0.997319
0.570248 0.128431 0.997609
0.682291 0.125339 0.997876
0.803818 0.122689 0.998179
0.910479 0.120869 0.998484
1.000000 0.119953 0.998739
0.039468 0.181098 0.953792
0.129397 0.181346 0.952413
0.236954 0.182833 0.950944
0.403598 0.199300 0.966950
0.559548 0.219665 0.998628
0.682567 0.216196 0.998892
0.794045 0.213735 0.996992
0.901754 0.211945 0.995074
1.000000 0.211166 0.993585
0.035732 0.300713 0.961564
0.121361 0.301890 0.960275
0.215950 0.303629 0.957771
0.369481 0.307354 0.954195
0.538000 0.340515 0.974879
0.677910 0.357347 0.992845
0.798445 0.354039 0.992134
0.898038 0.352918 0.992009
1.000000 0.352957 0.991877
0.028509 0.465480 0.971488
0.123979 0.447539 0.961824
0.211407 0.450983 0.959702
0.352775 0.455376 0.957994
0.512671 0.461880 0.956509
0.669603 0.505201 0.986761
0.803388 0.507383 0.991599
0.908524 0.505102 0.991435
1.000000 0.503897 0.991281
0.027187 0.657798 0.989508
0.126271 0.635634 0.982870
0.222365 0.611751 0.973201
0.354662 0.599391 0.965331
0.502637 0.604003 0.963494
0.645182 0.609602 0.961499
0.800296 0.643792 0.994833
0.914786 0.640663 0.998267
1.000000 0.638525 0.998496
0.028316 0.796784 0.991343
0.128601 0.795810 0.991155
0.233335 0.794092 0.992163
0.375862 0.779785 0.991604
0.507594 0.753240 0.983573
0.636006 0.743819 0.975808
0.780566 0.756903 0.979750
0.912702 0.775864 0.997895
1.000000 0.772640 0.997726
0.029359 0.907547 0.997274
0.129686 0.907590 0.998360
0.235016 0.906887 0.998145
0.385502 0.905438 0.997931
0.527288 0.903234 0.997731
0.647558 0.900278 0.997539
0.773399 0.881880 0.988610
0.897619 0.885020 0.990101
1.000000 0.888630 0.996899
0.030312 1.000000 0.997946
0.130658 1.000000 0.997718
0.236515 1.000000 0.997485
0.387051 1.000000 0.997249
0.535249 1.000000 0.997010
0.657480 1.000000 0.996783
0.779126 1.000000 0.995212
0.892462 1.000000 0.991114
1.000000 1.000000 0.986701
