Fotico/Resources/LUTs/ft_lush.cube
TITLE "Lush"
LUT_3D_SIZE 33
DOMAIN_MIN 0.0 0.0 0.0
DOMAIN_MAX 1.0 1.0 1.0
0.089380 0.080956 0.074460
0.116679 0.078732 0.073343
0.143356 0.076941 0.072189
0.169398 0.075660 0.070986
0.194896 0.074415 0.069818
0.219850 0.073207 0.068685
0.256388 0.072034 0.067586
0.292183 0.070897 0.066520
0.327159 0.069794 0.065487
0.361315 0.068725 0.064486
0.394651 0.067689 0.063517
0.427165 0.066687 0.062579
0.458857 0.065717 0.061672
0.489726 0.064779 0.060795
0.523274 0.063752 0.059836
0.554343 0.062680 0.058835
0.585425 0.061617 0.057843
0.616517 0.060563 0.056860
0.647622 0.059518 0.055886
0.678739 0.058482 0.054920
0.709867 0.057455 0.053964
0.741008 0.056438 0.053018
0.772161 0.055430 0.052080
0.799737 0.054431 0.051152
0.826119 0.053442 0.050233
0.852511 0.052463 0.049324
0.878913 0.051493 0.048424
0.905327 0.050534 0.047535
0.931751 0.049584 0.046655
0.958187 0.048644 0.045785
0.984634 0.047715 0.044925
1.000000 0.046795 0.044045
1.000000 0.046147 0.043389
0.081835 0.103329 0.070683
0.109241 0.102407 0.070084
0.151627 0.110346 0.077541
0.169095 0.100358 0.070261
0.189605 0.094741 0.066430
0.215233 0.092755 0.065432
0.250461 0.090839 0.064460
0.287241 0.088991 0.063514
0.323190 0.087212 0.062592
0.358306 0.085502 0.061696
0.392590 0.083860 0.060824
0.426042 0.082285 0.059976
0.458659 0.080778 0.059151
0.490442 0.079338 0.058350
0.521206 0.077964 0.057572
0.551277 0.076523 0.056692
0.582468 0.075089 0.055778
0.613663 0.073698 0.054867
0.644860 0.072353 0.053959
0.676060 0.071053 0.053054
0.707264 0.069797 0.052152
0.738472 0.068588 0.051253
0.769684 0.067424 0.050358
0.797685 0.066305 0.049467
0.824103 0.065234 0.048580
0.850525 0.064208 0.047697
0.876952 0.063229 0.046819
0.903384 0.062298 0.045946
0.929821 0.061413 0.045078
0.956264 0.060576 0.044216
0.982713 0.059787 0.043359
1.000000 0.059046 0.042484
1.000000 0.058548 0.041825
0.074826 0.125713 0.066991
0.101967 0.123603 0.065931
0.129268 0.123682 0.065898
0.171107 0.130222 0.070126
0.200961 0.128168 0.068981
0.234018 0.125531 0.067487
0.257197 0.117434 0.063109
0.280637 0.111300 0.059942
0.317397 0.109478 0.059034
0.353324 0.107723 0.058151
0.388419 0.106037 0.057292
0.422680 0.104418 0.056457
0.456107 0.102866 0.055646
0.488700 0.101381 0.054857
0.520397 0.099963 0.054092
0.547196 0.098610 0.053349
0.577755 0.097179 0.052493
0.608999 0.095770 0.051619
0.640246 0.094406 0.050749
0.671497 0.093088 0.049881
0.702752 0.091815 0.049017
0.734012 0.090587 0.048157
0.765276 0.089406 0.047301
0.793999 0.088271 0.046449
0.820462 0.087183 0.045601
0.846930 0.086142 0.044758
0.873402 0.085147 0.043921
0.899880 0.084200 0.043088
0.926364 0.083301 0.042261
0.952854 0.082450 0.041440
0.979351 0.081647 0.040625
1.000000 0.080893 0.039803
1.000000 0.080386 0.039175
0.069180 0.148073 0.063354
0.095043 0.146100 0.062371
0.122270 0.144037 0.061344
0.149459 0.145120 0.061877
0.177122 0.140458 0.059500
0.222185 0.148911 0.062159
0.264739 0.146302 0.060709
0.306389 0.143775 0.059292
0.345914 0.141013 0.057832
0.367888 0.134667 0.055668
0.390173 0.129679 0.054091
0.418785 0.126750 0.053061
0.453025 0.125155 0.052264
0.486430 0.123627 0.051490
0.518999 0.122166 0.050739
0.546636 0.120770 0.050010
0.573414 0.119440 0.049303
0.604469 0.118020 0.048474
0.635767 0.116639 0.047641
0.667070 0.115303 0.046812
0.698377 0.114013 0.045987
0.729689 0.112769 0.045166
0.761005 0.111571 0.044349
0.790431 0.110420 0.043537
0.816940 0.109316 0.042729
0.843454 0.108260 0.041927
0.869973 0.107251 0.041131
0.896498 0.106290 0.040340
0.923030 0.105377 0.039555
0.949568 0.104512 0.038776
0.976113 0.103696 0.038004
1.000000 0.102930 0.037234
1.000000 0.102414 0.036639
0.065237 0.170400 0.059762
0.088690 0.168613 0.058902
0.115434 0.166652 0.057918
0.142750 0.164638 0.056926
0.169818 0.166726 0.058028
0.197236 0.164465 0.056295
0.244657 0.166192 0.055042
0.295716 0.167252 0.054103
0.337345 0.164754 0.052731
0.378068 0.162338 0.051392
0.417885 0.160003 0.050087
0.453129 0.157018 0.048899
0.476054 0.152302 0.048168
0.497926 0.148527 0.048049
0.520633 0.145208 0.047524
0.545626 0.143139 0.046803
0.573110 0.141768 0.046111
0.600079 0.140455 0.045435
0.631429 0.139056 0.044641
0.662784 0.137703 0.043851
0.694144 0.136396 0.043066
0.725510 0.135137 0.042284
0.756881 0.133923 0.041508
0.786987 0.132758 0.040736
0.813543 0.131639 0.039970
0.840104 0.130568 0.039210
0.866671 0.129546 0.038455
0.893245 0.128571 0.037706
0.919826 0.127646 0.036965
0.946414 0.126769 0.036230
0.973009 0.125942 0.035502
0.999613 0.125165 0.034782
1.000000 0.124642 0.034223
0.061416 0.192770 0.056289
0.082912 0.191145 0.055528
0.109173 0.189285 0.054588
0.136006 0.187374 0.053640
0.163412 0.185411 0.052684
0.190353 0.188506 0.054356
0.217598 0.187702 0.053134
0.258990 0.180001 0.049884
0.326958 0.188391 0.047678
0.368568 0.185923 0.046351
0.409272 0.183536 0.045057
0.449069 0.181230 0.043795
0.485420 0.179346 0.044154
0.520614 0.177591 0.044381
0.547285 0.175185 0.044493
0.567326 0.171454 0.044263
0.587815 0.168129 0.043700
0.608584 0.165132 0.042916
0.630035 0.162359 0.041962
0.658649 0.160294 0.041005
0.690063 0.158972 0.040259
0.721483 0.157697 0.039519
0.752910 0.156470 0.038783
0.783675 0.155290 0.038054
0.810278 0.154158 0.037329
0.836888 0.153074 0.036612
0.863504 0.152039 0.035900
0.890128 0.151053 0.035195
0.916759 0.150116 0.034498
0.943399 0.149229 0.033808
0.970046 0.148392 0.033126
0.996703 0.147605 0.032452
1.000000 0.147076 0.031935
0.057717 0.215188 0.052937
0.077712 0.213701 0.052253
0.103491 0.211942 0.051357
0.129843 0.210133 0.050453
0.156767 0.208273 0.049542
0.184116 0.207126 0.049172
0.211070 0.210468 0.050868
0.247459 0.209719 0.049689
0.288375 0.203525 0.046911
0.345104 0.204833 0.043088
0.400073 0.207288 0.040160
0.438703 0.205154 0.040749
0.476047 0.203188 0.041243
0.512312 0.201355 0.041573
0.543884 0.199640 0.041781
0.573587 0.198029 0.041895
0.602472 0.196513 0.041936
0.628642 0.194509 0.041774
0.649631 0.191258 0.041078
0.671587 0.188218 0.040190
0.697142 0.185121 0.039025
0.723367 0.182245 0.037738
0.750194 0.179562 0.036365
0.780501 0.178024 0.035495
0.807154 0.176879 0.034814
0.833814 0.175784 0.034140
0.860481 0.174738 0.033474
0.887157 0.173741 0.032814
0.913840 0.172795 0.032162
0.940533 0.171899 0.031519
0.967234 0.171054 0.030884
0.993946 0.170260 0.030258
1.000000 0.169726 0.029784
0.054145 0.246481 0.049708
0.073096 0.244425 0.049082
0.098393 0.241941 0.048229
0.124263 0.239380 0.047370
0.150706 0.236746 0.046504
0.177723 0.234038 0.045633
0.204908 0.234481 0.046241
0.237969 0.238929 0.047573
0.278810 0.237891 0.046439
0.319355 0.232234 0.044342
0.363253 0.222042 0.040979
0.424540 0.231569 0.038488
0.466790 0.230639 0.038746
0.504003 0.227791 0.039159
0.537489 0.225127 0.039437
0.567985 0.222625 0.039612
0.597654 0.220270 0.039708
0.626518 0.218702 0.039741
0.654594 0.217308 0.039727
0.681896 0.215995 0.039674
0.709189 0.214416 0.039444
0.735003 0.211126 0.038273
0.761417 0.208077 0.036987
0.787085 0.205239 0.035619
0.810310 0.202586 0.034197
0.833912 0.200101 0.032740
0.857855 0.197767 0.031265
0.884341 0.196647 0.030571
0.911079 0.195693 0.029967
0.937827 0.194790 0.029372
0.964586 0.193939 0.028787
0.991355 0.193140 0.028211
1.000000 0.192604 0.027782
0.050701 0.280258 0.046605
0.069068 0.278348 0.046018
0.093883 0.276016 0.045209
0.119271 0.273611 0.044394
0.145234 0.271131 0.043574
0.171772 0.268580 0.042750
0.198885 0.265957 0.041921
0.228861 0.268652 0.043499
0.269634 0.272456 0.044479
0.310467 0.271508 0.043393
0.350606 0.269460 0.042098
0.391128 0.255688 0.038673
0.443160 0.257761 0.036995
0.495760 0.263682 0.037117
0.531131 0.260941 0.037448
0.562404 0.258367 0.037669
0.592843 0.255944 0.037805
0.622472 0.253659 0.037875
0.651309 0.251504 0.037894
0.679369 0.249471 0.037872
0.706661 0.247554 0.037819
0.735269 0.245678 0.037730
0.766626 0.243796 0.037599
0.794248 0.241279 0.037136
0.817241 0.236834 0.035716
0.840610 0.232687 0.034254
0.864325 0.228808 0.032768
0.888353 0.225173 0.031272
0.912669 0.221761 0.029777
0.937247 0.219038 0.028291
0.962114 0.217060 0.026846
0.988944 0.216259 0.026324
1.000000 0.215722 0.025939
0.047389 0.314118 0.043632
0.065634 0.312327 0.043066
0.089967 0.310149 0.042302
0.114874 0.307898 0.041533
0.140357 0.305575 0.040759
0.166415 0.303181 0.039980
0.193050 0.300717 0.039199
0.220393 0.298183 0.038415
0.260686 0.303193 0.040958
0.301618 0.306299 0.041597
0.342446 0.305444 0.040560
0.382456 0.304540 0.039560
0.422762 0.293393 0.036492
0.465724 0.284868 0.034299
0.518310 0.292179 0.035152
0.556827 0.294292 0.036045
0.588024 0.291812 0.036209
0.618409 0.289472 0.036305
0.647999 0.287263 0.036348
0.676811 0.285176 0.036349
0.704853 0.283207 0.036317
0.732136 0.281349 0.036260
0.761229 0.279519 0.036171
0.790722 0.277704 0.036048
0.817313 0.275979 0.035903
0.843894 0.274344 0.035741
0.869460 0.271872 0.035089
0.893335 0.267879 0.033537
0.917500 0.264142 0.031990
0.941930 0.260643 0.030457
0.966605 0.257364 0.028944
0.991503 0.254292 0.027458
1.000000 0.252571 0.026600
0.044213 0.348066 0.040791
0.062798 0.346371 0.040233
0.086650 0.344348 0.039514
0.111078 0.342253 0.038790
0.136081 0.340087 0.038063
0.161661 0.337851 0.037332
0.187818 0.335546 0.036598
0.214553 0.333173 0.035863
0.252800 0.330734 0.035127
0.292847 0.338102 0.038633
0.333940 0.340478 0.038938
0.374769 0.339720 0.037955
0.414779 0.338914 0.037007
0.454717 0.331438 0.034651
0.494308 0.318088 0.031624
0.539079 0.320225 0.032285
0.580973 0.326076 0.034385
0.614318 0.325516 0.035013
0.644655 0.323264 0.035072
0.674214 0.321135 0.035088
0.703004 0.319122 0.035072
0.731035 0.317222 0.035031
0.758313 0.315430 0.034969
0.786690 0.313656 0.034879
0.813373 0.311916 0.034763
0.840050 0.310267 0.034630
0.866725 0.308707 0.034484
0.893401 0.307235 0.034327
0.920082 0.305852 0.034163
0.945786 0.303496 0.033370
0.970370 0.299943 0.031778
0.995181 0.296621 0.030222
1.000000 0.294654 0.029270
0.041177 0.382109 0.038086
0.060569 0.380490 0.037525
0.083941 0.378622 0.036851
0.107888 0.376684 0.036173
0.132413 0.374676 0.035493
0.157515 0.372600 0.034810
0.183195 0.370456 0.034126
0.209455 0.368246 0.033441
0.244441 0.365971 0.032756
0.285572 0.363633 0.032072
0.325365 0.373393 0.036539
0.366625 0.375015 0.036519
0.407461 0.374362 0.035592
0.447477 0.373659 0.034700
0.487028 0.369841 0.033144
0.525803 0.356648 0.029938
0.561783 0.349107 0.028748
0.602646 0.354994 0.031421
0.641272 0.359536 0.034049
0.671575 0.357375 0.034074
0.701113 0.355331 0.034067
0.729892 0.353399 0.034037
0.757921 0.351575 0.033987
0.784404 0.349855 0.033923
0.809884 0.348149 0.033835
0.836658 0.346495 0.033727
0.863433 0.344933 0.033608
0.890214 0.343461 0.033480
0.917006 0.342080 0.033347
0.943810 0.340789 0.033209
0.970633 0.339590 0.033070
0.997476 0.338484 0.032932
1.000000 0.337428 0.032592
0.038287 0.416254 0.035523
0.058954 0.414694 0.034948
0.081846 0.412984 0.034320
0.105315 0.411203 0.033690
0.129361 0.409355 0.033058
0.153987 0.407440 0.032424
0.179192 0.405459 0.031790
0.204977 0.403414 0.031156
0.237015 0.401305 0.030523
0.277437 0.399135 0.029892
0.318735 0.396904 0.029265
0.358270 0.409085 0.034694
0.399704 0.409942 0.034357
0.440555 0.409401 0.033492
0.480586 0.408809 0.032661
0.519794 0.408164 0.031863
0.554217 0.395624 0.028622
0.587767 0.382758 0.025911
0.626213 0.384711 0.028000
0.664501 0.389632 0.031192
0.699184 0.391870 0.033288
0.728716 0.389918 0.033264
0.757501 0.388075 0.033224
0.784691 0.386335 0.033170
0.807794 0.384696 0.033108
0.833740 0.383074 0.033025
0.860623 0.381522 0.032931
0.887518 0.380063 0.032831
0.914430 0.378698 0.032727
0.941364 0.377429 0.032622
0.968324 0.376256 0.032518
0.995316 0.375182 0.032418
1.000000 0.374480 0.032325
0.036124 0.450482 0.033089
0.057960 0.448998 0.032511
0.080374 0.447445 0.031931
0.103365 0.445825 0.031349
0.126936 0.444139 0.030765
0.151086 0.442387 0.030182
0.175817 0.440571 0.029599
0.201129 0.438692 0.029018
0.230537 0.436753 0.028439
0.270255 0.434754 0.027864
0.310850 0.432697 0.027293
0.352066 0.431896 0.027362
0.391597 0.445211 0.033122
0.433216 0.445297 0.032476
0.474093 0.444878 0.031679
0.514149 0.444408 0.030915
0.548932 0.443885 0.030184
0.583024 0.435068 0.027692
0.616648 0.422351 0.024855
0.651325 0.415284 0.024322
0.689062 0.420213 0.027924
0.725270 0.424453 0.031328
0.757078 0.424981 0.032665
0.784987 0.423238 0.032621
0.808749 0.421597 0.032571
0.831894 0.420057 0.032516
0.858343 0.418544 0.032447
0.885371 0.417119 0.032374
0.912428 0.415796 0.032301
0.939523 0.414577 0.032231
0.966665 0.413468 0.032162
0.993909 0.412493 0.032061
1.000000 0.411872 0.032010
0.036242 0.484741 0.030755
0.057599 0.483416 0.030224
0.079536 0.482023 0.029692
0.102051 0.480565 0.029159
0.125147 0.479042 0.028626
0.148824 0.477456 0.028095
0.173083 0.475809 0.027566
0.197925 0.474101 0.027039
0.225027 0.472334 0.026517
0.264045 0.470510 0.025999
0.303943 0.468631 0.025488
0.344722 0.466699 0.024985
0.385739 0.468060 0.026072
0.425477 0.481364 0.031666
0.467216 0.481132 0.030909
0.508135 0.480851 0.030188
0.544469 0.480519 0.029501
0.578508 0.480134 0.028847
0.612298 0.475043 0.027177
0.646006 0.462508 0.024246
0.678852 0.450192 0.021836
0.715087 0.451710 0.024584
0.750974 0.455993 0.028271
0.784667 0.459753 0.031688
0.809793 0.459036 0.032226
0.833634 0.457526 0.032187
0.856871 0.456120 0.032147
0.883944 0.454790 0.032070
0.911272 0.453596 0.031991
0.938728 0.452579 0.031941
0.966278 0.451707 0.031914
0.993832 0.450901 0.031884
1.000000 0.450350 0.031878
0.037003 0.519130 0.028580
0.057883 0.517965 0.028097
0.079344 0.516736 0.027615
0.101386 0.515443 0.027134
0.124009 0.514087 0.026654
0.147215 0.512671 0.026177
0.171005 0.511195 0.025703
0.195380 0.509661 0.025234
0.220512 0.508072 0.024771
0.258835 0.506430 0.024315
0.298041 0.504735 0.023867
0.338134 0.502991 0.023430
0.379114 0.501201 0.023004
0.419952 0.504797 0.025113
0.459985 0.517600 0.030370
0.501787 0.517527 0.029703
0.539736 0.517407 0.029072
0.574549 0.517240 0.028476
0.608654 0.517023 0.027915
0.642159 0.515678 0.027138
0.675979 0.503379 0.024154
0.708947 0.491266 0.021693
0.742494 0.484316 0.021461
0.778240 0.488679 0.025368
0.807776 0.492603 0.028880
0.835961 0.495961 0.031937
0.860099 0.494746 0.031914
0.883822 0.493594 0.031890
0.911376 0.492512 0.031860
0.938933 0.491495 0.031830
0.966491 0.490542 0.031798
0.994052 0.489654 0.031765
1.000000 0.489044 0.031758
0.035325 0.549279 0.026646
0.058827 0.548313 0.026146
0.079815 0.547392 0.025716
0.101386 0.546417 0.025288
0.123540 0.545391 0.024864
0.146278 0.544315 0.024443
0.169603 0.543190 0.024029
0.193515 0.542018 0.023621
0.218015 0.540801 0.023222
0.254660 0.539541 0.022832
0.293184 0.538240 0.022453
0.332600 0.536901 0.022088
0.372911 0.535527 0.021738
0.414121 0.534121 0.021406
0.454813 0.539242 0.024550
0.495167 0.549896 0.029493
0.534801 0.550007 0.028937
0.570428 0.550086 0.028420
0.605386 0.550143 0.027920
0.639703 0.550192 0.027437
0.673352 0.550239 0.027016
0.707208 0.542117 0.024703
0.740418 0.531925 0.022307
0.772754 0.521927 0.020324
0.803382 0.522764 0.022934
0.832685 0.526212 0.026431
0.860985 0.529285 0.029599
0.887528 0.531100 0.031765
0.911603 0.530088 0.031736
0.939165 0.529135 0.031703
0.966728 0.528238 0.031668
0.994293 0.527396 0.031633
1.000000 0.526815 0.031626
0.033289 0.579477 0.024907
0.057735 0.578624 0.024438
0.080969 0.577775 0.024012
0.102072 0.576952 0.023641
0.123761 0.576080 0.023276
0.146037 0.575161 0.022918
0.168902 0.574197 0.022567
0.192357 0.573190 0.022226
0.216405 0.572142 0.021897
0.251571 0.571057 0.021581
0.289429 0.569937 0.021281
0.328188 0.568786 0.020999
0.367852 0.567608 0.020739
0.408428 0.566410 0.020504
0.449925 0.565200 0.020300
0.490555 0.572425 0.024509
0.529924 0.582725 0.029107
0.566607 0.583210 0.028720
0.602596 0.583668 0.028380
0.637832 0.584039 0.028042
0.672314 0.584324 0.027709
0.706041 0.584522 0.027380
0.739534 0.579573 0.025795
0.772711 0.569424 0.023258
0.801166 0.559447 0.021130
0.828672 0.553100 0.020717
0.857856 0.556450 0.024144
0.886051 0.559444 0.027257
0.913299 0.562131 0.030093
0.939416 0.563082 0.031566
0.966983 0.562112 0.031529
0.994551 0.561199 0.031492
1.000000 0.560565 0.031485
0.031461 0.609843 0.023367
0.055967 0.609139 0.022955
0.080495 0.608410 0.022565
0.103475 0.607691 0.022220
0.124705 0.606982 0.021920
0.146527 0.606230 0.021630
0.168941 0.605439 0.021352
0.191951 0.604611 0.021088
0.215559 0.603749 0.020841
0.249653 0.602859 0.020613
0.286876 0.601945 0.020408
0.325017 0.601015 0.020233
0.364092 0.600082 0.020094
0.404128 0.599170 0.020009
0.445243 0.598350 0.020000
0.487295 0.597510 0.020000
0.527060 0.606995 0.025154
0.562892 0.616871 0.029439
0.599581 0.617437 0.029088
0.635515 0.617916 0.028741
0.670694 0.618307 0.028400
0.705117 0.618612 0.028063
0.738783 0.618829 0.027731
0.771893 0.617032 0.026911
0.801183 0.606942 0.024243
0.828488 0.596986 0.021981
0.855066 0.587241 0.020068
0.883216 0.586906 0.021994
0.911302 0.589817 0.025053
0.938452 0.592435 0.027846
0.966315 0.594994 0.030548
0.994823 0.595107 0.031344
1.000000 0.594420 0.031337
0.029865 0.640407 0.022047
0.054441 0.639868 0.021702
0.079044 0.639307 0.021382
0.103675 0.638727 0.021088
0.126423 0.638161 0.020842
0.147805 0.637595 0.020633
0.169788 0.637000 0.020443
0.192375 0.636379 0.020276
0.215575 0.635744 0.020137
0.249098 0.635106 0.020037
0.285836 0.634517 0.020000
0.323595 0.633966 0.020000
0.362239 0.633364 0.020000
0.401762 0.632710 0.020000
0.442163 0.632003 0.020000
0.483441 0.631243 0.020000
0.524850 0.630429 0.020000
0.560037 0.641889 0.025911
0.595966 0.651090 0.029788
0.632596 0.651675 0.029434
0.668470 0.652173 0.029084
0.703586 0.652584 0.028740
0.737946 0.652907 0.028401
0.771549 0.653143 0.028067
0.800642 0.653291 0.027738
0.828545 0.644469 0.025264
0.855819 0.634536 0.022876
0.882366 0.624809 0.020838
0.908741 0.617554 0.020000
0.936715 0.620381 0.022973
0.963764 0.622928 0.025723
0.992002 0.625481 0.028431
1.000000 0.627403 0.030439
0.028540 0.671219 0.020982
0.053204 0.670865 0.020719
0.077903 0.670501 0.020489
0.102641 0.670131 0.020294
0.127423 0.669761 0.020138
0.150004 0.669421 0.020039
0.171637 0.669120 0.020000
0.193952 0.668861 0.020000
0.216856 0.668550 0.020000
0.250520 0.668188 0.020000
0.286633 0.667772 0.020000
0.323624 0.667303 0.020000
0.361491 0.666780 0.020000
0.400234 0.666204 0.020000
0.439853 0.665574 0.020000
0.480348 0.664891 0.020000
0.521490 0.664154 0.020000
0.557830 0.664851 0.020472
0.593060 0.676815 0.026646
0.629068 0.685316 0.030122
0.665635 0.685920 0.029765
0.701446 0.686436 0.029414
0.736499 0.686864 0.029068
0.770795 0.687205 0.028727
0.800590 0.687459 0.028392
0.828327 0.687624 0.028062
0.855914 0.681989 0.026319
0.883154 0.672096 0.023814
0.909668 0.662386 0.021658
0.935467 0.652897 0.020000
0.962273 0.651118 0.021008
0.989220 0.653592 0.023713
1.000000 0.655331 0.025614
0.027559 0.702369 0.020234
0.052354 0.702255 0.020091
0.077217 0.702172 0.020007
0.102222 0.702184 0.020000
0.127264 0.702170 0.020000
0.152311 0.702104 0.020000
0.174760 0.701981 0.020000
0.196562 0.701804 0.020000
0.218949 0.701573 0.020000
0.252880 0.701288 0.020000
0.288211 0.700950 0.020000
0.324418 0.700558 0.020000
0.361501 0.700111 0.020000
0.399459 0.699611 0.020000
0.438292 0.699057 0.020000
0.478001 0.698450 0.020000
0.518584 0.697788 0.020000
0.554704 0.697072 0.020000
0.590806 0.699554 0.021230
0.626107 0.711762 0.027365
0.662188 0.719545 0.030444
0.698691 0.720167 0.030086
0.734437 0.720701 0.029733
0.769426 0.721147 0.029386
0.800017 0.721505 0.029044
0.828341 0.721776 0.028708
0.856023 0.721958 0.028378
0.883285 0.719503 0.027404
0.910490 0.709665 0.024792
0.936970 0.699970 0.022524
0.962735 0.690496 0.020560
0.987962 0.682012 0.020000
1.000000 0.683344 0.020772
0.027235 0.734207 0.020000
0.052279 0.734434 0.020000
0.077329 0.734608 0.020000
0.102381 0.734728 0.020000
0.127436 0.734795 0.020000
0.152493 0.734808 0.020000
0.177551 0.734766 0.020000
0.199687 0.734666 0.020000
0.222325 0.734511 0.020000
0.255995 0.734303 0.020000
0.290541 0.734040 0.020000
0.325961 0.733723 0.020000
0.362256 0.733353 0.020000
0.399427 0.732928 0.020000
0.437472 0.732449 0.020000
0.476393 0.731917 0.020000
0.516188 0.731330 0.020000
0.551944 0.730689 0.020000
0.587951 0.729995 0.020000
0.623814 0.734296 0.021972
0.659170 0.746724 0.028071
0.695321 0.753776 0.030757
0.731760 0.754415 0.030398
0.767441 0.754966 0.030044
0.798924 0.755429 0.029696
0.827833 0.755805 0.029353
0.856100 0.756093 0.029017
0.883727 0.756292 0.028686
0.910711 0.756404 0.028361
0.937826 0.747236 0.025805
0.964270 0.737562 0.023433
0.989999 0.728102 0.021364
1.000000 0.723378 0.020477
0.027396 0.766432 0.020000
0.052453 0.766739 0.020000
0.077512 0.766992 0.020000
0.102572 0.767190 0.020000
0.127634 0.767334 0.020000
0.152697 0.767424 0.020000
0.177761 0.767459 0.020000
0.202825 0.767439 0.020000
0.226973 0.767360 0.020000
0.259855 0.767227 0.020000
0.293612 0.767039 0.020000
0.328245 0.766798 0.020000
0.363751 0.766502 0.020000
0.400133 0.766152 0.020000
0.437390 0.765748 0.020000
0.475521 0.765290 0.020000
0.514527 0.764778 0.020000
0.549821 0.764212 0.020000
0.585143 0.763592 0.020000
0.621223 0.762918 0.020000
0.656848 0.769071 0.022701
0.692246 0.781438 0.028765
0.728466 0.786775 0.031063
0.764839 0.787330 0.030702
0.797307 0.787811 0.030348
0.826802 0.788217 0.029999
0.855655 0.788550 0.029656
0.883867 0.788807 0.029319
0.911437 0.788991 0.028987
0.938365 0.789099 0.028662
0.965161 0.784061 0.026851
0.991568 0.775161 0.024380
1.000000 0.771105 0.023528
0.027587 0.795716 0.020000
0.052651 0.796041 0.020000
0.077716 0.796320 0.020000
0.102781 0.796553 0.020000
0.127848 0.796739 0.020000
0.152916 0.796880 0.020000
0.177984 0.796974 0.020000
0.203053 0.797021 0.020000
0.232183 0.797023 0.020000
0.264454 0.796973 0.020000
0.297422 0.796878 0.020000
0.331265 0.796736 0.020000
0.365983 0.796549 0.020000
0.401575 0.796316 0.020000
0.438042 0.796038 0.020000
0.475383 0.795713 0.020000
0.513600 0.795343 0.020000
0.548332 0.794927 0.020000
0.582969 0.794466 0.020000
0.618365 0.793958 0.020000
0.654518 0.793405 0.020000
0.689905 0.800202 0.023420
0.725332 0.811042 0.029451
0.761618 0.815739 0.031361
0.795168 0.816308 0.031000
0.825248 0.816804 0.030645
0.854686 0.817224 0.030295
0.883483 0.817571 0.029952
0.911638 0.817843 0.029614
0.939152 0.818040 0.029283
0.966023 0.818163 0.028957
0.992494 0.815837 0.027925
0.999922 0.812882 0.027114
0.027795 0.822837 0.020000
0.052864 0.823226 0.020000
0.077933 0.823570 0.020000
0.103003 0.823867 0.020000
0.128074 0.824118 0.020000
0.153146 0.824322 0.020000
0.178217 0.824480 0.020000
0.203290 0.824592 0.020000
0.232544 0.824657 0.020000
0.269790 0.824675 0.020000
0.301968 0.824643 0.020000
0.335020 0.824565 0.020000
0.368948 0.824441 0.020000
0.403750 0.824271 0.020000
0.439426 0.824055 0.020000
0.475978 0.823794 0.020000
0.513404 0.823486 0.020000
0.547477 0.823133 0.020000
0.581429 0.822735 0.020000
0.616140 0.822290 0.020000
0.651608 0.821800 0.020000
0.687835 0.821264 0.020000
0.722984 0.829674 0.024129
0.758426 0.840652 0.030128
0.792504 0.844701 0.031653
0.823170 0.845285 0.031292
0.853193 0.845795 0.030936
0.882575 0.846230 0.030586
0.911316 0.846590 0.030243
0.939414 0.846876 0.029905
0.966871 0.847088 0.029573
0.993686 0.847225 0.029248
0.999590 0.846716 0.029164
0.028016 0.849879 0.020000
0.053089 0.850333 0.020000
0.078162 0.850741 0.020000
0.103236 0.851102 0.020000
0.128310 0.851417 0.020000
0.153385 0.851685 0.020000
0.178460 0.851907 0.020000
0.203535 0.852082 0.020000
0.232916 0.852211 0.020000
0.270530 0.852294 0.020000
0.307246 0.852329 0.020000
0.339509 0.852313 0.020000
0.372645 0.852252 0.020000
0.406657 0.852145 0.020000
0.441543 0.851992 0.020000
0.477303 0.851794 0.020000
0.513939 0.851549 0.020000
0.547255 0.851259 0.020000
0.580522 0.850923 0.020000
0.614547 0.850541 0.020000
0.649330 0.850114 0.020000
0.684871 0.849640 0.020000
0.721116 0.849370 0.020000
0.756081 0.859164 0.024831
0.789753 0.870267 0.030797
0.820567 0.873662 0.031940
0.851176 0.874260 0.031578
0.881143 0.874784 0.031222
