Fotico/Resources/LUTs/ft_mood.cube
TITLE "Mood"
LUT_3D_SIZE 33
DOMAIN_MIN 0.0 0.0 0.0
DOMAIN_MAX 1.0 1.0 1.0
0.000000 0.002250 0.005625
0.000000 0.002250 0.005625
0.000000 0.002250 0.005625
0.000000 0.002250 0.005625
0.014293 0.003215 0.006536
0.038732 0.004398 0.007654
0.063152 0.005582 0.008771
0.087555 0.006764 0.009888
0.111940 0.007946 0.011004
0.136307 0.009127 0.012120
0.166340 0.010307 0.013236
0.203647 0.011487 0.014351
0.240927 0.012666 0.015466
0.278180 0.013844 0.016581
0.315405 0.015021 0.017695
0.352602 0.016198 0.018808
0.390622 0.017374 0.019922
0.430994 0.018550 0.021035
0.471336 0.019725 0.022147
0.511647 0.020899 0.023259
0.551929 0.022072 0.024371
0.592181 0.023245 0.025483
0.631826 0.024417 0.026594
0.662372 0.025589 0.027704
0.692895 0.026759 0.028815
0.723395 0.027930 0.029925
0.753872 0.029099 0.031035
0.784326 0.030268 0.032144
0.814757 0.031436 0.033254
0.837219 0.032604 0.034362
0.844150 0.032993 0.034732
0.844150 0.032993 0.034732
0.844150 0.032993 0.034732
0.000000 0.002250 0.005625
0.000000 0.002250 0.005625
0.000000 0.002250 0.005625
0.000000 0.002250 0.005625
0.014293 0.003215 0.006536
0.038732 0.004398 0.007654
0.063152 0.005582 0.008771
0.087555 0.006764 0.009888
0.111940 0.007946 0.011004
0.136307 0.009127 0.012120
0.166340 0.010307 0.013236
0.203647 0.011487 0.014351
0.240927 0.012666 0.015466
0.278180 0.013844 0.016581
0.315405 0.015021 0.017695
0.352602 0.016198 0.018808
0.390622 0.017374 0.019922
0.430994 0.018550 0.021035
0.471336 0.019725 0.022147
0.511647 0.020899 0.023259
0.551929 0.022072 0.024371
0.592181 0.023245 0.025483
0.631826 0.024417 0.026594
0.662372 0.025589 0.027704
0.692895 0.026759 0.028815
0.723395 0.027930 0.029925
0.753872 0.029099 0.031035
0.784326 0.030268 0.032144
0.814757 0.031436 0.033254
0.837219 0.032604 0.034362
0.844150 0.032993 0.034732
0.844150 0.032993 0.034732
0.844150 0.032993 0.034732
0.000000 0.002250 0.005625
0.000000 0.002250 0.005625
0.000000 0.002250 0.005625
0.000000 0.002250 0.005625
0.014293 0.003215 0.006536
0.038732 0.004398 0.007654
0.063152 0.005582 0.008771
0.087555 0.006764 0.009888
0.111940 0.007946 0.011004
0.136307 0.009127 0.012120
0.166340 0.010307 0.013236
0.203647 0.011487 0.014351
0.240927 0.012666 0.015466
0.278180 0.013844 0.016581
0.315405 0.015021 0.017695
0.352602 0.016198 0.018808
0.390622 0.017374 0.019922
0.430994 0.018550 0.021035
0.471336 0.019725 0.022147
0.511647 0.020899 0.023259
0.551929 0.022072 0.024371
0.592181 0.023245 0.025483
0.631826 0.024417 0.026594
0.662372 0.025589 0.027704
0.692895 0.026759 0.028815
0.723395 0.027930 0.029925
0.753872 0.029099 0.031035
0.784326 0.030268 0.032144
0.814757 0.031436 0.033254
0.837219 0.032604 0.034362
0.844150 0.032993 0.034732
0.844150 0.032993 0.034732
0.844150 0.032993 0.034732
0.000000 0.002250 0.005625
0.000000 0.002250 0.005625
0.000000 0.002250 0.005625
0.000000 0.002250 0.005625
0.015004 0.003249 0.006568
0.039424 0.004432 0.007685
0.063825 0.005614 0.008802
0.088208 0.006796 0.009918
0.112573 0.007976 0.011033
0.136920 0.009156 0.012148
0.167323 0.010623 0.013303
0.204744 0.012367 0.014496
0.242133 0.014092 0.015686
0.279489 0.015796 0.016873
0.316812 0.017480 0.018057
0.354103 0.019144 0.019238
0.392349 0.020788 0.020416
0.432812 0.022412 0.021591
0.473239 0.024016 0.022763
0.513631 0.025599 0.023931
0.553987 0.027162 0.025097
0.594308 0.028706 0.026260
0.633491 0.030229 0.027420
0.664080 0.031732 0.028576
0.694643 0.033214 0.029730
0.725179 0.034677 0.030881
0.755688 0.036120 0.032028
0.786169 0.037542 0.033173
0.816624 0.038944 0.034315
0.838509 0.040327 0.035454
0.845445 0.040783 0.035832
0.845445 0.040783 0.035832
0.845445 0.040783 0.035832
0.010225 0.021769 0.020813
0.010225 0.021769 0.020813
0.010225 0.021769 0.020813
0.010366 0.021944 0.020949
0.021174 0.028428 0.010143
0.045635 0.030225 0.011345
0.070075 0.032003 0.012543
0.094493 0.033760 0.013738
0.118891 0.035498 0.014930
0.143267 0.037215 0.016119
0.177020 0.038912 0.017305
0.214332 0.040588 0.018488
0.251611 0.042245 0.019667
0.288857 0.043882 0.020844
0.326071 0.045498 0.022018
0.363252 0.047094 0.023189
0.402175 0.048671 0.024356
0.442518 0.050227 0.025521
0.482826 0.051762 0.026682
0.523098 0.053278 0.027841
0.563335 0.054774 0.028997
0.603536 0.056249 0.030149
0.640413 0.057705 0.031299
0.670912 0.059140 0.032445
0.701384 0.060555 0.033589
0.731829 0.061950 0.034730
0.762247 0.063325 0.035867
0.792638 0.064680 0.037002
0.822054 0.066014 0.038134
0.842810 0.067329 0.039263
0.849725 0.067763 0.039638
0.849725 0.067763 0.039638
0.849725 0.067763 0.039638
0.028842 0.044704 0.038661
0.028842 0.044704 0.038661
0.028842 0.044704 0.038661
0.029017 0.044886 0.038808
0.037051 0.051652 0.038531
0.052076 0.058625 0.015363
0.076445 0.060335 0.016551
0.100792 0.062024 0.017736
0.125118 0.063694 0.018917
0.149423 0.065343 0.020096
0.186349 0.066973 0.021272
0.223551 0.068582 0.022444
0.260720 0.070171 0.023614
0.297857 0.071739 0.024781
0.334961 0.073288 0.025944
0.372032 0.074817 0.027105
0.411599 0.076325 0.028262
0.451822 0.077813 0.029417
0.492011 0.079281 0.030568
0.532163 0.080730 0.031717
0.572281 0.082157 0.032862
0.612362 0.083565 0.034005
0.647030 0.084953 0.035144
0.677438 0.086321 0.036281
0.707819 0.087668 0.037414
0.738173 0.088995 0.038545
0.768500 0.090303 0.039673
0.798800 0.091590 0.040798
0.826207 0.092857 0.041920
0.846902 0.094104 0.043039
0.853795 0.094515 0.043411
0.853795 0.094515 0.043411
0.853795 0.094515 0.043411
0.047310 0.067464 0.056377
0.047310 0.067464 0.056377
0.047310 0.067464 0.056377
0.048143 0.067976 0.056853
0.058285 0.073460 0.062184
0.060684 0.084926 0.030790
0.082574 0.088439 0.020525
0.106850 0.090061 0.021699
0.131104 0.091662 0.022871
0.158184 0.093244 0.024039
0.195309 0.094806 0.025205
0.232401 0.096347 0.026367
0.269460 0.097868 0.027526
0.306487 0.099369 0.028683
0.343481 0.100850 0.029836
0.380481 0.102311 0.030987
0.420620 0.103752 0.032134
0.460725 0.105172 0.033278
0.500793 0.106573 0.034420
0.540826 0.107953 0.035558
0.580824 0.109313 0.036694
0.620786 0.110654 0.037826
0.653341 0.111974 0.038956
0.683658 0.113274 0.040083
0.713948 0.114553 0.041206
0.744211 0.115813 0.042327
0.774446 0.117053 0.043445
0.804655 0.118272 0.044560
0.830151 0.119472 0.045672
0.850783 0.120651 0.046782
0.857656 0.121040 0.047151
0.857656 0.121040 0.047151
0.857656 0.121040 0.047151
0.065629 0.090048 0.073959
0.065629 0.090048 0.073959
0.065629 0.090048 0.073959
0.067040 0.090849 0.074724
0.077113 0.096268 0.080003
0.081796 0.104731 0.070751
0.088463 0.116315 0.024464
0.112667 0.117869 0.025628
0.136850 0.119403 0.026789
0.166884 0.120917 0.027948
0.203899 0.122411 0.029103
0.240881 0.123884 0.030255
0.277830 0.125338 0.031405
0.314747 0.126771 0.032551
0.351631 0.128184 0.033694
0.389220 0.129578 0.034835
0.429240 0.130951 0.035972
0.469224 0.132304 0.037107
0.509173 0.133636 0.038238
0.549087 0.134949 0.039367
0.588964 0.136242 0.040492
0.628806 0.137514 0.041615
0.659346 0.138767 0.042735
0.689571 0.139999 0.043851
0.719770 0.141212 0.044965
0.749941 0.142404 0.046077
0.780086 0.143576 0.047185
0.810213 0.144736 0.048292
0.833917 0.145897 0.049399
0.854529 0.147058 0.050508
0.861400 0.147445 0.050877
0.861400 0.147445 0.050877
0.861400 0.147445 0.050877
0.083799 0.112456 0.091408
0.083799 0.112456 0.091408
0.083799 0.112456 0.091408
0.085707 0.113505 0.092422
0.095712 0.118860 0.097649
0.105696 0.124196 0.102861
0.103622 0.137585 0.063541
0.118243 0.145449 0.029523
0.142354 0.146916 0.030674
0.175214 0.148362 0.031822
0.212119 0.149788 0.032968
0.248991 0.151831 0.034110
0.285830 0.153956 0.035249
0.322637 0.156050 0.036385
0.359411 0.158113 0.037519
0.397556 0.160146 0.038649
0.437456 0.162147 0.039777
0.477321 0.164118 0.040901
0.517150 0.166058 0.042023
0.556944 0.167967 0.043142
0.596701 0.169846 0.044257
0.634882 0.171693 0.045370
0.665043 0.173510 0.046480
0.695178 0.175297 0.047588
0.725306 0.177077 0.048695
0.755432 0.178856 0.049803
0.785557 0.180637 0.050911
0.815681 0.182417 0.052021
0.837656 0.184198 0.053131
0.858266 0.185980 0.054242
0.865135 0.186574 0.054613
0.865135 0.186574 0.054613
0.865135 0.186574 0.054613
0.101819 0.134689 0.108724
0.101819 0.134689 0.108724
0.101819 0.134689 0.108724
0.104144 0.135944 0.109945
0.114081 0.141234 0.115121
0.123996 0.146506 0.120281
0.125719 0.159850 0.103270
0.128196 0.179417 0.055614
0.147617 0.187108 0.034525
0.183174 0.189222 0.035663
0.219968 0.191305 0.036798
0.256730 0.193357 0.037931
0.293459 0.195378 0.039060
0.330156 0.197368 0.040186
0.366819 0.199328 0.041310
0.405489 0.201257 0.042430
0.445270 0.203155 0.043548
0.485014 0.205022 0.044663
0.524723 0.206858 0.045775
0.564396 0.208664 0.046884
0.604041 0.210445 0.047991
0.640398 0.212225 0.049098
0.670524 0.214004 0.050206
0.700649 0.215785 0.051315
0.730772 0.217566 0.052425
0.760895 0.219347 0.053535
0.791017 0.221129 0.054647
0.820778 0.222911 0.055759
0.841386 0.224694 0.056873
0.861993 0.226478 0.057987
0.868862 0.227073 0.058359
0.868862 0.227073 0.058359
0.868862 0.227073 0.058359
0.119689 0.160345 0.125908
0.119689 0.160345 0.125908
0.119689 0.160345 0.125908
0.122351 0.162520 0.127296
0.132219 0.170534 0.132420
0.142066 0.178518 0.137528
0.152472 0.186699 0.141989
0.146371 0.209323 0.096421
0.156320 0.226526 0.047347
0.190763 0.230606 0.039470
0.227447 0.232585 0.040596
0.264099 0.234534 0.041718
0.300718 0.236451 0.042838
0.337304 0.238338 0.043954
0.373857 0.240194 0.045068
0.413019 0.242019 0.046179
0.452679 0.243814 0.047287
0.492320 0.245593 0.048394
0.531960 0.247372 0.049501
0.571599 0.249153 0.050610
0.611237 0.250933 0.051719
0.645863 0.252714 0.052829
0.675986 0.254496 0.053940
0.706107 0.256278 0.055052
0.736227 0.258060 0.056165
0.766346 0.259844 0.057278
0.796463 0.261628 0.058393
0.824502 0.263412 0.059509
0.845106 0.265198 0.060626
0.865710 0.266984 0.061744
0.872578 0.267579 0.062117
0.872578 0.267579 0.062117
0.872578 0.267579 0.062117
0.137409 0.193898 0.142959
0.137409 0.193898 0.142959
0.137409 0.193898 0.142959
0.140327 0.196262 0.144472
0.150193 0.204176 0.149545
0.165187 0.212062 0.157057
0.180150 0.219918 0.164788
0.178826 0.237000 0.136095
0.179252 0.257159 0.089043
0.197981 0.271642 0.043245
0.234555 0.273517 0.044360
0.271096 0.275362 0.045473
0.307604 0.277176 0.046583
0.344082 0.278961 0.047690
0.380599 0.280741 0.048797
0.420239 0.282520 0.049905
0.459877 0.284301 0.051014
0.499515 0.286081 0.052123
0.539150 0.287863 0.053233
0.578784 0.289644 0.054345
0.618417 0.291427 0.055457
0.651316 0.293210 0.056570
0.681435 0.294993 0.057684
0.711552 0.296777 0.058799
0.741667 0.298562 0.059916
0.771781 0.300348 0.061033
0.801894 0.302134 0.062152
0.828214 0.303921 0.063272
0.848814 0.305710 0.064394
0.869414 0.307499 0.065517
0.876280 0.308095 0.065891
0.876280 0.308095 0.065891
0.876280 0.308095 0.065891
0.157635 0.227182 0.165147
0.157635 0.227182 0.165147
0.157635 0.227182 0.165147
0.162377 0.229671 0.167597
0.177297 0.237487 0.175296
0.192185 0.245273 0.182972
0.207042 0.253031 0.190625
0.217612 0.263024 0.188349
0.209011 0.285481 0.129553
0.215922 0.303709 0.081365
0.241299 0.314109 0.048093
0.277768 0.315889 0.049200
0.314236 0.317669 0.050308
0.350703 0.319449 0.051417
0.387792 0.321230 0.052527
0.427427 0.323011 0.053638
0.467061 0.324793 0.054749
0.506693 0.326576 0.055862
0.546323 0.328359 0.056975
0.585952 0.330143 0.058090
0.625579 0.331927 0.059206
0.656755 0.333712 0.060322
0.686869 0.335498 0.061440
0.716980 0.337285 0.062559
0.747091 0.339072 0.063680
0.777199 0.340861 0.064802
0.807305 0.342650 0.065926
0.831911 0.344441 0.067051
0.852507 0.346232 0.068179
0.873101 0.348026 0.069309
0.879965 0.348624 0.069686
0.879965 0.348624 0.069686
0.879965 0.348624 0.069686
0.184344 0.260199 0.190889
0.184344 0.260199 0.190889
0.184344 0.260199 0.190889
0.189232 0.262748 0.193405
0.204046 0.270465 0.201026
0.218829 0.278153 0.208623
0.233580 0.285812 0.216197
0.248318 0.293459 0.223762
0.243641 0.312112 0.179468
0.241768 0.332681 0.122580
0.253914 0.349464 0.073473
0.284384 0.356378 0.052931
0.320848 0.358160 0.054042
0.357310 0.359942 0.055154
0.394969 0.361725 0.056267
0.434599 0.363508 0.057381
0.474227 0.365292 0.058496
0.513853 0.367077 0.059612
0.553477 0.368862 0.060729
0.593099 0.370649 0.061848
0.632067 0.372435 0.062967
0.662176 0.374223 0.064088
0.692284 0.376012 0.065211
0.722389 0.377802 0.066335
0.752492 0.379593 0.067462
0.782592 0.381506 0.068590
0.812690 0.383455 0.069721
0.835589 0.385407 0.070854
0.856176 0.387361 0.071991
0.876760 0.389317 0.073132
0.883620 0.389970 0.073514
0.883620 0.389970 0.073514
0.883620 0.389970 0.073514
0.210821 0.292947 0.216430
0.210821 0.292947 0.216430
0.210821 0.292947 0.216430
0.215734 0.295496 0.218951
0.230471 0.303143 0.226517
0.245207 0.310791 0.234083
0.259942 0.318439 0.241651
0.274676 0.326087 0.249220
0.282010 0.337702 0.239290
0.272916 0.360221 0.169731
0.276604 0.379288 0.115253
0.293074 0.396200 0.065388
0.327444 0.400280 0.057787
0.363901 0.402219 0.058902
0.402127 0.404160 0.060019
0.441750 0.406101 0.061136
0.481372 0.408042 0.062255
0.520991 0.409985 0.063375
0.560608 0.411929 0.064497
0.600222 0.413873 0.065620
0.637473 0.415819 0.066745
0.667575 0.417767 0.067872
0.697674 0.419715 0.069001
0.727770 0.421665 0.070133
0.757863 0.423618 0.071268
0.787951 0.425573 0.072406
0.818032 0.427531 0.073549
0.839228 0.429494 0.074701
0.859656 0.431244 0.075852
0.879887 0.432619 0.076960
0.886604 0.433026 0.077323
0.886604 0.433026 0.077323
0.886604 0.433026 0.077323
0.237183 0.325574 0.241884
0.237183 0.325574 0.241884
0.237183 0.325574 0.241884
0.242094 0.328123 0.244407
0.256828 0.335772 0.251976
0.271560 0.343421 0.259547
0.286290 0.351071 0.267120
0.301019 0.358721 0.274693
0.315747 0.366372 0.282269
0.308070 0.387262 0.230436
0.304670 0.410068 0.159344
0.313016 0.429427 0.107662
0.334021 0.444307 0.061543
0.370472 0.446250 0.062663
0.409262 0.448193 0.063783
0.448878 0.450137 0.064906
0.488491 0.452082 0.066030
0.528101 0.454028 0.067155
0.567707 0.455976 0.068283
0.607310 0.457925 0.069413
0.642851 0.459876 0.070546
0.672941 0.461829 0.071682
0.703027 0.463785 0.072822
0.733105 0.465745 0.073967
0.763155 0.467702 0.075126
0.792870 0.469274 0.076259
0.821624 0.470563 0.077356
0.841710 0.471656 0.078430
0.861714 0.472590 0.079484
0.881648 0.473385 0.080523
0.888277 0.473623 0.080865
0.888277 0.473623 0.080865
0.888277 0.473623 0.080865
0.263531 0.358206 0.267352
0.263531 0.358206 0.267352
0.263531 0.358206 0.267352
0.268441 0.360756 0.269877
0.283169 0.368407 0.277451
0.297896 0.376058 0.285027
0.312622 0.384032 0.292604
0.327346 0.392350 0.300183
0.342067 0.400669 0.307764
0.346325 0.415116 0.290318
0.336898 0.439691 0.220857
0.338335 0.461079 0.148999
0.350635 0.479279 0.099876
0.377018 0.490290 0.066439
0.416368 0.492237 0.067566
0.455973 0.494185 0.068694
0.495575 0.496135 0.069825
0.535172 0.498087 0.070959
0.574762 0.500041 0.072096
0.614346 0.501998 0.073238
0.648177 0.503960 0.074387
0.678131 0.505820 0.075545
0.707755 0.507269 0.076662
0.737200 0.508481 0.077749
0.766511 0.509513 0.078816
0.795709 0.510395 0.079864
0.823289 0.511144 0.080897
0.843136 0.511773 0.081916
0.862927 0.512293 0.082922
0.882665 0.512711 0.083916
0.889233 0.512828 0.084245
0.889233 0.512828 0.084245
0.889233 0.512828 0.084245
0.289862 0.391788 0.292837
0.289862 0.391788 0.292837
0.289862 0.391788 0.292837
0.294770 0.394560 0.295363
0.309493 0.402879 0.302943
0.324215 0.411198 0.310525
0.338934 0.419517 0.318108
0.353651 0.427838 0.325694
0.368366 0.436160 0.333282
0.383346 0.444483 0.340872
0.372405 0.468356 0.281504
0.367895 0.491491 0.210724
0.373489 0.511660 0.141665
0.389986 0.528865 0.091949
0.423433 0.536298 0.071372
0.463022 0.538253 0.072511
0.502602 0.540211 0.073655
0.542166 0.542176 0.074808
0.581402 0.543882 0.075955
0.620285 0.545234 0.077060
0.652010 0.546376 0.078140
0.681278 0.547350 0.079199
0.710438 0.548182 0.080242
0.739502 0.548886 0.081269
0.768479 0.549475 0.082284
0.797375 0.549957 0.083285
0.824239 0.550339 0.084275
0.843909 0.550627 0.085254
0.863534 0.550826 0.086223
0.883115 0.550940 0.087182
0.889632 0.550960 0.087500
0.889632 0.550960 0.087500
0.889632 0.550960 0.087500
0.316174 0.427273 0.318341
0.316174 0.427273 0.318341
0.316174 0.427273 0.318341
0.321080 0.430047 0.320870
0.335797 0.438368 0.328456
0.350511 0.446690 0.336045
0.365222 0.455013 0.343636
0.379931 0.463338 0.351230
0.395909 0.471663 0.358828
0.411890 0.479991 0.366428
0.413193 0.496255 0.341467
0.402662 0.520911 0.272096
0.402395 0.542797 0.200180
0.412388 0.561914 0.134167
0.432592 0.578235 0.083966
0.469434 0.581903 0.076361
0.508234 0.583171 0.077456
0.546846 0.584248 0.078528
0.585302 0.585169 0.079581
0.623623 0.585952 0.080618
0.654185 0.586613 0.081640
0.683132 0.587162 0.082650
0.712000 0.587607 0.083647
0.740794 0.587954 0.084633
0.769519 0.588209 0.085608
0.798177 0.588377 0.086573
0.824634 0.588461 0.087529
0.844157 0.588466 0.088476
0.863641 0.588393 0.089413
0.883086 0.588247 0.090342
0.889560 0.588182 0.090650
0.889560 0.588182 0.090650
0.889560 0.588182 0.090650
0.342462 0.462769 0.343870
0.342462 0.462769 0.343870
0.342462 0.462769 0.343870
0.347366 0.465544 0.346401
0.362073 0.473869 0.353996
0.376778 0.482195 0.361594
0.392476 0.490523 0.369197
0.408451 0.498853 0.376803
0.424419 0.507185 0.384799
0.440379 0.515520 0.393081
0.456327 0.523861 0.401375
0.441312 0.549380 0.332848
0.434998 0.572166 0.262493
0.438052 0.592121 0.189817
0.450491 0.609310 0.127052
0.473116 0.622969 0.079960
0.511391 0.623707 0.080992
0.549549 0.624326 0.082009
0.587598 0.624836 0.083014
0.625546 0.625244 0.084007
0.655384 0.625558 0.084989
0.684084 0.625780 0.085961
0.712719 0.625917 0.086922
0.741292 0.625972 0.087875
0.769805 0.625948 0.088818
0.798260 0.625848 0.089752
0.824557 0.625675 0.090679
0.843952 0.625432 0.091597
0.863312 0.625119 0.092507
0.882637 0.624741 0.093410
0.889071 0.624600 0.093709
0.889071 0.624600 0.093709
0.889071 0.624600 0.093709
0.368718 0.498279 0.369430
0.368718 0.498279 0.369430
0.368718 0.498279 0.369430
0.373617 0.501055 0.371965
0.389034 0.509386 0.379574
0.405000 0.517719 0.387813
0.420957 0.526056 0.396099
0.436896 0.534400 0.404402
0.452476 0.542453 0.412484
0.467746 0.550192 0.420299
0.482823 0.557735 0.427950
0.480879 0.574251 0.394713
0.469018 0.597740 0.324573
0.465981 0.618681 0.253421
0.471787 0.635383 0.180076
0.486467 0.647441 0.120345
0.513186 0.654981 0.084366
0.551006 0.655193 0.085344
0.588737 0.655338 0.086312
0.626385 0.655419 0.087270
0.655803 0.655439 0.088219
0.684295 0.655399 0.089159
0.712730 0.655303 0.090091
0.741111 0.655152 0.091014
0.769438 0.654948 0.091929
0.797714 0.654692 0.092837
0.824065 0.654386 0.093737
0.843344 0.654031 0.094629
0.862590 0.653629 0.095515
0.881805 0.653180 0.096394
0.888203 0.653020 0.096685
0.888203 0.653020 0.096685
0.888203 0.653020 0.096685
0.396216 0.533812 0.396354
0.396216 0.533812 0.396354
0.396216 0.533812 0.396354
0.401532 0.536593 0.399119
0.417396 0.544890 0.407394
0.432831 0.552797 0.415352
0.448024 0.560458 0.423101
0.463042 0.567941 0.430701
0.477915 0.575277 0.438178
0.492659 0.582485 0.445546
0.507289 0.589576 0.452817
0.521813 0.596561 0.459999
0.505109 0.620816 0.386711
0.496590 0.639705 0.316394
0.496425 0.654583 0.244541
0.504648 0.667653 0.170607
0.521303 0.678910 0.113857
0.551457 0.683931 0.088562
0.588919 0.683871 0.089499
0.626307 0.683754 0.090428
0.655554 0.683584 0.091348
0.683863 0.683360 0.092260
0.712120 0.683086 0.093165
0.740329 0.682762 0.094062
0.768488 0.682390 0.094953
0.796601 0.681971 0.095836
0.823194 0.681506 0.096712
0.842367 0.680995 0.097581
0.861510 0.680441 0.098444
0.880623 0.679844 0.099301
0.886988 0.679636 0.099585
0.886988 0.679636 0.099585
0.886988 0.679636 0.099585
0.423711 0.568429 0.423575
0.423711 0.568429 0.423575
0.423711 0.568429 0.423575
0.428280 0.570701 0.425884
0.443242 0.578128 0.433437
0.458066 0.585416 0.440872
0.472767 0.592579 0.448204
0.487358 0.599631 0.455441
0.501845 0.606579 0.462593
0.516237 0.613431 0.469664
0.530539 0.620193 0.476660
0.544755 0.626869 0.483584
0.543262 0.639025 0.453146
0.529738 0.656445 0.378765
0.524128 0.672162 0.308273
0.526474 0.686171 0.235806
0.536818 0.698465 0.161355
0.555210 0.709037 0.107548
0.588264 0.711766 0.092591
0.625421 0.711474 0.093493
0.654710 0.711132 0.094387
0.682853 0.710743 0.095275
0.710949 0.710307 0.096155
0.738999 0.709825 0.097029
0.767005 0.709299 0.097896
0.794967 0.708729 0.098757
0.821975 0.708116 0.099611
0.841049 0.707462 0.100459
0.860095 0.706766 0.101301
0.879114 0.706030 0.102137
0.885447 0.705776 0.102415
0.885447 0.705776 0.102415
0.885447 0.705776 0.102415
0.449725 0.601212 0.449337
0.449725 0.601212 0.449337
0.449725 0.601212 0.449337
0.452861 0.602659 0.450849
0.467413 0.609672 0.458055
0.481865 0.616585 0.465176
0.496224 0.623403 0.472220
0.510494 0.630101 0.479189
0.524680 0.635152 0.486088
0.538787 0.640142 0.492921
0.552817 0.645074 0.499689
0.566774 0.649950 0.506396
0.580660 0.654771 0.513044
0.565238 0.671808 0.445846
0.554626 0.688307 0.371335
0.551577 0.703186 0.300215
0.556137 0.716437 0.227207
0.568356 0.728053 0.152299
0.588286 0.738025 0.101398
0.623803 0.738636 0.096474
0.653324 0.738138 0.097346
0.681314 0.737596 0.098210
0.709261 0.737011 0.099069
0.737165 0.736383 0.099921
0.765028 0.735713 0.100766
0.792850 0.735003 0.101606
0.820432 0.734253 0.102440
0.839413 0.733463 0.103268
0.858369 0.732634 0.104090
0.877292 0.731760 0.104906
0.883591 0.731455 0.105176
0.883591 0.731455 0.105176
0.883591 0.731455 0.105176
0.474924 0.632240 0.474260
0.474924 0.632240 0.474260
0.474924 0.632240 0.474260
0.476198 0.632556 0.474765
0.490438 0.637647 0.481709
0.504595 0.642676 0.488583
0.518673 0.647644 0.495392
0.532676 0.652555 0.502138
0.546607 0.657411 0.508823
0.560468 0.662214 0.515450
0.574261 0.666965 0.522020
0.587988 0.671665 0.528536
0.601652 0.676318 0.534999
0.602913 0.685931 0.512471
0.587675 0.703159 0.438463
0.579646 0.718845 0.363910
0.578871 0.732981 0.292233
0.585401 0.745560 0.218744
0.599288 0.756571 0.145715
0.621512 0.765287 0.099380
0.651438 0.764644 0.100229
0.679285 0.763959 0.101073
0.707093 0.763234 0.101910
0.734860 0.762470 0.102742
0.762588 0.761666 0.103568
0.790277 0.760823 0.104388
0.817913 0.759927 0.105201
0.837439 0.758969 0.106004
0.856265 0.757952 0.106799
0.875050 0.756876 0.107585
0.881303 0.756505 0.107845
0.881303 0.756505 0.107845
0.881303 0.756505 0.107845
0.499484 0.655738 0.498532
0.499484 0.655738 0.498532
0.499484 0.655738 0.498532
0.499079 0.655350 0.498132
0.512526 0.660030 0.504579
0.526431 0.664866 0.511242
0.540266 0.669649 0.517848
0.554035 0.674382 0.524399
0.567739 0.679065 0.530895
0.581380 0.683700 0.537339
0.594960 0.688288 0.543732
0.608479 0.692831 0.550075
0.621941 0.697330 0.556370
0.634062 0.701785 0.562617
0.623067 0.716827 0.505735
0.610414 0.733264 0.431037
0.604693 0.748222 0.356513
0.605953 0.761692 0.284338
0.614246 0.773665 0.210419
0.629628 0.784129 0.140048
0.649083 0.790681 0.103044
0.676797 0.789863 0.103867
0.704470 0.789004 0.104685
0.732083 0.788085 0.105494
0.759636 0.787106 0.106294
0.787129 0.786067 0.107086
0.814563 0.784970 0.107869
0.835011 0.783815 0.108643
0.853703 0.782604 0.109409
0.872357 0.781337 0.110167
0.878567 0.780902 0.110418
0.878567 0.780902 0.110418
0.878567 0.780902 0.110418
0.523499 0.678707 0.522250
0.523499 0.678707 0.522250
0.523499 0.678707 0.522250
0.523043 0.678271 0.521800
0.533801 0.681792 0.526770
0.547482 0.686458 0.533247
0.561100 0.691076 0.539672
0.574658 0.695647 0.546047
0.588156 0.700174 0.552372
0.601597 0.704657 0.558649
0.614981 0.709097 0.564880
0.628309 0.713494 0.571064
0.638804 0.717851 0.577203
0.648852 0.722167 0.583299
0.653273 0.729402 0.572444
0.640378 0.746538 0.498917
0.632528 0.762260 0.423600
0.629682 0.776558 0.349162
0.632108 0.789423 0.276540
0.639610 0.800834 0.202236
0.652294 0.810765 0.134505
0.673776 0.815235 0.106583
0.701247 0.814175 0.107372
0.728660 0.813056 0.108152
0.756016 0.811881 0.108923
0.783315 0.810649 0.109686
0.810558 0.809362 0.110441
0.832143 0.808020 0.111189
