Fotico/Resources/LUTs/ft_mood.cube
TITLE "Mood"
LUT_3D_SIZE 5
DOMAIN_MIN 0.0 0.0 0.0
DOMAIN_MAX 1.0 1.0 1.0
0.000000 0.002250 0.005625
0.111940 0.007946 0.011004
0.390622 0.017374 0.019922
0.692895 0.026759 0.028815
0.844150 0.032993 0.034732
0.083799 0.112456 0.091408
0.142354 0.146916 0.030674
0.437456 0.162147 0.039777
0.725306 0.177077 0.048695
0.865135 0.186574 0.054613
0.263531 0.358206 0.267352
0.342067 0.400669 0.307764
0.495575 0.496135 0.069825
0.766511 0.509513 0.078816
0.889233 0.512828 0.084245
0.474924 0.632240 0.474260
0.546607 0.657411 0.508823
0.578871 0.732981 0.292233
0.762588 0.761666 0.103568
0.881303 0.756505 0.107845
0.600290 0.752119 0.598017
0.646496 0.767112 0.620219
0.717902 0.800263 0.644941
0.739500 0.867916 0.117039
0.862052 0.860943 0.120582
0.002824 0.010451 0.035544
0.115153 0.009946 0.124982
0.395660 0.019427 0.137523
0.696455 0.028846 0.148960
0.846453 0.035092 0.159158
0.019459 0.141756 0.143927
0.145191 0.149496 0.152057
0.441707 0.165689 0.167797
0.728250 0.180300 0.181743
0.867143 0.189803 0.190830
0.277710 0.372063 0.317871
0.356230 0.415738 0.358300
0.499368 0.499672 0.214218
0.767650 0.510946 0.224311
0.889410 0.513101 0.226103
0.487395 0.641270 0.524424
0.556576 0.664937 0.555365
0.635949 0.711240 0.535960
0.760312 0.759354 0.213427
0.879294 0.753541 0.206195
0.608717 0.757820 0.635311
0.650319 0.770902 0.648285
0.724751 0.799498 0.676644
0.735246 0.865000 0.181829
0.858832 0.857726 0.168787
0.016881 0.024100 0.085331
0.120122 0.013173 0.395609
0.403276 0.022633 0.415884
0.701737 0.032031 0.434322
0.849836 0.038264 0.445596
0.107864 0.136133 0.187006
0.164968 0.170984 0.228762
0.447878 0.170824 0.454674
0.732661 0.185139 0.469529
0.870149 0.194650 0.479430
0.058178 0.479010 0.479887
0.203602 0.489372 0.489847
0.505000 0.505000 0.505000
0.768836 0.512403 0.512126
0.889516 0.513195 0.512706
0.251089 0.719304 0.552762
0.512882 0.692445 0.611448
0.663302 0.713216 0.661714
0.757639 0.756598 0.495207
0.876903 0.749967 0.486273
0.584836 0.780264 0.681224
0.660508 0.781009 0.703910
0.733771 0.808440 0.731109
0.766958 0.845049 0.626133
0.854852 0.853698 0.442584
0.030926 0.037740 0.135088
0.109531 0.032545 0.511716
0.410667 0.025831 0.700187
0.706848 0.035210 0.713727
0.853100 0.041429 0.721981
0.122316 0.150499 0.263714
0.187065 0.192510 0.305243
0.453785 0.175733 0.728621
0.737064 0.189982 0.739871
0.873147 0.199503 0.747415
0.320214 0.416573 0.477240
0.400293 0.460967 0.521255
0.525597 0.525516 0.592859
0.769460 0.513115 0.768876
0.889324 0.512715 0.768408
0.092524 0.769613 0.769128
0.224486 0.766902 0.766273
0.504324 0.761608 0.760730
0.754538 0.753416 0.752294
0.874243 0.746002 0.744724
0.109631 0.882666 0.758496
0.205770 0.876715 0.749712
0.626223 0.843074 0.761117
0.773209 0.844322 0.769970
0.850663 0.849463 0.709306
0.040282 0.046829 0.177970
0.108066 0.046801 0.538974
0.415469 0.027960 0.844204
0.710159 0.037325 0.853252
0.855211 0.043535 0.858757
0.131890 0.164902 0.314750
0.201660 0.206732 0.356106
0.457662 0.178956 0.863216
0.739993 0.193213 0.870925
0.875141 0.202741 0.876097
0.334369 0.431646 0.532179
0.415645 0.476052 0.576227
0.539412 0.539267 0.636933
0.769602 0.513230 0.889042
0.889044 0.512102 0.888343
0.421798 0.698908 0.756990
0.574939 0.701467 0.738781
0.685380 0.730046 0.759511
0.756991 0.755816 0.834279
0.872327 0.743149 0.870509
0.111239 0.881351 0.880561
0.202762 0.874979 0.874137
0.470300 0.865960 0.864964
0.720694 0.854914 0.853773
0.847759 0.846528 0.845296
