Fotico/Resources/LUTs/ft_mood.cube
TITLE "Mood"
LUT_3D_SIZE 9
DOMAIN_MIN 0.0 0.0 0.0
DOMAIN_MAX 1.0 1.0 1.0
0.000000 0.002250 0.005625
0.014293 0.003215 0.006536
0.111940 0.007946 0.011004
0.240927 0.012666 0.015466
0.390622 0.017374 0.019922
0.551929 0.022072 0.024371
0.692895 0.026759 0.028815
0.814757 0.031436 0.033254
0.844150 0.032993 0.034732
0.010225 0.021769 0.020813
0.021174 0.028428 0.010143
0.118891 0.035498 0.014930
0.251611 0.042245 0.019667
0.402175 0.048671 0.024356
0.563335 0.054774 0.028997
0.701384 0.060555 0.033589
0.822054 0.066014 0.038134
0.849725 0.067763 0.039638
0.083799 0.112456 0.091408
0.095712 0.118860 0.097649
0.142354 0.146916 0.030674
0.285830 0.153956 0.035249
0.437456 0.162147 0.039777
0.596701 0.169846 0.044257
0.725306 0.177077 0.048695
0.837656 0.184198 0.053131
0.865135 0.186574 0.054613
0.157635 0.227182 0.165147
0.177297 0.237487 0.175296
0.209011 0.285481 0.129553
0.314236 0.317669 0.050308
0.467061 0.324793 0.054749
0.625579 0.331927 0.059206
0.747091 0.339072 0.063680
0.852507 0.346232 0.068179
0.879965 0.348624 0.069686
0.263531 0.358206 0.267352
0.283169 0.368407 0.277451
0.342067 0.400669 0.307764
0.350635 0.479279 0.099876
0.495575 0.496135 0.069825
0.648177 0.503960 0.074387
0.766511 0.509513 0.078816
0.862927 0.512293 0.082922
0.889233 0.512828 0.084245
0.368718 0.498279 0.369430
0.389034 0.509386 0.379574
0.452476 0.542453 0.412484
0.469018 0.597740 0.324573
0.513186 0.654981 0.084366
0.655803 0.655439 0.088219
0.769438 0.654948 0.091929
0.862590 0.653629 0.095515
0.888203 0.653020 0.096685
0.474924 0.632240 0.474260
0.490438 0.637647 0.481709
0.546607 0.657411 0.508823
0.601652 0.676318 0.534999
0.578871 0.732981 0.292233
0.651438 0.764644 0.100229
0.762588 0.761666 0.103568
0.856265 0.757952 0.106799
0.881303 0.756505 0.107845
0.570124 0.723286 0.568265
0.574230 0.723703 0.569387
0.627070 0.740933 0.593731
0.667314 0.757545 0.617400
0.681629 0.786768 0.559950
0.671455 0.834598 0.261533
0.746888 0.847060 0.113906
0.843501 0.842505 0.116707
0.867890 0.840868 0.117615
0.600290 0.752119 0.598017
0.599786 0.750581 0.596639
0.646496 0.767112 0.620219
0.685121 0.782810 0.639800
0.717902 0.800263 0.644941
0.689632 0.846301 0.350022
0.739500 0.867916 0.117039
0.837854 0.862770 0.119714
0.862052 0.860943 0.120582
0.000000 0.003624 0.010638
0.014959 0.003561 0.025964
0.112618 0.008330 0.032743
0.241978 0.013084 0.039246
0.391767 0.017822 0.045471
0.553068 0.022544 0.051421
0.693749 0.027251 0.057095
0.815593 0.031943 0.062494
0.844717 0.033504 0.064233
0.000000 0.027135 0.030289
0.021900 0.029098 0.032183
0.119618 0.036166 0.038973
0.252718 0.042907 0.045443
0.403361 0.049321 0.051595
0.564495 0.055408 0.057428
0.702240 0.061169 0.062943
0.822616 0.066603 0.068140
0.850279 0.068342 0.069802
0.085986 0.114613 0.098870
0.097983 0.121070 0.105249
0.143043 0.147544 0.059472
0.286852 0.154884 0.064871
0.438521 0.163035 0.069953
0.597710 0.170685 0.074718
0.726042 0.177882 0.079196
0.838158 0.185005 0.083634
0.865638 0.187381 0.085116
0.161206 0.230677 0.177691
0.180895 0.240994 0.187893
0.228395 0.278502 0.188262
0.315127 0.318475 0.080810
0.468027 0.325600 0.085253
0.626542 0.332735 0.089711
0.747819 0.339882 0.094188
0.853002 0.347044 0.098690
0.880459 0.349436 0.100199
0.267076 0.361670 0.279982
0.286714 0.371871 0.290081
0.345609 0.404436 0.320398
0.358960 0.474919 0.147240
0.496525 0.497019 0.100338
0.648884 0.504851 0.104912
0.766808 0.509887 0.107859
0.862976 0.512373 0.109260
0.889235 0.512818 0.109495
0.372249 0.502050 0.382254
0.392869 0.513159 0.393283
0.455984 0.545948 0.425911
0.489789 0.589613 0.389436
0.513181 0.654966 0.109512
0.655599 0.655225 0.109620
0.769035 0.654538 0.108979
0.862177 0.653022 0.107684
0.887744 0.652347 0.107119
0.477590 0.634159 0.485126
0.492640 0.639311 0.491863
0.548179 0.658598 0.517078
0.602538 0.676986 0.541110
0.583023 0.730430 0.316766
0.650555 0.763763 0.104977
0.761519 0.760603 0.103415
0.855497 0.756837 0.106638
0.880525 0.755375 0.107682
0.570665 0.723545 0.572153
0.574098 0.723602 0.572223
0.626134 0.740225 0.593931
0.666273 0.756510 0.616279
0.680946 0.785457 0.560248
0.670466 0.833721 0.261910
0.745671 0.846232 0.113732
0.842646 0.841654 0.116528
0.867028 0.840010 0.117435
0.599983 0.751724 0.599029
0.598749 0.749797 0.596507
0.645450 0.766072 0.619092
0.684030 0.781727 0.638908
0.717263 0.798880 0.645158
0.688671 0.845382 0.350392
0.738246 0.867063 0.116860
0.836976 0.861897 0.119531
0.861168 0.860064 0.120398
0.002824 0.010451 0.035544
0.014059 0.010739 0.073661
0.115153 0.009946 0.124982
0.245712 0.014695 0.131391
0.395660 0.019427 0.137523
0.556795 0.024144 0.143379
0.696455 0.028846 0.148960
0.818173 0.033533 0.156540
0.846453 0.035092 0.159158
0.019620 0.031089 0.052148
0.029758 0.036734 0.057723
0.122160 0.038492 0.131206
0.256436 0.045122 0.137568
0.407207 0.051425 0.143611
0.568145 0.057401 0.149336
0.704865 0.063051 0.157273
0.824310 0.068375 0.165077
0.851939 0.070077 0.167570
0.019459 0.141756 0.143927
0.048754 0.143639 0.145732
0.145191 0.149496 0.152057
0.289964 0.157708 0.160170
0.441707 0.165689 0.167797
0.600699 0.173169 0.174938
0.728250 0.180300 0.181743
0.839665 0.187426 0.188555
0.867143 0.189803 0.190830
0.113137 0.266546 0.196501
0.164083 0.260709 0.216692
0.250885 0.282331 0.256380
0.317798 0.320894 0.184220
0.470921 0.328022 0.191040
0.629427 0.335161 0.197885
0.750002 0.342312 0.204761
0.854486 0.349481 0.211682
0.881938 0.351877 0.214003
0.277710 0.372063 0.317871
0.297345 0.382462 0.327974
0.356230 0.415738 0.358300
0.405270 0.456169 0.358430
0.499368 0.499672 0.214218
0.650552 0.507009 0.220817
0.767650 0.510946 0.224311
0.863239 0.512825 0.225898
0.889410 0.513101 0.226103
0.383081 0.513368 0.423491
0.404361 0.524482 0.434534
0.466301 0.556220 0.466139
0.525039 0.584812 0.494584
0.532530 0.644297 0.304953
0.655506 0.655091 0.225871
0.768651 0.654111 0.224534
0.861735 0.652334 0.222231
0.887246 0.651577 0.221265
0.487395 0.641270 0.524424
0.501456 0.645970 0.530570
0.556576 0.664937 0.555365
0.610567 0.683046 0.579028
0.635949 0.711240 0.535960
0.649588 0.762754 0.217693
0.760312 0.759354 0.213427
0.854365 0.755147 0.208188
0.879294 0.753541 0.206195
0.579623 0.729853 0.610391
0.581681 0.729323 0.609695
0.632600 0.745721 0.630841
0.671254 0.761452 0.646449
0.709020 0.776297 0.661175
0.690551 0.824182 0.436410
0.743061 0.844432 0.191588
0.840620 0.839619 0.182940
0.864927 0.837902 0.179857
0.608717 0.757820 0.635311
0.606001 0.755267 0.632772
0.650319 0.770902 0.648285
0.687975 0.785638 0.662901
0.724751 0.799498 0.676644
0.711037 0.835511 0.508032
0.735246 0.865000 0.181829
0.834707 0.859624 0.172189
0.858832 0.857726 0.168787
0.009854 0.017277 0.060441
0.018956 0.019850 0.084996
0.117654 0.011561 0.253024
0.249395 0.016304 0.262707
0.399496 0.021031 0.271965
0.560465 0.025743 0.280801
0.699118 0.030440 0.289215
0.820485 0.035122 0.297207
0.848159 0.036679 0.299777
0.027178 0.038568 0.077535
0.037576 0.044331 0.083226
0.124663 0.040780 0.262550
0.260094 0.047299 0.272139
0.410986 0.053491 0.281240
0.571729 0.059357 0.289852
0.707439 0.064896 0.297978
0.825969 0.070108 0.305616
0.853564 0.071774 0.308054
0.100598 0.128991 0.149076
0.112870 0.135556 0.158532
0.153827 0.160135 0.190438
0.293014 0.160475 0.300815
0.444826 0.168285 0.308276
0.603624 0.175599 0.315256
0.730457 0.182719 0.322054
0.841171 0.189848 0.328873
0.868647 0.192226 0.331151
0.039167 0.306525 0.308505
0.070857 0.309005 0.310872
0.174602 0.316191 0.317728
0.320466 0.323314 0.324534
0.473813 0.330445 0.331361
0.631754 0.337588 0.338216
0.752181 0.344745 0.345105
0.855965 0.351922 0.352047
0.883410 0.354322 0.354380
0.087074 0.460757 0.335604
0.133946 0.455295 0.342747
0.339199 0.436990 0.387564
0.406698 0.469481 0.407677
0.502198 0.502330 0.354596
0.651829 0.508644 0.360281
0.768320 0.511776 0.363028
0.863413 0.513105 0.364106
0.889502 0.513224 0.364166
0.287032 0.562399 0.431681
0.357649 0.555703 0.455702
0.476301 0.566172 0.506043
0.534369 0.594089 0.533808
0.577966 0.627527 0.527088
0.655311 0.654853 0.363532
0.768175 0.653593 0.361855
0.861237 0.651562 0.359246
0.886693 0.650726 0.358184
0.497096 0.648281 0.563592
0.510123 0.652515 0.569126
0.564843 0.671178 0.593521
0.618480 0.689017 0.616829
0.661265 0.706113 0.636961
0.663007 0.750797 0.437791
0.759030 0.758031 0.349775
0.853273 0.753510 0.344157
0.878132 0.751804 0.342043
0.588512 0.736094 0.644093
0.589161 0.734965 0.642968
0.638064 0.751143 0.659022
0.676439 0.766596 0.674352
0.713898 0.781136 0.688773
0.730943 0.805665 0.652386
0.740795 0.842856 0.326753
0.838895 0.837869 0.317798
0.863146 0.836095 0.314617
0.617387 0.763854 0.664099
0.614595 0.761238 0.661497
0.655466 0.776008 0.676150
0.692817 0.790440 0.690463
0.729308 0.804015 0.703923
0.759642 0.819623 0.704218
0.745620 0.856073 0.397381
0.832796 0.857689 0.306723
0.856869 0.855738 0.303229
0.016881 0.024100 0.085331
0.026016 0.028371 0.095650
0.120122 0.013173 0.395609
0.253025 0.017911 0.405977
0.403276 0.022633 0.415884
0.564079 0.027340 0.425332
0.701737 0.032031 0.434322
0.822190 0.036708 0.442854
0.849836 0.038264 0.445596
0.034708 0.046017 0.102891
0.045355 0.051891 0.108693
0.127125 0.043031 0.405936
0.263690 0.049439 0.416179
0.414699 0.055520 0.425891
0.575246 0.061274 0.435072
0.709963 0.066703 0.443724
0.827594 0.071805 0.451847
0.855154 0.073433 0.454438
0.107864 0.136133 0.187006
0.120253 0.142742 0.197022
0.164968 0.170984 0.228762
0.296003 0.163183 0.446743
0.447878 0.170824 0.454674
0.606532 0.178016 0.462133
0.732661 0.185139 0.469529
0.842675 0.192271 0.476950
0.870149 0.194650 0.479430
0.193527 0.262268 0.291734
0.213218 0.272511 0.301865
0.272175 0.303108 0.332137
0.329209 0.331812 0.387341
0.476701 0.332870 0.479659
0.633940 0.340017 0.487121
0.754355 0.347179 0.494625
0.857437 0.354367 0.502200
0.884870 0.356777 0.504760
0.058178 0.479010 0.479887
0.089876 0.481598 0.482371
0.203602 0.489372 0.489847
0.349348 0.497165 0.497372
0.505000 0.505000 0.505000
0.652859 0.509952 0.509827
0.768836 0.512403 0.512126
0.863503 0.513224 0.512789
0.889516 0.513195 0.512706
0.075147 0.649174 0.505227
0.106367 0.650702 0.507200
0.294970 0.635622 0.520551
0.513463 0.613130 0.562796
0.562992 0.640297 0.562003
0.655016 0.654517 0.511602
0.767610 0.652986 0.509423
0.860682 0.650710 0.506265
0.886086 0.649797 0.505009
0.251089 0.719304 0.552762
0.298204 0.714009 0.559985
0.512882 0.692445 0.611448
0.626280 0.694903 0.648634
0.663302 0.713216 0.661714
0.695148 0.734021 0.653520
0.757639 0.756598 0.495207
0.852110 0.751771 0.488698
0.876903 0.749967 0.486273
0.498823 0.767015 0.648375
0.506384 0.763213 0.648373
0.643455 0.756492 0.687129
0.681518 0.771634 0.702150
0.718676 0.785874 0.716272
0.754986 0.799269 0.729552
0.752901 0.833780 0.554620
0.837112 0.836061 0.458866
0.861308 0.834233 0.455303
0.584836 0.780264 0.681224
0.585751 0.776655 0.679566
0.660508 0.781009 0.703910
0.697560 0.795144 0.717927
0.733771 0.808440 0.731109
0.769188 0.820648 0.743506
0.766958 0.845049 0.626133
0.830832 0.855701 0.446481
0.854852 0.853698 0.442584
0.023905 0.030921 0.110213
0.033427 0.035871 0.115240
0.115780 0.020457 0.488766
0.256604 0.019516 0.559393
0.407000 0.024233 0.569144
0.567636 0.028935 0.578437
0.704314 0.033621 0.587270
0.823866 0.038293 0.595647
0.851483 0.039847 0.598338
0.042213 0.053435 0.128217
0.053093 0.059413 0.134122
0.118330 0.056525 0.428277
0.267225 0.051541 0.569536
0.418346 0.057511 0.579068
0.578696 0.063154 0.588070
0.712435 0.068472 0.596542
0.829183 0.073463 0.604486
0.856710 0.075054 0.607017
0.115103 0.143245 0.225383
0.127596 0.149891 0.235456
0.176047 0.181776 0.267031
0.298931 0.165834 0.599495
0.450863 0.173305 0.607247
0.609438 0.180434 0.614642
0.734864 0.187560 0.622047
0.844177 0.194695 0.629476
0.871649 0.197076 0.631489
0.204218 0.272705 0.329656
0.223875 0.282907 0.339749
0.282816 0.313498 0.370019
0.341737 0.344098 0.402076
0.479586 0.335295 0.631663
0.636123 0.342447 0.637345
0.756523 0.349617 0.643062
0.858897 0.356822 0.648855
0.886028 0.358789 0.650453
0.269514 0.415552 0.462477
0.312421 0.420606 0.458776
0.388769 0.449656 0.480036
0.452677 0.482971 0.513097
0.512163 0.512127 0.592603
0.653691 0.510997 0.653425
0.769213 0.512845 0.654711
0.863515 0.513193 0.654854
0.889455 0.513023 0.654684
0.076731 0.650749 0.650718
0.107347 0.651909 0.651845
0.225529 0.654219 0.654043
0.364835 0.655178 0.654883
0.513550 0.655081 0.654663
0.654627 0.654085 0.653543
0.766960 0.652293 0.651627
0.860074 0.649779 0.648988
0.885426 0.648791 0.647958
0.091151 0.769767 0.655327
0.109957 0.768816 0.654353
0.225183 0.767520 0.652933
0.435504 0.747471 0.658093
0.646691 0.725899 0.685041
0.678144 0.746581 0.676224
0.756141 0.755059 0.639978
0.850879 0.749932 0.634732
0.875606 0.748032 0.632794
0.218331 0.835741 0.663813
0.220737 0.833379 0.661339
0.427107 0.816797 0.678992
0.640814 0.791689 0.714564
0.723357 0.790515 0.743674
0.741094 0.810921 0.738384
0.778389 0.823421 0.727384
0.835273 0.834198 0.605235
0.859414 0.832315 0.601569
0.299444 0.845632 0.676371
0.300386 0.843174 0.673764
0.495244 0.827147 0.696307
0.690829 0.803573 0.740933
0.738142 0.812774 0.758205
0.768208 0.824824 0.765252
0.805784 0.831999 0.777611
0.828814 0.853660 0.592510
0.852783 0.851606 0.588516
0.030926 0.037740 0.135088
0.040736 0.042838 0.140255
0.109531 0.032545 0.511716
0.260130 0.021120 0.692895
0.410667 0.025831 0.700187
0.571137 0.030528 0.707131
0.706848 0.035210 0.713727
0.825513 0.039876 0.719975
0.853100 0.041429 0.721981
0.049690 0.060822 0.155387
0.060792 0.066898 0.164589
0.116581 0.068068 0.447367
0.270698 0.053605 0.700553
0.421925 0.059464 0.707660
0.582079 0.064997 0.714365
0.714857 0.070203 0.720667
0.830738 0.075084 0.726569
0.858232 0.076640 0.728449
0.122316 0.150499 0.263714
0.134900 0.160737 0.273833
0.187065 0.192510 0.305243
0.284595 0.185726 0.620990
0.453785 0.175733 0.728621
0.612341 0.182853 0.734237
0.737064 0.189982 0.739871
0.845677 0.197121 0.745525
0.873147 0.199503 0.747415
0.214872 0.283099 0.367539
0.234521 0.293295 0.377627
0.293456 0.323889 0.410330
0.352368 0.354492 0.443264
0.482467 0.337722 0.747589
0.638301 0.344879 0.753281
0.758684 0.352057 0.759017
0.860046 0.358820 0.764479
0.886908 0.360305 0.765673
0.320214 0.416573 0.477240
0.339835 0.427668 0.488237
0.400293 0.460967 0.521255
0.464170 0.494294 0.554347
0.525597 0.525516 0.592859
0.654352 0.511816 0.768007
0.769460 0.513115 0.768876
0.863453 0.513019 0.768680
0.889324 0.512715 0.768408
0.310390 0.587334 0.647267
0.352578 0.590061 0.645146
0.486622 0.598839 0.634602
0.561311 0.620869 0.645524
0.612823 0.642482 0.668017
0.657328 0.656744 0.726078
0.766226 0.651517 0.764808
0.859414 0.648771 0.761938
0.884715 0.647709 0.760835
0.092524 0.769613 0.769128
0.109715 0.768467 0.767962
0.224486 0.766902 0.766273
0.359845 0.764596 0.763841
0.504324 0.761608 0.760730
0.644956 0.757954 0.756953
0.754538 0.753416 0.752294
0.849581 0.747995 0.746756
0.874243 0.746002 0.744724
0.105534 0.859332 0.762545
0.105129 0.857259 0.759529
0.212286 0.854490 0.755362
0.344540 0.851160 0.750377
0.560404 0.834934 0.751879
0.725134 0.820465 0.770817
0.761855 0.830037 0.758852
0.833379 0.832279 0.722339
0.857467 0.830344 0.719476
0.109631 0.882666 0.758496
0.109203 0.880480 0.755316
0.205770 0.876715 0.749712
0.409619 0.860516 0.749306
0.626223 0.843074 0.761117
0.772500 0.827292 0.795044
0.773209 0.844322 0.769970
0.826744 0.851567 0.712414
0.850663 0.849463 0.709306
0.037944 0.044557 0.165263
0.048028 0.049797 0.173392
0.107933 0.043373 0.532411
0.263605 0.022722 0.809410
0.414278 0.027428 0.816584
0.574581 0.032119 0.822333
0.709338 0.036796 0.826765
0.827130 0.041458 0.830960
0.854688 0.043009 0.832306
0.057141 0.068178 0.194128
0.068451 0.074345 0.203468
0.118335 0.078617 0.464801
0.274111 0.055631 0.817012
0.425438 0.061380 0.822725
0.585396 0.066802 0.827219
0.717229 0.071897 0.831438
0.832259 0.076669 0.835384
0.859744 0.078216 0.836663
0.129501 0.161309 0.301998
0.142163 0.171583 0.312155
0.198022 0.203186 0.343399
0.281064 0.202626 0.637018
0.456693 0.178150 0.836781
0.615241 0.185273 0.840628
0.739261 0.192405 0.844487
0.847175 0.199548 0.848361
0.874643 0.201931 0.849656
0.225517 0.293487 0.407627
0.245165 0.303684 0.418594
0.304092 0.334281 0.451512
0.362996 0.364888 0.484455
0.466646 0.357450 0.763809
0.640475 0.347314 0.853679
0.760835 0.354503 0.857619
0.860922 0.360330 0.860842
0.887618 0.361518 0.861489
0.330831 0.427877 0.518443
0.350448 0.438974 0.529444
0.411808 0.472280 0.562483
0.475623 0.505622 0.595621
0.536137 0.536009 0.625881
0.654861 0.512432 0.862719
0.769585 0.513226 0.863050
0.863321 0.512708 0.862696
0.889125 0.512276 0.862443
0.438131 0.567476 0.627341
0.456576 0.576394 0.634721
0.514017 0.603680 0.655341
0.569980 0.629483 0.674829
0.624707 0.648275 0.693374
0.664549 0.663922 0.739323
0.765412 0.650660 0.859622
0.858702 0.647689 0.857504
0.883954 0.646555 0.856700
0.342060 0.712406 0.770572
0.364378 0.711548 0.768000
0.500055 0.712970 0.757898
0.630593 0.715296 0.743000
0.683574 0.728254 0.750133
0.709717 0.745710 0.781703
0.755628 0.754466 0.825878
0.848218 0.745963 0.846469
0.872817 0.743878 0.845016
0.106792 0.858616 0.857940
0.106379 0.856504 0.855839
0.210456 0.853428 0.852684
0.342346 0.849893 0.849069
0.481316 0.845782 0.844879
0.622511 0.841127 0.840148
0.730863 0.835959 0.834907
0.831431 0.830307 0.829183
0.855466 0.828319 0.827172
0.110839 0.881693 0.854913
0.110405 0.879475 0.852707
0.203534 0.875424 0.848591
0.334278 0.871245 0.844333
0.471374 0.866527 0.839539
0.611461 0.861299 0.834238
0.721670 0.855589 0.828457
0.826736 0.848582 0.824333
0.848493 0.847270 0.820046
0.040282 0.046829 0.177970
0.050455 0.052114 0.186165
0.108066 0.046801 0.538974
0.264752 0.023255 0.839322
0.415469 0.027960 0.844204
0.575716 0.032650 0.848847
0.710159 0.037325 0.853252
0.827662 0.041985 0.857420
0.855211 0.043535 0.858757
0.059618 0.070623 0.207031
0.070995 0.076819 0.216416
0.119409 0.081991 0.470375
0.267118 0.060478 0.822132
0.426595 0.062010 0.849247
0.586487 0.067395 0.853710
0.718008 0.072454 0.857898
0.832764 0.077194 0.861818
0.860247 0.078742 0.863098
0.131890 0.164902 0.314750
0.144575 0.175186 0.324916
0.201660 0.206732 0.356106
0.281232 0.207880 0.641327
0.457662 0.178956 0.863216
0.616207 0.186080 0.867064
0.739993 0.193213 0.870925
0.847674 0.200357 0.874801
0.875141 0.202741 0.876097
0.229066 0.296950 0.421351
0.248712 0.307147 0.432319
0.307637 0.337745 0.465239
0.366538 0.368353 0.498186
0.464400 0.363273 0.768594
0.641198 0.348126 0.880123
0.761549 0.355320 0.884069
0.861175 0.360763 0.887079
0.887823 0.361866 0.887678
0.334369 0.431646 0.532179
0.353984 0.442743 0.543181
0.415645 0.476052 0.576227
0.479287 0.509276 0.609264
0.539412 0.539267 0.636933
0.648766 0.519395 0.866331
0.769602 0.513230 0.889042
0.863261 0.512575 0.888617
0.889044 0.512102 0.888343
0.441582 0.570824 0.638110
0.459768 0.579569 0.644721
0.517025 0.606670 0.665200
0.572838 0.631765 0.684573
0.627435 0.650335 0.703019
0.667645 0.667004 0.734612
0.765123 0.650357 0.885405
0.858453 0.647312 0.883236
0.883690 0.646155 0.882416
0.421798 0.698908 0.756990
0.444226 0.698250 0.753689
0.574939 0.701467 0.738781
0.646347 0.713936 0.743526
0.685380 0.730046 0.759511
0.718906 0.746029 0.782544
0.756991 0.755816 0.834279
0.847749 0.745265 0.871982
0.872327 0.743149 0.870509
0.187833 0.842950 0.864143
0.187177 0.840831 0.862020
0.312311 0.837863 0.858235
0.448106 0.834582 0.853749
0.587753 0.830920 0.848209
0.698783 0.827645 0.841919
0.768537 0.829213 0.843314
0.830980 0.829848 0.851797
0.854788 0.827633 0.852478
0.111239 0.881351 0.880561
0.110803 0.879124 0.878345
0.202762 0.874979 0.874137
0.333395 0.870738 0.869817
0.470300 0.865960 0.864964
0.610280 0.860676 0.859607
0.720694 0.854914 0.853773
0.823905 0.848697 0.847488
0.847759 0.846528 0.845296
