Fotico/Resources/LUTs/ft_vintage.cube
TITLE "Vintage"
LUT_3D_SIZE 5
DOMAIN_MIN 0.0 0.0 0.0
DOMAIN_MAX 1.0 1.0 1.0
0.245943 0.231313 0.222888
0.513325 0.208936 0.201230
0.792444 0.190643 0.183737
0.980000 0.177248 0.171668
0.980000 0.177248 0.171668
0.180428 0.459361 0.164819
0.456697 0.445982 0.153579
0.745291 0.468836 0.203768
0.941355 0.467831 0.202484
0.941355 0.467831 0.202484
0.150172 0.724021 0.137901
0.437866 0.724325 0.137242
0.735431 0.724675 0.136484
0.955718 0.740464 0.174746
0.955718 0.740464 0.174746
0.152230 0.945356 0.135843
0.440397 0.945647 0.134984
0.738200 0.945952 0.134084
0.955711 0.946213 0.133312
0.955711 0.946213 0.133312
0.152230 0.945356 0.135843
0.440397 0.945647 0.134984
0.738200 0.945952 0.134084
0.955711 0.946213 0.133312
0.955711 0.946213 0.133312
0.236414 0.221971 0.504300
0.506595 0.202522 0.485648
0.786157 0.184852 0.468779
0.979715 0.172595 0.456287
0.979715 0.172595 0.456287
0.175807 0.454546 0.448996
0.453544 0.443186 0.438440
0.738871 0.432468 0.428396
0.951907 0.427809 0.423720
0.951907 0.427809 0.423720
0.150381 0.724117 0.423139
0.438145 0.724440 0.422355
0.735745 0.724801 0.421479
0.959721 0.758591 0.482020
0.959721 0.758591 0.482020
0.152517 0.945453 0.420745
0.440735 0.945749 0.419765
0.738562 0.946058 0.418742
0.955984 0.946322 0.417867
0.955984 0.946322 0.417867
0.152517 0.945453 0.420745
0.440735 0.945749 0.419765
0.738562 0.946058 0.418742
0.955984 0.946322 0.417867
0.955984 0.946322 0.417867
0.229304 0.215176 0.796228
0.500069 0.196313 0.777632
0.780104 0.179366 0.760931
0.975728 0.168164 0.748683
0.975728 0.168164 0.748683
0.171479 0.450005 0.741613
0.448528 0.438407 0.730453
0.736185 0.430087 0.722560
0.951900 0.427670 0.719538
0.951900 0.427670 0.719538
0.150607 0.724221 0.719136
0.438434 0.724559 0.718292
0.736770 0.725649 0.718080
0.954090 0.725255 0.716553
0.954090 0.725255 0.716553
0.152809 0.945552 0.716594
0.441078 0.945853 0.715570
0.738929 0.946165 0.714504
0.956260 0.946433 0.713593
0.956260 0.946433 0.713593
0.152809 0.945552 0.716594
0.441078 0.945853 0.715570
0.738929 0.946165 0.714504
0.956260 0.946433 0.713593
0.956260 0.946433 0.713593
0.223592 0.209681 0.972173
0.494834 0.191325 0.973004
0.775274 0.175414 0.968552
0.972578 0.164671 0.959958
0.972578 0.164671 0.959958
0.168092 0.446462 0.955050
0.445573 0.435686 0.947474
0.734610 0.428561 0.942390
0.952051 0.427750 0.941221
0.952051 0.427750 0.941221
0.150804 0.724312 0.940911
0.438680 0.724660 0.940272
0.736339 0.725038 0.939580
0.954298 0.725368 0.938975
0.954298 0.725368 0.938975
0.153055 0.945635 0.939006
0.441365 0.945939 0.938245
0.739235 0.946255 0.937456
0.956875 0.946917 0.937170
0.956875 0.946917 0.937170
0.153055 0.945635 0.939006
0.441365 0.945939 0.938245
0.739235 0.946255 0.937456
0.956875 0.946917 0.937170
0.956875 0.946917 0.937170
0.223592 0.209681 0.972173
0.494834 0.191325 0.973004
0.775274 0.175414 0.968552
0.972578 0.164671 0.959958
0.972578 0.164671 0.959958
0.168092 0.446462 0.955050
0.445573 0.435686 0.947474
0.734610 0.428561 0.942390
0.952051 0.427750 0.941221
0.952051 0.427750 0.941221
0.150804 0.724312 0.940911
0.438680 0.724660 0.940272
0.736339 0.725038 0.939580
0.954298 0.725368 0.938975
0.954298 0.725368 0.938975
0.153055 0.945635 0.939006
0.441365 0.945939 0.938245
0.739235 0.946255 0.937456
0.956875 0.946917 0.937170
0.956875 0.946917 0.937170
0.153055 0.945635 0.939006
0.441365 0.945939 0.938245
0.739235 0.946255 0.937456
0.956875 0.946917 0.937170
0.956875 0.946917 0.937170
