Fotico/Resources/LUTs/ft_vintage.cube
TITLE "Vintage"
LUT_3D_SIZE 33
DOMAIN_MIN 0.0 0.0 0.0
DOMAIN_MAX 1.0 1.0 1.0
0.245943 0.231313 0.222888
0.277323 0.226362 0.217960
0.310961 0.223795 0.215493
0.344624 0.221254 0.213051
0.378312 0.218738 0.210634
0.412026 0.216248 0.208244
0.445766 0.213784 0.205879
0.479533 0.211347 0.203541
0.513325 0.208936 0.201230
0.547943 0.206551 0.198946
0.582785 0.204195 0.196689
0.617656 0.201865 0.194459
0.652555 0.199564 0.192258
0.687482 0.197290 0.190084
0.722440 0.195045 0.187940
0.757427 0.192829 0.185824
0.792444 0.190643 0.183737
0.827491 0.188486 0.181680
0.862570 0.186359 0.179690
0.890298 0.184262 0.177909
0.916069 0.182196 0.176155
0.941863 0.180162 0.174429
0.967682 0.178358 0.172732
0.980000 0.177248 0.171668
0.980000 0.177248 0.171668
0.980000 0.177248 0.171668
0.980000 0.177248 0.171668
0.980000 0.177248 0.171668
0.980000 0.177248 0.171668
0.980000 0.177248 0.171668
0.980000 0.177248 0.171668
0.980000 0.177248 0.171668
0.980000 0.177248 0.171668
0.234703 0.256655 0.212168
0.268401 0.254149 0.209761
0.326267 0.280877 0.241032
0.353175 0.273481 0.232891
0.370309 0.247877 0.203946
0.403452 0.244384 0.200395
0.437281 0.242010 0.198121
0.471138 0.239663 0.195874
0.505022 0.237344 0.193654
0.539491 0.235053 0.191463
0.574429 0.232790 0.189300
0.609397 0.230555 0.187166
0.644395 0.228350 0.185061
0.679423 0.226174 0.182985
0.714482 0.224028 0.180939
0.749572 0.221912 0.179039
0.784693 0.219826 0.177267
0.819847 0.217772 0.175524
0.855032 0.215749 0.173808
0.884851 0.213758 0.172121
0.910703 0.211800 0.170463
0.936580 0.209874 0.168834
0.962482 0.207983 0.167235
0.978747 0.206813 0.166247
0.978747 0.206813 0.166247
0.978747 0.206813 0.166247
0.978747 0.206813 0.166247
0.978747 0.206813 0.166247
0.978747 0.206813 0.166247
0.978747 0.206813 0.166247
0.978747 0.206813 0.166247
0.978747 0.206813 0.166247
0.978747 0.206813 0.166247
0.225984 0.284647 0.204174
0.259769 0.282228 0.201856
0.293582 0.279837 0.199564
0.351970 0.307213 0.235226
0.382979 0.305647 0.233758
0.414015 0.304110 0.232317
0.442038 0.296498 0.223247
0.467777 0.280113 0.203285
0.497219 0.266675 0.187150
0.531367 0.263874 0.184301
0.566407 0.261709 0.182236
0.601477 0.259574 0.180201
0.636578 0.257469 0.178391
0.671711 0.255395 0.176629
0.706876 0.253352 0.174896
0.742074 0.251341 0.173191
0.777305 0.249361 0.171514
0.812570 0.247415 0.169866
0.847870 0.245502 0.168248
0.879683 0.243622 0.166660
0.905621 0.241778 0.165103
0.931586 0.239968 0.163576
0.957577 0.238194 0.162081
0.973899 0.237099 0.161160
0.973899 0.237099 0.161160
0.973899 0.237099 0.161160
0.973899 0.237099 0.161160
0.973899 0.237099 0.161160
0.973899 0.237099 0.161160
0.973899 0.237099 0.161160
0.973899 0.237099 0.161160
0.973899 0.237099 0.161160
0.973899 0.237099 0.161160
0.217564 0.312939 0.196482
0.251441 0.310612 0.194255
0.285345 0.308313 0.192056
0.319278 0.306042 0.189885
0.362480 0.315013 0.203449
0.408668 0.331832 0.227679
0.439830 0.330419 0.226363
0.471022 0.329036 0.225076
0.502244 0.327683 0.223820
0.532008 0.320268 0.214349
0.562391 0.307919 0.198324
0.594941 0.297072 0.184467
0.629138 0.287371 0.173093
0.664363 0.284969 0.170911
0.699641 0.283035 0.169274
0.734953 0.281134 0.167667
0.770300 0.279267 0.166090
0.805683 0.277435 0.164543
0.841103 0.275638 0.163028
0.874811 0.273877 0.161545
0.900841 0.272152 0.160094
0.926899 0.270466 0.158677
0.952987 0.268817 0.157293
0.969370 0.267803 0.156442
0.969370 0.267803 0.156442
0.969370 0.267803 0.156442
0.969370 0.267803 0.156442
0.969370 0.267803 0.156442
0.969370 0.267803 0.156442
0.969370 0.267803 0.156442
0.969370 0.267803 0.156442
0.969370 0.267803 0.156442
0.969370 0.267803 0.156442
0.209456 0.341543 0.189102
0.243427 0.339311 0.186971
0.277428 0.337108 0.184868
0.311458 0.334935 0.182795
0.345518 0.332792 0.180751
0.379608 0.330678 0.178874
0.434917 0.358574 0.222155
0.466212 0.357294 0.220971
0.497539 0.356045 0.219819
0.529159 0.354828 0.218698
0.561474 0.353643 0.217609
0.593824 0.352492 0.216553
0.625461 0.345185 0.206589
0.658101 0.335172 0.192846
0.692181 0.326060 0.180539
0.727427 0.317683 0.170538
0.763632 0.309912 0.161450
0.799211 0.307854 0.159574
0.834760 0.306181 0.158169
0.870256 0.304547 0.156798
0.896385 0.302952 0.155461
0.922545 0.301397 0.154161
0.948736 0.299885 0.152897
0.965186 0.298957 0.152122
0.965186 0.298957 0.152122
0.965186 0.298957 0.152122
0.965186 0.298957 0.152122
0.965186 0.298957 0.152122
0.965186 0.298957 0.152122
0.965186 0.298957 0.152122
0.965186 0.298957 0.152122
0.965186 0.298957 0.152122
0.965186 0.298957 0.152122
0.201672 0.370471 0.182047
0.235742 0.368339 0.180015
0.269844 0.366237 0.178227
0.303976 0.364165 0.176468
0.338139 0.362125 0.174737
0.372334 0.360117 0.173035
0.406562 0.358141 0.171361
0.452650 0.372984 0.196017
0.493199 0.384769 0.216177
0.524808 0.383664 0.215167
0.557241 0.382593 0.214191
0.589711 0.381557 0.213249
0.622218 0.380556 0.212342
0.654763 0.379592 0.211472
0.687347 0.378666 0.210638
0.720316 0.371446 0.200159
0.754495 0.363017 0.187966
0.789726 0.355190 0.177163
0.825846 0.347875 0.168007
0.862725 0.340999 0.159524
0.892190 0.334505 0.151621
0.918551 0.332800 0.150059
0.944858 0.331436 0.148925
0.961381 0.330604 0.148235
0.961381 0.330604 0.148235
0.961381 0.330604 0.148235
0.961381 0.330604 0.148235
0.961381 0.330604 0.148235
0.961381 0.330604 0.148235
0.961381 0.330604 0.148235
0.961381 0.330604 0.148235
0.961381 0.330604 0.148235
0.961381 0.330604 0.148235
0.194227 0.399739 0.175835
0.228402 0.397710 0.174114
0.262609 0.395714 0.172422
0.296848 0.393749 0.170759
0.331121 0.391818 0.169124
0.365427 0.389920 0.167520
0.399767 0.388057 0.165946
0.434143 0.386228 0.164402
0.472659 0.390277 0.172115
0.520465 0.412235 0.210877
0.553423 0.411939 0.211164
0.586021 0.411026 0.210344
0.618660 0.410151 0.209561
0.651340 0.409316 0.208816
0.684062 0.408520 0.208111
0.716828 0.407766 0.207446
0.749639 0.407054 0.206822
0.782496 0.406385 0.206239
0.816812 0.399267 0.195259
0.852170 0.392044 0.184246
0.883459 0.385257 0.174692
0.910520 0.378853 0.166230
0.938043 0.372790 0.158325
0.955525 0.369144 0.153620
0.955525 0.369144 0.153620
0.955525 0.369144 0.153620
0.955525 0.369144 0.153620
0.955525 0.369144 0.153620
0.955525 0.369144 0.153620
0.955525 0.369144 0.153620
0.955525 0.369144 0.153620
0.955525 0.369144 0.153620
0.955525 0.369144 0.153620
0.187139 0.429362 0.170160
0.221423 0.427443 0.168537
0.255742 0.425558 0.166943
0.290095 0.423707 0.165380
0.324484 0.421890 0.163848
0.358908 0.420110 0.162348
0.393369 0.418365 0.160879
0.427867 0.416658 0.159443
0.462404 0.414989 0.158041
0.496979 0.413358 0.156673
0.543574 0.431011 0.188479
0.582787 0.440929 0.207864
0.615569 0.440190 0.207214
0.648397 0.439493 0.206605
0.681271 0.438841 0.206038
0.714194 0.438233 0.205515
0.747167 0.437672 0.205037
0.780192 0.437159 0.204604
0.813272 0.436696 0.204218
0.846410 0.436285 0.203880
0.877133 0.435537 0.202928
0.903241 0.428958 0.192151
0.929918 0.422760 0.182136
0.946918 0.419049 0.176610
0.946918 0.419049 0.176610
0.946918 0.419049 0.176610
0.946918 0.419049 0.176610
0.946918 0.419049 0.176610
0.946918 0.419049 0.176610
0.946918 0.419049 0.176610
0.946918 0.419049 0.176610
0.946918 0.419049 0.176610
0.946918 0.419049 0.176610
0.180428 0.459361 0.164819
0.214829 0.457558 0.163298
0.249267 0.455791 0.161809
0.283741 0.454060 0.160353
0.318253 0.452366 0.158929
0.352804 0.450711 0.157539
0.387394 0.449094 0.156184
0.422025 0.447518 0.154863
0.456697 0.445982 0.153579
0.491413 0.444489 0.152332
0.526353 0.443038 0.151123
0.568720 0.452496 0.169398
0.612143 0.468982 0.201911
0.645985 0.470168 0.204874
0.679030 0.469673 0.204458
0.712131 0.469229 0.204089
0.745291 0.468836 0.203768
0.778515 0.468498 0.203495
0.811816 0.468214 0.203257
0.845266 0.467995 0.202975
0.876452 0.467847 0.202748
0.901102 0.467773 0.202586
0.925815 0.467781 0.202498
0.941355 0.467831 0.202484
0.941355 0.467831 0.202484
0.941355 0.467831 0.202484
0.941355 0.467831 0.202484
0.941355 0.467831 0.202484
0.941355 0.467831 0.202484
0.941355 0.467831 0.202484
0.941355 0.467831 0.202484
0.941355 0.467831 0.202484
0.941355 0.467831 0.202484
0.174753 0.489759 0.159830
0.208644 0.488079 0.158419
0.243210 0.486438 0.157042
0.277814 0.484836 0.155699
0.312460 0.483274 0.154392
0.347148 0.481754 0.153121
0.381879 0.480276 0.151887
0.416655 0.478842 0.150692
0.451476 0.477452 0.149536
0.486345 0.476110 0.148421
0.521301 0.474815 0.147348
0.557300 0.473570 0.146318
0.595718 0.476324 0.152861
0.639543 0.491913 0.183681
0.677429 0.501077 0.203406
0.710785 0.500814 0.203149
0.744266 0.500620 0.202885
0.777827 0.500499 0.202681
0.811471 0.500455 0.202545
0.845204 0.500493 0.202486
0.876626 0.500626 0.202514
0.901519 0.500865 0.202644
0.926515 0.501239 0.202902
0.942269 0.501568 0.203155
0.942269 0.501568 0.203155
0.942269 0.501568 0.203155
0.942269 0.501568 0.203155
0.942269 0.501568 0.203155
0.942269 0.501568 0.203155
0.942269 0.501568 0.203155
0.942269 0.501568 0.203155
0.942269 0.501568 0.203155
0.942269 0.501568 0.203155
0.169508 0.520599 0.155219
0.202901 0.519036 0.153925
0.237604 0.517531 0.152667
0.272352 0.516068 0.151448
0.307144 0.514651 0.150267
0.341982 0.513278 0.149126
0.376869 0.511953 0.148026
0.411806 0.510676 0.146968
0.446795 0.509450 0.145954
0.481839 0.508276 0.144986
0.516940 0.507158 0.144065
0.553045 0.506097 0.143194
0.589306 0.505097 0.142374
0.625638 0.504161 0.141608
0.668827 0.517138 0.168488
0.709595 0.531062 0.197271
0.744310 0.533607 0.202485
0.778180 0.533781 0.202548
0.812172 0.534074 0.202721
0.846321 0.534521 0.203038
0.877883 0.535245 0.203615
0.903212 0.536078 0.204294
0.928543 0.536912 0.204971
0.944437 0.537436 0.205395
0.944437 0.537436 0.205395
0.944437 0.537436 0.205395
0.944437 0.537436 0.205395
0.944437 0.537436 0.205395
0.944437 0.537436 0.205395
0.944437 0.537436 0.205395
0.944437 0.537436 0.205395
0.944437 0.537436 0.205395
0.944437 0.537436 0.205395
0.164682 0.552804 0.151013
0.197639 0.551362 0.149847
0.232495 0.549966 0.148720
0.267400 0.548620 0.147636
0.302355 0.547324 0.146594
0.337364 0.546082 0.145596
0.372428 0.544894 0.144645
0.407550 0.543764 0.143742
0.442734 0.542694 0.142889
0.477984 0.541688 0.142089
0.513304 0.540750 0.141344
0.549547 0.539885 0.140656
0.586079 0.539097 0.140024
0.622787 0.538399 0.139374
0.659623 0.537811 0.138792
0.700594 0.545612 0.155116
0.742198 0.559388 0.183003
0.780125 0.569198 0.203862
0.814666 0.570031 0.204541
0.849209 0.570866 0.205217
0.880086 0.571701 0.205891
0.905421 0.572537 0.206564
0.930756 0.573373 0.207235
0.946653 0.573898 0.207655
0.946653 0.573898 0.207655
0.946653 0.573898 0.207655
0.946653 0.573898 0.207655
0.946653 0.573898 0.207655
0.946653 0.573898 0.207655
0.946653 0.573898 0.207655
0.946653 0.573898 0.207655
0.946653 0.573898 0.207655
0.946653 0.573898 0.207655
0.160316 0.585531 0.147251
0.192912 0.584254 0.146225
0.227940 0.583031 0.145245
0.263025 0.581864 0.144311
0.298169 0.580755 0.143426
0.333377 0.579709 0.142592
0.368651 0.578727 0.141811
0.403999 0.577815 0.141087
0.439429 0.576978 0.140420
0.474971 0.576219 0.139786
0.510681 0.575559 0.139152
0.547290 0.575016 0.138604
0.584320 0.574615 0.138170
0.621593 0.574453 0.137934
0.659066 0.574486 0.137861
0.696542 0.574521 0.137785
0.735496 0.577626 0.144301
0.777634 0.590979 0.172284
0.816873 0.603536 0.199910
0.852229 0.607327 0.207478
0.882305 0.608165 0.208147
0.907643 0.609003 0.208815
0.932982 0.609841 0.209481
0.948881 0.610368 0.209898
0.948881 0.610368 0.209898
0.948881 0.610368 0.209898
0.948881 0.610368 0.209898
0.948881 0.610368 0.209898
0.948881 0.610368 0.209898
0.948881 0.610368 0.209898
0.948881 0.610368 0.209898
0.948881 0.610368 0.209898
0.948881 0.610368 0.209898
0.156474 0.618842 0.143983
0.188797 0.617755 0.143116
0.224028 0.616732 0.142301
0.259329 0.615775 0.141541
0.294705 0.614890 0.140837
0.330167 0.614080 0.140191
0.365776 0.613354 0.139547
0.401528 0.612735 0.138941
0.437405 0.612239 0.138430
0.473442 0.611904 0.138050
0.509760 0.611853 0.137908
0.546932 0.611887 0.137834
0.584410 0.611923 0.137757
0.621890 0.611960 0.137677
0.659372 0.611997 0.137595
0.696857 0.612036 0.137512
0.734344 0.612075 0.137426
0.771833 0.612116 0.137339
0.813452 0.623326 0.162158
0.852994 0.635305 0.188835
0.884536 0.644635 0.210388
0.909877 0.645475 0.211051
0.935219 0.646315 0.211713
0.951120 0.646843 0.212128
0.951120 0.646843 0.212128
0.951120 0.646843 0.212128
0.951120 0.646843 0.212128
0.951120 0.646843 0.212128
0.951120 0.646843 0.212128
0.951120 0.646843 0.212128
0.951120 0.646843 0.212128
0.951120 0.646843 0.212128
0.951120 0.646843 0.212128
0.153249 0.652832 0.141278
0.185422 0.651974 0.140595
0.220920 0.651193 0.139968
0.256595 0.650504 0.139317
0.292391 0.649927 0.138743
0.328320 0.649484 0.138274
0.364438 0.649230 0.137962
0.400829 0.649254 0.137881
0.437234 0.649288 0.137806
0.473641 0.649324 0.137728
0.510051 0.649361 0.137648
0.547242 0.649400 0.137565
0.584728 0.649438 0.137481
0.622216 0.649478 0.137394
0.659705 0.649519 0.137307
0.697197 0.649560 0.137217
0.734690 0.649602 0.137127
0.772184 0.649644 0.137034
0.809680 0.649688 0.136941
0.849569 0.656291 0.152242
0.884205 0.667718 0.178178
0.911723 0.678639 0.204834
0.937466 0.682795 0.213932
0.953368 0.683323 0.214345
0.953368 0.683323 0.214345
0.953368 0.683323 0.214345
0.953368 0.683323 0.214345
0.953368 0.683323 0.214345
0.953368 0.683323 0.214345
0.953368 0.683323 0.214345
0.953368 0.683323 0.214345
0.953368 0.683323 0.214345
0.953368 0.683323 0.214345
0.150943 0.687669 0.139097
0.183271 0.687137 0.138558
0.219259 0.686752 0.138137
0.255497 0.686620 0.137928
0.291900 0.686654 0.137854
0.328305 0.686690 0.137778
0.364714 0.686726 0.137699
0.401125 0.686763 0.137618
0.437538 0.686802 0.137535
0.473953 0.686841 0.137449
0.510371 0.686881 0.137363
0.547578 0.686922 0.137274
0.585070 0.686963 0.137184
0.622563 0.687006 0.137093
0.660058 0.687048 0.137001
0.697555 0.687092 0.136907
0.735053 0.687135 0.136812
0.772552 0.687180 0.136716
0.810052 0.687225 0.136619
0.847554 0.687270 0.136520
0.881692 0.689783 0.142505
0.911042 0.700685 0.168625
0.938783 0.711151 0.194411
0.955460 0.717520 0.210496
0.955460 0.717520 0.210496
0.955460 0.717520 0.210496
0.955460 0.717520 0.210496
0.955460 0.717520 0.210496
0.955460 0.717520 0.210496
0.955460 0.717520 0.210496
0.955460 0.717520 0.210496
0.955460 0.717520 0.210496
0.955460 0.717520 0.210496
0.150172 0.724021 0.137901
0.182970 0.724055 0.137827
0.219377 0.724091 0.137749
0.255786 0.724128 0.137670
0.292198 0.724166 0.137588
0.328612 0.724204 0.137504
0.365029 0.724244 0.137418
0.401447 0.724284 0.137331
0.437866 0.724325 0.137242
0.474288 0.724367 0.137151
0.510710 0.724409 0.137060
0.547933 0.724452 0.136967
0.585430 0.724496 0.136872
0.622928 0.724540 0.136777
0.660428 0.724584 0.136681
0.697929 0.724629 0.136583
0.735431 0.724675 0.136484
0.772934 0.724721 0.136385
0.810438 0.724767 0.136285
0.847943 0.724814 0.136183
0.881329 0.724861 0.136081
0.908835 0.724909 0.135978
0.938020 0.734131 0.159202
0.955718 0.740464 0.174746
0.955718 0.740464 0.174746
0.955718 0.740464 0.174746
0.955718 0.740464 0.174746
0.955718 0.740464 0.174746
0.955718 0.740464 0.174746
0.955718 0.740464 0.174746
0.955718 0.740464 0.174746
0.955718 0.740464 0.174746
0.955718 0.740464 0.174746
0.150434 0.761530 0.137640
0.183272 0.761568 0.137557
0.219687 0.761607 0.137473
0.256104 0.761647 0.137386
0.292523 0.761687 0.137298
0.328943 0.761729 0.137209
0.365365 0.761771 0.137118
0.401788 0.761813 0.137026
0.438213 0.761856 0.136932
0.474639 0.761900 0.136838
0.511066 0.761944 0.136742
0.548304 0.761989 0.136645
0.585805 0.762034 0.136547
0.623307 0.762080 0.136448
0.660811 0.762126 0.136349
0.698315 0.762172 0.136248
0.735821 0.762219 0.136146
0.773328 0.762267 0.136044
0.810835 0.762314 0.135940
0.848344 0.762362 0.135836
0.881625 0.762411 0.135731
0.909133 0.762460 0.135625
0.936641 0.762509 0.135519
0.954272 0.764336 0.140266
0.954272 0.764336 0.140266
0.954272 0.764336 0.140266
0.954272 0.764336 0.140266
0.954272 0.764336 0.140266
0.954272 0.764336 0.140266
0.954272 0.764336 0.140266
0.954272 0.764336 0.140266
0.954272 0.764336 0.140266
0.954272 0.764336 0.140266
0.150719 0.799050 0.137355
0.183599 0.799091 0.137266
0.220020 0.799132 0.137176
0.256442 0.799174 0.137085
0.292866 0.799217 0.136992
0.329291 0.799260 0.136898
0.365718 0.799304 0.136803
0.402146 0.799349 0.136707
0.438575 0.799394 0.136610
0.475005 0.799439 0.136511
0.511436 0.799485 0.136412
0.548688 0.799531 0.136312
0.586193 0.799578 0.136211
0.623699 0.799625 0.136109
0.661206 0.799672 0.136006
0.698714 0.799720 0.135902
0.736223 0.799768 0.135798
0.773732 0.799817 0.135693
0.811243 0.799866 0.135587
0.848754 0.799915 0.135480
0.881929 0.799965 0.135373
0.909438 0.800014 0.135265
0.936948 0.800065 0.135156
0.954209 0.800096 0.135087
0.954209 0.800096 0.135087
0.954209 0.800096 0.135087
0.954209 0.800096 0.135087
0.954209 0.800096 0.135087
0.954209 0.800096 0.135087
0.954209 0.800096 0.135087
0.954209 0.800096 0.135087
0.954209 0.800096 0.135087
0.954209 0.800096 0.135087
0.151022 0.836578 0.137051
0.183944 0.836621 0.136958
0.220370 0.836665 0.136864
0.256797 0.836709 0.136768
0.293225 0.836753 0.136672
0.329655 0.836798 0.136574
0.366085 0.836844 0.136475
0.402517 0.836890 0.136376
0.438950 0.836936 0.136275
0.475383 0.836983 0.136174
0.511818 0.837030 0.136072
0.549085 0.837078 0.135968
0.586593 0.837126 0.135864
0.624102 0.837174 0.135760
0.661612 0.837223 0.135654
0.699123 0.837272 0.135548
0.736635 0.837321 0.135441
0.774147 0.837371 0.135333
0.811660 0.837421 0.135225
0.849174 0.837471 0.135116
0.882239 0.837522 0.135006
0.909750 0.837573 0.134896
0.937262 0.837624 0.134785
0.954524 0.837656 0.134715
0.954524 0.837656 0.134715
0.954524 0.837656 0.134715
0.954524 0.837656 0.134715
0.954524 0.837656 0.134715
0.954524 0.837656 0.134715
0.954524 0.837656 0.134715
0.954524 0.837656 0.134715
0.954524 0.837656 0.134715
0.954524 0.837656 0.134715
0.151340 0.873016 0.136733
0.184305 0.873049 0.136636
0.220735 0.873082 0.136538
0.257166 0.873116 0.136439
0.293598 0.873150 0.136339
0.330031 0.873184 0.136238
0.366465 0.873218 0.136137
0.402900 0.873253 0.136034
0.439336 0.873288 0.135931
0.475773 0.873323 0.135826
0.512211 0.873359 0.135721
0.549492 0.873395 0.135616
0.587003 0.873431 0.135509
0.624515 0.873467 0.135402
0.662028 0.873503 0.135294
0.699541 0.873540 0.135185
0.737056 0.873577 0.135076
0.774571 0.873614 0.134966
0.812086 0.873652 0.134856
0.849603 0.873689 0.134745
0.882555 0.873727 0.134633
0.910068 0.873765 0.134521
0.937581 0.873803 0.134408
0.954844 0.873827 0.134336
0.954844 0.873827 0.134336
0.954844 0.873827 0.134336
0.954844 0.873827 0.134336
0.954844 0.873827 0.134336
0.954844 0.873827 0.134336
0.954844 0.873827 0.134336
0.954844 0.873827 0.134336
0.954844 0.873827 0.134336
0.954844 0.873827 0.134336
0.151671 0.900546 0.136403
0.184679 0.900580 0.136303
0.221112 0.900614 0.136201
0.257547 0.900649 0.136099
0.293982 0.900684 0.135997
0.330418 0.900719 0.135893
0.366855 0.900754 0.135788
0.403293 0.900790 0.135683
0.439732 0.900826 0.135577
0.476172 0.900862 0.135470
0.512613 0.900898 0.135363
0.549908 0.900935 0.135255
0.587422 0.900972 0.135146
0.624937 0.901009 0.135036
0.662452 0.901046 0.134926
0.699968 0.901083 0.134815
0.737485 0.901121 0.134704
0.775002 0.901159 0.134592
0.812521 0.901197 0.134479
0.850039 0.901235 0.134366
0.882876 0.901274 0.134253
0.910391 0.901313 0.134138
0.937906 0.901351 0.134024
0.955170 0.901376 0.133951
0.955170 0.901376 0.133951
0.955170 0.901376 0.133951
0.955170 0.901376 0.133951
0.955170 0.901376 0.133951
0.955170 0.901376 0.133951
0.955170 0.901376 0.133951
0.955170 0.901376 0.133951
0.955170 0.901376 0.133951
0.955170 0.901376 0.133951
0.152012 0.928080 0.136062
0.185064 0.928115 0.135959
0.221501 0.928150 0.135855
0.257938 0.928185 0.135750
0.294377 0.928221 0.135644
0.330816 0.928257 0.135538
0.367256 0.928293 0.135431
0.403696 0.928330 0.135323
0.440138 0.928366 0.135215
0.476580 0.928403 0.135106
0.513023 0.928440 0.134996
0.550334 0.928478 0.134886
0.587850 0.928515 0.134775
0.625367 0.928553 0.134663
0.662885 0.928591 0.134551
0.700403 0.928629 0.134438
0.737922 0.928667 0.134325
0.775442 0.928706 0.134211
0.812962 0.928745 0.134097
0.850483 0.928784 0.133982
0.883203 0.928823 0.133866
0.910720 0.928862 0.133750
0.938236 0.928902 0.133634
0.955501 0.928926 0.133560
0.955501 0.928926 0.133560
0.955501 0.928926 0.133560
0.955501 0.928926 0.133560
0.955501 0.928926 0.133560
0.955501 0.928926 0.133560
0.955501 0.928926 0.133560
0.955501 0.928926 0.133560
0.955501 0.928926 0.133560
0.955501 0.928926 0.133560
0.152230 0.945356 0.135843
0.185311 0.945392 0.135738
0.221750 0.945427 0.135633
0.258189 0.945463 0.135526
0.294629 0.945500 0.135419
0.331070 0.945536 0.135311
0.367511 0.945573 0.135203
0.403954 0.945610 0.135094
0.440397 0.945647 0.134984
0.476841 0.945684 0.134874
0.513285 0.945722 0.134763
0.550605 0.945760 0.134651
0.588123 0.945798 0.134539
0.625641 0.945836 0.134426
0.663160 0.945874 0.134312
0.700680 0.945913 0.134198
0.738200 0.945952 0.134084
0.775721 0.945991 0.133969
0.813243 0.946030 0.133853
0.850765 0.946069 0.133737
0.883411 0.946108 0.133621
0.910928 0.946148 0.133504
0.938446 0.946188 0.133386
0.955711 0.946213 0.133312
0.955711 0.946213 0.133312
0.955711 0.946213 0.133312
0.955711 0.946213 0.133312
0.955711 0.946213 0.133312
0.955711 0.946213 0.133312
0.955711 0.946213 0.133312
0.955711 0.946213 0.133312
0.955711 0.946213 0.133312
0.955711 0.946213 0.133312
0.152230 0.945356 0.135843
0.185311 0.945392 0.135738
0.221750 0.945427 0.135633
0.258189 0.945463 0.135526
0.294629 0.945500 0.135419
0.331070 0.945536 0.135311
0.367511 0.945573 0.135203
0.403954 0.945610 0.135094
0.440397 0.945647 0.134984
0.476841 0.945684 0.134874
0.513285 0.945722 0.134763
0.550605 0.945760 0.134651
0.588123 0.945798 0.134539
0.625641 0.945836 0.134426
0.663160 0.945874 0.134312
0.700680 0.945913 0.134198
0.738200 0.945952 0.134084
0.775721 0.945991 0.133969
0.813243 0.946030 0.133853
0.850765 0.946069 0.133737
0.883411 0.946108 0.133621
0.910928 0.946148 0.133504
0.938446 0.946188 0.133386
0.955711 0.946213 0.133312
0.955711 0.946213 0.133312
0.955711 0.946213 0.133312
0.955711 0.946213 0.133312
0.955711 0.946213 0.133312
0.955711 0.946213 0.133312
0.955711 0.946213 0.133312
0.955711 0.946213 0.133312
0.955711 0.946213 0.133312
0.955711 0.946213 0.133312
0.152230 0.945356 0.135843
0.185311 0.945392 0.135738
0.221750 0.945427 0.135633
0.258189 0.945463 0.135526
0.294629 0.945500 0.135419
0.331070 0.945536 0.135311
0.367511 0.945573 0.135203
0.403954 0.945610 0.135094
0.440397 0.945647 0.134984
0.476841 0.945684 0.134874
0.513285 0.945722 0.134763
0.550605 0.945760 0.134651
0.588123 0.945798 0.134539
0.625641 0.945836 0.134426
0.663160 0.945874 0.134312
0.700680 0.945913 0.134198
0.738200 0.945952 0.134084
0.775721 0.945991 0.133969
0.813243 0.946030 0.133853
0.850765 0.946069 0.133737
0.883411 0.946108 0.133621
0.910928 0.946148 0.133504
0.938446 0.946188 0.133386
0.955711 0.946213 0.133312
0.955711 0.946213 0.133312
0.955711 0.946213 0.133312
0.955711 0.946213 0.133312
0.955711 0.946213 0.133312
0.955711 0.946213 0.133312
0.955711 0.946213 0.133312
0.955711 0.946213 0.133312
0.955711 0.946213 0.133312
0.955711 0.946213 0.133312
0.152230 0.945356 0.135843
0.185311 0.945392 0.135738
0.221750 0.945427 0.135633
0.258189 0.945463 0.135526
0.294629 0.945500 0.135419
0.331070 0.945536 0.135311
0.367511 0.945573 0.135203
0.403954 0.945610 0.135094
0.440397 0.945647 0.134984
0.476841 0.945684 0.134874
0.513285 0.945722 0.134763
0.550605 0.945760 0.134651
0.588123 0.945798 0.134539
0.625641 0.945836 0.134426
0.663160 0.945874 0.134312
0.700680 0.945913 0.134198
0.738200 0.945952 0.134084
0.775721 0.945991 0.133969
0.813243 0.946030 0.133853
0.850765 0.946069 0.133737
0.883411 0.946108 0.133621
0.910928 0.946148 0.133504
0.938446 0.946188 0.133386
0.955711 0.946213 0.133312
0.955711 0.946213 0.133312
0.955711 0.946213 0.133312
0.955711 0.946213 0.133312
0.955711 0.946213 0.133312
