Fotico/Resources/LUTs/ft_vintage.cube
TITLE "Vintage"
LUT_3D_SIZE 9
DOMAIN_MIN 0.0 0.0 0.0
DOMAIN_MAX 1.0 1.0 1.0
0.245943 0.231313 0.222888
0.378312 0.218738 0.210634
0.513325 0.208936 0.201230
0.652555 0.199564 0.192258
0.792444 0.190643 0.183737
0.916069 0.182196 0.176155
0.980000 0.177248 0.171668
0.980000 0.177248 0.171668
0.980000 0.177248 0.171668
0.209456 0.341543 0.189102
0.345518 0.332792 0.180751
0.497539 0.356045 0.219819
0.625461 0.345185 0.206589
0.763632 0.309912 0.161450
0.896385 0.302952 0.155461
0.965186 0.298957 0.152122
0.965186 0.298957 0.152122
0.965186 0.298957 0.152122
0.180428 0.459361 0.164819
0.318253 0.452366 0.158929
0.456697 0.445982 0.153579
0.612143 0.468982 0.201911
0.745291 0.468836 0.203768
0.876452 0.467847 0.202748
0.941355 0.467831 0.202484
0.941355 0.467831 0.202484
0.941355 0.467831 0.202484
0.160316 0.585531 0.147251
0.298169 0.580755 0.143426
0.439429 0.576978 0.140420
0.584320 0.574615 0.138170
0.735496 0.577626 0.144301
0.882305 0.608165 0.208147
0.948881 0.610368 0.209898
0.948881 0.610368 0.209898
0.948881 0.610368 0.209898
0.150172 0.724021 0.137901
0.292198 0.724166 0.137588
0.437866 0.724325 0.137242
0.585430 0.724496 0.136872
0.735431 0.724675 0.136484
0.881329 0.724861 0.136081
0.955718 0.740464 0.174746
0.955718 0.740464 0.174746
0.955718 0.740464 0.174746
0.151340 0.873016 0.136733
0.293598 0.873150 0.136339
0.439336 0.873288 0.135931
0.587003 0.873431 0.135509
0.737056 0.873577 0.135076
0.882555 0.873727 0.134633
0.954844 0.873827 0.134336
0.954844 0.873827 0.134336
0.954844 0.873827 0.134336
0.152230 0.945356 0.135843
0.294629 0.945500 0.135419
0.440397 0.945647 0.134984
0.588123 0.945798 0.134539
0.738200 0.945952 0.134084
0.883411 0.946108 0.133621
0.955711 0.946213 0.133312
0.955711 0.946213 0.133312
0.955711 0.946213 0.133312
0.152230 0.945356 0.135843
0.294629 0.945500 0.135419
0.440397 0.945647 0.134984
0.588123 0.945798 0.134539
0.738200 0.945952 0.134084
0.883411 0.946108 0.133621
0.955711 0.946213 0.133312
0.955711 0.946213 0.133312
0.955711 0.946213 0.133312
0.152230 0.945356 0.135843
0.294629 0.945500 0.135419
0.440397 0.945647 0.134984
0.588123 0.945798 0.134539
0.738200 0.945952 0.134084
0.883411 0.946108 0.133621
0.955711 0.946213 0.133312
0.955711 0.946213 0.133312
0.955711 0.946213 0.133312
0.240039 0.225439 0.362353
0.374779 0.215362 0.352673
0.509935 0.205704 0.343414
0.649219 0.196482 0.334592
0.789271 0.187720 0.326230
0.913869 0.179501 0.318351
0.980000 0.174895 0.313449
0.980000 0.174895 0.313449
0.980000 0.174895 0.313449
0.206273 0.338518 0.331494
0.343998 0.331513 0.324937
0.479214 0.321832 0.315607
0.619295 0.314260 0.308432
0.761159 0.307250 0.301817
0.894683 0.300850 0.295805
0.963602 0.297008 0.292212
0.963602 0.297008 0.292212
0.963602 0.297008 0.292212
0.178064 0.456920 0.305957
0.315859 0.450127 0.299555
0.454528 0.443964 0.293777
0.612113 0.469985 0.335471
0.743950 0.462214 0.325269
0.881539 0.430493 0.281473
0.952310 0.428397 0.279155
0.952310 0.428397 0.279155
0.952310 0.428397 0.279155
0.158697 0.583809 0.287023
0.296674 0.579349 0.283029
0.438419 0.575970 0.279941
0.584234 0.574465 0.278101
0.748914 0.604172 0.333755
0.883204 0.609303 0.339806
0.949784 0.611508 0.341552
0.949784 0.611508 0.341552
0.949784 0.611508 0.341552
0.150274 0.724068 0.277978
0.292327 0.724218 0.277613
0.438004 0.724382 0.277215
0.585580 0.724556 0.276794
0.735587 0.724737 0.276353
0.882538 0.727998 0.283276
0.958804 0.757443 0.350385
0.958804 0.757443 0.350385
0.958804 0.757443 0.350385
0.151472 0.873061 0.276635
0.293752 0.873196 0.276188
0.439495 0.873336 0.275725
0.587171 0.873480 0.275248
0.737228 0.873628 0.274758
0.882684 0.873779 0.274258
0.954975 0.873880 0.273923
0.954975 0.873880 0.273923
0.954975 0.873880 0.273923
0.152373 0.945404 0.275626
0.294793 0.945549 0.275146
0.440565 0.945698 0.274654
0.588300 0.945850 0.274152
0.738381 0.946005 0.273639
0.883546 0.946162 0.273116
0.955847 0.946267 0.272768
0.955847 0.946267 0.272768
0.955847 0.946267 0.272768
0.152373 0.945404 0.275626
0.294793 0.945549 0.275146
0.440565 0.945698 0.274654
0.588300 0.945850 0.274152
0.738381 0.946005 0.273639
0.883546 0.946162 0.273116
0.955847 0.946267 0.272768
0.955847 0.946267 0.272768
0.955847 0.946267 0.272768
0.152373 0.945404 0.275626
0.294793 0.945549 0.275146
0.440565 0.945698 0.274654
0.588300 0.945850 0.274152
0.738381 0.946005 0.273639
0.883546 0.946162 0.273116
0.955847 0.946267 0.272768
0.955847 0.946267 0.272768
0.955847 0.946267 0.272768
0.236414 0.221971 0.504300
0.371293 0.212034 0.494761
0.506595 0.202522 0.485648
0.645939 0.193454 0.476980
0.786157 0.184852 0.468779
0.911714 0.177095 0.461069
0.979715 0.172595 0.456287
0.979715 0.172595 0.456287
0.979715 0.172595 0.456287
0.203143 0.335547 0.473939
0.339531 0.327122 0.465914
0.476424 0.319200 0.458390
0.616616 0.311814 0.451401
0.758689 0.305005 0.444985
0.893041 0.298826 0.439191
0.962082 0.295143 0.435754
0.962082 0.295143 0.435754
0.962082 0.295143 0.435754
0.175807 0.454546 0.448996
0.313539 0.447960 0.442800
0.453544 0.443186 0.438440
0.594210 0.436823 0.432412
0.738871 0.432468 0.428396
0.880811 0.429155 0.425293
0.951907 0.427809 0.423720
0.951907 0.427809 0.423720
0.951907 0.427809 0.423720
0.157169 0.582189 0.430848
0.295307 0.578066 0.427166
0.437676 0.575157 0.424322
0.584352 0.574511 0.423267
0.751026 0.607090 0.468793
0.883450 0.604071 0.462707
0.952210 0.583950 0.434415
0.952210 0.583950 0.434415
0.952210 0.583950 0.434415
0.150381 0.724117 0.423139
0.292459 0.724273 0.422761
0.438145 0.724440 0.422355
0.585732 0.724617 0.421926
0.735745 0.724801 0.421479
0.892457 0.754588 0.476940
0.959721 0.758591 0.482020
0.959721 0.758591 0.482020
0.959721 0.758591 0.482020
0.151606 0.873106 0.421765
0.293907 0.873243 0.421312
0.439655 0.873384 0.420844
0.587341 0.873530 0.420363
0.737402 0.873679 0.419870
0.882814 0.873831 0.419366
0.955107 0.873933 0.419029
0.955107 0.873933 0.419029
0.955107 0.873933 0.419029
0.152517 0.945453 0.420745
0.294959 0.945599 0.420261
0.440735 0.945749 0.419765
0.588478 0.945902 0.419259
0.738562 0.946058 0.418742
0.883681 0.946216 0.418217
0.955984 0.946322 0.417867
0.955984 0.946322 0.417867
0.955984 0.946322 0.417867
0.152517 0.945453 0.420745
0.294959 0.945599 0.420261
0.440735 0.945749 0.419765
0.588478 0.945902 0.419259
0.738562 0.946058 0.418742
0.883681 0.946216 0.418217
0.955984 0.946322 0.417867
0.955984 0.946322 0.417867
0.955984 0.946322 0.417867
0.152517 0.945453 0.420745
0.294959 0.945599 0.420261
0.440735 0.945749 0.419765
0.588478 0.945902 0.419259
0.738562 0.946058 0.418742
0.883681 0.946216 0.418217
0.955984 0.946322 0.417867
0.955984 0.946322 0.417867
0.955984 0.946322 0.417867
0.232835 0.218550 0.650008
0.367856 0.208755 0.640336
0.503306 0.199392 0.631108
0.642713 0.190479 0.622346
0.783100 0.182042 0.614072
0.909604 0.174743 0.606315
0.977697 0.170350 0.601515
0.977697 0.170350 0.601515
0.977697 0.170350 0.601515
0.200069 0.332631 0.619276
0.336625 0.324374 0.611187
0.473696 0.316629 0.603625
0.614006 0.309435 0.596625
0.756295 0.302833 0.590231
0.891461 0.296883 0.584498
0.960629 0.293365 0.581127
0.960629 0.293365 0.581127
0.960629 0.293365 0.581127
0.173611 0.452240 0.594225
0.311295 0.445868 0.588064
0.450439 0.440173 0.582589
0.592439 0.435242 0.577883
0.737454 0.431212 0.574070
0.880238 0.428350 0.571122
0.951815 0.427625 0.570101
0.951815 0.427625 0.570101
0.951815 0.427625 0.570101
0.155736 0.580674 0.576383
0.294085 0.576918 0.572935
0.437183 0.574592 0.570363
0.585362 0.575470 0.570759
0.734416 0.574716 0.569464
0.880550 0.574883 0.569046
0.952799 0.574998 0.568759
0.952799 0.574998 0.568759
0.952799 0.574998 0.568759
0.150492 0.724169 0.569715
0.292594 0.724328 0.569315
0.438288 0.724499 0.568888
0.585886 0.724678 0.568440
0.735905 0.724865 0.567975
0.894029 0.757519 0.614651
0.960639 0.759740 0.616408
0.960639 0.759740 0.616408
0.960639 0.759740 0.616408
0.151742 0.873152 0.568273
0.294065 0.873291 0.567801
0.439817 0.873433 0.567314
0.587512 0.873580 0.566815
0.737577 0.873730 0.566303
0.882945 0.873883 0.565780
0.957046 0.876746 0.572872
0.957046 0.876746 0.572872
0.957046 0.876746 0.572872
0.152662 0.945502 0.567211
0.295126 0.945650 0.566708
0.440906 0.945801 0.566194
0.588657 0.945955 0.565669
0.738745 0.946111 0.565135
0.883818 0.946271 0.564591
0.956122 0.946377 0.564228
0.956122 0.946377 0.564228
0.956122 0.946377 0.564228
0.152662 0.945502 0.567211
0.295126 0.945650 0.566708
0.440906 0.945801 0.566194
0.588657 0.945955 0.565669
0.738745 0.946111 0.565135
0.883818 0.946271 0.564591
0.956122 0.946377 0.564228
0.956122 0.946377 0.564228
0.956122 0.946377 0.564228
0.152662 0.945502 0.567211
0.295126 0.945650 0.566708
0.440906 0.945801 0.566194
0.588657 0.945955 0.565669
0.738745 0.946111 0.565135
0.883818 0.946271 0.564591
0.956122 0.946377 0.564228
0.956122 0.946377 0.564228
0.956122 0.946377 0.564228
0.229304 0.215176 0.796228
0.364469 0.205526 0.786704
0.500069 0.196313 0.777632
0.639544 0.187559 0.769033
0.780104 0.179366 0.760931
0.907542 0.172445 0.753356
0.975728 0.168164 0.748683
0.975728 0.168164 0.748683
0.975728 0.168164 0.748683
0.197050 0.329771 0.766024
0.333777 0.321684 0.758111
0.471032 0.314122 0.750736
0.611467 0.307124 0.743936
0.753980 0.300736 0.737760
0.889945 0.295023 0.732267
0.959248 0.291678 0.729070
0.959248 0.291678 0.729070
0.959248 0.291678 0.729070
0.171479 0.450005 0.741613
0.309130 0.443854 0.735677
0.448528 0.438407 0.730453
0.590778 0.433763 0.726033
0.736185 0.430087 0.722560
0.879850 0.427781 0.719956
0.951900 0.427670 0.719538
0.951900 0.427670 0.719538
0.951900 0.427670 0.719538
0.154408 0.579275 0.724650
0.293092 0.575919 0.721484
0.437125 0.574467 0.719639
0.584602 0.574612 0.719277
0.734554 0.574771 0.718878
0.880658 0.574942 0.718452
0.952911 0.575058 0.718160
0.952911 0.575058 0.718160
0.952911 0.575058 0.718160
0.150607 0.724221 0.719136
0.292732 0.724385 0.718726
0.438434 0.724559 0.718292
0.586042 0.724741 0.717837
0.736770 0.725649 0.718080
0.881811 0.725124 0.716880
0.954090 0.725255 0.716553
0.954090 0.725255 0.716553
0.954090 0.725255 0.716553
0.151879 0.873199 0.717667
0.294224 0.873339 0.717190
0.439981 0.873483 0.716699
0.587684 0.873631 0.716195
0.737753 0.873782 0.715680
0.883077 0.873936 0.715153
0.967880 0.892812 0.752337
0.967880 0.892812 0.752337
0.967880 0.892812 0.752337
0.152809 0.945552 0.716594
0.295294 0.945701 0.716088
0.441078 0.945853 0.715570
0.588838 0.946008 0.715042
0.738929 0.946165 0.714504
0.883954 0.946326 0.713957
0.956260 0.946433 0.713593
0.956260 0.946433 0.713593
0.956260 0.946433 0.713593
0.152809 0.945552 0.716594
0.295294 0.945701 0.716088
0.441078 0.945853 0.715570
0.588838 0.946008 0.715042
0.738929 0.946165 0.714504
0.883954 0.946326 0.713957
0.956260 0.946433 0.713593
0.956260 0.946433 0.713593
0.956260 0.946433 0.713593
0.152809 0.945552 0.716594
0.295294 0.945701 0.716088
0.441078 0.945853 0.715570
0.588838 0.946008 0.715042
0.738929 0.946165 0.714504
0.883954 0.946326 0.713957
0.956260 0.946433 0.713593
0.956260 0.946433 0.713593
0.956260 0.946433 0.713593
0.225821 0.211851 0.923165
0.361131 0.202347 0.916291
0.496885 0.193288 0.909755
0.636433 0.184695 0.903570
0.777168 0.176963 0.897758
0.905527 0.170205 0.892339
0.973810 0.166036 0.889007
0.973810 0.166036 0.889007
0.973810 0.166036 0.889007
0.194088 0.326968 0.901410
0.330991 0.319056 0.895738
0.468433 0.311680 0.890469
0.609002 0.304883 0.885634
0.751745 0.298717 0.881269
0.888498 0.293251 0.877424
0.957942 0.290088 0.875214
0.957942 0.290088 0.875214
0.957942 0.290088 0.875214
0.169412 0.447842 0.883988
0.307048 0.441921 0.879806
0.446712 0.436733 0.876166
0.589236 0.432395 0.873148
0.735141 0.429105 0.870814
0.879782 0.427628 0.869200
0.951990 0.427718 0.868968
0.951990 0.427718 0.868968
0.951990 0.427718 0.868968
0.153195 0.577999 0.872225
0.292361 0.575118 0.870090
0.437239 0.574514 0.869074
0.584734 0.574664 0.868698
0.734696 0.574828 0.868289
0.880768 0.575002 0.867856
0.953024 0.575120 0.867559
0.953024 0.575120 0.867559
0.953024 0.575120 0.867559
0.150725 0.724276 0.868553
0.292873 0.724443 0.868134
0.438582 0.724620 0.867692
0.586201 0.724804 0.867232
0.736230 0.724995 0.866755
0.881935 0.725191 0.866264
0.954215 0.725323 0.865935
0.954215 0.725323 0.865935
0.954215 0.725323 0.865935
0.152018 0.873246 0.867060
0.294384 0.873387 0.866578
0.440146 0.873532 0.866082
0.587858 0.873682 0.865574
0.737931 0.873834 0.865055
0.883637 0.874426 0.865115
0.955507 0.874093 0.864172
0.955507 0.874093 0.864172
0.955507 0.874093 0.864172
0.152957 0.945602 0.865977
0.295464 0.945752 0.865466
0.441251 0.945905 0.864945
0.589019 0.946061 0.864413
0.739114 0.946220 0.863872
0.884092 0.946381 0.863322
0.956399 0.946488 0.862957
0.956399 0.946488 0.862957
0.956399 0.946488 0.862957
0.152957 0.945602 0.865977
0.295464 0.945752 0.865466
0.441251 0.945905 0.864945
0.589019 0.946061 0.864413
0.739114 0.946220 0.863872
0.884092 0.946381 0.863322
0.956399 0.946488 0.862957
0.956399 0.946488 0.862957
0.956399 0.946488 0.862957
0.152957 0.945602 0.865977
0.295464 0.945752 0.865466
0.441251 0.945905 0.864945
0.589019 0.946061 0.864413
0.739114 0.946220 0.863872
0.884092 0.946381 0.863322
0.956399 0.946488 0.862957
0.956399 0.946488 0.862957
0.956399 0.946488 0.862957
0.223592 0.209681 0.972173
0.358988 0.200279 0.972589
0.494834 0.191325 0.973004
0.634422 0.182844 0.973419
0.775274 0.175414 0.968552
0.904231 0.168764 0.963225
0.972578 0.164671 0.959958
0.972578 0.164671 0.959958
0.972578 0.164671 0.959958
0.192175 0.325158 0.972150
0.329194 0.317363 0.966565
0.466763 0.310112 0.961391
0.607423 0.303451 0.956657
0.750323 0.297434 0.952403
0.887585 0.292136 0.948683
0.957128 0.289099 0.946564
0.957128 0.289099 0.946564
0.957128 0.289099 0.946564
0.168092 0.446462 0.955050
0.305726 0.440697 0.950984
0.445573 0.435686 0.947474
0.588294 0.431561 0.944609
0.734610 0.428561 0.942390
0.879838 0.427657 0.941396
0.952051 0.427750 0.941221
0.952051 0.427750 0.941221
0.952051 0.427750 0.941221
0.152468 0.577234 0.943749
0.292014 0.574723 0.941775
0.437317 0.574546 0.941301
0.584823 0.574700 0.941019
0.734791 0.574866 0.940715
0.880841 0.575041 0.940393
0.953099 0.575161 0.940174
0.953099 0.575161 0.940174
0.953099 0.575161 0.940174
0.150804 0.724312 0.940911
0.292967 0.724482 0.940599
0.438680 0.724660 0.940272
0.586306 0.724846 0.939932
0.736339 0.725038 0.939580
0.882016 0.725236 0.939218
0.954298 0.725368 0.938975
0.954298 0.725368 0.938975
0.954298 0.725368 0.938975
0.152110 0.873277 0.939805
0.294490 0.873419 0.939449
0.440255 0.873565 0.939083
0.587973 0.873715 0.938709
0.738048 0.873868 0.938326
0.883297 0.874024 0.937936
0.955596 0.874128 0.937677
0.955596 0.874128 0.937677
0.955596 0.874128 0.937677
0.153055 0.945635 0.939006
0.295576 0.945786 0.938629
0.441365 0.945939 0.938245
0.589139 0.946096 0.937854
0.739235 0.946255 0.937456
0.884183 0.946417 0.937051
0.956875 0.946917 0.937170
0.956875 0.946917 0.937170
0.956875 0.946917 0.937170
0.153055 0.945635 0.939006
0.295576 0.945786 0.938629
0.441365 0.945939 0.938245
0.589139 0.946096 0.937854
0.739235 0.946255 0.937456
0.884183 0.946417 0.937051
0.956875 0.946917 0.937170
0.956875 0.946917 0.937170
0.956875 0.946917 0.937170
0.153055 0.945635 0.939006
0.295576 0.945786 0.938629
0.441365 0.945939 0.938245
0.589139 0.946096 0.937854
0.739235 0.946255 0.937456
0.884183 0.946417 0.937051
0.956875 0.946917 0.937170
0.956875 0.946917 0.937170
0.956875 0.946917 0.937170
0.223592 0.209681 0.972173
0.358988 0.200279 0.972589
0.494834 0.191325 0.973004
0.634422 0.182844 0.973419
0.775274 0.175414 0.968552
0.904231 0.168764 0.963225
0.972578 0.164671 0.959958
0.972578 0.164671 0.959958
0.972578 0.164671 0.959958
0.192175 0.325158 0.972150
0.329194 0.317363 0.966565
0.466763 0.310112 0.961391
0.607423 0.303451 0.956657
0.750323 0.297434 0.952403
0.887585 0.292136 0.948683
0.957128 0.289099 0.946564
0.957128 0.289099 0.946564
0.957128 0.289099 0.946564
0.168092 0.446462 0.955050
0.305726 0.440697 0.950984
0.445573 0.435686 0.947474
0.588294 0.431561 0.944609
0.734610 0.428561 0.942390
0.879838 0.427657 0.941396
0.952051 0.427750 0.941221
0.952051 0.427750 0.941221
0.952051 0.427750 0.941221
0.152468 0.577234 0.943749
0.292014 0.574723 0.941775
0.437317 0.574546 0.941301
0.584823 0.574700 0.941019
0.734791 0.574866 0.940715
0.880841 0.575041 0.940393
0.953099 0.575161 0.940174
0.953099 0.575161 0.940174
0.953099 0.575161 0.940174
0.150804 0.724312 0.940911
0.292967 0.724482 0.940599
0.438680 0.724660 0.940272
0.586306 0.724846 0.939932
0.736339 0.725038 0.939580
0.882016 0.725236 0.939218
0.954298 0.725368 0.938975
0.954298 0.725368 0.938975
0.954298 0.725368 0.938975
0.152110 0.873277 0.939805
0.294490 0.873419 0.939449
0.440255 0.873565 0.939083
0.587973 0.873715 0.938709
0.738048 0.873868 0.938326
0.883297 0.874024 0.937936
0.955596 0.874128 0.937677
0.955596 0.874128 0.937677
0.955596 0.874128 0.937677
0.153055 0.945635 0.939006
0.295576 0.945786 0.938629
0.441365 0.945939 0.938245
0.589139 0.946096 0.937854
0.739235 0.946255 0.937456
0.884183 0.946417 0.937051
0.956875 0.946917 0.937170
0.956875 0.946917 0.937170
0.956875 0.946917 0.937170
0.153055 0.945635 0.939006
0.295576 0.945786 0.938629
0.441365 0.945939 0.938245
0.589139 0.946096 0.937854
0.739235 0.946255 0.937456
0.884183 0.946417 0.937051
0.956875 0.946917 0.937170
0.956875 0.946917 0.937170
0.956875 0.946917 0.937170
0.153055 0.945635 0.939006
0.295576 0.945786 0.938629
0.441365 0.945939 0.938245
0.589139 0.946096 0.937854
0.739235 0.946255 0.937456
0.884183 0.946417 0.937051
0.956875 0.946917 0.937170
0.956875 0.946917 0.937170
0.956875 0.946917 0.937170
0.223592 0.209681 0.972173
0.358988 0.200279 0.972589
0.494834 0.191325 0.973004
0.634422 0.182844 0.973419
0.775274 0.175414 0.968552
0.904231 0.168764 0.963225
0.972578 0.164671 0.959958
0.972578 0.164671 0.959958
0.972578 0.164671 0.959958
0.192175 0.325158 0.972150
0.329194 0.317363 0.966565
0.466763 0.310112 0.961391
0.607423 0.303451 0.956657
0.750323 0.297434 0.952403
0.887585 0.292136 0.948683
0.957128 0.289099 0.946564
0.957128 0.289099 0.946564
0.957128 0.289099 0.946564
0.168092 0.446462 0.955050
0.305726 0.440697 0.950984
0.445573 0.435686 0.947474
0.588294 0.431561 0.944609
0.734610 0.428561 0.942390
0.879838 0.427657 0.941396
0.952051 0.427750 0.941221
0.952051 0.427750 0.941221
0.952051 0.427750 0.941221
0.152468 0.577234 0.943749
0.292014 0.574723 0.941775
0.437317 0.574546 0.941301
0.584823 0.574700 0.941019
0.734791 0.574866 0.940715
0.880841 0.575041 0.940393
0.953099 0.575161 0.940174
0.953099 0.575161 0.940174
0.953099 0.575161 0.940174
0.150804 0.724312 0.940911
0.292967 0.724482 0.940599
0.438680 0.724660 0.940272
0.586306 0.724846 0.939932
0.736339 0.725038 0.939580
0.882016 0.725236 0.939218
0.954298 0.725368 0.938975
0.954298 0.725368 0.938975
0.954298 0.725368 0.938975
0.152110 0.873277 0.939805
0.294490 0.873419 0.939449
0.440255 0.873565 0.939083
0.587973 0.873715 0.938709
0.738048 0.873868 0.938326
0.883297 0.874024 0.937936
0.955596 0.874128 0.937677
0.955596 0.874128 0.937677
0.955596 0.874128 0.937677
0.153055 0.945635 0.939006
0.295576 0.945786 0.938629
0.441365 0.945939 0.938245
0.589139 0.946096 0.937854
0.739235 0.946255 0.937456
0.884183 0.946417 0.937051
0.956875 0.946917 0.937170
0.956875 0.946917 0.937170
0.956875 0.946917 0.937170
0.153055 0.945635 0.939006
0.295576 0.945786 0.938629
0.441365 0.945939 0.938245
0.589139 0.946096 0.937854
0.739235 0.946255 0.937456
0.884183 0.946417 0.937051
0.956875 0.946917 0.937170
0.956875 0.946917 0.937170
0.956875 0.946917 0.937170
0.153055 0.945635 0.939006
0.295576 0.945786 0.938629
0.441365 0.945939 0.938245
0.589139 0.946096 0.937854
0.739235 0.946255 0.937456
0.884183 0.946417 0.937051
0.956875 0.946917 0.937170
0.956875 0.946917 0.937170
0.956875 0.946917 0.937170
