Fotico/Resources/LUTs/fuji_400h.cube
# Fuji 400H
LUT_3D_SIZE 9
0.023802 0.070206 0.057632
0.112111 0.072434 0.061643
0.210218 0.074910 0.066099
0.314175 0.077533 0.070821
0.422419 0.080264 0.075737
0.534081 0.083082 0.080809
0.648603 0.085972 0.086011
0.765593 0.088924 0.091324
0.836727 0.090719 0.094555
0.038821 0.172210 0.071148
0.127129 0.174439 0.075159
0.225236 0.176914 0.079615
0.329193 0.179537 0.084337
0.437437 0.182269 0.089254
0.549099 0.185087 0.094326
0.663622 0.187976 0.099527
0.780611 0.190928 0.104841
0.851746 0.192723 0.108072
0.055695 0.286821 0.086335
0.144004 0.289050 0.090346
0.242111 0.291525 0.094802
0.346068 0.294148 0.099524
0.454312 0.296880 0.104441
0.565974 0.299698 0.109513
0.680496 0.302587 0.114714
0.797486 0.305539 0.120028
0.868620 0.307334 0.123259
0.073730 0.409315 0.102567
0.162039 0.411543 0.106578
0.260146 0.414019 0.111034
0.364103 0.416642 0.115756
0.472347 0.419374 0.120672
0.584009 0.422191 0.125744
0.698531 0.425081 0.130946
0.815521 0.428033 0.136260
0.886655 0.429828 0.139491
0.092633 0.537699 0.119579
0.180941 0.539927 0.123590
0.279048 0.542403 0.128046
0.383005 0.545026 0.132768
0.491249 0.547757 0.137685
0.602911 0.550575 0.142756
0.718798 0.555170 0.149322
0.837913 0.560779 0.156762
0.911174 0.565232 0.162119
0.112235 0.670838 0.137221
0.200544 0.673066 0.141232
0.298663 0.675556 0.145700
0.404746 0.680837 0.152548
0.515116 0.686226 0.159591
0.628904 0.691701 0.166789
0.745552 0.697249 0.174116
0.864668 0.702858 0.181556
0.937928 0.707311 0.186913
0.135340 0.811629 0.158307
0.225775 0.816515 0.164444
0.326008 0.821648 0.171026
0.432091 0.826928 0.177874
0.542461 0.832317 0.184917
0.656249 0.837792 0.192114
0.772897 0.843340 0.199442
0.892013 0.848949 0.206882
0.965273 0.853402 0.212239
0.163199 0.961205 0.184095
0.253633 0.966091 0.190232
0.353866 0.971224 0.196814
0.459949 0.976505 0.203662
0.570319 0.981894 0.210704
0.684107 0.987369 0.217902
0.800756 0.992916 0.225230
0.919871 0.998526 0.232670
0.993132 1.000000 0.238027
0.178121 1.000000 0.198240
0.268556 1.000000 0.204377
0.368789 1.000000 0.210959
0.474872 1.000000 0.217807
0.585242 1.000000 0.224850
0.699030 1.000000 0.232048
0.815678 1.000000 0.239375
0.934794 1.000000 0.246815
1.000000 1.000000 0.252172
0.025350 0.070980 0.146934
0.113659 0.073208 0.150945
0.211766 0.075684 0.155401
0.315723 0.078307 0.160123
0.423967 0.081038 0.165040
0.535629 0.083856 0.170111
0.650151 0.086746 0.175313
0.767141 0.089698 0.180627
0.838275 0.091493 0.183858
0.040369 0.172984 0.160451
0.128677 0.175213 0.164462
0.226784 0.177688 0.168918
0.330741 0.180312 0.173640
0.438985 0.183043 0.178556
0.550647 0.185861 0.183628
0.665170 0.188750 0.188830
0.782160 0.191703 0.194144
0.853294 0.193497 0.197375
0.057243 0.287595 0.175638
0.145552 0.289824 0.179649
0.243659 0.292299 0.184105
0.347616 0.294922 0.188827
0.455860 0.297654 0.193743
0.567522 0.300472 0.198815
0.682044 0.303361 0.204017
0.799034 0.306313 0.209331
0.870168 0.308108 0.212562
0.075278 0.410089 0.191869
0.163587 0.412317 0.195880
0.261694 0.414793 0.200337
0.365651 0.417416 0.205058
0.473895 0.420148 0.209975
0.585557 0.422965 0.215047
0.700079 0.425855 0.220248
0.817069 0.428807 0.225562
0.888203 0.430602 0.228793
0.094181 0.538473 0.208882
0.182489 0.540701 0.212893
0.280596 0.543177 0.217349
0.384553 0.545800 0.222071
0.492797 0.548531 0.226987
0.604460 0.551349 0.232059
0.721068 0.556846 0.239347
0.840184 0.562456 0.246786
0.913444 0.566909 0.252143
0.113783 0.671612 0.226524
0.202092 0.673840 0.230535
0.300933 0.677233 0.235725
0.407016 0.682514 0.242573
0.517386 0.687903 0.249615
0.631174 0.693378 0.256813
0.747822 0.698925 0.264141
0.866938 0.704535 0.271581
0.940198 0.708987 0.276938
0.137610 0.813305 0.248332
0.228045 0.818191 0.254469
0.328278 0.823324 0.261051
0.434361 0.828605 0.267899
0.544731 0.833994 0.274941
0.658519 0.839469 0.282139
0.775167 0.845016 0.289467
0.894283 0.850626 0.296906
0.967543 0.855078 0.302263
0.165469 0.962882 0.274119
0.255903 0.967768 0.280256
0.356136 0.972901 0.286839
0.462219 0.978181 0.293686
0.572589 0.983570 0.300729
0.686378 0.989045 0.307927
0.803026 0.994593 0.315254
0.922142 1.000000 0.322694
0.995402 1.000000 0.328051
0.180391 1.000000 0.288265
0.270826 1.000000 0.294402
0.371059 1.000000 0.300984
0.477142 1.000000 0.307832
0.587512 1.000000 0.314874
0.701300 1.000000 0.322072
0.817948 1.000000 0.329400
0.937064 1.000000 0.336840
1.000000 1.000000 0.342197
0.027037 0.071823 0.244243
0.115346 0.074052 0.248254
0.213453 0.076527 0.252710
0.317410 0.079150 0.257432
0.425654 0.081882 0.262348
0.537316 0.084700 0.267420
0.651838 0.087589 0.272622
0.768828 0.090541 0.277936
0.839962 0.092336 0.281167
0.042055 0.173828 0.257760
0.130364 0.176056 0.261771
0.228471 0.178532 0.266227
0.332428 0.181155 0.270948
0.440672 0.183886 0.275865
0.552334 0.186704 0.280937
0.666857 0.189594 0.286139
0.783846 0.192546 0.291452
0.854981 0.194341 0.294683
0.058930 0.288439 0.272947
0.147239 0.290667 0.276958
0.245346 0.293143 0.281414
0.349303 0.295766 0.286136
0.457546 0.298497 0.291052
0.569209 0.301315 0.296124
0.683731 0.304205 0.301326
0.800721 0.307157 0.306639
0.871855 0.308952 0.309870
0.076965 0.410932 0.289178
0.165274 0.413161 0.293189
0.263381 0.415636 0.297645
0.367338 0.418260 0.302367
0.475582 0.420991 0.307284
0.587244 0.423809 0.312356
0.701766 0.426699 0.317557
0.818756 0.429651 0.322871
0.889890 0.431446 0.326102
0.095867 0.539316 0.306190
0.184176 0.541545 0.310201
0.282283 0.544020 0.314658
0.386240 0.546643 0.319379
0.494484 0.549375 0.324296
0.606828 0.553045 0.330050
0.723477 0.558592 0.337377
0.842592 0.564202 0.344817
0.915853 0.568654 0.350174
0.115470 0.672455 0.323833
0.203779 0.674683 0.327844
0.303342 0.678979 0.333756
0.409425 0.684260 0.340604
0.519794 0.689649 0.347646
0.633583 0.695124 0.354844
0.750231 0.700671 0.362172
0.869347 0.706281 0.369611
0.942607 0.710733 0.374968
0.140019 0.815051 0.346362
0.230454 0.819937 0.352499
0.330687 0.825070 0.359082
0.436770 0.830351 0.365929
0.547140 0.835740 0.372972
0.660928 0.841215 0.380170
0.777576 0.846762 0.387497
0.896692 0.852372 0.394937
0.969952 0.856824 0.400294
0.167877 0.964628 0.372150
0.258312 0.969513 0.378287
0.358545 0.974647 0.384869
0.464628 0.979927 0.391717
0.574998 0.985316 0.398760
0.688786 0.990791 0.405957
0.805435 0.996339 0.413285
0.924550 1.000000 0.420725
0.997811 1.000000 0.426082
0.182800 1.000000 0.386296
0.273235 1.000000 0.392433
0.373468 1.000000 0.399015
0.479551 1.000000 0.405863
0.589920 1.000000 0.412905
0.703709 1.000000 0.420103
0.820357 1.000000 0.427431
0.939473 1.000000 0.434870
1.000000 1.000000 0.440227
0.028805 0.072707 0.346256
0.117114 0.074936 0.350267
0.215221 0.077411 0.354723
0.319178 0.080035 0.359445
0.427422 0.082766 0.364362
0.539084 0.085584 0.369434
0.653607 0.088474 0.374635
0.770596 0.091426 0.379949
0.841731 0.093221 0.383180
0.043824 0.174712 0.359773
0.132133 0.176940 0.363784
0.230239 0.179416 0.368240
0.334197 0.182039 0.372962
0.442440 0.184771 0.377878
0.554103 0.187588 0.382950
0.668625 0.190478 0.388152
0.785615 0.193430 0.393466
0.856749 0.195225 0.396697
0.060698 0.289323 0.374960
0.149007 0.291551 0.378971
0.247114 0.294027 0.383427
0.351071 0.296650 0.388149
0.459315 0.299381 0.393065
0.570977 0.302199 0.398137
0.685500 0.305089 0.403339
0.802489 0.308041 0.408653
0.873624 0.309836 0.411884
0.078734 0.411817 0.391192
0.167042 0.414045 0.395203
0.265149 0.416521 0.399659
0.369106 0.419144 0.404381
0.477350 0.421875 0.409297
0.589012 0.424693 0.414369
0.703535 0.427583 0.419571
0.820524 0.430535 0.424884
0.892289 0.433117 0.428745
0.097636 0.540200 0.408204
0.185945 0.542429 0.412215
0.284051 0.544904 0.416671
0.388009 0.547528 0.421393
0.496252 0.550259 0.426309
0.609319 0.554832 0.432785
0.725967 0.560379 0.440113
0.845083 0.565989 0.447552
0.918343 0.570441 0.452909
0.117238 0.673339 0.425846
0.205599 0.675633 0.429909
0.305832 0.680766 0.436491
0.411915 0.686046 0.443339
0.522285 0.691435 0.450381
0.636073 0.696910 0.457579
0.752721 0.702458 0.464907
0.871837 0.708067 0.472347
0.945097 0.712520 0.477704
0.142510 0.816838 0.449098
0.232944 0.821724 0.455235
0.333177 0.826857 0.461817
0.439260 0.832138 0.468665
0.549630 0.837526 0.475707
0.663418 0.843002 0.482905
0.780067 0.848549 0.490233
0.899182 0.854159 0.497673
0.972443 0.858611 0.503030
0.170368 0.966414 0.474885
0.260803 0.971300 0.481023
0.361035 0.976433 0.487605
0.467119 0.981714 0.494452
0.577488 0.987103 0.501495
0.691277 0.992578 0.508693
0.807925 0.998125 0.516020
0.927041 1.000000 0.523460
1.000000 1.000000 0.528817
0.185290 1.000000 0.489031
0.275725 1.000000 0.495168
0.375958 1.000000 0.501750
0.482041 1.000000 0.508598
0.592411 1.000000 0.515640
0.706199 1.000000 0.522838
0.822848 1.000000 0.530166
0.941963 1.000000 0.537606
1.000000 1.000000 0.542963
0.030633 0.073621 0.451685
0.118942 0.075850 0.455696
0.217049 0.078325 0.460152
0.321006 0.080948 0.464874
0.429250 0.083680 0.469790
0.540912 0.086498 0.474862
0.655434 0.089387 0.480064
0.772424 0.092339 0.485378
0.843558 0.094134 0.488609
0.045651 0.175626 0.465201
0.133960 0.177854 0.469212
0.232067 0.180330 0.473669
0.336024 0.182953 0.478390
0.444268 0.185684 0.483307
0.555930 0.188502 0.488379
0.670453 0.191392 0.493580
0.787442 0.194344 0.498894
0.858577 0.196139 0.502125
0.062526 0.290237 0.480388
0.150835 0.292465 0.484400
0.248942 0.294941 0.488856
0.352899 0.297564 0.493577
0.461143 0.300295 0.498494
0.572805 0.303113 0.503566
0.687327 0.306003 0.508767
0.804317 0.308955 0.514081
0.875451 0.310750 0.517312
0.080561 0.412730 0.496620
0.168870 0.414959 0.500631
0.266977 0.417434 0.505087
0.370934 0.420058 0.509809
0.479178 0.422789 0.514726
0.590840 0.425607 0.519797
0.705362 0.428497 0.524999
0.822352 0.431449 0.530313
0.894838 0.434934 0.534896
0.099463 0.541114 0.513632
0.187772 0.543343 0.517643
0.285879 0.545818 0.522099
0.389836 0.548441 0.526821
0.498080 0.551173 0.531738
0.611868 0.556648 0.538936
0.728517 0.562195 0.546263
0.847632 0.567805 0.553703
0.920893 0.572257 0.559060
0.119066 0.674253 0.531274
0.208149 0.677449 0.536059
0.308382 0.682582 0.542642
0.414465 0.687863 0.549489
0.524834 0.693252 0.556532
0.638623 0.698727 0.563730
0.755271 0.704274 0.571057
0.874387 0.709884 0.578497
0.947647 0.714336 0.583854
0.145059 0.818654 0.555248
0.235494 0.823540 0.561385
0.335727 0.828673 0.567967
0.441810 0.833954 0.574815
0.552180 0.839343 0.581858
0.665968 0.844818 0.589056
0.782616 0.850365 0.596383
0.901732 0.855975 0.603823
0.974992 0.860427 0.609180
0.172917 0.968231 0.581036
0.263352 0.973116 0.587173
0.363585 0.978250 0.593755
0.469668 0.983530 0.600603
0.580038 0.988919 0.607646
0.693826 0.994394 0.614843
0.810475 0.999942 0.622171
0.929590 1.000000 0.629611
1.000000 1.000000 0.634968
0.187840 1.000000 0.595181
0.278275 1.000000 0.601319
0.378508 1.000000 0.607901
0.484591 1.000000 0.614748
0.594961 1.000000 0.621791
0.708749 1.000000 0.628989
0.825397 1.000000 0.636316
0.944513 1.000000 0.643756
1.000000 1.000000 0.649113
0.032507 0.074558 0.559819
0.120816 0.076787 0.563830
0.218923 0.079262 0.568286
0.322880 0.081886 0.573008
0.431124 0.084617 0.577924
0.542786 0.087435 0.582996
0.657309 0.090325 0.588198
0.774298 0.093277 0.593512
0.845433 0.095072 0.596743
0.047526 0.176563 0.573336
0.135835 0.178791 0.577347
0.233942 0.181267 0.581803
0.337899 0.183890 0.586525
0.446142 0.186622 0.591441
0.557805 0.189439 0.596513
0.672327 0.192329 0.601715
0.789317 0.195281 0.607028
0.860451 0.197076 0.610259
0.064400 0.291174 0.588523
0.152709 0.293402 0.592534
0.250816 0.295878 0.596990
0.354773 0.298501 0.601712
0.463017 0.301233 0.606628
0.574679 0.304050 0.611700
0.689202 0.306940 0.616902
0.806191 0.309892 0.622215
0.877326 0.311687 0.625446
0.082436 0.413668 0.604754
0.170744 0.415896 0.608765
0.268851 0.418372 0.613221
0.372808 0.420995 0.617943
0.481052 0.423726 0.622860
0.592715 0.426544 0.627932
0.707237 0.429434 0.633133
0.824227 0.432386 0.638447
0.897435 0.436773 0.643752
0.101338 0.542051 0.621766
0.189647 0.544280 0.625777
0.287754 0.546755 0.630234
0.391711 0.549379 0.634955
0.500677 0.553013 0.640594
0.614465 0.558488 0.647792
0.731113 0.564035 0.655119
0.850229 0.569645 0.662559
0.923489 0.574097 0.667916
0.120940 0.675190 0.639409
0.210745 0.679289 0.644916
0.310978 0.684422 0.651498
0.417061 0.689702 0.658346
0.527431 0.695091 0.665388
0.641219 0.700567 0.672586
0.757868 0.706114 0.679914
0.876983 0.711723 0.687353
0.950244 0.716176 0.692710
0.147656 0.820494 0.664104
0.238090 0.825380 0.670242
0.338323 0.830513 0.676824
0.444406 0.835794 0.683671
0.554776 0.841182 0.690714
0.668565 0.846658 0.697912
0.785213 0.852205 0.705239
0.904329 0.857815 0.712679
0.977589 0.862267 0.718036
0.175514 0.970070 0.689892
0.265949 0.974956 0.696029
0.366182 0.980089 0.702611
0.472265 0.985370 0.709459
0.582635 0.990759 0.716502
0.696423 0.996234 0.723699
0.813071 1.000000 0.731027
0.932187 1.000000 0.738467
1.000000 1.000000 0.743824
0.190436 1.000000 0.704038
0.280871 1.000000 0.710175
0.381104 1.000000 0.716757
0.487187 1.000000 0.723605
0.597557 1.000000 0.730647
0.711345 1.000000 0.737845
0.827994 1.000000 0.745173
0.947109 1.000000 0.752612
1.000000 1.000000 0.757969
0.034421 0.075515 0.670205
0.122730 0.077744 0.674216
0.220837 0.080219 0.678672
0.324794 0.082842 0.683394
0.433038 0.085574 0.688310
0.544700 0.088392 0.693382
0.659222 0.091281 0.698584
0.776212 0.094233 0.703897
0.847346 0.096028 0.707128
0.049439 0.177520 0.683721
0.137748 0.179748 0.687732
0.235855 0.182224 0.692188
0.339812 0.184847 0.696910
0.448056 0.187578 0.701827
0.559718 0.190396 0.706898
0.674241 0.193286 0.712100
0.791230 0.196238 0.717414
0.862365 0.198033 0.720645
0.066314 0.292131 0.698908
0.154623 0.294359 0.702919
0.252730 0.296835 0.707375
0.356687 0.299458 0.712097
0.464931 0.302189 0.717014
0.576593 0.305007 0.722086
0.691115 0.307897 0.727287
0.808105 0.310849 0.732601
0.879239 0.312644 0.735832
0.084349 0.414624 0.715140
0.172658 0.416853 0.719151
0.270765 0.419328 0.723607
0.374722 0.421952 0.728329
0.482966 0.424683 0.733245
0.594628 0.427501 0.738317
0.709150 0.430391 0.743519
0.826810 0.434180 0.749503
0.900070 0.438633 0.754860
0.103252 0.543008 0.732152
0.191560 0.545237 0.736163
0.289667 0.547712 0.740619
0.393624 0.550335 0.745341
0.503312 0.554872 0.751701
0.617100 0.560347 0.758899
0.733749 0.565894 0.766227
0.852864 0.571504 0.773667
0.926125 0.575956 0.779024
0.122946 0.676262 0.749886
0.213381 0.681148 0.756023
0.313614 0.686281 0.762605
0.419697 0.691562 0.769453
0.530066 0.696951 0.776496
0.643855 0.702426 0.783693
0.760503 0.707973 0.791021
0.879619 0.713583 0.798461
0.952879 0.718035 0.803818
0.150291 0.822353 0.775212
0.240726 0.827239 0.781349
0.340959 0.832372 0.787931
0.447042 0.837653 0.794779
0.557412 0.843042 0.801822
0.671200 0.848517 0.809019
0.787848 0.854064 0.816347
0.906964 0.859674 0.823787
0.980224 0.864126 0.829144
0.178150 0.971930 0.801000
0.268584 0.976815 0.807137
0.368817 0.981949 0.813719
0.474900 0.987229 0.820567
0.585270 0.992618 0.827609
0.699058 0.998093 0.834807
0.815707 1.000000 0.842135
0.934822 1.000000 0.849575
1.000000 1.000000 0.854932
0.193072 1.000000 0.815145
0.283507 1.000000 0.821282
0.383740 1.000000 0.827864
0.489823 1.000000 0.834712
0.600193 1.000000 0.841755
0.713981 1.000000 0.848953
0.830629 1.000000 0.856280
0.949745 1.000000 0.863720
1.000000 1.000000 0.869077
0.036368 0.076489 0.782524
0.124677 0.078717 0.786535
0.222784 0.081193 0.790992
0.326741 0.083816 0.795713
0.434985 0.086547 0.800630
0.546647 0.089365 0.805702
0.661169 0.092255 0.810903
0.778159 0.095207 0.816217
0.849293 0.097002 0.819448
0.051387 0.178493 0.796041
0.139695 0.180722 0.800052
0.237802 0.183197 0.804508
0.341759 0.185820 0.809230
0.450003 0.188552 0.814147
0.561665 0.191370 0.819218
0.676188 0.194259 0.824420
0.793177 0.197211 0.829734
0.864312 0.199006 0.832965
0.068261 0.293104 0.811228
0.156570 0.295333 0.815239
0.254677 0.297808 0.819695
0.358634 0.300431 0.824417
0.466878 0.303163 0.829334
0.578540 0.305981 0.834405
0.693062 0.308870 0.839607
0.810052 0.311822 0.844921
0.881186 0.313617 0.848152
0.086296 0.415598 0.827460
0.174605 0.417826 0.831471
0.272712 0.420302 0.835927
0.376669 0.422925 0.840649
0.484913 0.425657 0.845565
0.596575 0.428474 0.850637
0.711097 0.431364 0.855839
0.829479 0.436056 0.862545
0.902739 0.440509 0.867901
0.105199 0.543982 0.844472
0.193507 0.546210 0.848483
0.291614 0.548686 0.852939
0.395611 0.551359 0.857701
0.505981 0.556748 0.864743
0.619769 0.562223 0.871941
0.736418 0.567770 0.879269
0.855534 0.573380 0.886709
0.928794 0.577833 0.892066
0.125615 0.678138 0.862928
0.216050 0.683024 0.869065
0.316283 0.688157 0.875647
0.422366 0.693438 0.882495
0.532736 0.698827 0.889538
0.646524 0.704302 0.896735
0.763172 0.709849 0.904063
0.882288 0.715459 0.911503
0.955548 0.719911 0.916860
0.152960 0.824229 0.888254
0.243395 0.829115 0.894391
0.343628 0.834248 0.900973
0.449711 0.839529 0.907821
0.560081 0.844918 0.914863
0.673869 0.850393 0.922061
0.790517 0.855940 0.929389
0.909633 0.861550 0.936829
0.982893 0.866002 0.942186
0.180819 0.973806 0.914042
0.271253 0.978692 0.920179
0.371486 0.983825 0.926761
0.477569 0.989105 0.933609
0.587939 0.994494 0.940651
0.701728 0.999969 0.947849
0.818376 1.000000 0.955177
0.937492 1.000000 0.962616
1.000000 1.000000 0.967973
0.195741 1.000000 0.928187
0.286176 1.000000 0.934324
0.386409 1.000000 0.940906
0.492492 1.000000 0.947754
0.602862 1.000000 0.954797
0.716650 1.000000 0.961994
0.833298 1.000000 0.969322
0.952414 1.000000 0.976762
1.000000 1.000000 0.982119
0.037701 0.077155 0.859440
0.126010 0.079384 0.863451
0.224117 0.081859 0.867907
0.328074 0.084483 0.872629
0.436318 0.087214 0.877546
0.547980 0.090032 0.882617
0.662503 0.092922 0.887819
0.779492 0.095874 0.893133
0.850627 0.097669 0.896364
0.052720 0.179160 0.872957
0.141029 0.181388 0.876968
0.239135 0.183864 0.881424
0.343093 0.186487 0.886146
0.451336 0.189219 0.891062
0.562999 0.192036 0.896134
0.677521 0.194926 0.901336
0.794511 0.197878 0.906650
0.865645 0.199673 0.909881
0.069594 0.293771 0.888144
0.157903 0.295999 0.892155
0.256010 0.298475 0.896611
0.359967 0.301098 0.901333
0.468211 0.303830 0.906249
0.579873 0.306647 0.911321
0.694396 0.309537 0.916523
0.811385 0.312489 0.921837
0.882520 0.314284 0.925068
0.087630 0.416265 0.904375
0.175938 0.418493 0.908387
0.274045 0.420969 0.912843
0.378002 0.423592 0.917564
0.486246 0.426323 0.922481
0.597908 0.429141 0.927553
0.712431 0.432031 0.932755
0.831534 0.437625 0.940182
0.904795 0.442078 0.945539
0.106532 0.544648 0.921388
0.194841 0.546877 0.925399
0.292948 0.549352 0.929855
0.397667 0.552928 0.935339
0.508036 0.558317 0.942381
0.621825 0.563792 0.949579
0.738473 0.569340 0.956907
0.857589 0.574949 0.964346
0.930849 0.579402 0.969703
0.127670 0.679707 0.940566
0.218105 0.684593 0.946703
0.318338 0.689726 0.953285
0.424421 0.695007 0.960133
0.534791 0.700396 0.967175
0.648579 0.705871 0.974373
0.765228 0.711418 0.981701
0.884343 0.717028 0.989141
0.957604 0.721480 0.994498
0.155016 0.825798 0.965892
0.245450 0.830684 0.972029
0.345683 0.835817 0.978611
0.451766 0.841098 0.985459
0.562136 0.846487 0.992501
0.675924 0.851962 0.999699
0.792573 0.857509 1.000000
0.911689 0.863119 1.000000
0.984949 0.867572 1.000000
0.182874 0.975375 0.991679
0.273309 0.980261 0.997816
0.373542 0.985394 1.000000
0.479625 0.990675 1.000000
0.589994 0.996063 1.000000
0.703783 1.000000 1.000000
0.820431 1.000000 1.000000
0.939547 1.000000 1.000000
1.000000 1.000000 1.000000
0.197796 1.000000 1.000000
0.288231 1.000000 1.000000
0.388464 1.000000 1.000000
0.494547 1.000000 1.000000
0.604917 1.000000 1.000000
0.718705 1.000000 1.000000
0.835354 1.000000 1.000000
0.954469 1.000000 1.000000
1.000000 1.000000 1.000000
