Fotico/Resources/LUTs/fuji_400h.cube
# Fuji 400H
LUT_3D_SIZE 5
0.023802 0.070206 0.057632
0.210218 0.074910 0.066099
0.422419 0.080264 0.075737
0.648603 0.085972 0.086011
0.836727 0.090719 0.094555
0.055695 0.286821 0.086335
0.242111 0.291525 0.094802
0.454312 0.296880 0.104441
0.680496 0.302587 0.114714
0.868620 0.307334 0.123259
0.092633 0.537699 0.119579
0.279048 0.542403 0.128046
0.491249 0.547757 0.137685
0.718798 0.555170 0.149322
0.911174 0.565232 0.162119
0.135340 0.811629 0.158307
0.326008 0.821648 0.171026
0.542461 0.832317 0.184917
0.772897 0.843340 0.199442
0.965273 0.853402 0.212239
0.178121 1.000000 0.198240
0.368789 1.000000 0.210959
0.585242 1.000000 0.224850
0.815678 1.000000 0.239375
1.000000 1.000000 0.252172
0.027037 0.071823 0.244243
0.213453 0.076527 0.252710
0.425654 0.081882 0.262348
0.651838 0.087589 0.272622
0.839962 0.092336 0.281167
0.058930 0.288439 0.272947
0.245346 0.293143 0.281414
0.457546 0.298497 0.291052
0.683731 0.304205 0.301326
0.871855 0.308952 0.309870
0.095867 0.539316 0.306190
0.282283 0.544020 0.314658
0.494484 0.549375 0.324296
0.723477 0.558592 0.337377
0.915853 0.568654 0.350174
0.140019 0.815051 0.346362
0.330687 0.825070 0.359082
0.547140 0.835740 0.372972
0.777576 0.846762 0.387497
0.969952 0.856824 0.400294
0.182800 1.000000 0.386296
0.373468 1.000000 0.399015
0.589920 1.000000 0.412905
0.820357 1.000000 0.427431
1.000000 1.000000 0.440227
0.030633 0.073621 0.451685
0.217049 0.078325 0.460152
0.429250 0.083680 0.469790
0.655434 0.089387 0.480064
0.843558 0.094134 0.488609
0.062526 0.290237 0.480388
0.248942 0.294941 0.488856
0.461143 0.300295 0.498494
0.687327 0.306003 0.508767
0.875451 0.310750 0.517312
0.099463 0.541114 0.513632
0.285879 0.545818 0.522099
0.498080 0.551173 0.531738
0.728517 0.562195 0.546263
0.920893 0.572257 0.559060
0.145059 0.818654 0.555248
0.335727 0.828673 0.567967
0.552180 0.839343 0.581858
0.782616 0.850365 0.596383
0.974992 0.860427 0.609180
0.187840 1.000000 0.595181
0.378508 1.000000 0.607901
0.594961 1.000000 0.621791
0.825397 1.000000 0.636316
1.000000 1.000000 0.649113
0.034421 0.075515 0.670205
0.220837 0.080219 0.678672
0.433038 0.085574 0.688310
0.659222 0.091281 0.698584
0.847346 0.096028 0.707128
0.066314 0.292131 0.698908
0.252730 0.296835 0.707375
0.464931 0.302189 0.717014
0.691115 0.307897 0.727287
0.879239 0.312644 0.735832
0.103252 0.543008 0.732152
0.289667 0.547712 0.740619
0.503312 0.554872 0.751701
0.733749 0.565894 0.766227
0.926125 0.575956 0.779024
0.150291 0.822353 0.775212
0.340959 0.832372 0.787931
0.557412 0.843042 0.801822
0.787848 0.854064 0.816347
0.980224 0.864126 0.829144
0.193072 1.000000 0.815145
0.383740 1.000000 0.827864
0.600193 1.000000 0.841755
0.830629 1.000000 0.856280
1.000000 1.000000 0.869077
0.037701 0.077155 0.859440
0.224117 0.081859 0.867907
0.436318 0.087214 0.877546
0.662503 0.092922 0.887819
0.850627 0.097669 0.896364
0.069594 0.293771 0.888144
0.256010 0.298475 0.896611
0.468211 0.303830 0.906249
0.694396 0.309537 0.916523
0.882520 0.314284 0.925068
0.106532 0.544648 0.921388
0.292948 0.549352 0.929855
0.508036 0.558317 0.942381
0.738473 0.569340 0.956907
0.930849 0.579402 0.969703
0.155016 0.825798 0.965892
0.345683 0.835817 0.978611
0.562136 0.846487 0.992501
0.792573 0.857509 1.000000
0.984949 0.867572 1.000000
0.197796 1.000000 1.000000
0.388464 1.000000 1.000000
0.604917 1.000000 1.000000
0.835354 1.000000 1.000000
1.000000 1.000000 1.000000
