Fotico/Resources/LUTs/fuji_400h.cube
# Fuji 400H
LUT_3D_SIZE 17
0.023802 0.070206 0.057632
0.066238 0.071277 0.059559
0.112111 0.072434 0.061643
0.160284 0.073650 0.063831
0.210218 0.074910 0.066099
0.261587 0.076206 0.068432
0.314175 0.077533 0.070821
0.367825 0.078887 0.073257
0.422419 0.080264 0.075737
0.477862 0.081663 0.078255
0.534081 0.083082 0.080809
0.591012 0.084519 0.083395
0.648603 0.085972 0.086011
0.706810 0.087441 0.088654
0.765593 0.088924 0.091324
0.824919 0.090421 0.094019
0.836727 0.090719 0.094555
0.030997 0.119070 0.064107
0.073433 0.120141 0.066034
0.119305 0.121299 0.068118
0.167479 0.122514 0.070306
0.217412 0.123774 0.072574
0.268781 0.125071 0.074907
0.321369 0.126398 0.077296
0.375019 0.127751 0.079733
0.429613 0.129129 0.082212
0.485057 0.130528 0.084731
0.541275 0.131947 0.087284
0.598207 0.133383 0.089870
0.655798 0.134837 0.092486
0.714004 0.136305 0.095129
0.772788 0.137789 0.097799
0.832114 0.139286 0.100494
0.843922 0.139584 0.101030
0.038821 0.172210 0.071148
0.081257 0.173281 0.073076
0.127129 0.174439 0.075159
0.175303 0.175654 0.077347
0.225236 0.176914 0.079615
0.276605 0.178210 0.081949
0.329193 0.179537 0.084337
0.382843 0.180891 0.086774
0.437437 0.182269 0.089254
0.492881 0.183668 0.091772
0.549099 0.185087 0.094326
0.606030 0.186523 0.096911
0.663622 0.187976 0.099527
0.721828 0.189445 0.102171
0.780611 0.190928 0.104841
0.839938 0.192426 0.107536
0.851746 0.192723 0.108072
0.047085 0.228345 0.078587
0.089522 0.229416 0.080514
0.135394 0.230573 0.082598
0.183568 0.231789 0.084786
0.233501 0.233049 0.087054
0.284870 0.234345 0.089387
0.337458 0.235672 0.091776
0.391108 0.237026 0.094212
0.445702 0.238403 0.096692
0.501146 0.239802 0.099210
0.557364 0.241221 0.101764
0.614295 0.242658 0.104350
0.671887 0.244111 0.106966
0.730093 0.245580 0.109609
0.788876 0.247063 0.112279
0.848203 0.248560 0.114974
0.860011 0.248858 0.115510
0.055695 0.286821 0.086335
0.098131 0.287892 0.088263
0.144004 0.289050 0.090346
0.192177 0.290265 0.092534
0.242111 0.291525 0.094802
0.293480 0.292821 0.097136
0.346068 0.294148 0.099524
0.399718 0.295502 0.101961
0.454312 0.296880 0.104441
0.509755 0.298279 0.106959
0.565974 0.299698 0.109513
0.622905 0.301134 0.112098
0.680496 0.302587 0.114714
0.738703 0.304056 0.117358
0.797486 0.305539 0.120028
0.856812 0.307036 0.122723
0.868620 0.307334 0.123259
0.064590 0.347237 0.094341
0.107027 0.348307 0.096268
0.152899 0.349465 0.098352
0.201073 0.350681 0.100540
0.251006 0.351941 0.102808
0.302375 0.353237 0.105141
0.354963 0.354564 0.107530
0.408613 0.355918 0.109967
0.463207 0.357295 0.112446
0.518651 0.358694 0.114965
0.574869 0.360113 0.117518
0.631800 0.361550 0.120104
0.689391 0.363003 0.122720
0.747598 0.364472 0.125364
0.806381 0.365955 0.128034
0.865707 0.367452 0.130728
0.877515 0.367750 0.131265
0.073730 0.409315 0.102567
0.116167 0.410386 0.104494
0.162039 0.411543 0.106578
0.210213 0.412759 0.108766
0.260146 0.414019 0.111034
0.311515 0.415315 0.113367
0.364103 0.416642 0.115756
0.417753 0.417996 0.118193
0.472347 0.419374 0.120672
0.527791 0.420773 0.123191
0.584009 0.422191 0.125744
0.640940 0.423628 0.128330
0.698531 0.425081 0.130946
0.756738 0.426550 0.133590
0.815521 0.428033 0.136260
0.874847 0.429530 0.138954
0.886655 0.429828 0.139491
0.083085 0.472854 0.110986
0.125522 0.473925 0.112914
0.171394 0.475082 0.114998
0.219568 0.476298 0.117186
0.269501 0.477558 0.119454
0.320870 0.478854 0.121787
0.373458 0.480181 0.124175
0.427108 0.481535 0.126612
0.481702 0.482913 0.129092
0.537146 0.484312 0.131610
0.593364 0.485730 0.134164
0.650295 0.487167 0.136750
0.707886 0.488620 0.139366
0.766093 0.490089 0.142009
0.824876 0.491572 0.144679
0.885179 0.494290 0.148351
0.898050 0.495917 0.149950
0.092633 0.537699 0.119579
0.135069 0.538770 0.121507
0.180941 0.539927 0.123590
0.229115 0.541143 0.125778
0.279048 0.542403 0.128046
0.330417 0.543699 0.130379
0.383005 0.545026 0.132768
0.436655 0.546380 0.135205
0.491249 0.547757 0.137685
0.546693 0.549156 0.140203
0.602911 0.550575 0.142756
0.660144 0.552388 0.145643
0.718798 0.555170 0.149322
0.778067 0.557967 0.153029
0.837913 0.560779 0.156762
0.898303 0.563605 0.160520
0.911174 0.565232 0.162119
0.102354 0.603727 0.128328
0.144790 0.604797 0.130256
0.190663 0.605955 0.132339
0.238836 0.607171 0.134528
0.288770 0.608431 0.136796
0.340139 0.609727 0.139129
0.392727 0.611054 0.141517
0.446377 0.612408 0.143954
0.501659 0.614645 0.147122
0.558165 0.617373 0.150703
0.615447 0.620120 0.154320
0.673441 0.622886 0.157969
0.732095 0.625668 0.161647
0.791365 0.628465 0.165354
0.851211 0.631277 0.169087
0.911600 0.634103 0.172845
0.924471 0.635730 0.174444
0.112235 0.670838 0.137221
0.154671 0.671908 0.139149
0.200544 0.673066 0.141232
0.248717 0.674281 0.143420
0.298663 0.675556 0.145700
0.351095 0.678181 0.149097
0.404746 0.680837 0.152548
0.459459 0.683520 0.156048
0.515116 0.686226 0.159591
0.571622 0.688954 0.163172
0.628904 0.691701 0.166789
0.686898 0.694467 0.170437
0.745552 0.697249 0.174116
0.804822 0.700046 0.177823
0.864668 0.702858 0.181556
0.925057 0.705684 0.185314
0.937928 0.707311 0.186913
0.122263 0.738948 0.146247
0.165099 0.740518 0.148573
0.212034 0.743004 0.151720
0.261271 0.745548 0.154971
0.312267 0.748137 0.158302
0.364699 0.750762 0.161698
0.418350 0.753418 0.165150
0.473063 0.756101 0.168649
0.528720 0.758807 0.172192
0.585226 0.761535 0.175773
0.642508 0.764282 0.179390
0.700502 0.767047 0.183039
0.759156 0.769829 0.186718
0.818426 0.772627 0.190424
0.878272 0.775439 0.194157
0.938661 0.778265 0.197915
0.951532 0.779891 0.199514
0.135340 0.811629 0.158307
0.178840 0.814028 0.161298
0.225775 0.816515 0.164444
0.275012 0.819059 0.167695
0.326008 0.821648 0.171026
0.378440 0.824273 0.174423
0.432091 0.826928 0.177874
0.486804 0.829611 0.181374
0.542461 0.832317 0.184917
0.598968 0.835045 0.188498
0.656249 0.837792 0.192114
0.714243 0.840558 0.195763
0.772897 0.843340 0.199442
0.832167 0.846137 0.203149
0.892013 0.848949 0.206882
0.952402 0.851775 0.210640
0.965273 0.853402 0.212239
0.149209 0.886008 0.171147
0.192709 0.888408 0.174137
0.239644 0.890894 0.177284
0.288881 0.893439 0.180535
0.339877 0.896027 0.183866
0.392309 0.898652 0.187262
0.445960 0.901308 0.190714
0.500673 0.903991 0.194214
0.556330 0.906697 0.197756
0.612837 0.909425 0.201338
0.670118 0.912172 0.204954
0.728112 0.914937 0.208603
0.786766 0.917719 0.212282
0.846036 0.920517 0.215989
0.905882 0.923329 0.219722
0.966271 0.926155 0.223479
0.979142 0.927782 0.225079
0.163199 0.961205 0.184095
0.206698 0.963605 0.187085
0.253633 0.966091 0.190232
0.302870 0.968635 0.193483
0.353866 0.971224 0.196814
0.406298 0.973849 0.200210
0.459949 0.976505 0.203662
0.514662 0.979187 0.207162
0.570319 0.981894 0.210704
0.626826 0.984622 0.214286
0.684107 0.987369 0.217902
0.742102 0.990134 0.221551
0.800756 0.992916 0.225230
0.860025 0.995714 0.228937
0.919871 0.998526 0.232670
0.980261 1.000000 0.236427
0.993132 1.000000 0.238027
0.174545 1.000000 0.194664
0.218044 1.000000 0.197655
0.264980 1.000000 0.200801
0.314216 1.000000 0.204052
0.365213 1.000000 0.207383
0.417645 1.000000 0.210780
0.471296 1.000000 0.214231
0.526009 1.000000 0.217731
0.581666 1.000000 0.221274
0.638172 1.000000 0.224855
0.695454 1.000000 0.228472
0.753448 1.000000 0.232120
0.812102 1.000000 0.235799
0.871372 1.000000 0.239506
0.931218 1.000000 0.243239
0.991607 1.000000 0.246997
1.000000 1.000000 0.248596
0.178121 1.000000 0.198240
0.221620 1.000000 0.201231
0.268556 1.000000 0.204377
0.317792 1.000000 0.207628
0.368789 1.000000 0.210959
0.421221 1.000000 0.214356
0.474872 1.000000 0.217807
0.529585 1.000000 0.221307
0.585242 1.000000 0.224850
0.641748 1.000000 0.228431
0.699030 1.000000 0.232048
0.757024 1.000000 0.235696
0.815678 1.000000 0.239375
0.874948 1.000000 0.243082
0.934794 1.000000 0.246815
0.995183 1.000000 0.250573
1.000000 1.000000 0.252172
0.024552 0.070581 0.100866
0.066988 0.071651 0.102793
0.112860 0.072809 0.104877
0.161034 0.074024 0.107065
0.210967 0.075284 0.109333
0.262336 0.076581 0.111666
0.314924 0.077908 0.114055
0.368574 0.079262 0.116492
0.423168 0.080639 0.118971
0.478612 0.082038 0.121490
0.534830 0.083457 0.124043
0.591762 0.084893 0.126629
0.649353 0.086347 0.129245
0.707559 0.087815 0.131889
0.766342 0.089299 0.134559
0.825669 0.090796 0.137253
0.837477 0.091094 0.137790
0.031746 0.119445 0.107341
0.074182 0.120516 0.109269
0.120055 0.121674 0.111352
0.168228 0.122889 0.113540
0.218162 0.124149 0.115808
0.269531 0.125445 0.118141
0.322119 0.126772 0.120530
0.375769 0.128126 0.122967
0.430363 0.129504 0.125447
0.485806 0.130903 0.127965
0.542025 0.132321 0.130518
0.598956 0.133758 0.133104
0.656547 0.135211 0.135720
0.714754 0.136680 0.138364
0.773537 0.138163 0.141034
0.832863 0.139660 0.143728
0.844671 0.139958 0.144265
0.039570 0.172585 0.114383
0.082006 0.173656 0.116310
0.127879 0.174813 0.118394
0.176052 0.176029 0.120582
0.225986 0.177289 0.122850
0.277355 0.178585 0.125183
0.329943 0.179912 0.127572
0.383593 0.181266 0.130008
0.438187 0.182644 0.132488
0.493630 0.184043 0.135006
0.549849 0.185461 0.137560
0.606780 0.186898 0.140146
0.664371 0.188351 0.142762
0.722578 0.189820 0.145405
0.781361 0.191303 0.148075
0.840687 0.192800 0.150770
0.852495 0.193098 0.151306
0.047835 0.228719 0.121821
0.090271 0.229790 0.123748
0.136144 0.230948 0.125832
0.184317 0.232163 0.128020
0.234250 0.233423 0.130288
0.285620 0.234720 0.132621
0.338208 0.236047 0.135010
0.391858 0.237400 0.137447
0.446451 0.238778 0.139926
0.501895 0.240177 0.142445
0.558114 0.241596 0.144998
0.615045 0.243032 0.147584
0.672636 0.244486 0.150200
0.730843 0.245954 0.152844
0.789626 0.247438 0.155514
0.848952 0.248935 0.158208
0.860760 0.249233 0.158745
0.056445 0.287196 0.129570
0.098881 0.288267 0.131497
0.144753 0.289424 0.133581
0.192927 0.290640 0.135769
0.242860 0.291900 0.138037
0.294229 0.293196 0.140370
0.346817 0.294523 0.142759
0.400467 0.295877 0.145195
0.455061 0.297255 0.147675
0.510505 0.298654 0.150193
0.566723 0.300072 0.152747
0.623655 0.301509 0.155333
0.681246 0.302962 0.157949
0.739452 0.304431 0.160592
0.798235 0.305914 0.163262
0.857562 0.307411 0.165957
0.869370 0.307709 0.166493
0.065340 0.347611 0.137575
0.107776 0.348682 0.139503
0.153648 0.349840 0.141586
0.201822 0.351055 0.143774
0.251755 0.352315 0.146042
0.303124 0.353612 0.148376
0.355712 0.354939 0.150764
0.409363 0.356292 0.153201
0.463956 0.357670 0.155681
0.519400 0.359069 0.158199
0.575619 0.360488 0.160753
0.632550 0.361924 0.163338
0.690141 0.363378 0.165954
0.748347 0.364846 0.168598
0.807131 0.366330 0.171268
0.866457 0.367827 0.173963
0.878265 0.368125 0.174499
0.074480 0.409690 0.145801
0.116916 0.410760 0.147729
0.162788 0.411918 0.149812
0.210962 0.413134 0.152000
0.260895 0.414394 0.154268
0.312264 0.415690 0.156602
0.364852 0.417017 0.158990
0.418503 0.418371 0.161427
0.473096 0.419748 0.163907
0.528540 0.421147 0.166425
0.584759 0.422566 0.168979
0.641690 0.424003 0.171564
0.699281 0.425456 0.174180
0.757487 0.426925 0.176824
0.816271 0.428408 0.179494
0.875597 0.429905 0.182189
0.887405 0.430203 0.182725
0.083835 0.473229 0.154221
0.126271 0.474299 0.156148
0.172143 0.475457 0.158232
0.220317 0.476673 0.160420
0.270250 0.477933 0.162688
0.321620 0.479229 0.165021
0.374207 0.480556 0.167410
0.427858 0.481910 0.169847
0.482451 0.483287 0.172326
0.537895 0.484686 0.174845
0.594114 0.486105 0.177398
0.651045 0.487542 0.179984
0.708636 0.488995 0.182600
0.766842 0.490464 0.185244
0.825901 0.492291 0.188189
0.886290 0.495116 0.191946
0.899161 0.496743 0.193546
0.093382 0.538074 0.162813
0.135818 0.539144 0.164741
0.181691 0.540302 0.166824
0.229864 0.541517 0.169013
0.279798 0.542777 0.171281
0.331167 0.544074 0.173614
0.383755 0.545401 0.176002
0.437405 0.546755 0.178439
0.491999 0.548132 0.180919
0.547442 0.549531 0.183437
0.603661 0.550950 0.185991
0.661254 0.553214 0.189239
0.719908 0.555996 0.192917
0.779178 0.558793 0.196624
0.839024 0.561605 0.200357
0.899413 0.564431 0.204115
0.912284 0.566058 0.205714
0.103104 0.604101 0.171563
0.145540 0.605172 0.173490
0.191412 0.606330 0.175574
0.239586 0.607545 0.177762
0.289519 0.608805 0.180030
0.340888 0.610102 0.182363
0.393476 0.611429 0.184752
0.447126 0.612782 0.187189
0.502769 0.615471 0.190717
0.559276 0.618199 0.194299
0.616557 0.620946 0.197915
0.674552 0.623712 0.201564
0.733206 0.626494 0.205243
0.792475 0.629291 0.208950
0.852321 0.632103 0.212683
0.912711 0.634929 0.216440
0.925582 0.636556 0.218040
0.112984 0.671212 0.180456
0.155421 0.672283 0.182383
0.201293 0.673441 0.184467
0.249467 0.674656 0.186655
0.299773 0.676382 0.189296
0.352205 0.679007 0.192692
0.405856 0.681663 0.196144
0.460569 0.684346 0.199643
0.516226 0.687052 0.203186
0.572733 0.689780 0.206767
0.630014 0.692527 0.210384
0.688008 0.695293 0.214033
0.746663 0.698075 0.217712
0.805932 0.700872 0.221418
0.865778 0.703684 0.225151
0.926168 0.706510 0.228909
0.939039 0.708137 0.230508
0.123013 0.739323 0.189481
0.166209 0.741344 0.192168
0.213144 0.743830 0.195315
0.262381 0.746374 0.198566
0.313377 0.748963 0.201897
0.365809 0.751588 0.205293
0.419460 0.754244 0.208745
0.474174 0.756927 0.212245
0.529830 0.759633 0.215787
0.586337 0.762361 0.219369
0.643619 0.765108 0.222985
0.701613 0.767873 0.226634
0.760267 0.770655 0.230313
0.819536 0.773453 0.234020
0.879383 0.776265 0.237753
0.939772 0.779091 0.241510
0.952643 0.780717 0.243110
0.136451 0.812455 0.201902
0.179950 0.814854 0.204893
0.226885 0.817340 0.208040
0.276122 0.819885 0.211291
0.327118 0.822474 0.214622
0.379550 0.825099 0.218018
0.433201 0.827754 0.221469
0.487915 0.830437 0.224969
0.543571 0.833143 0.228512
0.600078 0.835871 0.232093
0.657360 0.838618 0.235710
0.715354 0.841384 0.239359
0.774008 0.844166 0.243037
0.833277 0.846963 0.246744
0.893124 0.849775 0.250477
0.953513 0.852601 0.254235
0.966384 0.854228 0.255834
0.150320 0.886834 0.214742
0.193819 0.889234 0.217733
0.240754 0.891720 0.220879
0.289991 0.894265 0.224130
0.340987 0.896853 0.227461
0.393419 0.899478 0.230858
0.447070 0.902134 0.234309
0.501784 0.904817 0.237809
0.557440 0.907523 0.241352
0.613947 0.910251 0.244933
0.671229 0.912998 0.248550
0.729223 0.915763 0.252198
0.787877 0.918545 0.255877
0.847146 0.921343 0.259584
0.906993 0.924155 0.263317
0.967382 0.926981 0.267075
0.980253 0.928608 0.268674
0.164309 0.962031 0.227690
0.207808 0.964431 0.230681
0.254744 0.966917 0.233827
0.303980 0.969461 0.237078
0.354977 0.972050 0.240409
0.407409 0.974675 0.243806
0.461060 0.977331 0.247257
0.515773 0.980013 0.250757
0.571430 0.982720 0.254300
0.627936 0.985448 0.257881
0.685218 0.988195 0.261498
0.743212 0.990960 0.265146
0.801866 0.993742 0.268825
0.861136 0.996540 0.272532
0.920982 0.999352 0.276265
0.981371 1.000000 0.280023
0.994242 1.000000 0.281622
0.175656 1.000000 0.238260
0.219155 1.000000 0.241250
0.266090 1.000000 0.244397
0.315327 1.000000 0.247648
0.366323 1.000000 0.250979
0.418755 1.000000 0.254375
0.472406 1.000000 0.257827
0.527119 1.000000 0.261326
0.582776 1.000000 0.264869
0.639283 1.000000 0.268450
0.696564 1.000000 0.272067
0.754559 1.000000 0.275716
0.813213 1.000000 0.279395
0.872482 1.000000 0.283101
0.932328 1.000000 0.286834
0.992718 1.000000 0.290592
1.000000 1.000000 0.292191
0.179232 1.000000 0.241836
0.222731 1.000000 0.244826
0.269666 1.000000 0.247973
0.318903 1.000000 0.251224
0.369899 1.000000 0.254555
0.422331 1.000000 0.257951
0.475982 1.000000 0.261403
0.530695 1.000000 0.264902
0.586352 1.000000 0.268445
0.642859 1.000000 0.272026
0.700140 1.000000 0.275643
0.758135 1.000000 0.279292
0.816789 1.000000 0.282971
0.876058 1.000000 0.286677
0.935904 1.000000 0.290410
0.996294 1.000000 0.294168
1.000000 1.000000 0.295767
0.025350 0.070980 0.146934
0.067786 0.072051 0.148862
0.113659 0.073208 0.150945
0.161832 0.074424 0.153133
0.211766 0.075684 0.155401
0.263135 0.076980 0.157735
0.315723 0.078307 0.160123
0.369373 0.079661 0.162560
0.423967 0.081038 0.165040
0.479410 0.082437 0.167558
0.535629 0.083856 0.170111
0.592560 0.085293 0.172697
0.650151 0.086746 0.175313
0.708358 0.088215 0.177957
0.767141 0.089698 0.180627
0.826467 0.091195 0.183322
0.838275 0.091493 0.183858
0.032545 0.119844 0.153409
0.074981 0.120915 0.155337
0.120853 0.122073 0.157420
0.169027 0.123288 0.159608
0.218960 0.124548 0.161876
0.270329 0.125845 0.164210
0.322917 0.127172 0.166598
0.376568 0.128526 0.169035
0.431161 0.129903 0.171515
0.486605 0.131302 0.174033
0.542824 0.132721 0.176586
0.599755 0.134157 0.179172
0.657346 0.135611 0.181788
0.715552 0.137079 0.184432
0.774336 0.138563 0.187102
0.833662 0.140060 0.189797
0.845470 0.140358 0.190333
0.040369 0.172984 0.160451
0.082805 0.174055 0.162378
0.128677 0.175213 0.164462
0.176851 0.176428 0.166650
0.226784 0.177688 0.168918
0.278153 0.178985 0.171251
0.330741 0.180312 0.173640
0.384391 0.181665 0.176077
0.438985 0.183043 0.178556
0.494429 0.184442 0.181075
0.550647 0.185861 0.183628
0.607579 0.187297 0.186214
0.665170 0.188750 0.188830
0.723376 0.190219 0.191474
0.782160 0.191703 0.194144
0.841486 0.193200 0.196838
0.853294 0.193497 0.197375
0.048633 0.229119 0.167889
0.091070 0.230190 0.169817
0.136942 0.231347 0.171900
0.185116 0.232563 0.174088
0.235049 0.233823 0.176356
0.286418 0.235119 0.178689
0.339006 0.236446 0.181078
0.392656 0.237800 0.183515
0.447250 0.239177 0.185995
0.502694 0.240576 0.188513
0.558912 0.241995 0.191066
0.615843 0.243432 0.193652
0.673435 0.244885 0.196268
0.731641 0.246354 0.198912
0.790424 0.247837 0.201582
0.849751 0.249334 0.204277
0.861559 0.249632 0.204813
0.057243 0.287595 0.175638
0.099679 0.288666 0.177565
0.145552 0.289824 0.179649
0.193725 0.291039 0.181837
0.243659 0.292299 0.184105
0.295028 0.293595 0.186438
0.347616 0.294922 0.188827
0.401266 0.296276 0.191264
0.455860 0.297654 0.193743
0.511303 0.299053 0.196262
0.567522 0.300472 0.198815
0.624453 0.301908 0.201401
0.682044 0.303361 0.204017
0.740251 0.304830 0.206661
0.799034 0.306313 0.209331
0.858360 0.307810 0.212025
0.870168 0.308108 0.212562
0.066138 0.348011 0.183643
0.108575 0.349082 0.185571
0.154447 0.350239 0.187655
0.202621 0.351455 0.189843
0.252554 0.352715 0.192111
0.303923 0.354011 0.194444
0.356511 0.355338 0.196832
0.410161 0.356692 0.199269
0.464755 0.358069 0.201749
0.520199 0.359468 0.204267
0.576417 0.360887 0.206821
0.633348 0.362324 0.209407
0.690939 0.363777 0.212022
0.749146 0.365246 0.214666
0.807929 0.366729 0.217336
0.867255 0.368226 0.220031
0.879063 0.368524 0.220567
0.075278 0.410089 0.191869
0.117715 0.411160 0.193797
0.163587 0.412317 0.195880
0.211761 0.413533 0.198069
0.261694 0.414793 0.200337
0.313063 0.416089 0.202670
0.365651 0.417416 0.205058
0.419301 0.418770 0.207495
0.473895 0.420148 0.209975
0.529339 0.421547 0.212493
0.585557 0.422965 0.215047
0.642488 0.424402 0.217633
0.700079 0.425855 0.220248
0.758286 0.427324 0.222892
0.817069 0.428807 0.225562
0.876395 0.430304 0.228257
0.888203 0.430602 0.228793
0.084633 0.473628 0.200289
0.127070 0.474699 0.202216
0.172942 0.475856 0.204300
0.221116 0.477072 0.206488
0.271049 0.478332 0.208756
0.322418 0.479628 0.211089
0.375006 0.480955 0.213478
0.428656 0.482309 0.215915
0.483250 0.483687 0.218394
0.538694 0.485086 0.220913
0.594912 0.486504 0.223466
0.651843 0.487941 0.226052
0.709434 0.489394 0.228668
0.767641 0.490863 0.231312
0.827060 0.493141 0.234618
0.887449 0.495967 0.238375
0.900320 0.497594 0.239975
0.094181 0.538473 0.208882
0.136617 0.539544 0.210809
0.182489 0.540701 0.212893
0.230663 0.541917 0.215081
0.280596 0.543177 0.217349
0.331965 0.544473 0.219682
0.384553 0.545800 0.222071
0.438204 0.547154 0.224507
0.492797 0.548531 0.226987
0.548241 0.549930 0.229505
0.604460 0.551349 0.232059
0.662414 0.554064 0.235668
0.721068 0.556846 0.239347
0.780337 0.559644 0.243053
0.840184 0.562456 0.246786
0.900573 0.565282 0.250544
0.913444 0.566909 0.252143
0.103902 0.604501 0.217631
0.146338 0.605571 0.219558
0.192211 0.606729 0.221642
0.240384 0.607945 0.223830
0.290318 0.609205 0.226098
0.341687 0.610501 0.228431
0.394275 0.611828 0.230820
0.448272 0.613615 0.233604
0.503929 0.616322 0.237146
0.560435 0.619050 0.240728
0.617717 0.621797 0.244344
0.675711 0.624562 0.247993
0.734365 0.627344 0.251672
0.793635 0.630142 0.255379
0.853481 0.632954 0.259112
0.913870 0.635780 0.262869
0.926741 0.637406 0.264469
0.113783 0.671612 0.226524
0.156219 0.672682 0.228451
0.202092 0.673840 0.230535
0.250265 0.675056 0.232723
0.300933 0.677233 0.235725
0.353365 0.679858 0.239121
0.407016 0.682514 0.242573
0.461729 0.685196 0.246073
0.517386 0.687903 0.249615
0.573892 0.690630 0.253197
0.631174 0.693378 0.256813
0.689168 0.696143 0.260462
0.747822 0.698925 0.264141
0.807092 0.701723 0.267848
0.866938 0.704535 0.271581
0.927327 0.707361 0.275338
0.940198 0.708987 0.276938
0.123869 0.739795 0.235607
0.167369 0.742194 0.238598
0.214304 0.744681 0.241744
0.263541 0.747225 0.244995
0.314537 0.749814 0.248326
0.366969 0.752439 0.251723
0.420620 0.755095 0.255174
0.475333 0.757777 0.258674
0.530990 0.760483 0.262217
0.587497 0.763211 0.265798
0.644778 0.765959 0.269414
0.702772 0.768724 0.273063
0.761426 0.771506 0.276742
0.820696 0.774303 0.280449
0.880542 0.777116 0.284182
0.940931 0.779941 0.287940
0.953802 0.781568 0.289539
0.137610 0.813305 0.248332
0.181110 0.815705 0.251322
0.228045 0.818191 0.254469
0.277282 0.820735 0.257720
0.328278 0.823324 0.261051
0.380710 0.825949 0.264447
0.434361 0.828605 0.267899
0.489074 0.831287 0.271398
0.544731 0.833994 0.274941
0.601238 0.836722 0.278522
0.658519 0.839469 0.282139
0.716513 0.842234 0.285788
0.775167 0.845016 0.289467
0.834437 0.847814 0.293173
0.894283 0.850626 0.296906
0.954672 0.853452 0.300664
0.967543 0.855078 0.302263
0.151479 0.887685 0.261171
0.194979 0.890084 0.264162
0.241914 0.892571 0.267308
0.291151 0.895115 0.270560
0.342147 0.897704 0.273891
0.394579 0.900329 0.277287
0.448230 0.902985 0.280738
0.502943 0.905667 0.284238
0.558600 0.908374 0.287781
0.615107 0.911101 0.291362
0.672388 0.913849 0.294979
0.730382 0.916614 0.298628
0.789036 0.919396 0.302306
0.848306 0.922194 0.306013
0.908152 0.925006 0.309746
0.968541 0.927831 0.313504
0.981412 0.929458 0.315103
0.165469 0.962882 0.274119
0.208968 0.965281 0.277110
0.255903 0.967768 0.280256
0.305140 0.970312 0.283508
0.356136 0.972901 0.286839
0.408568 0.975526 0.290235
0.462219 0.978181 0.293686
0.516933 0.980864 0.297186
0.572589 0.983570 0.300729
0.629096 0.986298 0.304310
0.686378 0.989045 0.307927
0.744372 0.991811 0.311576
0.803026 0.994593 0.315254
0.862295 0.997390 0.318961
0.922142 1.000000 0.322694
0.982531 1.000000 0.326452
0.995402 1.000000 0.328051
0.176815 1.000000 0.284689
0.220314 1.000000 0.287679
0.267250 1.000000 0.290826
0.316486 1.000000 0.294077
0.367483 1.000000 0.297408
0.419915 1.000000 0.300804
0.473566 1.000000 0.304256
0.528279 1.000000 0.307756
0.583936 1.000000 0.311298
0.640442 1.000000 0.314880
0.697724 1.000000 0.318496
0.755718 1.000000 0.322145
0.814372 1.000000 0.325824
0.873642 1.000000 0.329531
0.933488 1.000000 0.333264
0.993877 1.000000 0.337021
1.000000 1.000000 0.338621
0.180391 1.000000 0.288265
0.223890 1.000000 0.291255
0.270826 1.000000 0.294402
0.320062 1.000000 0.297653
0.371059 1.000000 0.300984
0.423491 1.000000 0.304380
0.477142 1.000000 0.307832
0.531855 1.000000 0.311332
0.587512 1.000000 0.314874
0.644018 1.000000 0.318456
0.701300 1.000000 0.322072
0.759294 1.000000 0.325721
0.817948 1.000000 0.329400
0.877218 1.000000 0.333107
0.937064 1.000000 0.336840
0.997453 1.000000 0.340597
1.000000 1.000000 0.342197
0.026181 0.071395 0.194877
0.068618 0.072466 0.196805
0.114490 0.073624 0.198888
0.162664 0.074839 0.201076
0.212597 0.076099 0.203344
0.263966 0.077396 0.205678
0.316554 0.078723 0.208066
0.370204 0.080076 0.210503
0.424798 0.081454 0.212983
0.480242 0.082853 0.215501
0.536460 0.084272 0.218055
0.593391 0.085708 0.220641
0.650982 0.087161 0.223256
0.709189 0.088630 0.225900
0.767972 0.090114 0.228570
0.827298 0.091611 0.231265
0.839106 0.091909 0.231801
0.033376 0.120260 0.201352
0.075812 0.121331 0.203280
0.121684 0.122488 0.205363
