Fotico/Resources/LUTs/glam.cube
# Glam
LUT_3D_SIZE 5
0.017112 0.009310 0.001241
0.209660 0.015492 0.006641
0.504628 0.023976 0.014828
0.800186 0.032398 0.023024
0.937941 0.037110 0.026912
0.041879 0.221188 0.020268
0.247802 0.228586 0.026112
0.544618 0.237674 0.034398
0.832359 0.246115 0.042398
0.950492 0.250211 0.045737
0.068619 0.510798 0.046097
0.280317 0.516993 0.051982
0.574377 0.524429 0.060055
0.855216 0.530918 0.067711
0.967142 0.532924 0.070712
0.087766 0.792523 0.071049
0.296771 0.796602 0.076682
0.585138 0.801940 0.084429
0.862563 0.806519 0.091833
0.983287 0.807077 0.094931
0.092506 0.972321 0.086785
0.291833 0.976843 0.092212
0.573474 0.983234 0.099880
0.851654 0.989545 0.107454
0.994224 0.992780 0.111336
0.019580 0.011480 0.189228
0.213704 0.017672 0.191657
0.509060 0.026122 0.196962
0.803858 0.034467 0.202445
0.939121 0.039048 0.203845
0.044281 0.223628 0.198776
0.251151 0.230911 0.202336
0.547861 0.239839 0.208668
0.834795 0.248086 0.215105
0.951628 0.251965 0.217318
0.070407 0.512753 0.218341
0.282203 0.518733 0.223306
0.575785 0.525937 0.230930
0.856096 0.532193 0.238633
0.968237 0.533989 0.242196
0.088642 0.793744 0.242118
0.296948 0.797627 0.248469
0.584658 0.802782 0.257406
0.861979 0.807209 0.266458
0.984387 0.807676 0.271649
0.092669 0.973724 0.262196
0.290726 0.978235 0.269780
0.571684 0.984630 0.279940
0.850136 0.990970 0.290284
0.995432 0.994290 0.297179
0.022453 0.014131 0.436249
0.218125 0.020348 0.438368
0.513834 0.028778 0.443365
0.807868 0.037059 0.448553
0.940746 0.041523 0.449669
0.047087 0.226579 0.444800
0.254836 0.233754 0.448181
0.551405 0.242527 0.454371
0.837557 0.250587 0.460721
0.953241 0.254257 0.462911
0.072588 0.515232 0.463940
0.284400 0.521000 0.468941
0.577482 0.527973 0.476663
0.857303 0.533999 0.484539
0.969814 0.535589 0.488369
0.089912 0.795508 0.488116
0.297446 0.799192 0.494727
0.584482 0.804162 0.503986
0.861732 0.808431 0.513421
0.985944 0.808804 0.519080
0.093247 0.975709 0.509401
0.289978 0.980194 0.517387
0.570242 0.986576 0.527977
0.848978 0.992926 0.538772
0.997050 0.996313 0.546169
0.025325 0.016763 0.680901
0.222501 0.023004 0.683529
0.518518 0.031413 0.688996
0.811774 0.039630 0.694610
0.942374 0.043978 0.696087
0.049854 0.229490 0.691017
0.258402 0.236551 0.694826
0.554790 0.245166 0.701378
0.840179 0.253037 0.708028
0.954864 0.256500 0.710461
0.074696 0.517653 0.711342
0.286438 0.523205 0.716587
0.578993 0.529947 0.724480
0.858365 0.535743 0.732464
0.971398 0.537133 0.736358
0.091105 0.797223 0.736075
0.297796 0.800707 0.742689
0.584146 0.805492 0.751882
0.861363 0.809608 0.761194
0.987499 0.809892 0.766708
0.093780 0.977698 0.757208
0.289141 0.982150 0.764944
0.568710 0.988515 0.775230
0.847754 0.994869 0.785683
0.998653 0.998316 0.792747
0.027793 0.018875 0.861810
0.226424 0.025139 0.865721
0.522703 0.033524 0.872376
0.815171 0.041676 0.879054
0.943604 0.045911 0.881435
0.052176 0.231859 0.875830
0.261441 0.238800 0.880565
0.557607 0.247253 0.887864
0.842257 0.254932 0.895072
0.956092 0.258189 0.897872
0.076322 0.519510 0.898542
0.287911 0.524843 0.904100
0.579915 0.531352 0.912095
0.858877 0.536919 0.919980
0.972583 0.538113 0.923602
0.091816 0.798382 0.923518
0.297595 0.801665 0.929747
0.583249 0.806266 0.938366
0.860468 0.810231 0.946942
0.988645 0.810431 0.951612
0.093865 0.979181 0.942750
0.287815 0.983593 0.949503
0.566690 0.989933 0.958693
0.846062 0.996285 0.967971
0.999830 0.999788 0.973855
