Fotico/Resources/LUTs/glam.cube
# Glam
LUT_3D_SIZE 17
0.017112 0.009310 0.001241
0.050395 0.010518 0.002186
0.094537 0.011973 0.003428
0.148114 0.013642 0.004926
0.209660 0.015492 0.006641
0.277659 0.017487 0.008531
0.350552 0.019591 0.010555
0.426747 0.021766 0.012669
0.504628 0.023976 0.014828
0.582562 0.026182 0.016987
0.658901 0.028347 0.019104
0.731995 0.030432 0.021131
0.800186 0.032398 0.023024
0.861821 0.034207 0.024738
0.915255 0.035821 0.026227
0.937919 0.036727 0.026878
0.937941 0.037110 0.026912
0.022540 0.050032 0.004915
0.057061 0.051389 0.005904
0.102267 0.052986 0.007185
0.156733 0.054790 0.008717
0.218984 0.056765 0.010461
0.287500 0.058876 0.012375
0.360720 0.061086 0.014416
0.437055 0.063359 0.016541
0.514892 0.065657 0.018707
0.592604 0.067942 0.020868
0.668554 0.070176 0.022980
0.741100 0.072321 0.024999
0.808599 0.074338 0.026879
0.869413 0.076190 0.028576
0.921911 0.077838 0.030045
0.940391 0.078698 0.030586
0.940416 0.079123 0.030624
0.028588 0.099916 0.009400
0.064275 0.101384 0.010429
0.110467 0.103082 0.011743
0.165735 0.104977 0.013303
0.228602 0.107034 0.015070
0.297546 0.109218 0.017001
0.371009 0.111491 0.019054
0.447405 0.113817 0.021185
0.525130 0.116159 0.023352
0.602567 0.118478 0.025509
0.678089 0.120736 0.027612
0.750069 0.122896 0.029618
0.816880 0.124920 0.031481
0.876900 0.126769 0.033158
0.928519 0.128407 0.034604
0.943364 0.129189 0.035046
0.943389 0.129612 0.035084
0.035089 0.157437 0.014560
0.071849 0.158976 0.015622
0.118929 0.160735 0.016964
0.174899 0.162681 0.018547
0.238282 0.164779 0.020330
0.307559 0.166993 0.022272
0.381176 0.169287 0.024330
0.457558 0.171624 0.026462
0.535110 0.173966 0.028624
0.612226 0.176277 0.030773
0.687296 0.178519 0.032863
0.758708 0.180653 0.034852
0.824852 0.182643 0.036696
0.884127 0.184451 0.038350
0.934943 0.186041 0.039771
0.946752 0.186718 0.040129
0.946775 0.187099 0.040162
0.041879 0.221188 0.020268
0.079598 0.222756 0.021357
0.127452 0.224534 0.022720
0.184011 0.226489 0.024319
0.247802 0.228586 0.026112
0.317313 0.230789 0.028059
0.391000 0.233063 0.030117
0.467295 0.235370 0.032245
0.544618 0.237674 0.034398
0.621380 0.239937 0.036533
0.695985 0.242123 0.038607
0.766841 0.244195 0.040577
0.832359 0.246115 0.042398
0.890957 0.247847 0.044029
0.941066 0.249354 0.045425
0.950474 0.249906 0.045711
0.950492 0.250211 0.045737
0.048790 0.289774 0.026400
0.087338 0.291330 0.027509
0.135838 0.293087 0.028886
0.192865 0.295010 0.030493
0.256954 0.297067 0.032291
0.326599 0.299220 0.034237
0.400269 0.301435 0.036290
0.476412 0.303675 0.038407
0.553461 0.305905 0.040547
0.629845 0.308086 0.042666
0.703988 0.310183 0.044720
0.774316 0.312160 0.046668
0.839262 0.313979 0.048467
0.897266 0.315606 0.050073
0.946782 0.317004 0.051445
0.954450 0.317415 0.051674
0.954461 0.317617 0.051692
0.055656 0.361809 0.032830
0.094890 0.363316 0.033951
0.143899 0.365014 0.035337
0.201267 0.366870 0.036947
0.265539 0.368850 0.038742
0.335221 0.370920 0.040682
0.408795 0.373044 0.042724
0.484726 0.375186 0.044828
0.561466 0.377310 0.046951
0.637460 0.379381 0.049050
0.711155 0.381363 0.051084
0.780997 0.383219 0.053009
0.845440 0.384915 0.054784
0.902948 0.386414 0.056366
0.951997 0.387683 0.057715
0.958604 0.387950 0.057905
0.958608 0.388027 0.057912
0.062316 0.435929 0.039435
0.102082 0.437353 0.040563
0.151457 0.438961 0.041950
0.209038 0.440719 0.043557
0.273379 0.442595 0.045345
0.343003 0.444553 0.047274
0.416408 0.446559 0.049302
0.492077 0.448579 0.051388
0.568480 0.450576 0.053491
0.644084 0.452516 0.055569
0.717356 0.454363 0.057580
0.786766 0.456083 0.059483
0.850788 0.457640 0.061235
0.907908 0.459000 0.062796
0.956627 0.460129 0.064124
0.962862 0.460254 0.064293
0.962858 0.460196 0.064288
0.068619 0.510798 0.046097
0.108757 0.512113 0.047225
0.158353 0.513606 0.048607
0.216017 0.515243 0.050206
0.280317 0.516993 0.051982
0.349794 0.518820 0.053895
0.422964 0.520692 0.055906
0.498327 0.522573 0.057973
0.574377 0.524429 0.060055
0.649601 0.526226 0.062111
0.722486 0.527930 0.064099
0.791526 0.529505 0.065980
0.855216 0.530918 0.067711
0.912066 0.532135 0.069253
0.960596 0.533123 0.070564
0.967153 0.533118 0.070729
0.967142 0.532924 0.070712
0.074426 0.585118 0.052699
0.114774 0.586307 0.053821
0.164446 0.587668 0.055194
0.222066 0.589171 0.056780
0.286220 0.590781 0.058540
0.355466 0.592468 0.060435
0.428341 0.594196 0.062426
0.503366 0.595933 0.064471
0.579055 0.597644 0.066532
0.653916 0.599296 0.068566
0.726460 0.600855 0.070534
0.795200 0.602288 0.072394
0.858655 0.603561 0.074107
0.915354 0.604641 0.075633
0.963838 0.605495 0.076932
0.971409 0.605382 0.077113
0.971390 0.605059 0.077085
0.079617 0.657638 0.059128
0.120013 0.658692 0.060240
0.169617 0.659915 0.061599
0.227070 0.661277 0.063169
0.290979 0.662746 0.064910
0.359919 0.664290 0.066786
0.432449 0.665877 0.068755
0.507110 0.667472 0.070779
0.582437 0.669043 0.072818
0.656961 0.670558 0.074832
0.729214 0.671982 0.076781
0.797730 0.673284 0.078624
0.861048 0.674429 0.080323
0.917717 0.675387 0.081837
0.966298 0.676124 0.083128
0.975564 0.675934 0.083346
0.975538 0.675497 0.083307
0.084091 0.727156 0.065279
0.124375 0.728075 0.066376
0.173772 0.729163 0.067718
0.230943 0.730389 0.069269
0.294513 0.731724 0.070990
0.363080 0.733135 0.072845
0.435221 0.734589 0.074793
0.509500 0.736056 0.076796
0.584473 0.737501 0.078816
0.658692 0.738894 0.080811
0.730709 0.740202 0.082743
0.799078 0.741391 0.084574
0.862358 0.742431 0.086262
0.919116 0.743290 0.087770
0.967929 0.743935 0.089059
0.979555 0.743704 0.089333
0.979524 0.743177 0.089286
0.087766 0.792523 0.071049
0.127784 0.793317 0.072129
0.176843 0.794281 0.073452
0.233623 0.795386 0.074982
0.296771 0.796602 0.076682
0.364903 0.797896 0.078515
0.436620 0.799239 0.080443
0.510507 0.800597 0.082427
0.585138 0.801940 0.084429
0.659088 0.803235 0.086409
0.730926 0.804451 0.088329
0.799225 0.805557 0.090150
0.862563 0.806519 0.091833
0.919522 0.807308 0.093341
0.968696 0.807892 0.094633
0.983322 0.807664 0.094983
0.983287 0.807077 0.094931
0.090584 0.852640 0.076342
0.130189 0.853329 0.077402
0.178786 0.854190 0.078704
0.235076 0.855196 0.080213
0.297724 0.856316 0.081893
0.365371 0.857520 0.083706
0.436636 0.858777 0.085615
0.510125 0.860056 0.087582
0.584432 0.861325 0.089569
0.658150 0.862554 0.091537
0.729867 0.863711 0.093449
0.798172 0.864765 0.095266
0.861659 0.865684 0.096949
0.918925 0.866438 0.098461
0.968575 0.866996 0.099764
0.986806 0.866819 0.100209
0.986770 0.866207 0.100155
0.092508 0.906460 0.081065
0.131562 0.907069 0.082104
0.179583 0.907856 0.083385
0.235290 0.908792 0.084873
0.297373 0.909847 0.086533
0.364491 0.910992 0.088328
0.435283 0.912196 0.090220
0.508374 0.913430 0.092173
0.582378 0.914661 0.094149
0.655903 0.915859 0.096110
0.727556 0.916993 0.098019
0.795939 0.918033 0.099836
0.859659 0.918947 0.101525
0.917327 0.919705 0.103047
0.967556 0.920277 0.104365
0.989949 0.920199 0.104924
0.989914 0.919597 0.104871
0.093520 0.952977 0.085130
0.131896 0.953540 0.086149
0.179236 0.954286 0.087409
0.234282 0.955187 0.088877
0.295741 0.956213 0.090519
0.362294 0.957335 0.092297
0.432598 0.958524 0.094176
0.505296 0.959750 0.096119
0.579020 0.960981 0.098088
0.652393 0.962187 0.100045
0.724035 0.963338 0.101955
0.792562 0.964403 0.103778
0.856593 0.965352 0.105478
0.914745 0.966154 0.107016
0.965642 0.966778 0.108356
0.992697 0.966849 0.109045
0.992664 0.966294 0.108996
0.092506 0.972321 0.086785
0.130106 0.973174 0.087809
0.176692 0.974231 0.089077
0.231025 0.975464 0.090556
0.291833 0.976843 0.092212
0.357814 0.978340 0.094008
0.427644 0.979925 0.095910
0.499982 0.981566 0.097879
0.573474 0.983234 0.099880
0.646758 0.984896 0.101876
0.718464 0.986523 0.103828
0.787221 0.988083 0.105700
0.851654 0.989545 0.107454
0.910389 0.990878 0.109053
0.962055 0.992050 0.110460
0.994224 0.992780 0.111336
0.994224 0.992780 0.111336
0.017671 0.009782 0.039616
0.051077 0.010989 0.040010
0.095325 0.012442 0.040701
0.148991 0.014109 0.041653
0.210608 0.015956 0.042825
0.278658 0.017947 0.044177
0.351584 0.020046 0.045669
0.427792 0.022216 0.047256
0.505668 0.024420 0.048896
0.583578 0.026620 0.050546
0.659876 0.028778 0.052161
0.732912 0.030855 0.053697
0.801029 0.032813 0.055110
0.862578 0.034614 0.056355
0.915911 0.036219 0.057389
0.938126 0.037108 0.057587
0.938146 0.037483 0.057195
0.023101 0.050531 0.041438
0.057739 0.051886 0.041888
0.103045 0.053480 0.042633
0.157591 0.055279 0.043637
0.219904 0.057249 0.044859
0.288464 0.059355 0.046258
0.361709 0.061559 0.047794
0.438049 0.063826 0.049423
0.515874 0.066116 0.051103
0.593557 0.068393 0.052789
0.669462 0.070618 0.054438
0.741948 0.072754 0.056006
0.809374 0.074761 0.057449
0.870102 0.076602 0.058723
0.922506 0.078240 0.059784
0.940590 0.079082 0.059925
0.940612 0.079498 0.059589
0.029142 0.100429 0.044123
0.064938 0.101893 0.044634
0.111221 0.103587 0.045438
0.166561 0.105476 0.046498
0.229481 0.107526 0.047773
0.298459 0.109703 0.049223
0.371938 0.111968 0.050807
0.448333 0.114286 0.052481
0.526040 0.116618 0.054203
0.603443 0.118927 0.055930
0.678918 0.121175 0.057617
0.750837 0.123324 0.059221
0.817576 0.125336 0.060698
0.877516 0.127174 0.062005
0.929047 0.128800 0.063098
0.943556 0.129564 0.063199
0.943578 0.129977 0.062922
0.035629 0.157953 0.047568
0.072488 0.159486 0.048145
0.119648 0.161238 0.049011
0.175679 0.163176 0.050130
0.239105 0.165265 0.051462
0.308407 0.167470 0.052965
0.382032 0.169755 0.054599
0.458406 0.172081 0.056321
0.535934 0.174413 0.058089
0.613013 0.176712 0.059858
0.688033 0.178942 0.061586
0.759385 0.181064 0.063229
0.825462 0.183041 0.064744
0.884663 0.184836 0.066089
0.935401 0.186412 0.067219
0.946937 0.187071 0.067299
0.946957 0.187441 0.067082
0.042396 0.221694 0.051680
0.080202 0.223254 0.052324
0.128124 0.225023 0.053255
0.184733 0.226968 0.054435
0.248557 0.229055 0.055825
0.318083 0.231247 0.057384
0.391769 0.233509 0.059070
0.468049 0.235804 0.060842
0.545344 0.238096 0.062656
0.622066 0.240346 0.064471
0.696623 0.242519 0.066242
0.767422 0.244577 0.067928
0.832877 0.246483 0.069485
0.891409 0.248200 0.070870
0.941451 0.249694 0.072042
0.950652 0.250227 0.072120
0.950668 0.250520 0.071965
0.049276 0.290258 0.056362
0.087898 0.291804 0.057074
0.136452 0.293550 0.058070
0.193517 0.295462 0.059313
0.257627 0.297507 0.060761
0.327278 0.299648 0.062376
0.400940 0.301850 0.064116
0.477062 0.304076 0.065939
0.554080 0.306292 0.067802
0.630423 0.308459 0.069664
0.704518 0.310542 0.071482
0.774793 0.312504 0.073213
0.839684 0.314308 0.074814
0.897632 0.315920 0.076245
0.947094 0.317303 0.077463
0.954622 0.317698 0.077557
0.954632 0.317886 0.077464
0.056103 0.362260 0.061515
0.095395 0.363756 0.062296
0.144446 0.365441 0.063357
0.201839 0.367285 0.064662
0.266121 0.369252 0.066170
0.335800 0.371308 0.067841
0.409358 0.373417 0.069635
0.485263 0.375545 0.071509
0.561969 0.377654 0.073423
0.637922 0.379710 0.075334
0.711572 0.381677 0.077199
0.781366 0.383518 0.078978
0.845763 0.385199 0.080628
0.903226 0.386683 0.082107
0.952235 0.387937 0.083374
0.958772 0.388188 0.083504
0.958775 0.388252 0.083474
0.062717 0.436339 0.067039
0.102526 0.437751 0.067888
0.151928 0.439345 0.069014
0.209522 0.441089 0.070380
0.273862 0.442950 0.071947
0.343474 0.444894 0.073674
0.416857 0.446885 0.075522
0.492495 0.448890 0.077449
0.568862 0.450872 0.079414
0.644427 0.452797 0.081374
0.717658 0.454629 0.083290
0.787026 0.456333 0.085119
0.851010 0.457875 0.086819
0.908098 0.459221 0.088351
0.956791 0.460335 0.089672
0.963027 0.460446 0.089856
0.963023 0.460375 0.089888
0.068967 0.511161 0.072834
0.109133 0.512462 0.073748
0.158742 0.513941 0.074938
0.216406 0.515564 0.076364
0.280695 0.517298 0.077989
0.350152 0.519111 0.079772
0.423293 0.520967 0.081674
0.498623 0.522833 0.083653
0.574636 0.524675 0.085670
0.649822 0.526457 0.087682
0.722671 0.528145 0.089649
0.791677 0.529706 0.091530
0.855340 0.531105 0.093285
0.912169 0.532308 0.094871
0.960688 0.533282 0.096250
0.967317 0.533266 0.096506
0.967305 0.533059 0.096600
0.074718 0.585430 0.078797
0.115078 0.586605 0.079776
0.164748 0.587952 0.081027
0.222356 0.589440 0.082512
0.286489 0.591036 0.084193
0.355708 0.592707 0.086032
0.428550 0.594421 0.087987
0.503539 0.596143 0.090019
0.579191 0.597840 0.092088
0.654017 0.599478 0.094153
0.726530 0.601023 0.096173
0.795244 0.602442 0.098108
0.858681 0.603702 0.099918
0.915373 0.604769 0.101563
0.963861 0.605612 0.103002
0.971573 0.605490 0.103349
0.971555 0.605155 0.103503
0.079850 0.657899 0.084828
0.120242 0.658939 0.085870
0.169831 0.660148 0.087180
0.227261 0.661496 0.088722
0.291139 0.662951 0.090458
0.360045 0.664481 0.092350
0.432537 0.666054 0.094359
0.507160 0.667636 0.096443
0.582452 0.669194 0.098565
0.656945 0.670695 0.100683
0.729172 0.672107 0.102758
0.797670 0.673396 0.104749
0.860981 0.674530 0.106617
0.917655 0.675477 0.108322
0.966255 0.676204 0.109824
0.975731 0.676008 0.110279
0.975706 0.675562 0.110492
0.084265 0.727370 0.090828
0.124529 0.728275 0.091928
0.173898 0.729350 0.093295
0.231035 0.730564 0.094892
0.294566 0.731885 0.096682
0.363092 0.733283 0.098627
0.435193 0.734725 0.100688
0.509433 0.736179 0.102825
0.584372 0.737613 0.104999
0.658563 0.738995 0.107171
0.730561 0.740291 0.109301
0.798920 0.741471 0.111349
0.862203 0.742501 0.113276
0.918978 0.743351 0.115043
0.967824 0.743988 0.116611
0.979726 0.743755 0.117190
0.979696 0.743220 0.117459
0.087882 0.792695 0.096696
0.127865 0.793477 0.097853
0.176884 0.794430 0.099274
0.233620 0.795523 0.100924
0.296721 0.796727 0.102766
0.364808 0.798011 0.104761
0.436481 0.799342 0.106873
0.510329 0.800690 0.109062
0.584928 0.802023 0.111288
0.658854 0.803309 0.113514
0.730679 0.804517 0.115699
0.798977 0.805614 0.117806
0.862327 0.806569 0.119793
0.919315 0.807352 0.121624
0.968533 0.807930 0.123258
0.983499 0.807703 0.123975
0.983466 0.807111 0.124298
0.090647 0.852781 0.102336
0.130203 0.853459 0.103545
0.178748 0.854311 0.105017
0.234983 0.855307 0.106717
0.297579 0.856417 0.108609
0.365176 0.857612 0.110654
0.436395 0.858860 0.112815
0.509845 0.860130 0.115054
0.584122 0.861392 0.117332
0.657821 0.862614 0.119611
0.729530 0.863764 0.121852
0.797843 0.864812 0.124016
0.861351 0.865727 0.126064
0.918656 0.866477 0.127958
0.968362 0.867032 0.129658
0.986991 0.866860 0.130527
0.986957 0.866244 0.130900
0.092522 0.906581 0.107648
0.131514 0.907182 0.108906
0.179472 0.907961 0.110427
0.235118 0.908889 0.112174
0.297142 0.909937 0.114112
0.364206 0.911074 0.116204
0.434951 0.912272 0.118413
0.508003 0.913499 0.120701
0.581980 0.914725 0.123030
0.655490 0.915918 0.125361
0.727141 0.917049 0.127656
0.795538 0.918085 0.129876
0.859289 0.918997 0.131983
0.917004 0.919754 0.133940
0.967300 0.920324 0.135706
0.990144 0.920255 0.136736
0.990112 0.919651 0.137155
0.093493 0.953093 0.112536
0.131795 0.953650 0.113839
0.179063 0.954390 0.115404
0.234039 0.955284 0.117195
0.295435 0.956305 0.119177
0.361930 0.957423 0.121313
0.432187 0.958608 0.123568
0.504848 0.959829 0.125902
0.578547 0.961057 0.128278
0.651909 0.962261 0.130659
0.723555 0.963411 0.133006
0.792103 0.964475 0.135281
0.856171 0.965423 0.137446
0.914379 0.966226 0.139462
0.965351 0.966851 0.141292
0.992903 0.966933 0.142493
0.992874 0.966379 0.142952
0.092452 0.972547 0.115241
0.129968 0.973401 0.116612
0.176474 0.974459 0.118244
0.230732 0.975693 0.120105
0.291472 0.977074 0.122157
0.357394 0.978573 0.124367
0.427177 0.980160 0.126696
0.499479 0.981804 0.129107
0.572949 0.983475 0.131564
0.646226 0.985141 0.134028
0.717942 0.986772 0.136462
0.786725 0.988336 0.138827
0.851203 0.989803 0.141084
0.910000 0.991142 0.143197
0.961747 0.992320 0.145126
0.994453 0.993066 0.146545
0.994456 0.993070 0.147080
0.018271 0.010305 0.084170
0.051803 0.011514 0.084486
0.096160 0.012969 0.085100
0.149917 0.014637 0.085974
0.211606 0.016484 0.087069
0.279711 0.018475 0.088345
0.352671 0.020574 0.089759
0.428895 0.022743 0.091271
0.506768 0.024944 0.092836
0.584656 0.027141 0.094411
0.660916 0.029295 0.095953
0.733895 0.031368 0.097416
0.801943 0.033321 0.098758
0.863406 0.035116 0.099934
0.916643 0.036715 0.100900
0.938416 0.037590 0.101024
0.938435 0.037961 0.100571
0.023713 0.051093 0.085725
0.058470 0.052449 0.086099
0.103877 0.054043 0.086770
0.158507 0.055842 0.087698
0.220885 0.057811 0.088846
0.289489 0.059915 0.090172
0.362761 0.062116 0.091635
0.439109 0.064379 0.093193
0.516925 0.066666 0.094802
0.594581 0.068938 0.096419
0.670442 0.071157 0.098001
0.742870 0.073286 0.099503
0.810225 0.075287 0.100882
0.870872 0.077121 0.102093
0.923183 0.078750 0.103094
0.940879 0.079578 0.103170
0.940901 0.079987 0.102781
0.029757 0.101018 0.088151
0.065664 0.102481 0.088589
0.112040 0.104173 0.089322
0.167453 0.106059 0.090311
0.230428 0.108107 0.091516
0.299442 0.110279 0.092898
0.372939 0.112540 0.094414
0.449334 0.114852 0.096023
0.527025 0.117178 0.097681
0.604396 0.119480 0.099345
0.679825 0.121720 0.100972
0.751686 0.123861 0.102517
0.818356 0.125864 0.103938
0.878218 0.127693 0.105192
0.929664 0.129309 0.106234
0.943844 0.130058 0.106280
0.943866 0.130462 0.105960
0.036239 0.158555 0.091350
0.073198 0.160085 0.091858
0.120439 0.161833 0.092658
0.176533 0.163767 0.093711
0.240003 0.165851 0.094979
0.309331 0.168049 0.096421
0.382966 0.170327 0.097994
0.459333 0.172646 0.099658
0.536839 0.174969 0.101369
0.613882 0.177259 0.103084
0.688856 0.179479 0.104760
0.760150 0.181591 0.106354
0.826161 0.183557 0.107822
0.885291 0.185342 0.109123
0.935953 0.186906 0.110212
0.947223 0.187550 0.110249
0.947243 0.187909 0.110000
0.042991 0.222297 0.095232
0.080885 0.223851 0.095814
0.128875 0.225614 0.096685
0.185535 0.227553 0.097806
0.249393 0.229632 0.099140
0.318935 0.231816 0.100644
0.392622 0.234069 0.102278
0.468888 0.236354 0.104000
0.546157 0.238635 0.105767
0.622841 0.240875 0.107536
0.697350 0.243036 0.109266
0.768094 0.245082 0.110912
0.833489 0.246976 0.112433
0.891957 0.248681 0.113785
0.941935 0.250161 0.114927
0.950936 0.250679 0.114974
0.950951 0.250960 0.114797
0.049846 0.290848 0.099707
0.088542 0.292387 0.100364
0.137152 0.294124 0.101308
0.194256 0.296028 0.102500
0.258388 0.298062 0.103901
0.328046 0.300193 0.105470
0.401700 0.302384 0.107167
0.477802 0.304599 0.108949
0.554789 0.306803 0.110775
0.631093 0.308957 0.112602
0.705142 0.311027 0.114388
0.775366 0.312976 0.116090
0.840203 0.314767 0.117667
0.898097 0.316365 0.119076
0.947507 0.317734 0.120275
0.954904 0.318114 0.120352
0.954914 0.318289 0.120250
0.056640 0.362826 0.104680
0.095992 0.364312 0.105414
0.145084 0.365988 0.106432
0.202503 0.367820 0.107696
0.266795 0.369776 0.109165
0.336471 0.371820 0.110801
0.410015 0.373917 0.112562
0.485895 0.376031 0.114406
0.562567 0.378127 0.116293
0.638481 0.380170 0.118180
0.712086 0.382122 0.120025
0.781835 0.383949 0.121787
0.846186 0.385616 0.123423
0.903606 0.387086 0.124893
0.952576 0.388326 0.126154
0.959051 0.388562 0.126280
0.959054 0.388612 0.126252
0.063213 0.436871 0.110054
0.103065 0.438271 0.110866
0.152495 0.439853 0.111959
0.210101 0.441585 0.113294
0.274441 0.443434 0.114832
0.344041 0.445364 0.116535
0.417402 0.447342 0.118361
0.493011 0.449332 0.120269
0.569343 0.451300 0.122218
0.644868 0.453211 0.124167
0.718059 0.455028 0.126074
0.787387 0.456718 0.127898
0.851335 0.458246 0.129597
0.908391 0.459577 0.131130
0.957060 0.460677 0.132458
0.963304 0.460774 0.132652
0.963299 0.460689 0.132698
0.069416 0.511650 0.115733
0.109608 0.512940 0.116622
0.159230 0.514405 0.117788
0.216893 0.516015 0.119195
0.281172 0.517736 0.120802
0.350608 0.519534 0.122572
0.423721 0.521376 0.124463
0.499018 0.523228 0.126435
0.574995 0.525055 0.128448
0.650144 0.526822 0.130460
0.722957 0.528496 0.132431
0.791930 0.530042 0.134319
0.855565 0.531427 0.136084
0.912375 0.532616 0.137685
0.960885 0.533576 0.139082
0.967592 0.533548 0.139362
0.967580 0.533328 0.139481
0.075113 0.585873 0.121618
0.115483 0.587035 0.122582
0.165152 0.588368 0.123821
0.222747 0.589842 0.125298
0.286859 0.591424 0.126973
0.356049 0.593081 0.128809
0.428858 0.594781 0.130766
0.503811 0.596488 0.132803
0.579427 0.598171 0.134880
0.654218 0.599794 0.136956
0.726700 0.601325 0.138992
0.795388 0.602731 0.140946
0.858809 0.603977 0.142779
0.915493 0.605031 0.144450
0.963987 0.605860 0.145919
0.971846 0.605729 0.146303
0.971827 0.605382 0.146494
0.080189 0.658295 0.127610
0.120574 0.659321 0.128647
0.170147 0.660516 0.129957
0.227553 0.661850 0.131502
0.291400 0.663292 0.133245
0.360271 0.664808 0.135146
0.432725 0.666366 0.137167
0.507311 0.667934 0.139269
0.582566 0.669478 0.141410
0.657027 0.670966 0.143552
0.729229 0.672364 0.145654
0.797710 0.673641 0.147675
0.861013 0.674762 0.149578
0.917692 0.675697 0.151320
0.966311 0.676413 0.152864
0.976002 0.676210 0.153368
0.975977 0.675752 0.153628
0.084545 0.727719 0.133610
0.124787 0.728611 0.134718
0.174127 0.729673 0.136096
0.231228 0.730873 0.137708
0.294720 0.732181 0.139515
0.363204 0.733565 0.141481
0.435263 0.734994 0.143566
0.509464 0.736435 0.145731
0.584368 0.737857 0.147937
0.658531 0.739226 0.150143
0.730509 0.740511 0.152312
0.798859 0.741679 0.154402
0.862144 0.742698 0.156374
0.918936 0.743537 0.158189
0.967813 0.744164 0.159809
0.979997 0.743928 0.160448
0.979967 0.743383 0.160774
0.088104 0.793003 0.139519
0.128051 0.793773 0.140695
0.177027 0.794713 0.142138
0.233717 0.795794 0.143814
0.296770 0.796985 0.145685
0.364810 0.798257 0.147713
0.436439 0.799576 0.149860
0.510246 0.800913 0.152087
0.584812 0.802234 0.154356
0.658713 0.803510 0.156627
0.730524 0.804707 0.158861
0.798820 0.805794 0.161019
0.862183 0.806740 0.163062
0.919198 0.807514 0.164950
0.968461 0.808084 0.166645
0.983770 0.807857 0.167433
0.983737 0.807257 0.167821
0.090813 0.853056 0.145239
0.130319 0.853722 0.146478
0.178809 0.854563 0.147984
0.234989 0.855547 0.149720
0.297530 0.856647 0.151651
0.365075 0.857831 0.153739
0.436247 0.859068 0.155947
0.509657 0.860329 0.158235
0.583903 0.861581 0.160565
0.657581 0.862794 0.162899
0.729282 0.863936 0.165198
0.797600 0.864976 0.167422
0.861129 0.865884 0.169534
0.918471 0.866627 0.171494
0.968232 0.867177 0.173264
0.987263 0.867007 0.174212
0.987229 0.866384 0.174656
0.092638 0.906833 0.150670
0.131566 0.907424 0.151969
0.179458 0.908193 0.153533
0.235040 0.909111 0.155327
0.297003 0.910150 0.157314
0.364011 0.911279 0.159459
0.434707 0.912468 0.161723
0.507720 0.913687 0.164069
0.581667 0.914905 0.166459
0.655161 0.916091 0.168853
0.726809 0.917215 0.171214
0.795218 0.918246 0.173503
0.858998 0.919152 0.175681
0.916759 0.919904 0.177711
0.967119 0.920471 0.179552
0.990418 0.920408 0.180671
0.990386 0.919799 0.181166
0.093564 0.953335 0.155713
0.131790 0.953883 0.157067
0.178982 0.954615 0.158684
0.233887 0.955502 0.160531
0.295216 0.956515 0.162571
0.361653 0.957626 0.164768
0.431859 0.958804 0.167086
0.504482 0.960019 0.169486
0.578154 0.961241 0.171931
0.651503 0.962440 0.174382
0.723151 0.963585 0.176802
0.791718 0.964645 0.179152
0.855821 0.965590 0.181394
0.914083 0.966390 0.183488
0.965127 0.967014 0.185398
0.993180 0.967104 0.186692
0.993150 0.966547 0.187232
0.092491 0.972893 0.158615
0.129921 0.973746 0.160045
0.176344 0.974803 0.161739
0.230524 0.976036 0.163663
0.291194 0.977416 0.165782
0.357055 0.978914 0.168060
0.426787 0.980500 0.170460
0.499051 0.982144 0.172944
0.572498 0.983815 0.175475
0.645766 0.985481 0.178016
0.717489 0.987113 0.180528
0.786296 0.988679 0.182972
0.850815 0.990148 0.185311
0.909673 0.991488 0.187506
0.961499 0.992668 0.189519
0.994742 0.993428 0.191035
0.994746 0.993433 0.191652
0.018910 0.010873 0.134353
0.052567 0.012085 0.134604
0.097032 0.013542 0.135153
0.150879 0.015211 0.135961
0.212641 0.017059 0.136991
0.280798 0.019050 0.138201
0.353793 0.021147 0.139552
0.430032 0.023315 0.140999
0.507900 0.025514 0.142501
0.585767 0.027708 0.144013
0.661987 0.029859 0.145493
0.734911 0.031927 0.146896
0.802887 0.033875 0.148178
0.864267 0.035665 0.149296
0.917407 0.037258 0.150205
0.938744 0.038119 0.150265
0.938762 0.038485 0.149762
0.024362 0.051701 0.135683
0.059238 0.053058 0.135993
0.104746 0.054652 0.136600
0.159458 0.056451 0.137466
