Fotico/Resources/LUTs/glam.cube
# Glam
LUT_3D_SIZE 9
0.017112 0.009310 0.001241
0.094537 0.011973 0.003428
0.209660 0.015492 0.006641
0.350552 0.019591 0.010555
0.504628 0.023976 0.014828
0.658901 0.028347 0.019104
0.800186 0.032398 0.023024
0.915255 0.035821 0.026227
0.937941 0.037110 0.026912
0.028588 0.099916 0.009400
0.110467 0.103082 0.011743
0.228602 0.107034 0.015070
0.371009 0.111491 0.019054
0.525130 0.116159 0.023352
0.678089 0.120736 0.027612
0.816880 0.124920 0.031481
0.928519 0.128407 0.034604
0.943389 0.129612 0.035084
0.041879 0.221188 0.020268
0.127452 0.224534 0.022720
0.247802 0.228586 0.026112
0.391000 0.233063 0.030117
0.544618 0.237674 0.034398
0.695985 0.242123 0.038607
0.832359 0.246115 0.042398
0.941066 0.249354 0.045425
0.950492 0.250211 0.045737
0.055656 0.361809 0.032830
0.143899 0.365014 0.035337
0.265539 0.368850 0.038742
0.408795 0.373044 0.042724
0.561466 0.377310 0.046951
0.711155 0.381363 0.051084
0.845440 0.384915 0.054784
0.951997 0.387683 0.057715
0.958608 0.388027 0.057912
0.068619 0.510798 0.046097
0.158353 0.513606 0.048607
0.280317 0.516993 0.051982
0.422964 0.520692 0.055906
0.574377 0.524429 0.060055
0.722486 0.527930 0.064099
0.855216 0.530918 0.067711
0.960596 0.533123 0.070564
0.967142 0.532924 0.070712
0.079617 0.657638 0.059128
0.169617 0.659915 0.061599
0.290979 0.662746 0.064910
0.432449 0.665877 0.068755
0.582437 0.669043 0.072818
0.729214 0.671982 0.076781
0.861048 0.674429 0.080323
0.966298 0.676124 0.083128
0.975538 0.675497 0.083307
0.087766 0.792523 0.071049
0.176843 0.794281 0.073452
0.296771 0.796602 0.076682
0.436620 0.799239 0.080443
0.585138 0.801940 0.084429
0.730926 0.804451 0.088329
0.862563 0.806519 0.091833
0.968696 0.807892 0.094633
0.983287 0.807077 0.094931
0.092508 0.906460 0.081065
0.179583 0.907856 0.083385
0.297373 0.909847 0.086533
0.435283 0.912196 0.090220
0.582378 0.914661 0.094149
0.727556 0.916993 0.098019
0.859659 0.918947 0.101525
0.967556 0.920277 0.104365
0.989914 0.919597 0.104871
0.092506 0.972321 0.086785
0.176692 0.974231 0.089077
0.291833 0.976843 0.092212
0.427644 0.979925 0.095910
0.573474 0.983234 0.099880
0.718464 0.986523 0.103828
0.851654 0.989545 0.107454
0.962055 0.992050 0.110460
0.994224 0.992780 0.111336
0.018271 0.010305 0.084170
0.096160 0.012969 0.085100
0.211606 0.016484 0.087069
0.352671 0.020574 0.089759
0.506768 0.024944 0.092836
0.660916 0.029295 0.095953
0.801943 0.033321 0.098758
0.916643 0.036715 0.100900
0.938435 0.037961 0.100571
0.029757 0.101018 0.088151
0.112040 0.104173 0.089322
0.230428 0.108107 0.091516
0.372939 0.112540 0.094414
0.527025 0.117178 0.097681
0.679825 0.121720 0.100972
0.818356 0.125864 0.103938
0.929664 0.129309 0.106234
0.943866 0.130462 0.105960
0.042991 0.222297 0.095232
0.128875 0.225614 0.096685
0.249393 0.229632 0.099140
0.392622 0.234069 0.102278
0.546157 0.238635 0.105767
0.697350 0.243036 0.109266
0.833489 0.246976 0.112433
0.941935 0.250161 0.114927
0.950951 0.250960 0.114797
0.056640 0.362826 0.104680
0.145084 0.365988 0.106432
0.266795 0.369776 0.109165
0.410015 0.373917 0.112562
0.562567 0.378127 0.116293
0.712086 0.382122 0.120025
0.846186 0.385616 0.123423
0.952576 0.388326 0.126154
0.959054 0.388612 0.126252
0.069416 0.511650 0.115733
0.159230 0.514405 0.117788
0.281172 0.517736 0.120802
0.423721 0.521376 0.124463
0.574995 0.525055 0.128448
0.722957 0.528496 0.132431
0.855565 0.531427 0.136084
0.960885 0.533576 0.139082
0.967580 0.533328 0.139481
0.080189 0.658295 0.127610
0.170147 0.660516 0.129957
0.291400 0.663292 0.133245
0.432725 0.666366 0.137167
0.582566 0.669478 0.141410
0.729229 0.672364 0.145654
0.861013 0.674762 0.149578
0.966311 0.676413 0.152864
0.975977 0.675752 0.153628
0.088104 0.793003 0.139519
0.177027 0.794713 0.142138
0.296770 0.796985 0.145685
0.436439 0.799576 0.149860
0.584812 0.802234 0.154356
0.730524 0.804707 0.158861
0.862183 0.806740 0.163062
0.968461 0.808084 0.166645
0.983737 0.807257 0.167821
0.092638 0.906833 0.150670
0.179458 0.908193 0.153533
0.297003 0.910150 0.157314
0.434707 0.912468 0.161723
0.581667 0.914905 0.166459
0.726809 0.917215 0.171214
0.858998 0.919152 0.175681
0.967119 0.920471 0.179552
0.990386 0.919799 0.181166
0.092491 0.972893 0.158615
0.176344 0.974803 0.161739
0.291194 0.977416 0.165782
0.426787 0.980500 0.170460
0.572498 0.983815 0.175475
0.717489 0.987113 0.180528
0.850815 0.990148 0.185311
0.961499 0.992668 0.189519
0.994746 0.993433 0.191652
0.019580 0.011480 0.189228
0.097934 0.014153 0.189923
0.213704 0.017672 0.191657
0.354942 0.021759 0.194115
0.509060 0.026122 0.196962
0.663084 0.030460 0.199855
0.803858 0.034467 0.202445
0.918197 0.037838 0.204380
0.939121 0.039048 0.203845
0.031092 0.102324 0.192409
0.113775 0.105473 0.193364
0.232415 0.109396 0.195348
0.375029 0.113811 0.198043
0.529079 0.118425 0.201117
0.681722 0.122937 0.204226
0.820000 0.127048 0.207025
0.930988 0.130454 0.209167
0.944549 0.131559 0.208751
0.044281 0.223628 0.198776
0.130472 0.226923 0.200049
0.251151 0.230911 0.202336
0.394409 0.235313 0.205319
0.547861 0.239839 0.208668
0.698883 0.244195 0.212043
0.834795 0.248086 0.215105
0.942992 0.251221 0.217514
0.951628 0.251965 0.217318
0.057812 0.364082 0.207656
0.146448 0.367204 0.209282
0.268225 0.370947 0.211904
0.411405 0.375039 0.215208
0.563837 0.379197 0.218865
0.713191 0.383136 0.222543
0.847112 0.386573 0.225909
0.953347 0.389226 0.228631
0.959721 0.389456 0.228744
0.070407 0.512753 0.218341
0.160291 0.515457 0.220335
0.282203 0.518733 0.223306
0.424652 0.522317 0.226945
0.575785 0.525937 0.230930
0.723602 0.529320 0.234935
0.856096 0.532193 0.238633
0.961366 0.534287 0.241700
0.968237 0.533989 0.242196
0.080958 0.659209 0.230086
0.170864 0.661376 0.232444
0.292000 0.664096 0.235762
0.433175 0.667114 0.239738
0.582868 0.670170 0.244055
0.729418 0.673003 0.248395
0.861159 0.675351 0.252438
0.966512 0.676955 0.255866
0.976628 0.676258 0.256800
0.088642 0.793744 0.242118
0.177398 0.795404 0.244820
0.296948 0.797627 0.248469
0.436431 0.800170 0.252767
0.584658 0.802782 0.257406
0.730294 0.805213 0.262075
0.861979 0.807209 0.266458
0.968406 0.808520 0.270243
0.984387 0.807676 0.271649
0.092965 0.907465 0.253641
0.179519 0.908786 0.256652
0.296809 0.910704 0.260599
0.434302 0.912988 0.265190
0.581125 0.915393 0.270125
0.726229 0.917677 0.275096
0.858504 0.919592 0.279793
0.966852 0.920895 0.283908
0.991041 0.920225 0.285792
0.092669 0.973724 0.262196
0.176176 0.975627 0.265522
0.290726 0.978235 0.269780
0.426096 0.981316 0.274685
0.571684 0.984630 0.279940
0.716674 0.987930 0.285242
0.850136 0.990970 0.290284
0.961099 0.993499 0.294758
0.995432 0.994290 0.297179
0.020991 0.012777 0.309177
0.099806 0.015459 0.309742
0.215894 0.018981 0.311347
0.357299 0.023066 0.313675
0.511432 0.027421 0.316396
0.665330 0.031746 0.319166
0.805850 0.035734 0.321637
0.919832 0.039083 0.323459
0.939908 0.040256 0.322809
0.032525 0.103750 0.311910
0.115601 0.106893 0.312751
0.234484 0.110804 0.314624
0.377194 0.115200 0.317212
0.531204 0.119790 0.320184
0.683689 0.124273 0.323199
0.821715 0.128349 0.325912
0.932389 0.131717 0.327978
0.945336 0.132775 0.327489
0.045663 0.225077 0.317893
0.132150 0.228348 0.319077
0.252982 0.232306 0.321282
0.396263 0.236672 0.324190
0.549627 0.241157 0.327472
0.700479 0.245468 0.330792
0.836168 0.249311 0.333809
0.944125 0.252396 0.336186
0.952408 0.253085 0.335969
0.059072 0.365452 0.326489
0.147888 0.368534 0.328060
0.269721 0.372232 0.330637
0.412854 0.376274 0.333905
0.565165 0.380378 0.337538
0.714355 0.384262 0.341205
0.848103 0.387642 0.344574
0.954194 0.390239 0.347313
0.960492 0.390414 0.347459
0.071481 0.513968 0.337020
0.161423 0.516621 0.338999
0.283296 0.519842 0.341968
0.425639 0.523369 0.345616
0.576631 0.526931 0.349622
0.724306 0.530256 0.353663
0.856692 0.533072 0.357412
0.961924 0.535111 0.360544
0.968999 0.534765 0.361125
0.081809 0.660236 0.348761
0.171651 0.662348 0.351147
0.292661 0.665012 0.354508
0.433683 0.667974 0.358537
0.583227 0.670976 0.362921
0.729668 0.673755 0.367342
0.861372 0.676053 0.371480
0.966791 0.677611 0.375016
0.977383 0.676880 0.376080
0.089261 0.794601 0.360946
0.177840 0.796210 0.363719
0.297190 0.798384 0.367451
0.436483 0.800879 0.371844
0.584564 0.803446 0.376590
0.730130 0.805835 0.381377
0.861845 0.807794 0.385890
0.968431 0.809074 0.389816
0.985140 0.808213 0.391386
0.093376 0.908216 0.372772
0.179656 0.909497 0.375890
0.296685 0.911378 0.379954
0.433964 0.913626 0.384672
0.580651 0.916001 0.389743
0.725721 0.918257 0.394859
0.858087 0.920151 0.399710
0.966667 0.921438 0.403986
0.991797 0.920772 0.406052
0.092938 0.974684 0.381773
0.176091 0.976580 0.385233
0.290338 0.979183 0.389634
0.425483 0.982260 0.394687
0.570949 0.985572 0.400096
0.715940 0.988874 0.405557
0.849540 0.991918 0.410763
0.960788 0.994455 0.415403
0.996217 0.995272 0.418011
0.022453 0.014131 0.436249
0.101725 0.016822 0.436789
0.218125 0.020348 0.438368
0.359690 0.024431 0.440671
0.513834 0.028778 0.443365
0.667601 0.033089 0.446108
0.807868 0.037059 0.448553
0.921495 0.040385 0.450352
0.940746 0.041523 0.449669
0.034003 0.105232 0.438882
0.117465 0.108370 0.439707
0.236583 0.112267 0.441565
0.379383 0.116645 0.444138
0.533348 0.121210 0.447096
0.685673 0.125663 0.450098
0.823450 0.129704 0.452801
0.933816 0.133034 0.454861
0.946174 0.134046 0.454364
0.047087 0.226579 0.444800
0.133860 0.229826 0.445980
0.254836 0.233754 0.448181
0.398132 0.238083 0.451088
0.551405 0.242527 0.454371
0.702086 0.246792 0.457695
0.837557 0.250587 0.460721
0.945283 0.253621 0.463112
0.953241 0.254257 0.462911
0.060367 0.366873 0.453375
0.149352 0.369914 0.454956
0.271232 0.373566 0.457545
0.414313 0.377557 0.460827
0.566500 0.381609 0.464479
0.715527 0.385437 0.468169
0.849109 0.388761 0.471565
0.955066 0.391301 0.474338
0.961316 0.391421 0.474526
0.072588 0.515232 0.463940
0.162575 0.517833 0.465944
0.284400 0.521000 0.468941
0.426632 0.524470 0.472620
0.577482 0.527973 0.476663
0.725018 0.531240 0.480744
0.857303 0.533999 0.484539
0.962506 0.535983 0.487724
0.969814 0.535589 0.488369
0.082691 0.661312 0.475776
0.172457 0.663370 0.478202
0.293333 0.665978 0.481605
0.434196 0.668884 0.485681
0.583592 0.671830 0.490117
0.729928 0.674557 0.494594
0.861601 0.676805 0.498792
0.967095 0.678317 0.502395
0.978190 0.677552 0.503539
0.089912 0.795508 0.488116
0.178303 0.797068 0.490940
0.297446 0.799192 0.494727
0.436546 0.801639 0.499178
0.584482 0.804162 0.503986
0.729979 0.806509 0.508839
0.861732 0.808431 0.513421
0.968484 0.809680 0.517421
0.985944 0.808804 0.519080
0.093823 0.909022 0.500145
0.179818 0.910263 0.503322
0.296581 0.912106 0.507447
0.433644 0.914319 0.512229
0.580194 0.916663 0.517366
0.725235 0.918893 0.522550
0.857696 0.920766 0.527472
0.966513 0.922037 0.531820
0.992603 0.921375 0.533977
0.093247 0.975709 0.509401
0.176039 0.977598 0.512924
0.289978 0.980194 0.517387
0.424896 0.983267 0.522503
0.570242 0.986576 0.527977
0.715237 0.989879 0.533502
0.848978 0.992926 0.538772
0.960513 0.995470 0.543477
0.997050 0.996313 0.546169
0.023914 0.015481 0.562717
0.103638 0.018181 0.563336
0.220344 0.021710 0.564991
0.362064 0.025790 0.567366
0.516213 0.030129 0.570129
0.669847 0.034427 0.572938
0.809859 0.038379 0.575446
0.923136 0.041682 0.577304
0.941585 0.042784 0.576667
0.035478 0.106707 0.565590
0.119317 0.109838 0.566494
0.238662 0.113723 0.568427
0.381544 0.118081 0.571071
0.535459 0.122621 0.574095
0.687623 0.127044 0.577160
0.825154 0.131050 0.579922
0.935219 0.134342 0.582038
0.947015 0.135308 0.581588
0.048501 0.228071 0.571744
0.135549 0.231293 0.572999
0.256659 0.235190 0.575270
0.399965 0.239482 0.578242
0.553143 0.243884 0.581586
0.703654 0.248104 0.584966
0.838911 0.251850 0.588045
0.946415 0.254834 0.590487
0.954077 0.255416 0.590332
0.061648 0.368280 0.580540
0.150790 0.371280 0.582187
0.272707 0.374886 0.584837
0.415729 0.378827 0.588176
0.567790 0.382824 0.591879
0.716656 0.386597 0.595617
0.850078 0.389864 0.599059
0.955911 0.392348 0.601875
0.962143 0.392414 0.602104
0.073677 0.516481 0.591301
0.163696 0.519031 0.593360
0.285465 0.522142 0.596406
0.427580 0.525554 0.600130
0.578286 0.529000 0.604214
0.725686 0.532208 0.608332
0.857878 0.534910 0.612161
0.963063 0.536840 0.615377
0.970630 0.536400 0.616056
0.083553 0.662374 0.603300
0.173230 0.664377 0.605768
0.293965 0.666928 0.609206
0.434666 0.669778 0.613313
0.583912 0.672670 0.617775
0.730146 0.675344 0.622274
0.861796 0.677542 0.626493
0.967375 0.679010 0.630113
0.978998 0.678213 0.631280
0.090543 0.796404 0.615764
0.178736 0.797913 0.618613
0.297665 0.799988 0.622418
0.436569 0.802387 0.626883
0.584359 0.804865 0.631700
0.729792 0.807171 0.636558
0.861588 0.809057 0.641144
0.968514 0.810275 0.645143
0.986747 0.809385 0.646812
0.094253 0.909818 0.627870
0.179954 0.911019 0.631051
0.296445 0.912825 0.635175
0.433291 0.915003 0.639951
0.579706 0.917316 0.645078
0.724718 0.919520 0.650248
0.857280 0.921372 0.655153
0.966340 0.922628 0.659482
0.993407 0.921970 0.661633
0.093544 0.976735 0.637168
0.175968 0.978615 0.640675
0.289596 0.981204 0.645116
0.424286 0.984272 0.650206
0.569512 0.987579 0.655650
0.714513 0.990881 0.661142
0.848400 0.993931 0.666376
0.960225 0.996482 0.671042
0.997879 0.997349 0.673711
0.025325 0.016763 0.680901
0.105495 0.019472 0.681700
0.222501 0.023004 0.683529
0.364369 0.027082 0.686072
0.518518 0.031413 0.688996
0.672016 0.035696 0.691958
0.811774 0.039630 0.694610
0.924704 0.042910 0.696605
0.942374 0.043978 0.696087
0.036897 0.108113 0.684343
0.121104 0.111237 0.685416
0.240669 0.115108 0.687509
0.383626 0.119446 0.690304
0.537487 0.123960 0.693470
0.689488 0.128352 0.696666
0.826775 0.132324 0.699549
0.936547 0.135578 0.701777
0.947806 0.136497 0.701422
0.049854 0.229490 0.691017
0.137167 0.232687 0.692419
0.258402 0.236551 0.694826
0.401710 0.240807 0.697922
0.554790 0.245166 0.701378
0.705131 0.249340 0.704859
0.840179 0.253037 0.708028
0.947471 0.255971 0.710549
0.954864 0.256500 0.710461
0.062863 0.369612 0.700251
0.152149 0.372569 0.702014
0.274095 0.376128 0.704766
0.417051 0.380018 0.708195
0.568984 0.383962 0.711975
0.717692 0.387678 0.715778
0.850960 0.390889 0.719272
0.956681 0.393317 0.722130
0.962921 0.393330 0.722392
0.074696 0.517653 0.711342
0.164735 0.520149 0.713478
0.286438 0.523205 0.716587
0.428431 0.526560 0.720361
0.578993 0.529947 0.724480
0.726260 0.533097 0.728623
0.858365 0.535743 0.732464
0.963543 0.537619 0.735683
0.971398 0.537133 0.736358
0.084343 0.663358 0.723545
0.173920 0.665305 0.726046
0.294506 0.667800 0.729503
0.435040 0.670594 0.733616
0.584137 0.673431 0.738071
0.730272 0.676053 0.742552
0.861906 0.678202 0.746741
0.967578 0.679626 0.750321
0.979757 0.678797 0.751449
0.091105 0.797223 0.736075
0.179088 0.798682 0.738910
0.297796 0.800707 0.742689
0.436501 0.803059 0.747115
0.584146 0.805492 0.751882
0.729518 0.807758 0.756679
0.861363 0.809608 0.761194
0.968470 0.810796 0.765114
0.987499 0.809892 0.766708
0.094616 0.910542 0.748104
0.180015 0.911703 0.751226
0.296229 0.913470 0.755279
0.432854 0.915614 0.759973
0.579135 0.917896 0.765008
0.724122 0.920074 0.770077
0.856789 0.921905 0.774873
0.966097 0.923147 0.779087
0.994158 0.922493 0.781133
0.093780 0.977698 0.757208
0.175829 0.979569 0.760613
0.289141 0.982150 0.764944
0.423603 0.985211 0.769914
0.568710 0.988515 0.775230
0.713720 0.991816 0.780588
0.847754 0.994869 0.785683
0.959872 0.997424 0.790206
0.998653 0.998316 0.792747
0.026635 0.017915 0.783147
0.107245 0.020633 0.784224
0.224544 0.024168 0.786323
0.366554 0.028243 0.789126
0.520699 0.032565 0.792298
0.674057 0.036835 0.795496
0.813561 0.040750 0.798371
0.926149 0.044007 0.800573
0.943064 0.045041 0.800237
0.038210 0.109386 0.787476
0.122777 0.112503 0.788804
0.242552 0.116360 0.791138
0.385577 0.120678 0.794159
0.539380 0.125165 0.797534
0.691217 0.129526 0.800923
0.828263 0.133463 0.803982
0.937749 0.136678 0.806369
0.948499 0.137552 0.806149
0.051096 0.230774 0.794938
0.138662 0.233944 0.796552
0.260013 0.237776 0.799154
0.403316 0.241993 0.802426
0.556295 0.246310 0.806039
0.706467 0.250438 0.809658
0.841312 0.254086 0.812945
0.948401 0.256969 0.815564
0.955552 0.257445 0.815554
0.063962 0.370804 0.804804
0.153381 0.373719 0.806724
0.275344 0.377230 0.809611
0.418229 0.381069 0.813154
0.570032 0.384958 0.817028
0.718584 0.388619 0.820903
0.851705 0.391772 0.824449
0.957322 0.394144 0.827339
0.963601 0.394105 0.827617
0.075594 0.518683 0.816332
0.165642 0.521127 0.818558
0.287270 0.524126 0.821734
0.429137 0.527423 0.825552
0.579553 0.530752 0.829695
0.726690 0.533844 0.833840
0.858715 0.536434 0.837664
0.963897 0.538257 0.840846
0.972066 0.537725 0.841472
0.085012 0.664201 0.828748
0.174478 0.666092 0.831265
0.294905 0.668531 0.834717
0.435269 0.671269 0.838802
0.584217 0.674051 0.843209
0.730257 0.676621 0.847622
0.861880 0.678722 0.851725
0.967656 0.680101 0.855201
0.980414 0.679241 0.856218
0.091546 0.797904 0.841255
0.179309 0.799312 0.844033
0.297789 0.801287 0.847733
0.436292 0.803592 0.852060
0.583792 0.805980 0.856710
0.729107 0.808206 0.861372
0.861007 0.810021 0.865736
0.968302 0.811178 0.869492
0.988149 0.810262 0.870921
0.094863 0.911129 0.853028
0.179949 0.912250 0.856022
0.295881 0.913980 0.859927
0.432285 0.916089 0.864457
0.578431 0.918340 0.869312
0.723397 0.920492 0.874189
0.856172 0.922303 0.878780
0.965734 0.923530 0.882779
0.994804 0.922882 0.884618
0.093903 0.978535 0.861680
0.175571 0.980395 0.864895
0.288564 0.982968 0.869021
0.422796 0.986022 0.873774
0.567786 0.989321 0.878861
0.712806 0.992621 0.883982
0.846991 0.995675 0.888833
0.959404 0.998235 0.893106
0.999320 0.999150 0.895413
0.027793 0.018875 0.861810
0.108838 0.021601 0.863260
0.226424 0.025139 0.865721
0.368569 0.029211 0.868872
0.522703 0.033524 0.872376
0.675919 0.037780 0.875887
0.815171 0.041676 0.879054
0.927421 0.044911 0.881529
0.943604 0.045911 0.881435
0.039368 0.110465 0.867333
0.124285 0.113573 0.868996
0.244262 0.117415 0.871646
0.387348 0.121712 0.874961
0.541088 0.126173 0.878609
0.692760 0.130503 0.882246
0.829569 0.134404 0.885528
0.938776 0.137580 0.888113
0.949042 0.138409 0.888060
0.052176 0.231859 0.875830
0.139984 0.235002 0.877716
0.261441 0.238800 0.880565
0.404733 0.242979 0.884057
0.557607 0.247253 0.887864
0.707611 0.251333 0.891648
0.842257 0.254932 0.895072
0.949153 0.257765 0.897802
0.956092 0.258189 0.897872
0.064893 0.371795 0.886499
0.154432 0.374666 0.888608
0.276405 0.378129 0.891656
0.419213 0.381915 0.895329
0.570884 0.385750 0.899304
0.719281 0.389355 0.903250
0.852261 0.392452 0.906839
0.957787 0.394768 0.909743
0.964130 0.394676 0.910009
0.076322 0.519510 0.898542
0.166365 0.521900 0.900862
0.287911 0.524843 0.904100
0.429645 0.528082 0.907950
0.579915 0.531352 0.912095
0.726925 0.534386 0.916212
0.858877 0.536919 0.919980
0.964072 0.538689 0.923079
0.972583 0.538113 0.923602
0.085509 0.664840 0.911151
0.174851 0.666676 0.913660
0.295113 0.669058 0.917073
0.435303 0.671739 0.921088
0.584101 0.674467 0.925397
0.730049 0.676984 0.929685
0.861669 0.679037 0.933636
0.967556 0.680373 0.936938
0.980919 0.679483 0.937767
0.091816 0.798382 0.923518
0.179349 0.799739 0.926186
0.297595 0.801665 0.929747
0.435893 0.803922 0.933908
0.583249 0.806266 0.938366
0.728508 0.808452 0.942814
0.860468 0.810231 0.946942
0.967959 0.811360 0.950442
0.988645 0.810431 0.951612
0.094942 0.911517 0.934829
0.179708 0.912598 0.937618
0.295352 0.914289 0.941294
0.431532 0.916364 0.945571
0.577545 0.918584 0.950155
0.722492 0.920711 0.954742
0.855380 0.922501 0.959028
0.965200 0.923714 0.962709
0.995295 0.923071 0.964236
0.093865 0.979181 0.942750
0.175145 0.981030 0.945681
0.287815 0.983593 0.949503
0.421817 0.986640 0.953938
0.566690 0.989933 0.958693
0.711723 0.993230 0.963471
0.846062 0.996285 0.967971
0.958772 0.998849 0.971888
0.999830 0.999788 0.973855
