Fotico/Resources/LUTs/goldie.cube
TITLE "Goldie"
LUT_3D_SIZE 33
0.068676 0.000000 0.000000
0.096707 0.000000 0.000000
0.124194 0.000000 0.000000
0.152832 0.000000 0.000000
0.182840 0.000000 0.000000
0.216148 0.000000 0.000000
0.255268 0.000000 0.000000
0.298687 0.000000 0.000000
0.345436 0.000000 0.000000
0.393033 0.000000 0.000000
0.438141 0.000000 0.000000
0.482444 0.000000 0.000000
0.526511 0.000000 0.000000
0.570219 0.000000 0.000000
0.613443 0.000000 0.000000
0.656061 0.000000 0.000000
0.697952 0.000000 0.000000
0.738895 0.000000 0.000000
0.778894 0.000000 0.000000
0.818162 0.000000 0.000000
0.856921 0.000000 0.000000
0.895397 0.000000 0.000000
0.933823 0.000000 0.000000
0.972658 0.000000 0.000000
1.000000 0.000000 0.000000
1.000000 0.000000 0.000000
1.000000 0.000000 0.000000
1.000000 0.000000 0.000000
1.000000 0.000000 0.000000
1.000000 0.000000 0.000000
1.000000 0.000000 0.000000
1.000000 0.000000 0.000000
1.000000 0.000000 0.000000
0.063046 0.000000 0.000000
0.095564 0.000000 0.000000
0.120748 0.000000 0.000000
0.146871 0.000000 0.000000
0.175772 0.000000 0.000000
0.209227 0.000000 0.000000
0.248634 0.000000 0.000000
0.294539 0.000000 0.000000
0.342599 0.000000 0.000000
0.390351 0.000000 0.000000
0.435611 0.000000 0.000000
0.480065 0.000000 0.000000
0.524286 0.000000 0.000000
0.568148 0.000000 0.000000
0.611527 0.000000 0.000000
0.654299 0.000000 0.000000
0.696341 0.000000 0.000000
0.737435 0.000000 0.000000
0.777581 0.000000 0.000000
0.816994 0.000000 0.000000
0.855897 0.000000 0.000000
0.894516 0.000000 0.000000
0.933086 0.000000 0.000000
0.972067 0.000000 0.000000
1.000000 0.000000 0.000000
1.000000 0.000000 0.000000
1.000000 0.000000 0.000000
1.000000 0.000000 0.000000
1.000000 0.000000 0.000000
1.000000 0.000000 0.000000
1.000000 0.000000 0.000000
1.000000 0.000000 0.000000
1.000000 0.000000 0.000000
0.055783 0.011287 0.000000
0.088307 0.011761 0.000000
0.114181 0.008713 0.000000
0.140396 0.006768 0.000000
0.169360 0.005604 0.000000
0.204423 0.004421 0.000000
0.245941 0.003152 0.000000
0.291978 0.001949 0.000000
0.340185 0.000872 0.000000
0.388088 0.000000 0.000000
0.433494 0.000000 0.000000
0.478095 0.000000 0.000000
0.522465 0.000000 0.000000
0.566476 0.000000 0.000000
0.610004 0.000000 0.000000
0.652924 0.000000 0.000000
0.695114 0.000000 0.000000
0.736352 0.000000 0.000000
0.776639 0.000000 0.000000
0.816193 0.000000 0.000000
0.855234 0.000000 0.000000
0.893991 0.000000 0.000000
0.932699 0.000000 0.000000
0.971820 0.000000 0.000000
1.000000 0.000000 0.000000
1.000000 0.000000 0.000000
1.000000 0.000000 0.000000
1.000000 0.000000 0.000000
1.000000 0.000000 0.000000
1.000000 0.000000 0.000000
1.000000 0.000414 0.000000
1.000000 0.000916 0.000000
1.000000 0.001441 0.000000
0.050015 0.026553 0.000000
0.081070 0.029663 0.000000
0.107878 0.027677 0.000000
0.135643 0.026000 0.000000
0.166329 0.024543 0.000000
0.201821 0.023180 0.000000
0.243456 0.021873 0.000000
0.289633 0.020681 0.000000
0.337993 0.019653 0.000000
0.386054 0.018810 0.000000
0.431613 0.018151 0.000000
0.476368 0.017624 0.000000
0.520892 0.017205 0.000000
0.565059 0.016889 0.000000
0.608742 0.016667 0.000000
0.651817 0.016532 0.000000
0.694160 0.016478 0.000000
0.735547 0.016498 0.000000
0.775983 0.016585 0.000000
0.815681 0.016733 0.000000
0.854866 0.016939 0.000000
0.893767 0.017202 0.000000
0.932618 0.017520 0.000000
0.971885 0.017897 0.000000
1.000000 0.018340 0.000000
1.000000 0.018835 0.000000
1.000000 0.019359 0.000000
1.000000 0.019889 0.000000
1.000000 0.020386 0.000000
1.000000 0.020838 0.000000
1.000000 0.021346 0.000000
1.000000 0.021860 0.000000
1.000000 0.022398 0.000000
0.046466 0.046343 0.000000
0.073706 0.046528 0.000000
0.105095 0.050058 0.000000
0.132921 0.047957 0.000000
0.163688 0.046228 0.000000
0.199284 0.044692 0.000000
0.241052 0.043290 0.000000
0.287386 0.042073 0.000000
0.335918 0.041071 0.000000
0.384156 0.040289 0.000000
0.429887 0.039709 0.000000
0.474814 0.039272 0.000000
0.519511 0.038954 0.000000
0.563852 0.038745 0.000000
0.607709 0.038634 0.000000
0.650956 0.038615 0.000000
0.693469 0.038677 0.000000
0.735024 0.038814 0.000000
0.775624 0.039017 0.000000
0.815484 0.039281 0.000000
0.854829 0.039603 0.000000
0.893890 0.039982 0.000000
0.932900 0.040417 0.000000
0.972329 0.040915 0.000000
1.000000 0.041481 0.000000
1.000000 0.042100 0.000000
1.000000 0.042742 0.000000
1.000000 0.043385 0.000000
1.000000 0.043985 0.000000
1.000000 0.044525 0.000000
1.000000 0.045061 0.000000
1.000000 0.045588 0.000000
1.000000 0.046139 0.000000
0.042753 0.069937 0.000000
0.069585 0.069618 0.000000
0.096867 0.070537 0.000000
0.129940 0.074570 0.000000
0.161056 0.072599 0.000000
0.196776 0.070756 0.000000
0.238704 0.069165 0.000000
0.285225 0.067859 0.000000
0.333961 0.066846 0.000000
0.382408 0.066104 0.000000
0.428342 0.065594 0.000000
0.473471 0.065247 0.000000
0.518373 0.065034 0.000000
0.562918 0.064940 0.000000
0.606979 0.064952 0.000000
0.650429 0.065060 0.000000
0.693142 0.065252 0.000000
0.734894 0.065520 0.000000
0.775687 0.065855 0.000000
0.815737 0.066251 0.000000
0.855271 0.066706 0.000000
0.894518 0.067218 0.000000
0.933716 0.067788 0.000000
0.973334 0.068423 0.000000
1.000000 0.069132 0.000000
1.000000 0.069892 0.000000
1.000000 0.070670 0.000000
1.000000 0.071445 0.000000
1.000000 0.072166 0.000000
1.000000 0.072810 0.000000
1.000000 0.073371 0.000000
1.000000 0.073911 0.000000
1.000000 0.074478 0.000000
0.038956 0.098260 0.000000
0.065815 0.098089 0.000000
0.092308 0.097972 0.000000
0.120881 0.099128 0.000000
0.157444 0.104018 0.000000
0.194447 0.102677 0.000000
0.236566 0.100738 0.000000
0.283311 0.099238 0.000000
0.332291 0.098147 0.000000
0.380988 0.097407 0.000000
0.427164 0.096946 0.000000
0.472534 0.096679 0.000000
0.517678 0.096568 0.000000
0.562466 0.096592 0.000000
0.606769 0.096735 0.000000
0.650459 0.096980 0.000000
0.693409 0.097317 0.000000
0.735393 0.097731 0.000000
0.776414 0.098213 0.000000
0.816689 0.098758 0.000000
0.856444 0.099363 0.000000
0.895912 0.100027 0.000000
0.935331 0.100751 0.000000
0.975173 0.101544 0.000000
1.000000 0.102415 0.000000
1.000000 0.103339 0.000000
1.000000 0.104274 0.000000
1.000000 0.105204 0.000000
1.000000 0.106069 0.000000
1.000000 0.106836 0.000000
1.000000 0.107413 0.000000
1.000000 0.107969 0.000000
1.000000 0.108552 0.000000
0.035445 0.130341 0.000000
0.062342 0.130336 0.000000
0.088911 0.130379 0.000000
0.116714 0.130471 0.000000
0.148396 0.131909 0.000000
0.190774 0.137953 0.000000
0.234966 0.137183 0.000000
0.281965 0.135341 0.000000
0.331222 0.134073 0.000000
0.380200 0.133269 0.000000
0.426647 0.132816 0.000000
0.472287 0.132601 0.000000
0.517703 0.132575 0.000000
0.562763 0.132708 0.000000
0.607336 0.132974 0.000000
0.651294 0.133357 0.000000
0.694508 0.133838 0.000000
0.736752 0.134403 0.000000
0.778027 0.135039 0.000000
0.818552 0.135740 0.000000
0.858554 0.136503 0.000000
0.898268 0.137328 0.000000
0.937933 0.138216 0.000000
0.978023 0.139177 0.000000
1.000000 0.140224 0.000000
1.000000 0.141323 0.000000
1.000000 0.142427 0.000000
1.000000 0.143531 0.000000
1.000000 0.144556 0.000000
1.000000 0.145449 0.000000
1.000000 0.146040 0.000000
1.000000 0.146613 0.000000
1.000000 0.147214 0.000000
0.032524 0.164758 0.000000
0.059471 0.164929 0.000000
0.086128 0.165142 0.000000
0.114046 0.165408 0.000000
0.144977 0.165751 0.000000
0.182197 0.168133 0.000000
0.232350 0.175451 0.000000
0.281411 0.174729 0.000000
0.330963 0.173163 0.000000
0.380242 0.172213 0.000000
0.426978 0.171712 0.000000
0.472906 0.171508 0.000000
0.518610 0.171536 0.000000
0.563958 0.171752 0.000000
0.608817 0.172125 0.000000
0.653058 0.172631 0.000000
0.696552 0.173247 0.000000
0.739070 0.173955 0.000000
0.780613 0.174739 0.000000
0.821402 0.175593 0.000000
0.861666 0.176512 0.000000
0.901639 0.177497 0.000000
0.941563 0.178549 0.000000
0.981915 0.179679 0.000000
1.000000 0.180903 0.000000
1.000000 0.182179 0.000000
1.000000 0.183456 0.000000
1.000000 0.184745 0.000000
1.000000 0.185941 0.000000
1.000000 0.186946 0.000000
1.000000 0.187555 0.000000
1.000000 0.188146 0.000000
1.000000 0.188764 0.000000
0.030359 0.199917 0.000000
0.057370 0.200265 0.000000
0.084127 0.200649 0.000000
0.112169 0.201091 0.000000
0.143253 0.201626 0.000000
0.179280 0.202303 0.000000
0.224458 0.206807 0.000000
0.280857 0.214906 0.000000
0.331570 0.213672 0.000000
0.381155 0.212490 0.000000
0.428185 0.211878 0.000000
0.474404 0.211638 0.000000
0.520400 0.211680 0.000000
0.566039 0.211949 0.000000
0.611187 0.212403 0.000000
0.655715 0.213009 0.000000
0.699491 0.213742 0.000000
0.742285 0.214576 0.000000
0.784098 0.215495 0.000000
0.825152 0.216488 0.000000
0.865678 0.217553 0.000000
0.905912 0.218688 0.000000
0.946096 0.219895 0.000000
0.986711 0.221186 0.000000
1.000000 0.222578 0.000000
1.000000 0.224025 0.000000
1.000000 0.225467 0.000000
1.000000 0.226949 0.000000
1.000000 0.228318 0.000000
1.000000 0.229419 0.000000
1.000000 0.230046 0.000000
1.000000 0.230653 0.000000
1.000000 0.231290 0.000000
0.028972 0.234319 0.000000
0.056059 0.234838 0.000000
0.082923 0.235387 0.000000
0.111094 0.235999 0.000000
0.142333 0.236719 0.000000
0.178550 0.237608 0.000000
0.221118 0.238725 0.000000
0.273951 0.246417 0.000000
0.332949 0.253855 0.000000
0.382833 0.252369 0.000000
0.430151 0.251592 0.000000
0.476653 0.251271 0.000000
0.522933 0.251290 0.000000
0.568853 0.251578 0.000000
0.614282 0.252083 0.000000
0.659086 0.252765 0.000000
0.703134 0.253590 0.000000
0.746195 0.254530 0.000000
0.788269 0.255564 0.000000
0.829580 0.256680 0.000000
0.870358 0.257873 0.000000
0.910843 0.259142 0.000000
0.951279 0.260489 0.000000
0.992147 0.261927 0.000000
1.000000 0.263472 0.000000
1.000000 0.265075 0.000000
1.000000 0.266670 0.000000
1.000000 0.268348 0.000000
1.000000 0.269884 0.000000
1.000000 0.271062 0.000000
1.000000 0.271705 0.000000
1.000000 0.272328 0.000000
1.000000 0.272982 0.000000
0.028244 0.269133 0.000000
0.055424 0.269823 0.000000
0.082406 0.270537 0.000000
0.110716 0.271318 0.000000
0.142117 0.272223 0.000000
0.178531 0.273323 0.000000
0.221337 0.274684 0.000000
0.269798 0.277650 0.000000
0.327890 0.287588 0.000000
0.385266 0.293179 0.000000
0.432873 0.292180 0.000000
0.479660 0.291733 0.000000
0.526225 0.291692 0.000000
0.572429 0.291970 0.000000
0.618138 0.292501 0.000000
0.663220 0.293236 0.000000
0.707541 0.294135 0.000000
0.750869 0.295165 0.000000
0.793203 0.296298 0.000000
0.834770 0.297524 0.000000
0.875801 0.298834 0.000000
0.916537 0.300227 0.000000
0.957222 0.301704 0.000000
0.998344 0.303278 0.000000
1.000000 0.304969 0.000000
1.000000 0.306720 0.000000
1.000000 0.308460 0.000000
1.000000 0.310261 0.000000
1.000000 0.311816 0.000000
1.000000 0.312941 0.000000
1.000000 0.313588 0.000000
1.000000 0.314215 0.000000
1.000000 0.314871 0.000000
0.028149 0.304701 0.000000
0.055441 0.305562 0.000000
0.082556 0.306442 0.000000
0.111015 0.307394 0.000000
0.142588 0.308485 0.000000
0.179208 0.309797 0.000000
0.222261 0.311404 0.000000
0.270091 0.313271 0.000000
0.323732 0.319887 0.000000
0.383146 0.330138 0.000000
0.436363 0.334042 0.000000
0.483441 0.333423 0.000000
0.530295 0.333286 0.000000
0.576787 0.333522 0.000000
0.622781 0.334054 0.000000
0.668143 0.334821 0.000000
0.712740 0.335776 0.000000
0.756337 0.336879 0.000000
0.798935 0.338100 0.000000
0.840760 0.339423 0.000000
0.882047 0.340840 0.000000
0.923035 0.342347 0.000000
0.963973 0.343944 0.000000
1.000000 0.345645 0.000000
1.000000 0.347326 0.000000
1.000000 0.348970 0.000000
1.000000 0.350537 0.000000
1.000000 0.352314 0.000000
1.000000 0.353830 0.000000
1.000000 0.354894 0.000000
1.000000 0.355543 0.000000
1.000000 0.356172 0.000000
1.000000 0.356831 0.000000
0.028674 0.340852 0.000000
0.056101 0.341886 0.000000
0.083361 0.342931 0.000000
0.111980 0.344054 0.000000
0.143735 0.345331 0.000000
0.180570 0.346856 0.000000
0.223879 0.348709 0.000000
0.271994 0.350845 0.000000
0.322447 0.353171 0.000000
0.379193 0.363346 0.000000
0.436417 0.373065 0.000000
0.487971 0.376144 0.000000
0.535117 0.375874 0.000000
0.581899 0.376040 0.000000
0.628180 0.376547 0.000000
0.673825 0.377324 0.000000
0.718700 0.378317 0.000000
0.762568 0.379478 0.000000
0.805431 0.380772 0.000000
0.847516 0.382180 0.000000
0.889451 0.383677 0.000000
0.931787 0.385159 0.000000
0.973891 0.386624 0.000000
1.000000 0.388092 0.000000
1.000000 0.389582 0.000000
1.000000 0.391047 0.000000
1.000000 0.392811 0.000000
1.000000 0.394538 0.000000
1.000000 0.396003 0.000000
1.000000 0.397005 0.000000
1.000000 0.397660 0.000000
1.000000 0.398294 0.000000
1.000000 0.398959 0.000000
0.029801 0.377404 0.000000
0.057382 0.378610 0.000000
0.084802 0.379821 0.000000
0.113591 0.381113 0.000000
0.145537 0.382576 0.000000
0.182594 0.384312 0.000000
0.226165 0.386411 0.000000
0.274572 0.388815 0.000000
0.325332 0.391420 0.000000
0.377845 0.397007 0.000000
0.433288 0.407341 0.000000
0.490044 0.416803 0.000000
0.540651 0.419238 0.000000
0.587724 0.419304 0.000000
0.634293 0.419763 0.000000
0.680222 0.420530 0.000000
0.725375 0.421542 0.000000
0.770078 0.422754 0.000000
0.814318 0.424003 0.000000
0.857565 0.425237 0.000000
0.900076 0.426462 0.000000
0.942110 0.427686 0.000000
0.983923 0.428913 0.000000
1.000000 0.430159 0.000000
1.000000 0.431436 0.000000
1.000000 0.432706 0.000000
1.000000 0.434606 0.000000
1.000000 0.436213 0.000000
1.000000 0.437574 0.000000
1.000000 0.438496 0.000000
1.000000 0.439143 0.000000
1.000000 0.439771 0.000000
1.000000 0.440428 0.000000
0.031501 0.414164 0.000000
0.059257 0.415539 0.000000
0.086848 0.416915 0.000000
0.115816 0.418376 0.000000
0.147960 0.420022 0.000000
0.185245 0.421968 0.000000
0.229084 0.424309 0.000000
0.277788 0.426979 0.000000
0.328857 0.429859 0.000000
0.379655 0.432804 0.000000
0.432302 0.441541 0.000000
0.487925 0.452020 0.000000
0.544729 0.461268 0.000000
0.594209 0.463075 0.000000
0.641447 0.463507 0.000000
0.688878 0.464233 0.000000
0.735283 0.465026 0.000000
0.780443 0.465868 0.000000
0.824376 0.466745 0.000000
0.867330 0.467650 0.000000
0.909556 0.468579 0.000000
0.951307 0.469533 0.000000
0.992839 0.470512 0.000000
1.000000 0.471525 0.000000
1.000000 0.472581 0.000000
1.000000 0.473646 0.000000
1.000000 0.475283 0.000000
1.000000 0.476770 0.000000
1.000000 0.478024 0.000000
1.000000 0.478874 0.000000
1.000000 0.479513 0.000000
1.000000 0.480133 0.000000
1.000000 0.480781 0.000000
0.033736 0.450922 0.000000
0.061685 0.452466 0.000000
0.089458 0.454003 0.000000
0.118613 0.455631 0.000000
0.150961 0.457458 0.000000
0.188480 0.459611 0.000000
0.232590 0.462191 0.000000
0.281592 0.465124 0.000000
0.332973 0.468274 0.000000
0.384079 0.471486 0.000000
0.433331 0.475813 0.000000
0.487383 0.486550 0.000000
0.544823 0.497378 0.000000
0.602342 0.506111 0.000000
0.651589 0.507136 0.000000
0.698696 0.507286 0.000000
0.744796 0.507588 0.000000
0.789660 0.508005 0.000000
0.833305 0.508509 0.000000
0.875977 0.509083 0.000000
0.917923 0.509713 0.000000
0.959394 0.510393 0.000000
1.000000 0.511119 0.000000
1.000000 0.511894 0.000000
1.000000 0.512734 0.000000
1.000000 0.513588 0.000000
1.000000 0.514657 0.000000
1.000000 0.516021 0.000000
1.000000 0.517173 0.000000
1.000000 0.517966 0.000000
1.000000 0.518597 0.000000
1.000000 0.519209 0.000000
1.000000 0.519849 0.000000
0.036473 0.487599 0.000000
0.064630 0.489308 0.000000
0.092595 0.491005 0.000000
0.121944 0.492796 0.000000
0.154500 0.494801 0.000000
0.192256 0.497157 0.000000
0.236641 0.499973 0.000000
0.285944 0.503163 0.000000
0.337636 0.506580 0.000000
0.389427 0.510044 0.000000
0.439120 0.513269 0.000000
0.491114 0.521008 0.000000
0.546918 0.531713 0.000000
0.604441 0.542115 0.000000
0.660613 0.549590 0.000000
0.707421 0.549184 0.000000
0.753225 0.549005 0.000000
0.797800 0.549003 0.000000
0.841159 0.549137 0.000000
0.883544 0.549378 0.000000
0.925196 0.549706 0.000000
0.966586 0.550164 0.000000
1.000000 0.550702 0.000000
1.000000 0.551280 0.000000
1.000000 0.551898 0.000000
1.000000 0.552417 0.000000
1.000000 0.552721 0.000000
1.000000 0.553970 0.000000
1.000000 0.555021 0.000000
1.000000 0.555767 0.000000
1.000000 0.556391 0.000000
1.000000 0.556995 0.000000
1.000000 0.557627 0.000000
0.039692 0.524287 0.000000
0.068072 0.526160 0.000000
0.096239 0.528014 0.000000
0.125787 0.529966 0.000000
0.158558 0.532147 0.000000
0.196555 0.534704 0.000000
0.241217 0.537752 0.000000
0.291423 0.541168 0.000000
0.344370 0.544645 0.000000
0.396829 0.547991 0.000000
0.446400 0.551065 0.000000
0.495304 0.554579 0.000000
0.549562 0.565143 0.000000
0.605540 0.575530 0.000000
0.662266 0.585024 0.000000
0.715140 0.589961 0.000000
0.760645 0.589309 0.000000
0.804916 0.588888 0.000000
0.848176 0.588756 0.000000
0.890657 0.588828 0.000000
0.932461 0.588990 0.000000
0.973836 0.589222 0.000000
1.000000 0.589511 0.000000
1.000000 0.589848 0.000000
1.000000 0.590229 0.000000
1.000000 0.589420 0.000000
1.000000 0.589642 0.000000
1.000000 0.590778 0.000000
1.000000 0.591732 0.000000
1.000000 0.592441 0.000000
1.000000 0.593057 0.000000
1.000000 0.593653 0.000000
1.000000 0.594278 0.000000
0.043381 0.561040 0.000000
0.071996 0.563074 0.000000
0.100372 0.565084 0.000000
0.130126 0.567196 0.000000
0.163226 0.569550 0.000000
0.202247 0.572234 0.000000
0.247965 0.575288 0.000000
0.298558 0.578565 0.000000
0.351391 0.581881 0.000000
0.403728 0.585068 0.000000
0.453175 0.587993 0.000000
0.501587 0.590779 0.000000
0.552572 0.597756 0.000000
0.607064 0.608004 0.000000
0.662918 0.618052 0.000000
0.718428 0.626494 0.000000
0.767583 0.628854 0.000000
0.812014 0.628295 0.000000
0.855283 0.627923 0.000000
0.897630 0.627695 0.000000
0.939301 0.627576 0.000000
0.980543 0.627544 0.000000
1.000000 0.627580 0.000000
1.000000 0.627673 0.000000
1.000000 0.627815 0.000000
1.000000 0.625016 0.000000
1.000000 0.625530 0.000000
1.000000 0.626555 0.000000
1.000000 0.627413 0.000000
1.000000 0.628094 0.000000
1.000000 0.628703 0.000000
1.000000 0.629292 0.000000
1.000000 0.629909 0.000000
0.047529 0.597918 0.000000
0.076741 0.600101 0.000000
0.105905 0.602189 0.000000
0.136403 0.604309 0.000000
0.170123 0.606589 0.000000
0.209094 0.609151 0.000000
0.254736 0.612064 0.000000
0.305229 0.615185 0.000000
0.357944 0.618341 0.000000
0.410154 0.621370 0.000000
0.459475 0.624146 0.000000
0.507759 0.626788 0.000000
0.555817 0.629639 0.000000
0.608969 0.639740 0.000000
0.663385 0.649638 0.000000
0.718814 0.659313 0.000000
0.772745 0.666599 0.000000
0.818746 0.667157 0.000000
0.861879 0.666455 0.000000
0.904093 0.665922 0.000000
0.945630 0.665519 0.000000
0.986740 0.665219 0.000000
1.000000 0.665000 0.000000
1.000000 0.664846 0.000000
1.000000 0.664745 0.000000
1.000000 0.659448 0.000000
1.000000 0.660490 0.000000
1.000000 0.661405 0.000000
1.000000 0.662169 0.000000
1.000000 0.662832 0.000000
1.000000 0.663433 0.000000
1.000000 0.664014 0.000000
1.000000 0.664624 0.000000
0.053679 0.634661 0.000000
0.083246 0.636754 0.000000
0.112427 0.638747 0.000000
0.142914 0.640770 0.000000
0.176601 0.642943 0.000000
0.215516 0.645384 0.000000
0.261075 0.648156 0.000000
0.311463 0.651123 0.000000
0.364056 0.654119 0.000000
0.416137 0.656990 0.000000
0.465330 0.659619 0.000000
0.513486 0.662119 0.000000
0.561225 0.664526 0.000000
0.611119 0.670801 0.000000
0.664236 0.680559 0.000000
0.718296 0.690095 0.000000
0.772641 0.698997 0.000000
0.824990 0.705472 0.000000
0.867996 0.704443 0.000000
0.910076 0.703601 0.000000
0.951480 0.702909 0.000000
0.992457 0.702337 0.000000
1.000000 0.701859 0.000000
1.000000 0.701455 0.000000
1.000000 0.701109 0.000000
1.000000 0.693698 0.000000
1.000000 0.694621 0.000000
1.000000 0.695429 0.000000
1.000000 0.696100 0.000000
1.000000 0.696754 0.000000
1.000000 0.697347 0.000000
1.000000 0.697922 0.000000
1.000000 0.698523 0.000000
0.059768 0.670819 0.000000
0.089385 0.672814 0.000000
0.118571 0.674713 0.000000
0.149037 0.676638 0.000000
0.182684 0.678706 0.000000
0.221537 0.681025 0.000000
0.267008 0.683656 0.000000
0.317285 0.686470 0.000000
0.369753 0.689307 0.000000
0.421704 0.692023 0.000000
0.470769 0.694506 0.000000
0.518793 0.696863 0.000000
0.566399 0.699130 0.000000
0.613453 0.701303 0.000000
0.665369 0.710904 0.000000
0.718175 0.720302 0.000000
0.771614 0.729460 0.000000
0.824339 0.737407 0.000000
0.873660 0.741978 0.000000
0.915605 0.740821 0.000000
0.956877 0.739837 0.000000
0.997721 0.738989 0.000000
1.000000 0.738248 0.000000
1.000000 0.737590 0.000000
1.000000 0.736996 0.000000
1.000000 0.727216 0.000000
1.000000 0.728023 0.000000
1.000000 0.728724 0.000000
1.000000 0.729308 0.000000
1.000000 0.729956 0.000000
1.000000 0.730542 0.000000
1.000000 0.731109 0.000000
1.000000 0.731704 0.000000
0.065544 0.706575 0.000000
0.095191 0.708473 0.000000
0.124370 0.710277 0.000000
0.154809 0.712105 0.000000
0.188408 0.714066 0.000000
0.227192 0.716264 0.000000
0.272570 0.718755 0.000000
0.322734 0.721416 0.000000
0.375075 0.724095 0.000000
0.426891 0.726655 0.000000
0.475823 0.728991 0.000000
0.523714 0.731205 0.000000
0.571184 0.733330 0.000000
0.618102 0.735364 0.000000
0.666704 0.740835 0.000000
0.718348 0.750096 0.000000
0.770576 0.759118 0.000000
0.823012 0.767862 0.000000
0.873999 0.774841 0.000000
0.920717 0.777778 0.000000
0.961855 0.776495 0.000000
1.000000 0.775365 0.000000
1.000000 0.774357 0.000000
1.000000 0.773441 0.000000
1.000000 0.772594 0.000000
1.000000 0.760188 0.000000
1.000000 0.760879 0.000000
1.000000 0.761475 0.000000
1.000000 0.761983 0.000000
1.000000 0.762623 0.000000
1.000000 0.763201 0.000000
1.000000 0.763761 0.000000
1.000000 0.764348 0.000000
0.071029 0.742119 0.000000
0.100692 0.743918 0.000000
0.129855 0.745627 0.000000
0.160258 0.747356 0.000000
0.193805 0.749212 0.000000
0.232515 0.751289 0.000000
0.277796 0.753639 0.000000
0.327840 0.756145 0.000000
0.380047 0.758664 0.000000
0.431724 0.761066 0.000000
0.480520 0.763255 0.000000
0.528274 0.765325 0.000000
0.575606 0.767307 0.000000
0.622384 0.769201 0.000000
0.668483 0.771005 0.000000
0.718738 0.779633 0.000000
0.769833 0.788518 0.000000
0.821102 0.797129 0.000000
0.872394 0.805424 0.000000
0.921898 0.811541 0.000000
0.966442 0.813076 0.000000
1.000000 0.811658 0.000000
1.000000 0.810376 0.000000
1.000000 0.809195 0.000000
1.000000 0.808089 0.000000
1.000000 0.792791 0.000000
1.000000 0.793367 0.000000
1.000000 0.793858 0.000000
1.000000 0.794298 0.000000
1.000000 0.794930 0.000000
1.000000 0.795501 0.000000
1.000000 0.796054 0.000000
1.000000 0.796633 0.000000
0.076138 0.776879 0.000000
0.105803 0.778581 0.000000
0.134943 0.780196 0.000000
0.165305 0.781830 0.000000
0.198793 0.783579 0.000000
0.237425 0.785535 0.000000
0.282602 0.787746 0.000000
0.332524 0.790099 0.000000
0.384595 0.792459 0.000000
0.436131 0.794705 0.000000
0.484791 0.796748 0.000000
0.532408 0.798674 0.000000
0.579601 0.800516 0.000000
0.626240 0.802272 0.000000
0.672199 0.803939 0.000000
0.719274 0.808440 0.000000
0.769321 0.817191 0.000000
0.819511 0.825670 0.000000
0.869748 0.833883 0.000000
0.919779 0.841459 0.000000
0.968361 0.847072 0.000000
1.000000 0.847280 0.000000
1.000000 0.845722 0.000000
1.000000 0.844275 0.000000
1.000000 0.842662 0.000000
1.000000 0.824510 0.000000
1.000000 0.824972 0.000000
1.000000 0.825360 0.000000
1.000000 0.825742 0.000000
1.000000 0.826366 0.000000
1.000000 0.826929 0.000000
1.000000 0.827475 0.000000
1.000000 0.828047 0.000000
0.080797 0.810242 0.000000
0.110452 0.811849 0.000000
0.139560 0.813373 0.000000
0.169876 0.814912 0.000000
0.203302 0.816559 0.000000
0.241853 0.818397 0.000000
0.286926 0.820472 0.000000
0.336725 0.822676 0.000000
0.388660 0.824883 0.000000
0.440058 0.826977 0.000000
0.488582 0.828877 0.000000
0.536064 0.830666 0.000000
0.583120 0.832371 0.000000
0.629622 0.833991 0.000000
0.675445 0.835527 0.000000
0.720465 0.836977 0.000000
0.768976 0.844634 0.000000
0.818183 0.852984 0.000000
0.867413 0.861073 0.000000
0.916848 0.868949 0.000000
0.965799 0.875782 0.000000
1.000000 0.880951 0.000000
1.000000 0.879762 0.000000
1.000000 0.878052 0.000000
1.000000 0.874145 0.000000
1.000000 0.854797 0.000000
1.000000 0.855150 0.000000
1.000000 0.855439 0.000000
1.000000 0.855772 0.000000
