Fotico/Resources/LUTs/goldie.cube
TITLE "Goldie"
LUT_3D_SIZE 9
0.068676 0.000000 0.000000
0.182840 0.000000 0.000000
0.345436 0.000000 0.000000
0.526511 0.000000 0.000000
0.697952 0.000000 0.000000
0.856921 0.000000 0.000000
1.000000 0.000000 0.000000
1.000000 0.000000 0.000000
1.000000 0.000000 0.000000
0.046466 0.046343 0.000000
0.163688 0.046228 0.000000
0.335918 0.041071 0.000000
0.519511 0.038954 0.000000
0.693469 0.038677 0.000000
0.854829 0.039603 0.000000
1.000000 0.041481 0.000000
1.000000 0.043985 0.000000
1.000000 0.046139 0.000000
0.032524 0.164758 0.000000
0.144977 0.165751 0.000000
0.330963 0.173163 0.000000
0.518610 0.171536 0.000000
0.696552 0.173247 0.000000
0.861666 0.176512 0.000000
1.000000 0.180903 0.000000
1.000000 0.185941 0.000000
1.000000 0.188764 0.000000
0.028149 0.304701 0.000000
0.142588 0.308485 0.000000
0.323732 0.319887 0.000000
0.530295 0.333286 0.000000
0.712740 0.335776 0.000000
0.882047 0.340840 0.000000
1.000000 0.347326 0.000000
1.000000 0.353830 0.000000
1.000000 0.356831 0.000000
0.033736 0.450922 0.000000
0.150961 0.457458 0.000000
0.332973 0.468274 0.000000
0.544823 0.497378 0.000000
0.744796 0.507588 0.000000
0.917923 0.509713 0.000000
1.000000 0.512734 0.000000
1.000000 0.517173 0.000000
1.000000 0.519849 0.000000
0.047529 0.597918 0.000000
0.170123 0.606589 0.000000
0.357944 0.618341 0.000000
0.555817 0.629639 0.000000
0.772745 0.666599 0.000000
0.945630 0.665519 0.000000
1.000000 0.664745 0.000000
1.000000 0.662169 0.000000
1.000000 0.664624 0.000000
0.071029 0.742119 0.000000
0.193805 0.749212 0.000000
0.380047 0.758664 0.000000
0.575606 0.767307 0.000000
0.769833 0.788518 0.000000
0.966442 0.813076 0.000000
1.000000 0.808089 0.000000
1.000000 0.794298 0.000000
1.000000 0.796633 0.000000
0.088555 0.870383 0.000000
0.210717 0.875996 0.000000
0.395224 0.883300 0.000000
0.588663 0.889746 0.000000
0.769096 0.894758 0.000000
0.959425 0.925027 0.000000
1.000000 0.930976 0.000000
1.000000 0.909540 0.000000
1.000000 0.911763 0.000000
0.099559 0.970901 0.000000
0.220956 0.975300 0.000000
0.403889 0.980851 0.000000
0.595510 0.985504 0.000000
0.774174 0.988869 0.000000
0.948525 1.000000 0.000000
1.000000 1.000000 0.000000
1.000000 0.998354 0.000000
1.000000 1.000000 0.000000
0.058851 0.000000 0.000000
0.172351 0.000000 0.000000
0.349393 0.000000 0.000000
0.537615 0.000000 0.000000
0.715787 0.000000 0.000000
0.871962 0.000000 0.000000
1.000000 0.000000 0.000000
1.000000 0.000000 0.000000
1.000000 0.000000 0.000000
0.044396 0.046187 0.000000
0.171417 0.044889 0.000000
0.351685 0.030978 0.000000
0.541400 0.022848 0.000000
0.708597 0.026393 0.000000
0.864791 0.030960 0.000000
1.000000 0.036008 0.000000
1.000000 0.040929 0.000000
1.000000 0.044890 0.000000
0.030841 0.164932 0.000000
0.143257 0.166027 0.000000
0.344853 0.178475 0.000000
0.534251 0.169362 0.000000
0.708697 0.168961 0.000000
0.871680 0.171825 0.000000
1.000000 0.176067 0.000000
1.000000 0.180964 0.000000
1.000000 0.184770 0.000000
0.026844 0.305238 0.000000
0.141239 0.309105 0.000000
0.321538 0.319560 0.000000
0.548906 0.342829 0.000000
0.731911 0.338122 0.000000
0.902339 0.339057 0.000000
1.000000 0.342779 0.000000
1.000000 0.353799 0.000000
1.000000 0.356947 0.000000
0.032762 0.451809 0.000000
0.149953 0.458411 0.000000
0.332006 0.469305 0.000000
0.542677 0.497116 0.000000
0.766592 0.519620 0.000000
0.939161 0.515268 0.000000
1.000000 0.514110 0.000000
1.000000 0.517645 0.000000
1.000000 0.520369 0.000000
0.046856 0.599130 0.000000
0.169567 0.607708 0.000000
0.357199 0.619333 0.000000
0.554719 0.630216 0.000000
0.770571 0.666460 0.000000
0.960444 0.674562 0.000000
1.000000 0.668169 0.000000
1.000000 0.662772 0.000000
1.000000 0.665249 0.000000
0.070418 0.743133 0.000000
0.193038 0.750142 0.000000
0.379103 0.759485 0.000000
0.574510 0.768030 0.000000
0.767938 0.788465 0.000000
0.968624 0.816608 0.000000
1.000000 0.808779 0.000000
1.000000 0.794855 0.000000
1.000000 0.797199 0.000000
0.087746 0.871214 0.000000
0.209757 0.876751 0.000000
0.394099 0.883961 0.000000
0.587400 0.890324 0.000000
0.767735 0.895282 0.000000
0.957618 0.925233 0.000000
1.000000 0.932696 0.000000
1.000000 0.910053 0.000000
1.000000 0.912295 0.000000
0.098592 0.971582 0.000000
0.219842 0.975916 0.000000
0.402619 0.981383 0.000000
0.594134 0.985985 0.000000
0.772750 0.989343 0.000000
0.946781 1.000000 0.000000
1.000000 1.000000 0.000000
1.000000 0.998847 0.000000
1.000000 1.000000 0.000000
0.054936 0.000000 0.049951
0.165389 0.000000 0.043035
0.334085 0.000000 0.034190
0.519495 0.000000 0.022908
0.697655 0.000000 0.010606
0.862758 0.000000 0.000000
1.000000 0.000000 0.000000
1.000000 0.000000 0.000000
1.000000 0.000000 0.000000
0.048171 0.042898 0.032490
0.152043 0.044693 0.033711
0.330829 0.036291 0.019901
0.521517 0.028808 0.005731
0.702298 0.023283 0.000000
0.869960 0.019331 0.000000
1.000000 0.016418 0.000000
1.000000 0.020314 0.000000
1.000000 0.022897 0.000000
0.028105 0.165260 0.029821
0.140419 0.166524 0.026512
0.338526 0.172742 0.000317
0.539911 0.160650 0.000000
0.724645 0.155316 0.000000
0.895967 0.152823 0.000000
1.000000 0.151886 0.000000
1.000000 0.176117 0.000000
1.000000 0.179315 0.000000
0.024797 0.306253 0.028947
0.139118 0.310293 0.028022
0.317047 0.317620 0.027753
0.543528 0.339497 0.000000
0.759800 0.334398 0.000000
0.937054 0.328281 0.000000
1.000000 0.326022 0.000000
1.000000 0.353022 0.006888
1.000000 0.356227 0.005142
0.031325 0.453496 0.036993
0.148503 0.460273 0.038368
0.330726 0.471421 0.041545
0.538774 0.496129 0.032104
0.762498 0.517205 0.000000
0.967348 0.517875 0.000000
1.000000 0.511337 0.000000
1.000000 0.517474 0.012855
1.000000 0.520223 0.010876
0.046543 0.601410 0.051342
0.169066 0.609870 0.050495
0.356467 0.621324 0.048679
0.553762 0.632034 0.046033
0.765982 0.664992 0.016910
0.968764 0.678726 0.000000
1.000000 0.670984 0.000000
1.000000 0.662895 0.013091
1.000000 0.665371 0.011015
0.069707 0.745026 0.054349
0.192121 0.751915 0.052147
0.377940 0.761086 0.048358
0.573111 0.769456 0.043684
0.763323 0.786452 0.028893
0.963492 0.814599 0.000000
1.000000 0.811820 0.000000
1.000000 0.795074 0.008381
1.000000 0.797429 0.006319
0.086669 0.872745 0.053095
0.208460 0.878162 0.049631
0.392542 0.885199 0.044006
0.585598 0.891387 0.037441
0.765707 0.896177 0.030645
0.952232 0.922986 0.001631
1.000000 0.934722 0.000000
1.000000 0.910136 0.000000
1.000000 0.912377 0.000000
0.097222 0.972819 0.049262
0.218239 0.977032 0.044765
0.400747 0.982327 0.037631
0.591990 0.986736 0.029505
0.770338 0.989890 0.021247
0.941969 1.000000 0.002273
1.000000 1.000000 0.000000
1.000000 0.998694 0.000000
1.000000 1.000000 0.000000
0.050145 0.000000 0.139380
0.160487 0.000000 0.132844
0.329278 0.000000 0.124541
0.509012 0.000000 0.117389
0.679205 0.000000 0.111971
0.841430 0.000000 0.105604
1.000000 0.000000 0.097850
1.000000 0.000000 0.091886
1.000000 0.000000 0.089507
0.053828 0.051671 0.113514
0.147718 0.044583 0.124279
0.318445 0.044432 0.118007
0.500590 0.045787 0.112939
0.681151 0.040590 0.104412
0.848784 0.036629 0.096204
1.000000 0.033690 0.088567
1.000000 0.032944 0.083171
1.000000 0.034637 0.081037
0.026762 0.163768 0.119507
0.136947 0.167183 0.118080
0.320440 0.165543 0.106059
0.515561 0.161597 0.095699
0.700536 0.159722 0.087160
0.872106 0.159099 0.080247
1.000000 0.159423 0.074359
1.000000 0.172477 0.082669
1.000000 0.175829 0.081780
0.022310 0.307556 0.121087
0.136533 0.311810 0.120409
0.314543 0.319310 0.120601
0.537075 0.334406 0.092307
0.738559 0.327083 0.075546
0.914280 0.324926 0.071352
1.000000 0.325051 0.063634
1.000000 0.351578 0.099645
1.000000 0.354860 0.097944
0.029588 0.455635 0.129721
0.146750 0.462629 0.131275
0.329186 0.474093 0.134682
0.534087 0.494993 0.127869
0.757508 0.513801 0.092746
0.962119 0.510821 0.059317
1.000000 0.504150 0.051754
1.000000 0.516969 0.105305
1.000000 0.519751 0.103357
0.046102 0.604186 0.143238
0.168387 0.612498 0.142338
0.355500 0.623739 0.140469
0.552512 0.634233 0.137797
0.760387 0.663272 0.112491
0.962919 0.675088 0.077377
1.000000 0.668264 0.066996
1.000000 0.662885 0.105439
1.000000 0.665357 0.103382
0.068773 0.747320 0.145903
0.190927 0.754059 0.143687
0.376437 0.763015 0.139904
0.571311 0.771168 0.135274
0.757899 0.784076 0.124275
0.957052 0.812070 0.090432
1.000000 0.811958 0.071074
1.000000 0.795221 0.100846
1.000000 0.797540 0.098793
0.085281 0.874588 0.144449
0.206792 0.879855 0.141013
0.390547 0.886675 0.135461
0.583295 0.892644 0.129017
0.763129 0.897233 0.122381
0.945313 0.919924 0.097326
1.000000 0.936858 0.065678
1.000000 0.910125 0.092606
1.000000 0.912363 0.090553
0.095467 0.974295 0.140546
0.216190 0.978356 0.136116
0.398357 0.983434 0.129123
0.589282 0.987623 0.121200
0.767349 0.990576 0.113196
0.935447 0.999837 0.098319
1.000000 1.000000 0.063895
1.000000 0.998442 0.083169
1.000000 1.000000 0.081048
0.045127 0.000000 0.232832
0.155337 0.000000 0.226613
0.324229 0.000000 0.218759
0.504181 0.000000 0.212050
0.674624 0.000000 0.207025
0.832676 0.000000 0.203402
0.987213 0.000000 0.200750
1.000000 0.000000 0.198673
1.000000 0.000000 0.196878
0.052577 0.056673 0.204721
0.143183 0.044526 0.218706
0.314020 0.044690 0.212856
0.496394 0.046365 0.208199
0.669258 0.049217 0.205064
0.829608 0.052875 0.203157
0.991379 0.052504 0.199452
1.000000 0.051885 0.195572
1.000000 0.053663 0.193806
0.051363 0.155055 0.188103
0.157500 0.167728 0.190857
0.307443 0.171734 0.210609
0.493724 0.177147 0.209080
0.678050 0.176036 0.203696
0.849632 0.175439 0.197923
1.000000 0.175746 0.192634
1.000000 0.177988 0.189467
1.000000 0.180498 0.187890
0.019736 0.309010 0.216979
0.133846 0.313491 0.216526
0.312035 0.321322 0.217027
0.524889 0.326613 0.198305
0.714629 0.324911 0.193014
0.890971 0.326664 0.188658
1.000000 0.328623 0.179818
1.000000 0.349158 0.195982
1.000000 0.352530 0.194294
0.027805 0.457980 0.226256
0.144949 0.465206 0.227994
0.327614 0.477007 0.231649
0.529294 0.493808 0.227496
0.752210 0.509093 0.192403
0.949647 0.502135 0.165358
1.000000 0.496280 0.154865
1.000000 0.515893 0.201255
1.000000 0.518715 0.199301
0.045578 0.607088 0.238932
0.167604 0.615242 0.237950
0.354407 0.626256 0.235976
0.551116 0.636519 0.233215
0.754446 0.661461 0.211823
0.956713 0.670681 0.176679
1.000000 0.663728 0.160260
1.000000 0.662570 0.201132
1.000000 0.665037 0.199050
0.067723 0.749707 0.241219
0.189595 0.756286 0.238944
0.374772 0.765013 0.235094
0.569328 0.772932 0.230413
0.752489 0.781575 0.223263
0.950217 0.809378 0.189554
1.000000 0.811242 0.163605
1.000000 0.795218 0.196399
1.000000 0.797495 0.194303
0.083746 0.876495 0.239489
0.204955 0.881600 0.236020
0.388358 0.888189 0.230436
0.580774 0.893924 0.223983
0.760314 0.898298 0.217361
0.938051 0.916704 0.196252
1.000000 0.936853 0.160232
1.000000 0.910029 0.188044
1.000000 0.912259 0.186029
0.093543 0.975809 0.235417
0.213946 0.979709 0.230976
0.395745 0.984554 0.223985
0.586329 0.988508 0.216092
0.764094 0.991244 0.208142
0.928814 0.996200 0.197270
1.000000 1.000000 0.163094
1.000000 0.998111 0.178661
1.000000 1.000000 0.176595
0.042139 0.000000 0.315729
0.150690 0.000000 0.311389
0.319670 0.000000 0.303894
0.499822 0.000000 0.297540
0.670495 0.000000 0.292831
0.828779 0.000000 0.289484
0.983553 0.000000 0.287088
1.000000 0.000000 0.285271
1.000000 0.000000 0.283564
0.051480 0.060053 0.287153
0.139096 0.044532 0.304023
0.310032 0.044984 0.298512
0.492617 0.046953 0.294189
0.665720 0.050075 0.291349
0.826309 0.053977 0.289699
0.983365 0.058675 0.288933
1.000000 0.063298 0.288584
1.000000 0.065709 0.287330
0.073998 0.164014 0.249961
0.157163 0.177408 0.274201
0.304308 0.172793 0.296981
0.490821 0.178509 0.295750
0.667773 0.185112 0.295751
0.831979 0.192202 0.296674
0.999201 0.193546 0.294542
1.000000 0.195930 0.292754
1.000000 0.198562 0.291573
0.036912 0.294696 0.285412
0.146208 0.303696 0.289533
0.317355 0.319260 0.297017
0.503569 0.330476 0.304153
0.693281 0.332735 0.299164
0.870796 0.335563 0.293509
1.000000 0.337748 0.284583
1.000000 0.345809 0.282835
1.000000 0.349278 0.281143
0.026235 0.460192 0.313423
0.143361 0.467631 0.315326
0.326563 0.479731 0.318806
0.525393 0.492721 0.317379
0.747347 0.502792 0.282300
0.928830 0.496834 0.269831
1.000000 0.493914 0.259277
1.000000 0.514229 0.287734
1.000000 0.517092 0.285758
0.045052 0.609699 0.325298
0.166836 0.617707 0.324231
0.353351 0.628514 0.322145
0.549780 0.638565 0.319279
0.748994 0.659787 0.301403
0.951018 0.665818 0.266203
1.000000 0.657412 0.244213
1.000000 0.661903 0.287327
1.000000 0.664367 0.285205
0.066715 0.751845 0.327235
0.188323 0.758278 0.324892
0.373192 0.766794 0.320951
0.567455 0.774499 0.316191
0.748846 0.780687 0.311139
0.943948 0.806861 0.278857
1.000000 0.809456 0.246818
1.000000 0.795027 0.282386
1.000000 0.797263 0.280232
0.082294 0.878191 0.325231
0.203220 0.883149 0.321707
0.386297 0.889526 0.316057
0.578408 0.895045 0.309549
0.757677 0.899222 0.302889
0.931493 0.913754 0.285290
1.000000 0.933521 0.249393
1.000000 0.909910 0.273903
1.000000 0.912070 0.271812
0.091734 0.977146 0.320971
0.211838 0.980897 0.316489
0.393297 0.985530 0.309452
0.583566 0.989266 0.301525
0.761053 0.991805 0.293560
0.923383 0.993362 0.285766
1.000000 1.000000 0.252207
1.000000 0.997750 0.264348
1.000000 0.999887 0.262311
0.041284 0.000000 0.405918
0.145622 0.000000 0.404353
0.314699 0.000000 0.397221
0.495073 0.000000 0.391229
0.666001 0.000000 0.386842
0.824542 0.000000 0.383779
0.979580 0.000000 0.381647
1.000000 0.000000 0.380102
1.000000 0.000000 0.378491
0.050331 0.063352 0.377529
0.134649 0.044604 0.397547
0.305693 0.045375 0.392382
0.488512 0.047670 0.388403
0.661880 0.051091 0.385867
0.822734 0.055265 0.384483
0.980061 0.060224 0.383964
1.000000 0.065119 0.383865
1.000000 0.067622 0.382724
0.074825 0.176859 0.340161
0.156841 0.184301 0.365518
0.300913 0.174034 0.391609
0.487683 0.180087 0.390690
0.664918 0.187000 0.390965
0.829403 0.194371 0.392128
0.990298 0.202427 0.394052
1.000000 0.210021 0.396047
1.000000 0.213345 0.395465
0.062616 0.291131 0.354030
0.171784 0.304065 0.358348
0.328966 0.330797 0.379306
0.498762 0.335632 0.401767
0.680376 0.346397 0.405051
0.852594 0.355167 0.405333
1.000000 0.356637 0.398671
1.000000 0.359178 0.392700
1.000000 0.361455 0.390145
0.036723 0.450869 0.398103
0.149142 0.463112 0.404655
0.325938 0.482716 0.413562
0.524107 0.494922 0.412514
0.726942 0.497232 0.394690
0.905959 0.496916 0.384181
1.000000 0.496622 0.373547
1.000000 0.511284 0.382358
1.000000 0.514209 0.380346
0.044419 0.612537 0.419870
0.165929 0.620385 0.418704
0.352122 0.630961 0.416482
0.548240 0.640776 0.413488
0.742931 0.657882 0.399455
0.944687 0.658803 0.364177
1.000000 0.648662 0.344801
1.000000 0.660567 0.381610
1.000000 0.663033 0.379432
0.065547 0.754159 0.421419
0.186858 0.760430 0.418989
0.371383 0.768712 0.414933
0.565319 0.776180 0.410065
0.746417 0.782150 0.404923
0.936980 0.803961 0.376554
1.000000 0.804865 0.340396
1.000000 0.794530 0.376394
1.000000 0.796721 0.374163
0.080635 0.880017 0.419098
0.201242 0.884810 0.415501
0.383956 0.890952 0.409754
0.575726 0.896232 0.403158
0.754693 0.900190 0.396427
0.924388 0.910474 0.382649
1.000000 0.929694 0.346854
1.000000 0.909655 0.367709
1.000000 0.911732 0.365522
0.089682 0.978572 0.414611
0.209448 0.982158 0.410066
0.390528 0.986554 0.402948
0.580445 0.990051 0.394952
0.757623 0.992369 0.386934
0.919678 0.993728 0.379102
1.000000 1.000000 0.349555
1.000000 0.997335 0.357968
1.000000 0.999412 0.355881
0.041149 0.000000 0.500509
0.140367 0.000000 0.501656
0.309543 0.000000 0.494884
0.490150 0.000000 0.489250
0.661348 0.000000 0.485184
0.820162 0.000000 0.482403
0.975479 0.000000 0.480536
1.000000 0.000000 0.479265
1.000000 0.000000 0.477758
0.049685 0.066530 0.472277
0.130305 0.045057 0.495125
0.301202 0.045864 0.490591
0.484269 0.048503 0.486954
0.657917 0.052241 0.484724
0.819053 0.056702 0.483608
0.976667 0.061938 0.483341
1.000000 0.067118 0.483496
1.000000 0.069728 0.482478
0.074646 0.186858 0.435578
0.156567 0.190128 0.461042
0.297417 0.175423 0.490592
0.484461 0.181833 0.489988
0.661995 0.189073 0.490544
0.826775 0.196741 0.491953
0.987969 0.205084 0.494106
1.000000 0.212960 0.496325
1.000000 0.216438 0.495895
0.089553 0.298976 0.425838
0.197164 0.317016 0.431670
0.329934 0.339836 0.475860
0.496625 0.338381 0.501787
0.678561 0.349481 0.505326
0.849881 0.359988 0.505383
1.000000 0.369438 0.504462
1.000000 0.376693 0.502613
1.000000 0.379705 0.500782
0.064087 0.437996 0.470468
0.176307 0.451000 0.477272
0.353234 0.472732 0.486470
0.533017 0.500922 0.502107
0.708243 0.507881 0.509611
0.883630 0.510741 0.503523
1.000000 0.510074 0.493477
1.000000 0.511189 0.485653
1.000000 0.512986 0.482549
0.050232 0.609104 0.513584
0.165735 0.622348 0.516849
0.350760 0.633484 0.515072
0.546546 0.643051 0.511934
0.736497 0.655695 0.501917
0.927756 0.650046 0.476063
1.000000 0.644555 0.463863
1.000000 0.658120 0.480084
1.000000 0.660605 0.477837
0.064260 0.756542 0.519858
0.185250 0.762641 0.517330
0.369408 0.770677 0.513141
0.562996 0.777893 0.508145
0.743784 0.783633 0.502894
0.929590 0.800649 0.478608
1.000000 0.796892 0.442383
1.000000 0.793532 0.474549
1.000000 0.795678 0.472228
0.078829 0.881882 0.517194
0.199093 0.886502 0.513510
0.381418 0.892396 0.507645
0.572827 0.897423 0.500938
0.751474 0.901149 0.494114
0.917210 0.906983 0.484314
1.000000 0.925396 0.448607
1.000000 0.909199 0.465612
1.000000 0.911186 0.463314
0.087461 0.980016 0.512455
0.206864 0.983427 0.507831
0.387538 0.987574 0.500610
0.577082 0.990817 0.492517
0.753932 0.992903 0.484419
0.915696 0.994051 0.476523
1.000000 1.000000 0.451149
1.000000 0.996868 0.455697
1.000000 0.998825 0.453482
0.041136 0.000000 0.571474
0.136463 0.000000 0.574641
0.305713 0.000000 0.568128
0.486497 0.000000 0.562754
0.657899 0.000000 0.558920
0.816919 0.000000 0.556346
0.972448 0.000000 0.554672
1.000000 0.000000 0.553603
1.000000 0.000000 0.552176
0.050206 0.068654 0.543665
0.129069 0.047630 0.566220
0.297873 0.046286 0.564237
0.481128 0.049185 0.560848
0.654989 0.053162 0.558841
0.816338 0.057840 0.557922
0.974169 0.063284 0.557839
1.000000 0.068680 0.558183
1.000000 0.071378 0.557259
0.074570 0.193071 0.507132
0.156408 0.194095 0.532668
0.294839 0.176527 0.564808
0.482090 0.183206 0.564437
0.659851 0.190693 0.565200
0.824856 0.198586 0.566791
0.986276 0.207144 0.569115
1.000000 0.215234 0.571502
1.000000 0.218836 0.571189
0.109789 0.309234 0.479699
0.197759 0.328401 0.503875
0.330713 0.345319 0.548250
0.495074 0.340513 0.576780
0.677577 0.351858 0.580138
0.849183 0.362226 0.579592
1.000000 0.371532 0.578573
1.000000 0.378671 0.576653
1.000000 0.381684 0.574798
0.084878 0.437387 0.524893
0.197075 0.452583 0.531843
0.374355 0.479470 0.540416
0.534541 0.507066 0.573976
0.707196 0.509819 0.583565
0.876665 0.518100 0.581311
1.000000 0.524943 0.578424
1.000000 0.525879 0.572301
1.000000 0.527649 0.569598
0.069860 0.593746 0.567841
0.184872 0.606325 0.572052
0.361543 0.624134 0.577878
0.548067 0.641955 0.583288
0.731612 0.653055 0.578670
0.909180 0.649242 0.565303
1.000000 0.646938 0.553038
1.000000 0.655143 0.553828
1.000000 0.657665 0.551522
0.063250 0.758300 0.593606
0.183994 0.764268 0.591002
0.367872 0.772118 0.586707
0.561197 0.779145 0.581609
0.741750 0.784712 0.576269
0.923983 0.797779 0.555040
1.000000 0.789211 0.520673
1.000000 0.792283 0.548039
1.000000 0.794404 0.545643
0.077429 0.883249 0.590681
0.197429 0.887738 0.586926
0.379458 0.893444 0.580966
0.570592 0.898280 0.574167
0.748997 0.901832 0.567264
0.912231 0.904326 0.560439
1.000000 0.921860 0.524789
1.000000 0.908677 0.538893
1.000000 0.910596 0.536505
0.085748 0.981064 0.585745
0.204872 0.984343 0.581057
0.385237 0.988301 0.573748
0.574498 0.991353 0.565573
0.751099 0.993263 0.557404
0.912642 0.994253 0.549448
1.000000 1.000000 0.527194
1.000000 0.996451 0.528830
1.000000 0.998315 0.526512
