Fotico/Resources/LUTs/goldie.cube
TITLE "Goldie"
LUT_3D_SIZE 5
0.068676 0.000000 0.000000
0.345436 0.000000 0.000000
0.697952 0.000000 0.000000
1.000000 0.000000 0.000000
1.000000 0.000000 0.000000
0.032524 0.164758 0.000000
0.330963 0.173163 0.000000
0.696552 0.173247 0.000000
1.000000 0.180903 0.000000
1.000000 0.188764 0.000000
0.033736 0.450922 0.000000
0.332973 0.468274 0.000000
0.744796 0.507588 0.000000
1.000000 0.512734 0.000000
1.000000 0.519849 0.000000
0.071029 0.742119 0.000000
0.380047 0.758664 0.000000
0.769833 0.788518 0.000000
1.000000 0.808089 0.000000
1.000000 0.796633 0.000000
0.099559 0.970901 0.000000
0.403889 0.980851 0.000000
0.774174 0.988869 0.000000
1.000000 1.000000 0.000000
1.000000 1.000000 0.000000
0.054936 0.000000 0.049951
0.334085 0.000000 0.034190
0.697655 0.000000 0.010606
1.000000 0.000000 0.000000
1.000000 0.000000 0.000000
0.028105 0.165260 0.029821
0.338526 0.172742 0.000317
0.724645 0.155316 0.000000
1.000000 0.151886 0.000000
1.000000 0.179315 0.000000
0.031325 0.453496 0.036993
0.330726 0.471421 0.041545
0.762498 0.517205 0.000000
1.000000 0.511337 0.000000
1.000000 0.520223 0.010876
0.069707 0.745026 0.054349
0.377940 0.761086 0.048358
0.763323 0.786452 0.028893
1.000000 0.811820 0.000000
1.000000 0.797429 0.006319
0.097222 0.972819 0.049262
0.400747 0.982327 0.037631
0.770338 0.989890 0.021247
1.000000 1.000000 0.000000
1.000000 1.000000 0.000000
0.045127 0.000000 0.232832
0.324229 0.000000 0.218759
0.674624 0.000000 0.207025
0.987213 0.000000 0.200750
1.000000 0.000000 0.196878
0.051363 0.155055 0.188103
0.307443 0.171734 0.210609
0.678050 0.176036 0.203696
1.000000 0.175746 0.192634
1.000000 0.180498 0.187890
0.027805 0.457980 0.226256
0.327614 0.477007 0.231649
0.752210 0.509093 0.192403
1.000000 0.496280 0.154865
1.000000 0.518715 0.199301
0.067723 0.749707 0.241219
0.374772 0.765013 0.235094
0.752489 0.781575 0.223263
1.000000 0.811242 0.163605
1.000000 0.797495 0.194303
0.093543 0.975809 0.235417
0.395745 0.984554 0.223985
0.764094 0.991244 0.208142
1.000000 1.000000 0.163094
1.000000 1.000000 0.176595
0.041284 0.000000 0.405918
0.314699 0.000000 0.397221
0.666001 0.000000 0.386842
0.979580 0.000000 0.381647
1.000000 0.000000 0.378491
0.074825 0.176859 0.340161
0.300913 0.174034 0.391609
0.664918 0.187000 0.390965
0.990298 0.202427 0.394052
1.000000 0.213345 0.395465
0.036723 0.450869 0.398103
0.325938 0.482716 0.413562
0.726942 0.497232 0.394690
1.000000 0.496622 0.373547
1.000000 0.514209 0.380346
0.065547 0.754159 0.421419
0.371383 0.768712 0.414933
0.746417 0.782150 0.404923
1.000000 0.804865 0.340396
1.000000 0.796721 0.374163
0.089682 0.978572 0.414611
0.390528 0.986554 0.402948
0.757623 0.992369 0.386934
1.000000 1.000000 0.349555
1.000000 0.999412 0.355881
0.041136 0.000000 0.571474
0.305713 0.000000 0.568128
0.657899 0.000000 0.558920
0.972448 0.000000 0.554672
1.000000 0.000000 0.552176
0.074570 0.193071 0.507132
0.294839 0.176527 0.564808
0.659851 0.190693 0.565200
0.986276 0.207144 0.569115
1.000000 0.218836 0.571189
0.084878 0.437387 0.524893
0.374355 0.479470 0.540416
0.707196 0.509819 0.583565
1.000000 0.524943 0.578424
1.000000 0.527649 0.569598
0.063250 0.758300 0.593606
0.367872 0.772118 0.586707
0.741750 0.784712 0.576269
1.000000 0.789211 0.520673
1.000000 0.794404 0.545643
0.085748 0.981064 0.585745
0.385237 0.988301 0.573748
0.751099 0.993263 0.557404
1.000000 1.000000 0.527194
1.000000 0.998315 0.526512
