Fotico/Resources/LUTs/honey.cube
TITLE "Honey"
LUT_3D_SIZE 9
0.117986 0.048061 0.000000
0.203795 0.041719 0.000000
0.348121 0.036595 0.000000
0.500812 0.033052 0.000000
0.641161 0.031128 0.000000
0.771045 0.029987 0.000000
0.885676 0.029358 0.000000
0.925219 0.029200 0.000000
0.925239 0.029701 0.000000
0.105951 0.112884 0.000000
0.205673 0.120680 0.000000
0.349682 0.108924 0.000000
0.502751 0.104256 0.000000
0.644437 0.102216 0.000000
0.775624 0.101403 0.000000
0.888863 0.101328 0.000000
0.928074 0.101861 0.000000
0.928111 0.102848 0.000000
0.103412 0.229616 0.000000
0.187129 0.231176 0.000000
0.358053 0.251336 0.000000
0.513491 0.239891 0.000000
0.657536 0.235887 0.000000
0.790971 0.234681 0.000000
0.897511 0.234919 0.000000
0.931874 0.236284 0.000000
0.931874 0.238041 0.000000
0.107846 0.364004 0.000000
0.192518 0.367142 0.000000
0.340831 0.379464 0.000000
0.533796 0.407746 0.000000
0.680896 0.398806 0.000000
0.816853 0.395504 0.000000
0.909267 0.394952 0.000000
0.931874 0.398154 0.000000
0.931874 0.400741 0.000000
0.117977 0.497777 0.006675
0.204088 0.502457 0.008798
0.351362 0.510762 0.012449
0.524309 0.540321 0.000000
0.711330 0.568349 0.000000
0.853514 0.562780 0.000000
0.922522 0.558056 0.000000
0.931874 0.555205 0.000000
0.931874 0.557240 0.000000
0.131780 0.624260 0.017197
0.220907 0.630830 0.019214
0.372323 0.641092 0.023958
0.534545 0.656370 0.023132
0.710211 0.693391 0.000000
0.873287 0.714202 0.000000
0.930023 0.706141 0.000000
0.931874 0.687468 0.008664
0.931874 0.689085 0.008609
0.153119 0.760160 0.029078
0.242669 0.765854 0.030724
0.393184 0.774429 0.034247
0.551541 0.782478 0.037367
0.708524 0.808256 0.020989
0.868568 0.840211 0.000000
0.931874 0.855309 0.000000
0.931874 0.815752 0.026176
0.931874 0.817019 0.026359
0.170531 0.876088 0.037132
0.259783 0.878827 0.038659
0.409142 0.882698 0.041105
0.566031 0.886079 0.044819
0.711324 0.890651 0.044234
0.860365 0.903806 0.021396
0.931874 0.914155 0.000000
0.931874 0.898106 0.043166
0.931874 0.898537 0.043319
0.179553 0.910711 0.040947
0.268466 0.912042 0.043071
0.417004 0.913937 0.046575
0.572909 0.915593 0.050195
0.715607 0.916866 0.053461
0.854306 0.922266 0.040951
0.920759 0.922266 0.046687
0.931874 0.921088 0.053370
0.931874 0.921336 0.053509
0.110178 0.047280 0.028824
0.193768 0.046343 0.025738
0.338005 0.042193 0.018303
0.490957 0.038755 0.011273
0.632363 0.036299 0.005565
0.763237 0.034648 0.000967
0.881783 0.033477 0.000000
0.923804 0.032818 0.000000
0.923934 0.033008 0.000000
0.105169 0.112617 0.025107
0.202023 0.116238 0.009917
0.348200 0.105141 0.002509
0.502435 0.100837 0.000000
0.645155 0.098681 0.000000
0.777237 0.097576 0.000000
0.890141 0.097117 0.000000
0.929092 0.097266 0.000000
0.929220 0.098051 0.000000
0.102846 0.229537 0.024385
0.186508 0.231126 0.023731
0.355752 0.249013 0.000000
0.529202 0.237064 0.000000
0.674134 0.229068 0.000000
0.808335 0.225533 0.000000
0.905260 0.224042 0.000000
0.931874 0.225072 0.000000
0.931874 0.227099 0.000000
0.107475 0.364131 0.030322
0.192119 0.367311 0.031033
0.339041 0.377513 0.028815
0.531280 0.405679 0.000000
0.711074 0.403945 0.000000
0.847011 0.393460 0.000000
0.919823 0.387989 0.000000
0.931874 0.396707 0.000000
0.931874 0.399365 0.000000
0.117820 0.498150 0.041703
0.203932 0.502882 0.043685
0.351255 0.511267 0.047645
0.522238 0.538520 0.034965
0.709050 0.566359 0.004116
0.872518 0.570789 0.000000
0.930610 0.561170 0.000000
0.931874 0.554391 0.020694
0.931874 0.556463 0.019798
0.131834 0.624880 0.056500
0.221179 0.631546 0.058319
0.372479 0.641701 0.060905
0.533376 0.654463 0.060068
0.707832 0.691534 0.033238
0.871721 0.712209 0.001618
0.931874 0.716425 0.000000
0.931874 0.687016 0.035890
0.931874 0.688648 0.034704
0.153284 0.760748 0.068075
0.242764 0.766386 0.068961
0.393160 0.774860 0.070114
0.551406 0.782818 0.070866
0.706591 0.806304 0.054563
0.866851 0.838441 0.028320
0.931874 0.853873 0.000000
0.931874 0.815522 0.047915
0.931874 0.816793 0.046498
0.170545 0.876338 0.075849
0.259711 0.879032 0.075862
0.408951 0.882841 0.075636
0.565719 0.886165 0.074997
0.710104 0.889793 0.071920
0.858873 0.903203 0.044575
0.931554 0.913746 0.016532
0.931874 0.898020 0.055983
0.931874 0.898450 0.054407
0.179470 0.910815 0.079029
0.268286 0.912122 0.078504
0.416691 0.913982 0.077428
0.572473 0.915607 0.075934
0.715069 0.916855 0.074213
0.853711 0.922266 0.056760
0.920579 0.922266 0.057342
0.931874 0.921022 0.059257
0.931874 0.921268 0.057615
0.108394 0.046602 0.103609
0.191440 0.046209 0.100965
0.331429 0.046417 0.097630
0.480006 0.047527 0.095169
0.617438 0.049227 0.093684
0.745362 0.050565 0.092333
0.870529 0.049420 0.089072
0.919145 0.048778 0.086240
0.919273 0.048936 0.084565
0.103672 0.112121 0.100134
0.186811 0.112427 0.098277
0.328856 0.112601 0.095239
0.483085 0.110517 0.089929
0.625829 0.109299 0.085577
0.757946 0.108716 0.082081
0.879416 0.108617 0.079056
0.924469 0.108966 0.076663
0.924610 0.109650 0.075294
0.101795 0.229433 0.099808
0.185392 0.231120 0.099240
0.349159 0.241689 0.078617
0.510069 0.230359 0.070827
0.655119 0.227077 0.068238
0.789439 0.226376 0.066381
0.897197 0.226910 0.064989
0.931874 0.228361 0.064111
0.931874 0.230003 0.063266
0.106866 0.364492 0.106162
0.191475 0.367774 0.106959
0.336347 0.373871 0.109065
0.525310 0.400099 0.078728
0.695881 0.393560 0.055693
0.832618 0.385963 0.055495
0.915279 0.383011 0.055412
0.931874 0.392326 0.076333
0.931874 0.395026 0.075819
0.117602 0.498965 0.117926
0.203719 0.503802 0.119995
0.351144 0.512355 0.124094
0.518098 0.534673 0.116318
0.704087 0.561679 0.085430
0.869054 0.563404 0.053150
0.930834 0.553737 0.040081
0.931874 0.551834 0.097161
0.931874 0.553921 0.096239
0.132387 0.626317 0.132745
0.221690 0.632918 0.134460
0.372839 0.642935 0.136933
0.532287 0.652462 0.139019
0.702564 0.687228 0.114226
0.867955 0.707165 0.082581
0.931874 0.709346 0.048751
0.931874 0.685558 0.112063
0.931874 0.687184 0.110843
0.153588 0.761874 0.144008
0.242952 0.767421 0.144820
0.393177 0.775754 0.145859
0.551252 0.783570 0.146496
0.702473 0.801645 0.135275
0.862512 0.833696 0.108946
0.931874 0.849367 0.074845
0.931874 0.814691 0.123785
0.931874 0.815937 0.122327
0.170559 0.876813 0.151512
0.259588 0.879435 0.151451
0.408638 0.883145 0.151110
0.565224 0.886380 0.150356
0.708607 0.888873 0.149294
0.854508 0.901174 0.124936
0.930014 0.912069 0.096875
0.931874 0.897731 0.131562
0.931874 0.898147 0.129938
0.179305 0.911013 0.154527
0.267972 0.912284 0.153927
0.416176 0.914093 0.152736
0.571769 0.915670 0.151127
0.714198 0.916878 0.149302
0.851549 0.921846 0.133254
0.920205 0.922266 0.132099
0.931874 0.920808 0.134659
0.931874 0.921043 0.132964
0.106333 0.045840 0.192002
0.189275 0.045552 0.189457
0.329274 0.045927 0.186282
0.477940 0.047203 0.183983
0.615485 0.049050 0.182642
0.742775 0.051265 0.181986
0.866182 0.053946 0.181842
0.916981 0.056500 0.181798
0.916991 0.057075 0.180516
0.101948 0.111573 0.188813
0.184989 0.111989 0.187055
0.325871 0.113510 0.185129
0.475772 0.115989 0.184092
0.614574 0.118952 0.183881
0.743082 0.122211 0.184247
0.867306 0.125958 0.185111
0.919074 0.128414 0.185166
0.919217 0.129095 0.183978
0.100597 0.229351 0.188954
0.184114 0.231153 0.188487
0.330822 0.232424 0.184651
0.487510 0.232382 0.181245
0.632699 0.233388 0.178799
0.767160 0.234876 0.177071
0.886096 0.236856 0.175806
0.928211 0.239160 0.175042
0.928362 0.240678 0.174262
0.106187 0.364959 0.195799
0.190756 0.368361 0.196699
0.335713 0.374651 0.198967
0.518302 0.392518 0.175130
0.674115 0.383587 0.166731
0.811007 0.380933 0.166662
0.907913 0.381694 0.166081
0.931874 0.385689 0.167036
0.931874 0.388452 0.166498
0.117382 0.499970 0.208016
0.203507 0.504932 0.210188
0.351055 0.513682 0.214452
0.513712 0.530093 0.212408
0.698186 0.555685 0.181472
0.861593 0.552617 0.153129
0.925424 0.543470 0.150394
0.931874 0.547960 0.187474
0.931874 0.550074 0.186518
0.133068 0.628008 0.222762
0.222261 0.634506 0.224391
0.373231 0.644359 0.226729
0.532492 0.653722 0.228679
0.696366 0.682105 0.209884
0.863223 0.700897 0.178208
0.931874 0.700123 0.144280
0.931874 0.683381 0.202028
0.931874 0.685003 0.200767
0.153918 0.763168 0.233692
0.243142 0.768609 0.234418
0.393163 0.776775 0.235321
0.551035 0.784424 0.235822
0.698198 0.796105 0.230606
0.857035 0.828015 0.204176
0.931339 0.843507 0.170051
0.931874 0.813519 0.213393
0.931874 0.814736 0.211884
0.170545 0.877348 0.240877
0.259410 0.879888 0.240729
0.408235 0.883482 0.240252
0.564604 0.886614 0.239361
0.707795 0.889024 0.238179
0.849256 0.898664 0.219853
0.928114 0.910003 0.191770
0.931874 0.897362 0.220827
0.931874 0.897761 0.219144
0.179080 0.911234 0.243697
0.267569 0.912464 0.243009
0.415535 0.914212 0.241682
0.570901 0.915734 0.239936
0.713133 0.916895 0.237990
0.846997 0.920104 0.227978
0.919736 0.922266 0.220359
0.931874 0.920545 0.223713
0.931874 0.920767 0.221954
0.104319 0.045117 0.280571
0.187156 0.044936 0.278126
0.327164 0.045477 0.275111
0.475919 0.046919 0.272973
0.613578 0.048912 0.271777
0.740989 0.051258 0.271252
0.864975 0.054067 0.271236
0.917207 0.056791 0.271361
0.917219 0.057404 0.270126
0.100271 0.111067 0.277668
0.183211 0.111592 0.276010
0.324116 0.113287 0.274245
0.474117 0.115941 0.273371
0.613042 0.119061 0.273306
0.741678 0.122462 0.273803
0.866398 0.126347 0.274796
0.918929 0.130152 0.275907
0.918953 0.131268 0.275074
0.099442 0.229312 0.278278
0.182881 0.231229 0.277912
0.325572 0.235159 0.278189
0.477823 0.240110 0.279378
0.618956 0.245318 0.281154
0.749692 0.250632 0.283313
0.873879 0.255695 0.285385
0.923046 0.258033 0.285357
0.923200 0.259492 0.284744
0.105549 0.365472 0.285614
0.190080 0.368994 0.286616
0.335124 0.375476 0.289048
0.504420 0.381896 0.278436
0.652365 0.380452 0.277980
0.789414 0.382783 0.278039
0.899393 0.386576 0.276893
0.931874 0.390285 0.275132
0.931874 0.392357 0.273773
0.117203 0.501022 0.298285
0.203339 0.506109 0.300561
0.351012 0.515057 0.304989
0.510766 0.525634 0.308455
0.692235 0.548719 0.277635
0.843632 0.541167 0.263687
0.919287 0.536278 0.260850
0.931874 0.542781 0.277896
0.931874 0.544935 0.276904
0.133719 0.629665 0.312889
0.222798 0.636058 0.314431
0.373586 0.645748 0.316635
0.532659 0.654946 0.318450
0.690245 0.676936 0.305661
0.858143 0.694094 0.273955
0.931074 0.689014 0.242815
0.931874 0.680514 0.292102
0.931874 0.682139 0.290796
0.154216 0.764427 0.323485
0.243297 0.769760 0.324124
0.393111 0.777759 0.324892
0.550780 0.785241 0.325257
0.695266 0.791395 0.325195
0.851136 0.822285 0.299524
0.929591 0.836879 0.265376
0.931874 0.812070 0.303107
0.931874 0.813259 0.301546
0.170500 0.877857 0.330352
0.259198 0.880318 0.330116
0.407794 0.883798 0.329502
0.563943 0.886827 0.328475
0.706942 0.889155 0.327171
0.844041 0.896019 0.314888
0.926117 0.907833 0.286783
0.931874 0.896956 0.310198
0.931874 0.897337 0.308455
0.178823 0.911441 0.332975
0.267131 0.912631 0.332200
0.414855 0.914319 0.330736
0.569993 0.915785 0.328853
0.712026 0.916900 0.326786
0.842875 0.918281 0.322820
0.919229 0.922266 0.308688
0.931874 0.920271 0.312873
0.931874 0.920477 0.311048
0.102575 0.044512 0.359146
0.185316 0.044423 0.356790
0.325332 0.045111 0.353916
0.474168 0.046699 0.351922
0.611928 0.048822 0.350854
0.739447 0.051284 0.350445
0.863921 0.054207 0.350543
0.917407 0.057079 0.350817
0.917420 0.057729 0.349626
0.098825 0.110652 0.356496
0.181673 0.111274 0.354928
0.322599 0.113124 0.353305
0.472691 0.115933 0.352576
0.611726 0.119192 0.352639
0.740475 0.122717 0.353253
0.865615 0.126726 0.354362
0.919129 0.130682 0.355615
0.919154 0.131844 0.354831
0.098457 0.229313 0.357522
0.181824 0.231333 0.357246
0.324562 0.235426 0.357667
0.476922 0.240542 0.359001
0.618178 0.245897 0.360907
0.749039 0.251345 0.363183
0.873046 0.257280 0.365932
0.922091 0.262974 0.368636
0.922132 0.264895 0.368428
0.105020 0.365963 0.365295
0.189517 0.369593 0.366388
0.334641 0.376245 0.368965
0.489692 0.383964 0.372468
0.633691 0.391466 0.376157
0.770801 0.395217 0.376837
0.890822 0.399428 0.375302
0.928436 0.402980 0.373441
0.928625 0.404664 0.372011
0.117078 0.501993 0.378368
0.203226 0.507191 0.380736
0.351157 0.516376 0.385227
0.511245 0.527028 0.388327
0.685450 0.540394 0.364319
0.825063 0.534759 0.361706
0.913121 0.534027 0.358779
0.931874 0.536580 0.358055
0.931874 0.538790 0.357029
0.134270 0.631103 0.392788
0.223245 0.637404 0.394254
0.373870 0.646948 0.396338
0.532774 0.656000 0.398033
0.685010 0.672320 0.390571
0.853324 0.687294 0.358840
0.926202 0.677832 0.340466
0.931874 0.677133 0.371952
0.931874 0.678771 0.370606
0.154454 0.765511 0.403089
0.243406 0.770749 0.403651
0.393035 0.778600 0.404298
0.550520 0.785933 0.404542
0.694844 0.791955 0.404373
0.845529 0.817171 0.384055
0.927973 0.830303 0.349886
0.931874 0.810457 0.382640
0.931874 0.811625 0.381030
0.170434 0.878287 0.409672
0.258981 0.880678 0.409359
0.407372 0.884059 0.408624
0.563326 0.887000 0.407476
0.706153 0.889255 0.406065
0.839696 0.893555 0.399140
0.924262 0.905820 0.371017
0.931874 0.896559 0.389425
0.931874 0.896924 0.387626
0.178570 0.911614 0.412122
0.266714 0.912768 0.411268
0.414221 0.914404 0.409683
0.569156 0.915821 0.407679
0.711012 0.916894 0.405505
0.841052 0.917712 0.403215
0.918733 0.922266 0.386960
0.931874 0.920017 0.391913
0.931874 0.920210 0.390028
0.100697 0.043881 0.445871
0.183330 0.043894 0.443613
0.323356 0.044743 0.440895
0.472280 0.046493 0.439060
0.610154 0.048759 0.438134
0.737791 0.051348 0.437852
0.862777 0.054395 0.438076
0.917629 0.057431 0.438513
0.917642 0.058122 0.437372
0.097273 0.110233 0.443502
0.180020 0.110961 0.442032
0.320969 0.112981 0.440566
0.471162 0.115962 0.439996
0.610318 0.119374 0.440202
0.739193 0.123037 0.440944
0.864775 0.127182 0.442180
0.919349 0.131302 0.443589
0.919375 0.132519 0.442863
0.097412 0.229354 0.444986
0.180700 0.231486 0.444809
0.323491 0.235760 0.445389
0.475973 0.241057 0.446883
0.617366 0.246576 0.448933
0.748363 0.252171 0.451338
0.872696 0.258251 0.454215
0.922311 0.264106 0.457062
0.922353 0.266096 0.456923
0.104475 0.366547 0.453241
0.188937 0.370295 0.454434
0.334150 0.377134 0.457170
0.489347 0.385043 0.460836
0.633296 0.392918 0.464822
0.767380 0.400905 0.468557
0.886631 0.409364 0.471185
0.925495 0.416242 0.472747
0.925539 0.418484 0.471973
0.116977 0.503106 0.466757
0.203140 0.508427 0.469227
0.351821 0.518038 0.473453
0.511738 0.528533 0.476421
0.664954 0.533604 0.472536
0.804414 0.536531 0.469822
0.905357 0.539358 0.466796
0.931874 0.541794 0.463743
0.931874 0.543245 0.461925
0.134849 0.632656 0.480912
0.223707 0.638854 0.482293
0.374149 0.648237 0.484245
0.532866 0.657128 0.485807
0.679915 0.667192 0.484224
0.847627 0.678070 0.452464
0.920150 0.668710 0.448177
0.931874 0.671980 0.460020
0.931874 0.673654 0.458626
0.154687 0.766673 0.490887
0.243494 0.771806 0.491363
0.392916 0.779493 0.491877
0.550199 0.786662 0.491989
0.694342 0.792538 0.491701
0.838923 0.811493 0.477288
0.926108 0.822307 0.443097
0.931874 0.808138 0.470356
0.931874 0.809290 0.468690
0.170331 0.878738 0.497158
0.258710 0.881053 0.496758
0.406873 0.884328 0.495890
0.562609 0.887172 0.494609
0.705246 0.889349 0.493078
0.836044 0.891039 0.491369
0.922117 0.903495 0.463923
0.931874 0.896065 0.476805
0.931874 0.896412 0.474942
0.178261 0.911792 0.499416
0.266222 0.912907 0.498476
0.413489 0.914486 0.496757
0.568197 0.915850 0.494619
0.709857 0.916878 0.492325
0.839740 0.917657 0.489929
0.918107 0.922266 0.473254
0.931874 0.919725 0.479086
0.931874 0.919903 0.477133
0.098786 0.043264 0.536531
0.181304 0.043383 0.534374
0.321340 0.044400 0.531820
0.470358 0.046318 0.530151
0.608350 0.048731 0.529372
0.736113 0.051453 0.529224
0.861602 0.054631 0.529580
0.917860 0.057836 0.530186
0.917874 0.058574 0.529100
0.095701 0.109838 0.534454
0.178339 0.110677 0.533086
0.319314 0.112874 0.531785
0.469614 0.116034 0.531382
0.608898 0.119606 0.531737
0.737905 0.123413 0.532613
0.863927 0.127700 0.533981
0.919580 0.131992 0.535552
0.919607 0.133267 0.534888
0.096366 0.229441 0.536418
0.179572 0.231691 0.536344
0.322419 0.236153 0.537090
0.475030 0.241640 0.538752
0.616567 0.247329 0.540951
0.747709 0.253078 0.543492
0.872363 0.259310 0.546502
0.922540 0.265331 0.549498
0.922584 0.267397 0.549433
0.103948 0.367202 0.545175
0.188375 0.371073 0.546473
0.333685 0.378109 0.549377
0.489036 0.386217 0.553211
0.633146 0.394269 0.557348
0.768026 0.402590 0.560719
0.886901 0.410922 0.563237
0.925713 0.417693 0.564710
0.925756 0.419913 0.563904
0.116913 0.504316 0.559155
0.203096 0.509765 0.561732
0.352477 0.519737 0.565610
0.512214 0.530067 0.568440
0.658934 0.538788 0.570581
0.793684 0.546234 0.572183
0.898830 0.553178 0.573447
0.928454 0.558371 0.573482
0.928484 0.560089 0.572260
0.135421 0.634240 0.572962
0.224154 0.640330 0.574255
0.374403 0.649547 0.576069
0.532923 0.658269 0.577493
0.678342 0.665542 0.578377
0.826154 0.667467 0.564905
0.912911 0.666266 0.560695
0.931874 0.666905 0.556559
0.931874 0.668132 0.554401
0.154898 0.767848 0.582596
0.243551 0.772871 0.582983
0.392755 0.780387 0.583359
0.549824 0.787384 0.583331
0.693777 0.793107 0.582920
0.831924 0.805521 0.574679
0.924065 0.812399 0.540464
0.931874 0.804705 0.561979
0.931874 0.805857 0.560253
0.170192 0.879184 0.588541
0.258391 0.881421 0.588051
0.406313 0.884586 0.587044
0.561821 0.887331 0.585623
0.704258 0.889426 0.583968
0.834877 0.891048 0.582148
0.919732 0.900907 0.560893
0.931874 0.895456 0.568076
0.931874 0.895784 0.566145
0.177907 0.911964 0.590599
0.265674 0.913039 0.589569
0.412685 0.914559 0.587710
0.567156 0.915867 0.585432
0.708611 0.916848 0.583014
0.838312 0.917587 0.580506
0.916411 0.921091 0.567616
0.931874 0.919406 0.570142
0.931874 0.919567 0.568115
0.097490 0.042860 0.599483
0.179927 0.043053 0.597397
0.319970 0.044186 0.594956
0.469054 0.046220 0.593401
0.607129 0.048736 0.592726
0.734978 0.051550 0.592670
0.860801 0.054818 0.593117
0.918020 0.058140 0.593840
0.918035 0.058911 0.592794
0.094640 0.109589 0.597609
0.177202 0.110505 0.596312
0.318195 0.112825 0.595125
0.468569 0.116109 0.594837
0.607942 0.119791 0.595296
0.737042 0.123699 0.596265
0.863356 0.128084 0.597725
0.919740 0.132495 0.599408
0.919768 0.133812 0.598789
0.095668 0.229528 0.599905
0.178817 0.231860 0.599903
0.321704 0.236452 0.600764
0.474405 0.242072 0.602543
0.616043 0.247878 0.604846
0.747286 0.253734 0.607481
0.872151 0.260071 0.610583
0.922699 0.266208 0.613682
0.922744 0.268328 0.613670
0.103609 0.367684 0.609012
0.188012 0.371641 0.610382
0.333390 0.378813 0.613403
0.488850 0.387059 0.617354
0.633073 0.395235 0.621596
0.768450 0.403737 0.624670
0.887075 0.411981 0.627114
0.925864 0.418679 0.628525
0.925906 0.420882 0.627695
0.116893 0.505184 0.623314
0.203091 0.510721 0.625964
0.352910 0.520894 0.629558
0.512520 0.531109 0.632293
0.659124 0.539728 0.634349
0.793766 0.547082 0.635874
0.898818 0.553935 0.637063
0.928590 0.559060 0.637042
0.928619 0.560753 0.635791
0.135799 0.635317 0.636837
0.224443 0.641333 0.638069
0.374556 0.650432 0.639787
0.532938 0.659037 0.641114
0.678233 0.666206 0.641913
0.811586 0.672242 0.642304
0.907298 0.673928 0.638856
0.931874 0.674752 0.634632
0.931874 0.675475 0.632380
0.155025 0.768640 0.646235
0.243569 0.773587 0.646560
0.392619 0.780984 0.646839
0.549540 0.787862 0.646715
0.693361 0.793479 0.646218
0.827404 0.801351 0.642260
0.920318 0.803303 0.615489
0.931874 0.801240 0.625555
0.931874 0.802417 0.623786
0.170076 0.879477 0.651953
0.258148 0.881663 0.651401
0.405902 0.884752 0.650296
0.561250 0.887429 0.648779
0.703548 0.889468 0.647038
0.834043 0.891043 0.645140
0.918000 0.899028 0.628183
0.931874 0.894940 0.631409
0.931874 0.895258 0.629428
0.177642 0.912076 0.653872
0.265272 0.913123 0.652779
0.412105 0.914603 0.650823
0.566410 0.915872 0.648448
0.707721 0.916821 0.645944
0.837294 0.917531 0.643358
0.914930 0.919773 0.634768
0.931874 0.919175 0.633324
0.931874 0.919324 0.631245
