Fotico/Resources/LUTs/honey.cube
TITLE "Honey"
LUT_3D_SIZE 5
0.117986 0.048061 0.000000
0.348121 0.036595 0.000000
0.641161 0.031128 0.000000
0.885676 0.029358 0.000000
0.925239 0.029701 0.000000
0.103412 0.229616 0.000000
0.358053 0.251336 0.000000
0.657536 0.235887 0.000000
0.897511 0.234919 0.000000
0.931874 0.238041 0.000000
0.117977 0.497777 0.006675
0.351362 0.510762 0.012449
0.711330 0.568349 0.000000
0.922522 0.558056 0.000000
0.931874 0.557240 0.000000
0.153119 0.760160 0.029078
0.393184 0.774429 0.034247
0.708524 0.808256 0.020989
0.931874 0.855309 0.000000
0.931874 0.817019 0.026359
0.179553 0.910711 0.040947
0.417004 0.913937 0.046575
0.715607 0.916866 0.053461
0.920759 0.922266 0.046687
0.931874 0.921336 0.053509
0.108394 0.046602 0.103609
0.331429 0.046417 0.097630
0.617438 0.049227 0.093684
0.870529 0.049420 0.089072
0.919273 0.048936 0.084565
0.101795 0.229433 0.099808
0.349159 0.241689 0.078617
0.655119 0.227077 0.068238
0.897197 0.226910 0.064989
0.931874 0.230003 0.063266
0.117602 0.498965 0.117926
0.351144 0.512355 0.124094
0.704087 0.561679 0.085430
0.930834 0.553737 0.040081
0.931874 0.553921 0.096239
0.153588 0.761874 0.144008
0.393177 0.775754 0.145859
0.702473 0.801645 0.135275
0.931874 0.849367 0.074845
0.931874 0.815937 0.122327
0.179305 0.911013 0.154527
0.416176 0.914093 0.152736
0.714198 0.916878 0.149302
0.920205 0.922266 0.132099
0.931874 0.921043 0.132964
0.104319 0.045117 0.280571
0.327164 0.045477 0.275111
0.613578 0.048912 0.271777
0.864975 0.054067 0.271236
0.917219 0.057404 0.270126
0.099442 0.229312 0.278278
0.325572 0.235159 0.278189
0.618956 0.245318 0.281154
0.873879 0.255695 0.285385
0.923200 0.259492 0.284744
0.117203 0.501022 0.298285
0.351012 0.515057 0.304989
0.692235 0.548719 0.277635
0.919287 0.536278 0.260850
0.931874 0.544935 0.276904
0.154216 0.764427 0.323485
0.393111 0.777759 0.324892
0.695266 0.791395 0.325195
0.929591 0.836879 0.265376
0.931874 0.813259 0.301546
0.178823 0.911441 0.332975
0.414855 0.914319 0.330736
0.712026 0.916900 0.326786
0.919229 0.922266 0.308688
0.931874 0.920477 0.311048
0.100697 0.043881 0.445871
0.323356 0.044743 0.440895
0.610154 0.048759 0.438134
0.862777 0.054395 0.438076
0.917642 0.058122 0.437372
0.097412 0.229354 0.444986
0.323491 0.235760 0.445389
0.617366 0.246576 0.448933
0.872696 0.258251 0.454215
0.922353 0.266096 0.456923
0.116977 0.503106 0.466757
0.351821 0.518038 0.473453
0.664954 0.533604 0.472536
0.905357 0.539358 0.466796
0.931874 0.543245 0.461925
0.154687 0.766673 0.490887
0.392916 0.779493 0.491877
0.694342 0.792538 0.491701
0.926108 0.822307 0.443097
0.931874 0.809290 0.468690
0.178261 0.911792 0.499416
0.413489 0.914486 0.496757
0.709857 0.916878 0.492325
0.918107 0.922266 0.473254
0.931874 0.919903 0.477133
0.097490 0.042860 0.599483
0.319970 0.044186 0.594956
0.607129 0.048736 0.592726
0.860801 0.054818 0.593117
0.918035 0.058911 0.592794
0.095668 0.229528 0.599905
0.321704 0.236452 0.600764
0.616043 0.247878 0.604846
0.872151 0.260071 0.610583
0.922744 0.268328 0.613670
0.116893 0.505184 0.623314
0.352910 0.520894 0.629558
0.659124 0.539728 0.634349
0.898818 0.553935 0.637063
0.928619 0.560753 0.635791
0.155025 0.768640 0.646235
0.392619 0.780984 0.646839
0.693361 0.793479 0.646218
0.920318 0.803303 0.615489
0.931874 0.802417 0.623786
0.177642 0.912076 0.653872
0.412105 0.914603 0.650823
0.707721 0.916821 0.645944
0.914930 0.919773 0.634768
0.931874 0.919324 0.631245
