Fotico/Resources/LUTs/honey.cube
TITLE "Honey"
LUT_3D_SIZE 33
0.117986 0.048061 0.000000
0.138612 0.045752 0.000000
0.158693 0.044204 0.000000
0.179838 0.042926 0.000000
0.203795 0.041719 0.000000
0.232444 0.040478 0.000000
0.267242 0.039162 0.000000
0.306611 0.037843 0.000000
0.348121 0.036595 0.000000
0.389178 0.035473 0.000000
0.427439 0.034512 0.000000
0.464530 0.033649 0.000000
0.500812 0.033052 0.000000
0.536628 0.032485 0.000000
0.571948 0.031977 0.000000
0.606789 0.031527 0.000000
0.641161 0.031128 0.000000
0.674736 0.030779 0.000000
0.707371 0.030477 0.000000
0.739370 0.030215 0.000000
0.771045 0.029987 0.000000
0.802718 0.029790 0.000000
0.834720 0.029620 0.000000
0.863734 0.029476 0.000000
0.885676 0.029358 0.000000
0.902221 0.029272 0.000000
0.914652 0.029217 0.000000
0.923895 0.029192 0.000000
0.925219 0.029200 0.000000
0.925220 0.029222 0.000000
0.925221 0.029252 0.000000
0.925228 0.029424 0.000000
0.925239 0.029701 0.000000
0.114287 0.066633 0.000000
0.139830 0.065577 0.000000
0.160638 0.062765 0.000000
0.181787 0.060539 0.000000
0.205758 0.058627 0.000000
0.234433 0.056829 0.000000
0.269269 0.055070 0.000000
0.308692 0.053426 0.000000
0.350265 0.051955 0.000000
0.391129 0.050864 0.000000
0.427693 0.051064 0.000000
0.464543 0.050324 0.000000
0.500930 0.049667 0.000000
0.536823 0.049092 0.000000
0.572224 0.048587 0.000000
0.607146 0.048148 0.000000
0.641600 0.047765 0.000000
0.675255 0.047438 0.000000
0.707969 0.047161 0.000000
0.740045 0.046927 0.000000
0.771798 0.046730 0.000000
0.803550 0.046565 0.000000
0.835632 0.046431 0.000000
0.864473 0.046326 0.000000
0.886268 0.046250 0.000000
0.902713 0.046208 0.000000
0.915074 0.046199 0.000000
0.924267 0.046215 0.000000
0.925911 0.046268 0.000000
0.925914 0.046332 0.000000
0.925917 0.046400 0.000000
0.925925 0.046601 0.000000
0.925936 0.046890 0.000000
0.109543 0.080205 0.000000
0.135032 0.083030 0.000000
0.159901 0.082352 0.000000
0.183864 0.079707 0.000000
0.207850 0.076761 0.000000
0.236552 0.074137 0.000000
0.271429 0.071714 0.000000
0.310720 0.069657 0.000000
0.350366 0.068890 0.000000
0.389760 0.068530 0.000000
0.427859 0.067558 0.000000
0.464805 0.066752 0.000000
0.501269 0.066066 0.000000
0.537237 0.065474 0.000000
0.572716 0.064965 0.000000
0.607716 0.064530 0.000000
0.642248 0.064160 0.000000
0.675981 0.063849 0.000000
0.708771 0.063593 0.000000
0.740923 0.063383 0.000000
0.772750 0.063212 0.000000
0.804578 0.063078 0.000000
0.836737 0.062976 0.000000
0.865343 0.062907 0.000000
0.886957 0.062871 0.000000
0.903277 0.062870 0.000000
0.915552 0.062902 0.000000
0.924685 0.062959 0.000000
0.926579 0.063055 0.000000
0.926583 0.063160 0.000000
0.926587 0.063265 0.000000
0.926596 0.063492 0.000000
0.926608 0.063790 0.000000
0.107080 0.094375 0.000000
0.129981 0.097927 0.000000
0.155040 0.100496 0.000000
0.181247 0.100145 0.000000
0.210245 0.097778 0.000000
0.238406 0.093988 0.000000
0.271585 0.091020 0.000000
0.309233 0.089029 0.000000
0.349144 0.087797 0.000000
0.390094 0.086384 0.000000
0.428272 0.085306 0.000000
0.465299 0.084431 0.000000
0.501843 0.083698 0.000000
0.537891 0.083077 0.000000
0.573453 0.082555 0.000000
0.608536 0.082117 0.000000
0.643150 0.081752 0.000000
0.676965 0.081454 0.000000
0.709835 0.081215 0.000000
0.742066 0.081025 0.000000
0.773973 0.080880 0.000000
0.805880 0.080773 0.000000
0.838119 0.080703 0.000000
0.866407 0.080668 0.000000
0.887790 0.080671 0.000000
0.903954 0.080712 0.000000
0.916121 0.080786 0.000000
0.925181 0.080882 0.000000
0.927279 0.081023 0.000000
0.927285 0.081173 0.000000
0.927291 0.081319 0.000000
0.927300 0.081569 0.000000
0.927312 0.081877 0.000000
0.105951 0.112884 0.000000
0.126247 0.113673 0.000000
0.149469 0.117746 0.000000
0.175940 0.120633 0.000000
0.205673 0.120680 0.000000
0.236827 0.117507 0.000000
0.270148 0.113736 0.000000
0.308215 0.111080 0.000000
0.349682 0.108924 0.000000
0.390726 0.107275 0.000000
0.428998 0.106044 0.000000
0.466116 0.105063 0.000000
0.502751 0.104256 0.000000
0.538893 0.103588 0.000000
0.574550 0.103037 0.000000
0.609728 0.102584 0.000000
0.644437 0.102216 0.000000
0.678345 0.101923 0.000000
0.711306 0.101697 0.000000
0.743627 0.101525 0.000000
0.775624 0.101403 0.000000
0.807622 0.101323 0.000000
0.839950 0.101284 0.000000
0.867785 0.101285 0.000000
0.888863 0.101328 0.000000
0.904821 0.101412 0.000000
0.916847 0.101530 0.000000
0.925809 0.101668 0.000000
0.928074 0.101861 0.000000
0.928082 0.102063 0.000000
0.928089 0.102256 0.000000
0.928099 0.102531 0.000000
0.928111 0.102848 0.000000
0.104877 0.135470 0.000000
0.124813 0.135529 0.000000
0.144984 0.137057 0.000000
0.169529 0.141429 0.000000
0.199599 0.145210 0.000000
0.235229 0.145849 0.000000
0.269697 0.141409 0.000000
0.309087 0.137931 0.000000
0.350666 0.135250 0.000000
0.391827 0.133244 0.000000
0.430211 0.131778 0.000000
0.467443 0.130632 0.000000
0.504188 0.129705 0.000000
0.540446 0.128954 0.000000
0.576218 0.128347 0.000000
0.611510 0.127859 0.000000
0.646334 0.127472 0.000000
0.680354 0.127173 0.000000
0.713427 0.126950 0.000000
0.745857 0.126791 0.000000
0.777962 0.126687 0.000000
0.810069 0.126632 0.000000
0.842452 0.126624 0.000000
0.869654 0.126661 0.000000
0.890312 0.126746 0.000000
0.905987 0.126877 0.000000
0.917819 0.127043 0.000000
0.926647 0.127228 0.000000
0.929026 0.127482 0.000000
0.929036 0.127747 0.000000
0.929045 0.127998 0.000000
0.929056 0.128298 0.000000
0.929068 0.128627 0.000000
0.103967 0.163310 0.000000
0.123900 0.163450 0.000000
0.143395 0.163613 0.000000
0.164710 0.165368 0.000000
0.192285 0.170401 0.000000
0.228230 0.175501 0.000000
0.271097 0.176595 0.000000
0.310611 0.171995 0.000000
0.352330 0.168520 0.000000
0.393637 0.165969 0.000000
0.432161 0.164138 0.000000
0.469529 0.162729 0.000000
0.506414 0.161610 0.000000
0.542813 0.160719 0.000000
0.578726 0.160010 0.000000
0.614160 0.159451 0.000000
0.649124 0.159016 0.000000
0.683282 0.158689 0.000000
0.716490 0.158454 0.000000
0.749053 0.158294 0.000000
0.781291 0.158199 0.000000
0.813531 0.158162 0.000000
0.845854 0.158179 0.000000
0.872190 0.158249 0.000000
0.892275 0.158375 0.000000
0.907561 0.158553 0.000000
0.919126 0.158769 0.000000
0.927772 0.159004 0.000000
0.930173 0.159332 0.000000
0.930185 0.159677 0.000000
0.930196 0.160000 0.000000
0.930208 0.160324 0.000000
0.930220 0.160665 0.000000
0.103430 0.195278 0.000000
0.123371 0.195514 0.000000
0.142896 0.195772 0.000000
0.163533 0.196068 0.000000
0.187655 0.197942 0.000000
0.220520 0.204104 0.000000
0.264276 0.210691 0.000000
0.312917 0.212421 0.000000
0.354799 0.207829 0.000000
0.396274 0.204507 0.000000
0.434960 0.202153 0.000000
0.472486 0.200362 0.000000
0.509533 0.198958 0.000000
0.546094 0.197852 0.000000
0.582169 0.196983 0.000000
0.617763 0.196304 0.000000
0.652887 0.195782 0.000000
0.687203 0.195394 0.000000
0.720564 0.195119 0.000000
0.753280 0.194937 0.000000
0.785668 0.194832 0.000000
0.818060 0.194797 0.000000
0.850090 0.194826 0.000000
0.875351 0.194918 0.000000
0.894718 0.195076 0.000000
0.909517 0.195294 0.000000
0.920750 0.195555 0.000000
0.929166 0.195835 0.000000
0.931454 0.196249 0.000000
0.931468 0.196686 0.000000
0.931482 0.197093 0.000000
0.931494 0.197437 0.000000
0.931506 0.197791 0.000000
0.103412 0.229616 0.000000
0.123370 0.229954 0.000000
0.142929 0.230308 0.000000
0.163615 0.230703 0.000000
0.187129 0.231176 0.000000
0.216319 0.233921 0.000000
0.256727 0.241619 0.000000
0.306562 0.249153 0.000000
0.358053 0.251336 0.000000
0.399712 0.247013 0.000000
0.438571 0.243973 0.000000
0.476270 0.241678 0.000000
0.513491 0.239891 0.000000
0.550226 0.238491 0.000000
0.586474 0.237395 0.000000
0.622241 0.236542 0.000000
0.657536 0.235887 0.000000
0.692020 0.235400 0.000000
0.725545 0.235053 0.000000
0.758421 0.234819 0.000000
0.790971 0.234681 0.000000
0.823523 0.234627 0.000000
0.854915 0.234649 0.000000
0.878960 0.234746 0.000000
0.897511 0.234919 0.000000
0.911756 0.235163 0.000000
0.922607 0.235457 0.000000
0.930759 0.235773 0.000000
0.931874 0.236284 0.000000
0.931874 0.236821 0.000000
0.931874 0.237319 0.000000
0.931874 0.237673 0.000000
0.931874 0.238041 0.000000
0.103912 0.264324 0.000000
0.123896 0.264763 0.000000
0.143497 0.265213 0.000000
0.164239 0.265708 0.000000
0.187827 0.266293 0.000000
0.216123 0.267026 0.000000
0.252719 0.272030 0.000000
0.299618 0.280987 0.000000
0.352571 0.288703 0.000000
0.403769 0.291138 0.000000
0.442805 0.287277 0.000000
0.480681 0.284375 0.000000
0.518080 0.282121 0.000000
0.554991 0.280358 0.000000
0.591414 0.278977 0.000000
0.627353 0.277900 0.000000
0.662820 0.277069 0.000000
0.697473 0.276447 0.000000
0.731163 0.275996 0.000000
0.764202 0.275684 0.000000
0.796912 0.275487 0.000000
0.829625 0.275390 0.000000
0.859974 0.275384 0.000000
0.882762 0.275466 0.000000
0.900461 0.275636 0.000000
0.914123 0.275888 0.000000
0.924572 0.276199 0.000000
0.931874 0.276538 0.000000
0.931874 0.277158 0.000000
0.931874 0.277798 0.000000
0.931874 0.278378 0.000000
0.931874 0.278742 0.000000
0.931874 0.279123 0.000000
0.104832 0.297531 0.000000
0.124852 0.298066 0.000000
0.144502 0.298608 0.000000
0.165304 0.299199 0.000000
0.188969 0.299891 0.000000
0.217363 0.300750 0.000000
0.251949 0.301835 0.000000
0.295647 0.310355 0.000000
0.346708 0.320049 0.000000
0.399310 0.327127 0.000000
0.447366 0.329661 0.000000
0.485412 0.326087 0.000000
0.522980 0.323312 0.000000
0.560060 0.321141 0.000000
0.596650 0.319437 0.000000
0.632756 0.318102 0.000000
0.668387 0.317065 0.000000
0.703201 0.316280 0.000000
0.737047 0.315702 0.000000
0.770240 0.315289 0.000000
0.803102 0.315013 0.000000
0.835968 0.314855 0.000000
0.864904 0.314803 0.000000
0.886486 0.314851 0.000000
0.903362 0.315001 0.000000
0.916456 0.315243 0.000000
0.926511 0.315556 0.000000
0.931874 0.315905 0.000000
0.931874 0.316647 0.000000
0.931874 0.317385 0.000000
0.931874 0.318034 0.000000
0.931874 0.318409 0.000000
0.931874 0.318803 0.000000
0.106146 0.330607 0.000000
0.126212 0.331238 0.000000
0.145918 0.331872 0.000000
0.166788 0.332558 0.000000
0.190534 0.333356 0.000000
0.219032 0.334340 0.000000
0.253749 0.335574 0.000000
0.294326 0.339696 0.000000
0.342506 0.349573 0.000000
0.394466 0.359400 0.000000
0.443486 0.365522 0.000000
0.490586 0.368446 0.000000
0.528324 0.365084 0.000000
0.565572 0.362449 0.000000
0.602328 0.360375 0.000000
0.638599 0.358742 0.000000
0.674393 0.357465 0.000000
0.709367 0.356487 0.000000
0.743369 0.355754 0.000000
0.776714 0.355217 0.000000
0.809728 0.354841 0.000000
0.842677 0.354602 0.000000
0.869835 0.354486 0.000000
0.890233 0.354484 0.000000
0.906293 0.354596 0.000000
0.918821 0.354814 0.000000
0.928481 0.355115 0.000000
0.931874 0.355461 0.000000
0.931874 0.356348 0.000000
0.931874 0.357187 0.000000
0.931874 0.357961 0.000000
0.931874 0.358353 0.000000
0.931874 0.358764 0.000000
0.107846 0.364004 0.000000
0.127969 0.364731 0.000000
0.147741 0.365456 0.000000
0.168684 0.366237 0.000000
0.192518 0.367142 0.000000
0.221126 0.368252 0.000000
0.255982 0.369636 0.000492
0.295520 0.371251 0.001429
0.340831 0.379464 0.000000
0.390141 0.389472 0.000000
0.439575 0.398848 0.000000
0.487053 0.404516 0.000000
0.533796 0.407746 0.000000
0.571575 0.404827 0.000000
0.608500 0.402333 0.000000
0.644937 0.400360 0.000000
0.680896 0.398806 0.000000
0.716030 0.397603 0.000000
0.750189 0.396688 0.000000
0.783687 0.396002 0.000000
0.816853 0.395504 0.000000
0.849410 0.395164 0.000000
0.874785 0.394965 0.000000
0.894018 0.394895 0.000000
0.909267 0.394952 0.000000
0.921324 0.395182 0.000000
0.930801 0.395569 0.000000
0.931874 0.396995 0.000000
0.931874 0.398154 0.000000
0.931874 0.399134 0.000000
0.931874 0.399909 0.000000
0.931874 0.400315 0.000000
0.931874 0.400741 0.000000
0.109908 0.397573 0.000000
0.130100 0.398397 0.000000
0.149945 0.399214 0.000375
0.170969 0.400090 0.000875
0.194898 0.401102 0.001444
0.223622 0.402337 0.002129
0.258621 0.403872 0.002966
0.298325 0.405654 0.003918
0.341108 0.409587 0.002963
0.388277 0.419779 0.000000
0.435435 0.429323 0.000000
0.483945 0.438496 0.000000
0.530859 0.444016 0.000000
0.577154 0.447489 0.000000
0.615122 0.445118 0.000000
0.651726 0.442766 0.000000
0.687850 0.440899 0.000000
0.723146 0.439441 0.000000
0.757461 0.438319 0.000000
0.791113 0.437461 0.000000
0.824431 0.436819 0.000000
0.856021 0.436359 0.000000
0.880168 0.436227 0.000000
0.898569 0.436203 0.000000
0.913148 0.436238 0.000000
0.924578 0.436326 0.000000
0.931874 0.436455 0.000000
0.931874 0.438297 0.000000
0.931874 0.439376 0.000000
0.931874 0.440288 0.000000
0.931874 0.440992 0.000000
0.931874 0.441394 0.000000
0.931874 0.441815 0.000000
0.112305 0.431165 0.001850
0.132577 0.432084 0.002337
0.152503 0.432993 0.002816
0.173614 0.433964 0.003324
0.197643 0.435081 0.003903
0.226488 0.436441 0.004599
0.261636 0.438125 0.005449
0.301508 0.440074 0.006417
0.343639 0.442179 0.007442
0.388335 0.450177 0.002705
0.433631 0.459890 0.000000
0.480245 0.469347 0.000000
0.528417 0.478318 0.000000
0.574882 0.483847 0.000000
0.620725 0.487542 0.000000
0.658916 0.485750 0.000000
0.695205 0.483541 0.000000
0.730662 0.481800 0.000000
0.765499 0.480562 0.000000
0.800246 0.479755 0.000000
0.834556 0.479092 0.000000
0.864608 0.478545 0.000000
0.886465 0.478094 0.000000
0.903269 0.477724 0.000000
0.916742 0.477426 0.000000
0.927405 0.477204 0.000000
0.931874 0.477056 0.000000
0.931874 0.478379 0.000000
0.931874 0.479379 0.000000
0.931874 0.480223 0.000000
0.931874 0.480862 0.000000
0.931874 0.481259 0.000000
0.931874 0.481675 0.000000
0.115006 0.464620 0.004271
0.135369 0.465634 0.004766
0.155382 0.466634 0.005253
0.176585 0.467699 0.005769
0.200719 0.468921 0.006358
0.229690 0.470404 0.007066
0.264990 0.472236 0.007930
0.305036 0.474350 0.008912
0.347349 0.476627 0.009954
0.389905 0.480521 0.009424
0.433666 0.490401 0.002843
0.478611 0.500018 0.000000
0.525362 0.509543 0.000000
0.573088 0.518279 0.000000
0.619099 0.523824 0.000000
0.664934 0.527869 0.000000
0.704495 0.527100 0.000000
0.740974 0.525240 0.000000
0.776340 0.523696 0.000000
0.810926 0.522395 0.000000
0.844891 0.521286 0.000000
0.871893 0.520328 0.000000
0.891792 0.519495 0.000000
0.907291 0.518762 0.000000
0.919844 0.518114 0.000000
0.929860 0.517567 0.000000
0.931874 0.516979 0.000000
0.931874 0.517106 0.000000
0.931874 0.518028 0.000000
0.931874 0.518805 0.000000
0.931874 0.519387 0.000000
0.931874 0.519779 0.000000
0.931874 0.520189 0.000000
0.117977 0.497777 0.006675
0.138438 0.498885 0.007180
0.158545 0.499974 0.007675
0.179845 0.501132 0.008200
0.204088 0.502457 0.008798
0.233188 0.504061 0.009517
0.268644 0.506038 0.010394
0.308865 0.508315 0.011392
0.351362 0.510762 0.012449
0.393463 0.513226 0.013500
0.435155 0.520701 0.009441
0.478712 0.530477 0.003065
0.524309 0.540321 0.000000
0.571893 0.550208 0.000000
0.619745 0.558787 0.000000
0.665886 0.564368 0.000000
0.711330 0.568349 0.000000
0.751123 0.568275 0.000000
0.786328 0.566160 0.000000
0.820756 0.564350 0.000000
0.853514 0.562780 0.000000
0.878004 0.561400 0.000000
0.896317 0.560173 0.000000
0.910738 0.559065 0.000000
0.922522 0.558056 0.000000
0.931874 0.557174 0.000000
0.931874 0.555104 0.000000
0.931874 0.554359 0.000000
0.931874 0.555205 0.000000
0.931874 0.555916 0.000000
0.931874 0.556448 0.000000
0.931874 0.556835 0.000000
0.931874 0.557240 0.000000
0.121149 0.530184 0.009032
0.141715 0.531383 0.009544
0.161920 0.532559 0.010048
0.183321 0.533806 0.010581
0.207675 0.535231 0.011189
0.236905 0.536953 0.011919
0.272517 0.539072 0.012809
0.312913 0.541508 0.013822
0.355593 0.544118 0.014895
0.397896 0.546753 0.015973
0.438557 0.550750 0.016188
0.481667 0.560934 0.010106
0.526290 0.570923 0.004068
0.572313 0.580718 0.000000
0.619635 0.590325 0.000000
0.666467 0.598075 0.000000
0.711833 0.603274 0.000000
0.756068 0.606999 0.000000
0.795397 0.607320 0.000000
0.829672 0.605000 0.000000
0.860622 0.602967 0.000000
0.883113 0.601162 0.000000
0.900138 0.599539 0.000000
0.913672 0.598054 0.000000
0.924815 0.596682 0.000000
0.931874 0.595462 0.000000
0.931874 0.590938 0.000000
0.931874 0.589727 0.000000
0.931874 0.590499 0.000000
0.931874 0.591147 0.000000
0.931874 0.591635 0.000000
0.931874 0.592017 0.000000
0.931874 0.592417 0.000000
0.124488 0.561773 0.011333
0.145164 0.563060 0.011855
0.165469 0.564320 0.012366
0.186972 0.565654 0.012908
0.211438 0.567176 0.013525
0.240799 0.569012 0.014265
0.276568 0.571269 0.015169
0.317318 0.573935 0.016303
0.360955 0.576989 0.017854
0.404066 0.579926 0.019334
0.444182 0.582592 0.020669
0.485366 0.590268 0.016867
0.528732 0.600166 0.010742
0.573404 0.609872 0.004669
0.619288 0.619390 0.000000
0.666299 0.628725 0.000000
0.712005 0.635570 0.000000
0.756163 0.640358 0.000000
0.799009 0.643820 0.000000
0.837732 0.644231 0.000000
0.866536 0.641739 0.000000
0.887414 0.639511 0.000000
0.903382 0.637494 0.000000
0.916178 0.635635 0.000000
0.926783 0.633901 0.000000
0.931874 0.632346 0.000000
0.931874 0.624621 0.000000
0.931874 0.623247 0.001206
0.931874 0.623948 0.001190
0.931874 0.624535 0.001164
0.931874 0.624987 0.001175
0.931874 0.625364 0.001220
0.931874 0.625759 0.001268
0.128014 0.592974 0.013612
0.148806 0.594348 0.014141
0.169216 0.595690 0.014661
0.190824 0.597110 0.015245
0.215406 0.598729 0.016053
0.245284 0.600843 0.016826
0.281847 0.603461 0.018135
0.323211 0.606338 0.019566
0.366788 0.609283 0.021021
0.409832 0.612113 0.022408
0.449879 0.614680 0.023655
0.489253 0.618692 0.023270
0.531506 0.628500 0.017061
0.574981 0.638118 0.010905
0.619591 0.647548 0.004807
0.665256 0.656797 0.000000
0.711881 0.665842 0.000000
0.755963 0.671720 0.000000
0.798732 0.676123 0.000000
0.840580 0.679372 0.000000
0.871568 0.679607 0.000000
0.891108 0.676957 0.000000
0.906187 0.674545 0.000000
0.918357 0.672311 0.000000
0.928501 0.670216 0.000000
0.931874 0.668217 0.000000
0.931874 0.656780 0.000000
0.931874 0.655465 0.005123
0.931874 0.656097 0.005049
0.931874 0.656626 0.004975
0.931874 0.657046 0.004970
0.931874 0.657418 0.005014
0.931874 0.657808 0.005059
0.131780 0.624260 0.017197
0.152801 0.625773 0.017844
0.173710 0.627367 0.018278
0.195810 0.629010 0.018723
0.220907 0.630830 0.019214
0.250966 0.632961 0.020033
0.287496 0.635485 0.021260
0.328810 0.638257 0.022599
0.372323 0.641092 0.023958
0.415295 0.643815 0.025251
0.455270 0.646283 0.026412
0.493952 0.648615 0.027500
0.534545 0.656370 0.023132
0.576936 0.665899 0.016895
0.620392 0.675241 0.010718
0.664838 0.684403 0.004601
0.710211 0.693391 0.000000
0.755480 0.701628 0.000000
0.798172 0.707009 0.000000
0.839951 0.711117 0.000000
0.873287 0.714202 0.000000
0.894341 0.714024 0.000000
0.908657 0.711214 0.000000
0.920283 0.708602 0.000000
0.930023 0.706141 0.000000
0.931874 0.701446 0.000000
0.931874 0.687998 0.004131
0.931874 0.686904 0.008793
0.931874 0.687468 0.008664
0.931874 0.687939 0.008542
0.931874 0.688332 0.008525
0.931874 0.688700 0.008566
0.931874 0.689085 0.008609
0.136903 0.656550 0.020472
0.158284 0.658168 0.020875
0.179214 0.659705 0.021259
0.201320 0.661288 0.021652
0.226411 0.663041 0.022086
0.256453 0.665096 0.023059
0.292945 0.667524 0.024203
0.334203 0.670190 0.025450
0.377647 0.672914 0.026712
0.420545 0.675527 0.027912
0.460444 0.677895 0.028986
0.499050 0.680131 0.029991
0.537824 0.684212 0.029053
0.579212 0.693649 0.022734
0.621601 0.702903 0.016478
0.664920 0.711976 0.010283
0.709110 0.720877 0.004151
0.753656 0.729523 0.000000
0.797325 0.736968 0.000000
0.839028 0.741981 0.000000
0.872623 0.745874 0.000000
0.895632 0.748840 0.000000
0.910862 0.748031 0.000000
0.922008 0.745033 0.000000
0.931390 0.742199 0.000000
0.931874 0.734268 0.000000
0.931874 0.718819 0.009309
0.931874 0.718062 0.012277
0.931874 0.718555 0.012332
0.931874 0.718964 0.012390
0.931874 0.719334 0.012442
0.931874 0.719697 0.012493
0.931874 0.720077 0.012546
0.142256 0.689528 0.023417
0.163673 0.691084 0.023767
0.184618 0.692562 0.024100
0.206724 0.694083 0.024440
0.231807 0.695771 0.025043
0.261822 0.697744 0.025945
0.298269 0.700073 0.027004
0.339466 0.702628 0.028156
0.382836 0.705237 0.029320
0.425653 0.707738 0.030423
0.465473 0.710002 0.031410
0.503997 0.712138 0.032329
0.541930 0.714192 0.033201
0.581784 0.721796 0.028507
0.623167 0.730957 0.022169
0.665424 0.739939 0.015896
0.708501 0.748750 0.009687
0.751895 0.757309 0.003604
0.795311 0.765583 0.000000
0.837789 0.772403 0.000000
0.871741 0.777159 0.000000
0.894966 0.780910 0.000000
0.912002 0.783803 0.000000
0.923572 0.782128 0.000000
0.931874 0.778923 0.000000
0.931874 0.767214 0.000000
0.931874 0.749744 0.014844
0.931874 0.749398 0.016683
0.931874 0.749822 0.016743
0.931874 0.750173 0.016792
0.931874 0.750526 0.016842
0.931874 0.750883 0.016893
0.931874 0.751258 0.016946
0.147637 0.723836 0.026278
0.169082 0.725327 0.026572
0.190034 0.726741 0.026850
0.212135 0.728198 0.027201
0.237203 0.729815 0.027914
0.267184 0.731701 0.028742
0.303579 0.733926 0.029712
0.344706 0.736364 0.030765
0.387994 0.738852 0.031826
0.430722 0.741235 0.032829
0.470456 0.743389 0.033723
0.508893 0.745420 0.034554
0.546737 0.747370 0.035339
0.584675 0.751021 0.034338
0.625084 0.760084 0.027916
0.666316 0.768971 0.021561
0.708315 0.777687 0.015272
0.750598 0.786153 0.009111
0.792876 0.794337 0.003107
0.835451 0.802320 0.000000
0.870591 0.808733 0.000000
0.894105 0.813334 0.000000
0.911322 0.816995 0.000000
0.924670 0.819855 0.000000
0.931874 0.817871 0.000000
0.931874 0.801107 0.000000
0.931874 0.781557 0.020630
0.931874 0.781669 0.021276
0.931874 0.782022 0.021327
0.931874 0.782312 0.021368
0.931874 0.782652 0.021417
0.931874 0.783004 0.021467
0.931874 0.783373 0.021520
0.153119 0.760160 0.029078
0.174584 0.761580 0.029312
0.195535 0.762927 0.029533
0.217628 0.764316 0.030077
0.242669 0.765854 0.030724
0.272609 0.767646 0.031472
0.308942 0.769758 0.032347
0.349988 0.772071 0.033295
0.393184 0.774429 0.034247
0.435814 0.776684 0.035143
0.475453 0.778721 0.035938
0.513794 0.780638 0.036674
0.551541 0.782478 0.037367
0.588690 0.784244 0.038019
0.627364 0.790860 0.033805
0.667584 0.799642 0.027363
0.708524 0.808256 0.020989
0.749712 0.816623 0.014746
0.790861 0.824698 0.008884
0.832267 0.832566 0.003271
0.868568 0.840211 0.000000
0.892966 0.845957 0.000000
0.910438 0.849903 0.000000
0.923962 0.852972 0.000000
0.931874 0.855309 0.000000
0.931874 0.836656 0.000000
0.931874 0.815127 0.026086
0.931874 0.815473 0.026136
0.931874 0.815752 0.026176
0.931874 0.815978 0.026209
0.931874 0.816308 0.026256
0.931874 0.816655 0.026307
0.931874 0.817019 0.026359
0.158399 0.796655 0.031650
0.179872 0.798002 0.031824
0.200818 0.799283 0.032201
0.222892 0.800601 0.032726
0.247901 0.802057 0.033305
0.277792 0.803753 0.033973
0.314057 0.805751 0.034752
0.355017 0.807936 0.035593
0.398114 0.810160 0.036434
0.440642 0.812285 0.037222
0.480179 0.814202 0.037917
0.518421 0.816005 0.038557
0.556067 0.817732 0.039157
0.593115 0.819387 0.039717
0.629847 0.821714 0.039514
0.669112 0.830374 0.033289
0.709043 0.838815 0.027238
0.749184 0.846452 0.021333
0.789272 0.853227 0.015599
0.829595 0.859328 0.009983
0.865866 0.864899 0.004429
0.891241 0.870058 0.000000
0.909386 0.873982 0.000000
0.923125 0.876743 0.000000
0.931874 0.878922 0.000000
0.931874 0.866029 0.000000
0.931874 0.847945 0.030976
0.931874 0.848170 0.031014
0.931874 0.848348 0.031043
0.931874 0.848488 0.031067
0.931874 0.848771 0.031115
0.931874 0.849065 0.031165
0.931874 0.849371 0.031217
0.163195 0.831310 0.033866
0.184668 0.832589 0.034090
0.205602 0.833804 0.034547
0.227650 0.835051 0.035014
0.252623 0.836429 0.035527
0.282463 0.838010 0.036119
0.318657 0.839836 0.036807
0.359530 0.841788 0.037545
0.402528 0.843728 0.038280
0.444952 0.845539 0.038964
0.484391 0.847138 0.039564
0.522535 0.848612 0.040113
0.560083 0.849999 0.040850
0.597035 0.851307 0.041729
0.633395 0.852540 0.042590
0.670728 0.856716 0.039724
0.709764 0.863004 0.033669
0.748984 0.868649 0.027760
0.788131 0.873718 0.022024
0.827489 0.878333 0.016405
0.863581 0.882590 0.010849
0.889114 0.886568 0.005298
0.907983 0.890332 0.000000
0.922206 0.893184 0.000000
0.931874 0.895246 0.000000
0.931874 0.886061 0.004087
0.931874 0.871576 0.035615
0.931874 0.871690 0.035641
0.931874 0.871776 0.035661
