Fotico/Resources/LUTs/invierno.cube
# Invierno
LUT_3D_SIZE 9
0.000000 0.000000 0.010462
0.031781 0.000000 0.010462
0.134272 0.000116 0.010462
0.284003 0.000610 0.010462
0.458839 0.001480 0.010462
0.637590 0.002716 0.010462
0.799636 0.004309 0.010462
0.924753 0.006253 0.010462
0.993020 0.008539 0.010462
0.000000 0.030554 0.010462
0.031781 0.035146 0.010462
0.134272 0.040025 0.010462
0.284003 0.045185 0.010462
0.458839 0.050620 0.010462
0.637590 0.056323 0.010462
0.799636 0.062288 0.010462
0.924753 0.068510 0.010462
0.993020 0.074982 0.010462
0.000000 0.121434 0.010462
0.031781 0.129557 0.010462
0.134272 0.137880 0.010462
0.284003 0.146397 0.010462
0.458839 0.155103 0.010462
0.637590 0.163991 0.010462
0.799636 0.173056 0.010462
0.924753 0.182291 0.010462
0.993020 0.191691 0.010462
0.000000 0.254741 0.010462
0.031781 0.265174 0.010462
0.134272 0.275723 0.010462
0.284003 0.286383 0.010462
0.458839 0.297148 0.010462
0.637590 0.308013 0.010462
0.799636 0.318970 0.010462
0.924753 0.330016 0.010462
0.993020 0.341144 0.010462
0.000000 0.413230 0.010462
0.031781 0.424786 0.010462
0.134272 0.436377 0.010462
0.284003 0.447997 0.010462
0.458839 0.459641 0.010462
0.637590 0.471302 0.010462
0.799636 0.482975 0.010462
0.924753 0.494654 0.010462
0.993020 0.506335 0.010462
0.000000 0.580033 0.010462
0.031781 0.591547 0.010462
0.134272 0.603015 0.010462
0.284003 0.614431 0.010462
0.458839 0.625789 0.010462
0.637590 0.637085 0.010462
0.799636 0.648312 0.010462
0.924753 0.659465 0.010462
0.993020 0.670538 0.010462
0.000000 0.738520 0.010462
0.031781 0.748838 0.010462
0.134272 0.759029 0.010462
0.284003 0.769089 0.010462
0.458839 0.779012 0.010462
0.637590 0.788792 0.010462
0.799636 0.798423 0.010462
0.924753 0.807901 0.010462
0.993020 0.817219 0.010462
0.000000 0.872221 0.010462
0.031781 0.880199 0.010462
0.134272 0.887971 0.010462
0.284003 0.895533 0.010462
0.458839 0.902878 0.010462
0.637590 0.910001 0.010462
0.799636 0.916896 0.010462
0.924753 0.923558 0.010462
0.993020 0.929981 0.010462
0.000000 0.964792 0.010462
0.031781 0.969295 0.010462
0.134272 0.973513 0.010462
0.284003 0.977442 0.010462
0.458839 0.981075 0.010462
0.637590 0.984407 0.010462
0.799636 0.987432 0.010462
0.924753 0.990146 0.010462
0.993020 0.992542 0.010462
0.000000 0.000000 0.084824
0.031781 0.000002 0.084824
0.134272 0.000241 0.084824
0.284003 0.000864 0.084824
0.458839 0.001859 0.084824
0.637590 0.003217 0.084824
0.799636 0.004931 0.084824
0.924753 0.006991 0.084824
0.993020 0.009392 0.084824
0.000000 0.032081 0.084824
0.031781 0.036771 0.084824
0.134272 0.041746 0.084824
0.284003 0.047000 0.084824
0.458839 0.052527 0.084824
0.637590 0.058320 0.084824
0.799636 0.064373 0.084824
0.924753 0.070680 0.084824
0.993020 0.077235 0.084824
0.000000 0.124170 0.084824
0.031781 0.132362 0.084824
0.134272 0.140751 0.084824
0.284003 0.149333 0.084824
0.458839 0.158101 0.084824
0.637590 0.167050 0.084824
0.799636 0.176173 0.084824
0.924753 0.185465 0.084824
0.993020 0.194920 0.084824
0.000000 0.258271 0.084824
0.031781 0.268744 0.084824
0.134272 0.279331 0.084824
0.284003 0.290028 0.084824
0.458839 0.300827 0.084824
0.637590 0.311724 0.084824
0.799636 0.322712 0.084824
0.924753 0.333786 0.084824
0.993020 0.344941 0.084824
0.000000 0.417150 0.084824
0.031781 0.428719 0.084824
0.134272 0.440320 0.084824
0.284003 0.451949 0.084824
0.458839 0.463599 0.084824
0.637590 0.475265 0.084824
0.799636 0.486941 0.084824
0.924753 0.498621 0.084824
0.993020 0.510301 0.084824
0.000000 0.583948 0.084824
0.031781 0.595447 0.084824
0.134272 0.606898 0.084824
0.284003 0.618295 0.084824
0.458839 0.629633 0.084824
0.637590 0.640905 0.084824
0.799636 0.652108 0.084824
0.924753 0.663235 0.084824
0.993020 0.674279 0.084824
0.000000 0.742038 0.084824
0.031781 0.752313 0.084824
0.134272 0.762461 0.084824
0.284003 0.772475 0.084824
0.458839 0.782349 0.084824
0.637590 0.792079 0.084824
0.799636 0.801659 0.084824
0.924753 0.811083 0.084824
0.993020 0.820346 0.084824
0.000000 0.874953 0.084824
0.031781 0.882862 0.084824
0.134272 0.890563 0.084824
0.284003 0.898052 0.084824
0.458839 0.905322 0.084824
0.637590 0.912368 0.084824
0.799636 0.919185 0.084824
0.924753 0.925766 0.084824
0.993020 0.932107 0.084824
0.000000 0.966352 0.084824
0.031781 0.970759 0.084824
0.134272 0.974880 0.084824
0.284003 0.978709 0.084824
0.458839 0.982240 0.084824
0.637590 0.985469 0.084824
0.799636 0.988389 0.084824
0.924753 0.990995 0.084824
0.993020 0.993282 0.084824
0.000000 0.000000 0.213667
0.031781 0.000039 0.213667
0.134272 0.000410 0.213667
0.284003 0.001160 0.213667
0.458839 0.002280 0.213667
0.637590 0.003760 0.213667
0.799636 0.005592 0.213667
0.924753 0.007769 0.213667
0.993020 0.010284 0.213667
0.000000 0.033641 0.213667
0.031781 0.038429 0.213667
0.134272 0.043500 0.213667
0.284003 0.048847 0.213667
0.458839 0.054465 0.213667
0.637590 0.060346 0.213667
0.799636 0.066487 0.213667
0.924753 0.072879 0.213667
0.993020 0.079517 0.213667
0.000000 0.126930 0.213667
0.031781 0.135189 0.213667
0.134272 0.143644 0.213667
0.284003 0.152290 0.213667
0.458839 0.161120 0.213667
0.637590 0.170129 0.213667
0.799636 0.179310 0.213667
0.924753 0.188658 0.213667
0.993020 0.198167 0.213667
0.000000 0.261814 0.213667
0.031781 0.272327 0.213667
0.134272 0.282952 0.213667
0.284003 0.293684 0.213667
0.458839 0.304517 0.213667
0.637590 0.315445 0.213667
0.799636 0.326464 0.213667
0.924753 0.337566 0.213667
0.993020 0.348746 0.213667
0.000000 0.421075 0.213667
0.031781 0.432655 0.213667
0.134272 0.444267 0.213667
0.284003 0.455903 0.213667
0.458839 0.467559 0.213667
0.637590 0.479229 0.213667
0.799636 0.490907 0.213667
0.924753 0.502588 0.213667
0.993020 0.514266 0.213667
0.000000 0.587858 0.213667
0.031781 0.599341 0.213667
0.134272 0.610775 0.213667
0.284003 0.622152 0.213667
0.458839 0.633468 0.213667
0.637590 0.644718 0.213667
0.799636 0.655895 0.213667
0.924753 0.666995 0.213667
0.993020 0.678011 0.213667
0.000000 0.745541 0.213667
0.031781 0.755774 0.213667
0.134272 0.765877 0.213667
0.284003 0.775844 0.213667
0.458839 0.785670 0.213667
0.637590 0.795350 0.213667
0.799636 0.804877 0.213667
0.924753 0.814247 0.213667
0.993020 0.823454 0.213667
0.000000 0.877662 0.213667
0.031781 0.885501 0.213667
0.134272 0.893131 0.213667
0.284003 0.900546 0.213667
0.458839 0.907740 0.213667
0.637590 0.914709 0.213667
0.799636 0.921446 0.213667
0.924753 0.927947 0.213667
0.993020 0.934205 0.213667
0.000000 0.967881 0.213667
0.031781 0.972191 0.213667
0.134272 0.976213 0.213667
0.284003 0.979942 0.213667
0.458839 0.983371 0.213667
0.637590 0.986495 0.213667
0.799636 0.989309 0.213667
0.924753 0.991808 0.213667
0.993020 0.993985 0.213667
0.000000 0.000000 0.379706
0.031781 0.000122 0.379706
0.134272 0.000623 0.379706
0.284003 0.001500 0.379706
0.458839 0.002742 0.379706
0.637590 0.004343 0.379706
0.799636 0.006293 0.379706
0.924753 0.008585 0.379706
0.993020 0.011213 0.379706
0.000000 0.035235 0.379706
0.031781 0.040120 0.379706
0.134272 0.045285 0.379706
0.284003 0.050725 0.379706
0.458839 0.056433 0.379706
0.637590 0.062403 0.379706
0.799636 0.068629 0.379706
0.924753 0.075106 0.379706
0.993020 0.081826 0.379706
0.000000 0.129712 0.379706
0.031781 0.138039 0.379706
0.134272 0.146560 0.379706
0.284003 0.155269 0.379706
0.458839 0.164160 0.379706
0.637590 0.173228 0.379706
0.799636 0.182466 0.379706
0.924753 0.191869 0.379706
0.993020 0.201432 0.379706
0.000000 0.265371 0.379706
0.031781 0.275923 0.379706
0.134272 0.286585 0.379706
0.284003 0.297352 0.379706
0.458839 0.308218 0.379706
0.637590 0.319178 0.379706
0.799636 0.330225 0.379706
0.924753 0.341354 0.379706
0.993020 0.352560 0.379706
0.000000 0.425004 0.379706
0.031781 0.436595 0.379706
0.134272 0.448216 0.379706
0.284003 0.459860 0.379706
0.458839 0.471521 0.379706
0.637590 0.483195 0.379706
0.799636 0.494874 0.379706
0.924753 0.506555 0.379706
0.993020 0.518230 0.379706
0.000000 0.591763 0.379706
0.031781 0.603230 0.379706
0.134272 0.614645 0.379706
0.284003 0.626002 0.379706
0.458839 0.637297 0.379706
0.637590 0.648522 0.379706
0.799636 0.659674 0.379706
0.924753 0.670746 0.379706
0.993020 0.681732 0.379706
0.000000 0.749031 0.379706
0.031781 0.759220 0.379706
0.134272 0.769277 0.379706
0.284003 0.779197 0.379706
0.458839 0.788974 0.379706
0.637590 0.798603 0.379706
0.799636 0.808077 0.379706
0.924753 0.817392 0.379706
0.993020 0.826542 0.379706
0.000000 0.880347 0.379706
0.031781 0.888116 0.379706
0.134272 0.895673 0.379706
0.284003 0.903014 0.379706
0.458839 0.910133 0.379706
0.637590 0.917023 0.379706
0.799636 0.923681 0.379706
0.924753 0.930100 0.379706
0.993020 0.936274 0.379706
0.000000 0.969377 0.379706
0.031781 0.973590 0.379706
0.134272 0.977513 0.379706
0.284003 0.981140 0.379706
0.458839 0.984466 0.379706
0.637590 0.987486 0.379706
0.799636 0.990194 0.379706
0.924753 0.992584 0.379706
0.993020 0.994651 0.379706
0.000000 0.000003 0.562580
0.031781 0.000249 0.562580
0.134272 0.000879 0.562580
0.284003 0.001881 0.562580
0.458839 0.003246 0.562580
0.637590 0.004966 0.562580
0.799636 0.007033 0.562580
0.924753 0.009441 0.562580
0.993020 0.012181 0.562580
0.000000 0.036862 0.562580
0.031781 0.041843 0.562580
0.134272 0.047102 0.562580
0.284003 0.052633 0.562580
0.458839 0.058431 0.562580
0.637590 0.064489 0.562580
0.799636 0.070801 0.562580
0.924753 0.077361 0.562580
0.993020 0.084163 0.562580
0.000000 0.132518 0.562580
0.031781 0.140911 0.562580
0.134272 0.149496 0.562580
0.284003 0.158268 0.562580
0.458839 0.167220 0.562580
0.637590 0.176346 0.562580
0.799636 0.185641 0.562580
0.924753 0.195099 0.562580
0.993020 0.204714 0.562580
0.000000 0.268942 0.562580
0.031781 0.279531 0.562580
0.134272 0.290230 0.562580
0.284003 0.301031 0.562580
0.458839 0.311930 0.562580
0.637590 0.322920 0.562580
0.799636 0.333996 0.562580
0.924753 0.345152 0.562580
0.993020 0.356382 0.562580
0.000000 0.428937 0.562580
0.031781 0.440539 0.562580
0.134272 0.452168 0.562580
0.284003 0.463818 0.562580
0.458839 0.475484 0.562580
0.637590 0.487161 0.562580
0.799636 0.498841 0.562580
0.924753 0.510520 0.562580
0.993020 0.522193 0.562580
0.000000 0.595663 0.562580
0.031781 0.607113 0.562580
0.134272 0.618509 0.562580
0.284003 0.629845 0.562580
0.458839 0.641117 0.562580
0.637590 0.652318 0.562580
0.799636 0.663443 0.562580
0.924753 0.674486 0.562580
0.993020 0.685443 0.562580
0.000000 0.752506 0.562580
0.031781 0.762651 0.562580
0.134272 0.772662 0.562580
0.284003 0.782534 0.562580
0.458839 0.792261 0.562580
0.637590 0.801838 0.562580
0.799636 0.811259 0.562580
0.924753 0.820518 0.562580
0.993020 0.829611 0.562580
0.000000 0.883009 0.562580
0.031781 0.890706 0.562580
0.134272 0.898191 0.562580
0.284003 0.905457 0.562580
0.458839 0.912499 0.562580
0.637590 0.919311 0.562580
0.799636 0.925888 0.562580
0.924753 0.932224 0.562580
0.993020 0.938314 0.562580
0.000000 0.970840 0.562580
0.031781 0.974955 0.562580
0.134272 0.978778 0.562580
0.284003 0.982304 0.562580
0.458839 0.985527 0.562580
0.637590 0.988441 0.562580
0.799636 0.991041 0.562580
0.924753 0.993322 0.562580
0.993020 0.995278 0.562580
0.000000 0.000042 0.740044
0.031781 0.000421 0.740044
0.134272 0.001178 0.740044
0.284003 0.002304 0.740044
0.458839 0.003791 0.740044
0.637590 0.005630 0.740044
0.799636 0.007813 0.740044
0.924753 0.010334 0.740044
0.993020 0.013186 0.740044
0.000000 0.038522 0.740044
0.031781 0.043598 0.740044
0.134272 0.048950 0.740044
0.284003 0.054573 0.740044
0.458839 0.060460 0.740044
0.637590 0.066605 0.740044
0.799636 0.073001 0.740044
0.924753 0.079644 0.740044
0.993020 0.086526 0.740044
0.000000 0.135346 0.740044
0.031781 0.143805 0.740044
0.134272 0.152455 0.740044
0.284003 0.161288 0.740044
0.458839 0.170300 0.740044
0.637590 0.179484 0.740044
0.799636 0.188835 0.740044
0.924753 0.198347 0.740044
0.993020 0.208014 0.740044
0.000000 0.272526 0.740044
0.031781 0.283153 0.740044
0.134272 0.293887 0.740044
0.284003 0.304722 0.740044
0.458839 0.315652 0.740044
0.637590 0.326672 0.740044
0.799636 0.337776 0.740044
0.924753 0.348957 0.740044
0.993020 0.360212 0.740044
0.000000 0.432873 0.740044
0.031781 0.444485 0.740044
0.134272 0.456122 0.740044
0.284003 0.467779 0.740044
0.458839 0.479449 0.740044
0.637590 0.491127 0.740044
0.799636 0.502808 0.740044
0.924753 0.514485 0.740044
0.993020 0.526154 0.740044
0.000000 0.599557 0.740044
0.031781 0.610989 0.740044
0.134272 0.622366 0.740044
0.284003 0.633681 0.740044
0.458839 0.644929 0.740044
0.637590 0.656105 0.740044
0.799636 0.667203 0.740044
0.924753 0.678217 0.740044
0.993020 0.689142 0.740044
0.000000 0.755965 0.740044
0.031781 0.766066 0.740044
0.134272 0.776030 0.740044
0.284003 0.785854 0.740044
0.458839 0.795531 0.740044
0.637590 0.805055 0.740044
0.799636 0.814422 0.740044
0.924753 0.823625 0.740044
0.993020 0.832660 0.740044
0.000000 0.885646 0.740044
0.031781 0.893272 0.740044
0.134272 0.900683 0.740044
0.284003 0.907874 0.740044
0.458839 0.914838 0.740044
0.637590 0.921571 0.740044
0.799636 0.928067 0.740044
0.924753 0.934320 0.740044
0.993020 0.940326 0.740044
0.000000 0.972270 0.740044
0.031781 0.976286 0.740044
0.134272 0.980009 0.740044
0.284003 0.983433 0.740044
0.458839 0.986551 0.740044
0.637590 0.989359 0.740044
0.799636 0.991852 0.740044
0.924753 0.994023 0.740044
0.993020 0.995867 0.740044
0.000000 0.000128 0.888498
0.031781 0.000636 0.888498
0.134272 0.001520 0.888498
0.284003 0.002769 0.888498
0.458839 0.004376 0.888498
0.637590 0.006333 0.888498
0.799636 0.008632 0.888498
0.924753 0.011266 0.888498
0.993020 0.014228 0.888498
0.000000 0.040214 0.888498
0.031781 0.045385 0.888498
0.134272 0.050830 0.888498
0.284003 0.056543 0.888498
0.458839 0.062518 0.888498
0.637590 0.068749 0.888498
0.799636 0.075230 0.888498
0.924753 0.081955 0.888498
0.993020 0.088917 0.888498
0.000000 0.138197 0.888498
0.031781 0.146722 0.888498
0.134272 0.155434 0.888498
0.284003 0.164329 0.888498
0.458839 0.173400 0.888498
0.637590 0.182642 0.888498
0.799636 0.192048 0.888498
0.924753 0.201613 0.888498
0.993020 0.211331 0.888498
0.000000 0.276122 0.888498
0.031781 0.286786 0.888498
0.134272 0.297555 0.888498
0.284003 0.308423 0.888498
0.458839 0.319385 0.888498
0.637590 0.330434 0.888498
0.799636 0.341564 0.888498
0.924753 0.352772 0.888498
0.993020 0.364049 0.888498
0.000000 0.436814 0.888498
0.031781 0.448435 0.888498
0.134272 0.460079 0.888498
0.284003 0.471741 0.888498
0.458839 0.483414 0.888498
0.637590 0.495094 0.888498
0.799636 0.506774 0.888498
0.924753 0.518449 0.888498
0.993020 0.530114 0.888498
0.000000 0.603445 0.888498
0.031781 0.614859 0.888498
0.134272 0.626215 0.888498
0.284003 0.637508 0.888498
0.458839 0.648733 0.888498
0.637590 0.659883 0.888498
0.799636 0.670953 0.888498
0.924753 0.681938 0.888498
0.993020 0.692831 0.888498
0.000000 0.759410 0.888498
0.031781 0.769465 0.888498
0.134272 0.779382 0.888498
0.284003 0.789157 0.888498
0.458839 0.798782 0.888498
0.637590 0.808254 0.888498
0.799636 0.817566 0.888498
0.924753 0.826713 0.888498
0.993020 0.835689 0.888498
0.000000 0.888260 0.888498
0.031781 0.895813 0.888498
0.134272 0.903150 0.888498
0.284003 0.910264 0.888498
0.458839 0.917151 0.888498
0.637590 0.923804 0.888498
0.799636 0.930218 0.888498
0.924753 0.936388 0.888498
0.993020 0.942308 0.888498
0.000000 0.973666 0.888498
0.031781 0.977584 0.888498
0.134272 0.981206 0.888498
0.284003 0.984526 0.888498
0.458839 0.987540 0.888498
0.637590 0.990242 0.888498
0.799636 0.992625 0.888498
0.924753 0.994686 0.888498
0.993020 0.996419 0.888498
0.000000 0.000257 0.983274
0.031781 0.000894 0.983274
0.134272 0.001903 0.983274
0.284003 0.003275 0.983274
0.458839 0.005002 0.983274
0.637590 0.007076 0.983274
0.799636 0.009489 0.983274
0.924753 0.012235 0.983274
0.993020 0.015308 0.983274
0.000000 0.041939 0.983274
0.031781 0.047203 0.983274
0.134272 0.052740 0.983274
0.284003 0.058543 0.983274
0.458839 0.064606 0.983274
0.637590 0.070922 0.983274
0.799636 0.077487 0.983274
0.924753 0.084293 0.983274
0.993020 0.091335 0.983274
0.000000 0.141071 0.983274
0.031781 0.149660 0.983274
0.134272 0.158435 0.983274
0.284003 0.167390 0.983274
0.458839 0.176520 0.983274
0.637590 0.185818 0.983274
0.799636 0.195279 0.983274
0.924753 0.204897 0.983274
0.993020 0.214665 0.983274
0.000000 0.279732 0.983274
0.031781 0.290432 0.983274
0.134272 0.301235 0.983274
0.284003 0.312136 0.983274
0.458839 0.323127 0.983274
0.637590 0.334205 0.983274
0.799636 0.345362 0.983274
0.924753 0.356594 0.983274
0.993020 0.367894 0.983274
0.000000 0.440757 0.983274
0.031781 0.452387 0.983274
0.134272 0.464038 0.983274
0.284003 0.475704 0.983274
0.458839 0.487380 0.983274
0.637590 0.499061 0.983274
0.799636 0.510740 0.983274
0.924753 0.522412 0.983274
0.993020 0.534072 0.983274
0.000000 0.607328 0.983274
0.031781 0.618722 0.983274
0.134272 0.630058 0.983274
0.284003 0.641328 0.983274
0.458839 0.652528 0.983274
0.637590 0.663652 0.983274
0.799636 0.674693 0.983274
0.924753 0.685648 0.983274
0.993020 0.696509 0.983274
0.000000 0.762840 0.983274
0.031781 0.772849 0.983274
0.134272 0.782718 0.983274
0.284003 0.792443 0.983274
0.458839 0.802017 0.983274
0.637590 0.811435 0.983274
0.799636 0.820691 0.983274
0.924753 0.829780 0.983274
0.993020 0.838697 0.983274
0.000000 0.890849 0.983274
0.031781 0.898330 0.983274
0.134272 0.905591 0.983274
0.284003 0.912629 0.983274
0.458839 0.919437 0.983274
0.637590 0.926009 0.983274
0.799636 0.932341 0.983274
0.924753 0.938427 0.983274
0.993020 0.944260 0.983274
0.000000 0.975030 0.983274
0.031781 0.978847 0.983274
0.134272 0.982367 0.983274
0.284003 0.985584 0.983274
0.458839 0.988493 0.983274
0.637590 0.991087 0.983274
0.799636 0.993362 0.983274
0.924753 0.995312 0.983274
0.993020 0.996931 0.983274
0.000000 0.000431 1.000000
0.031781 0.001196 1.000000
0.134272 0.002329 1.000000
0.284003 0.003822 1.000000
0.458839 0.005668 1.000000
0.637590 0.007857 1.000000
0.799636 0.010385 1.000000
0.924753 0.013243 1.000000
0.993020 0.016424 1.000000
0.000000 0.043696 1.000000
0.031781 0.049053 1.000000
0.134272 0.054681 1.000000
0.284003 0.060573 1.000000
0.458839 0.066723 1.000000
0.637590 0.073124 1.000000
0.799636 0.079771 1.000000
0.924753 0.086658 1.000000
0.993020 0.093779 1.000000
0.000000 0.143966 1.000000
0.031781 0.152619 1.000000
0.134272 0.161456 1.000000
0.284003 0.170471 1.000000
0.458839 0.179659 1.000000
0.637590 0.189013 1.000000
0.799636 0.198528 1.000000
0.924753 0.208197 1.000000
0.993020 0.218016 1.000000
0.000000 0.283354 1.000000
0.031781 0.294090 1.000000
0.134272 0.304926 1.000000
0.284003 0.315858 1.000000
0.458839 0.326880 1.000000
0.637590 0.337985 1.000000
0.799636 0.349169 1.000000
0.924753 0.360424 1.000000
0.993020 0.371746 1.000000
0.000000 0.444704 1.000000
0.031781 0.456341 1.000000
0.134272 0.467998 1.000000
0.284003 0.479669 1.000000
0.458839 0.491347 1.000000
0.637590 0.503028 1.000000
0.799636 0.514705 1.000000
0.924753 0.526374 1.000000
0.993020 0.538028 1.000000
0.000000 0.611204 1.000000
0.031781 0.622579 1.000000
0.134272 0.633893 1.000000
0.284003 0.645140 1.000000
0.458839 0.656315 1.000000
0.637590 0.667411 1.000000
0.799636 0.678424 1.000000
0.924753 0.689347 1.000000
0.993020 0.700176 1.000000
0.000000 0.766254 1.000000
0.031781 0.776216 1.000000
0.134272 0.786037 1.000000
0.284003 0.795711 1.000000
0.458839 0.805233 1.000000
0.637590 0.814597 1.000000
0.799636 0.823797 1.000000
0.924753 0.832828 1.000000
0.993020 0.841685 1.000000
0.000000 0.893414 1.000000
0.031781 0.900820 1.000000
0.134272 0.908007 1.000000
0.284003 0.914967 1.000000
0.458839 0.921695 1.000000
0.637590 0.928187 1.000000
0.799636 0.934436 1.000000
0.924753 0.940436 1.000000
0.993020 0.946183 1.000000
0.000000 0.976359 1.000000
0.031781 0.980076 1.000000
0.134272 0.983494 1.000000
0.284003 0.986607 1.000000
0.458839 0.989409 1.000000
0.637590 0.991896 1.000000
0.799636 0.994061 1.000000
0.924753 0.995899 1.000000
0.993020 0.997405 1.000000
