Fotico/Resources/LUTs/invierno.cube
# Invierno
LUT_3D_SIZE 5
0.000000 0.000000 0.010462
0.134272 0.000116 0.010462
0.458839 0.001480 0.010462
0.799636 0.004309 0.010462
0.993020 0.008539 0.010462
0.000000 0.121434 0.010462
0.134272 0.137880 0.010462
0.458839 0.155103 0.010462
0.799636 0.173056 0.010462
0.993020 0.191691 0.010462
0.000000 0.413230 0.010462
0.134272 0.436377 0.010462
0.458839 0.459641 0.010462
0.799636 0.482975 0.010462
0.993020 0.506335 0.010462
0.000000 0.738520 0.010462
0.134272 0.759029 0.010462
0.458839 0.779012 0.010462
0.799636 0.798423 0.010462
0.993020 0.817219 0.010462
0.000000 0.964792 0.010462
0.134272 0.973513 0.010462
0.458839 0.981075 0.010462
0.799636 0.987432 0.010462
0.993020 0.992542 0.010462
0.000000 0.000000 0.213667
0.134272 0.000410 0.213667
0.458839 0.002280 0.213667
0.799636 0.005592 0.213667
0.993020 0.010284 0.213667
0.000000 0.126930 0.213667
0.134272 0.143644 0.213667
0.458839 0.161120 0.213667
0.799636 0.179310 0.213667
0.993020 0.198167 0.213667
0.000000 0.421075 0.213667
0.134272 0.444267 0.213667
0.458839 0.467559 0.213667
0.799636 0.490907 0.213667
0.993020 0.514266 0.213667
0.000000 0.745541 0.213667
0.134272 0.765877 0.213667
0.458839 0.785670 0.213667
0.799636 0.804877 0.213667
0.993020 0.823454 0.213667
0.000000 0.967881 0.213667
0.134272 0.976213 0.213667
0.458839 0.983371 0.213667
0.799636 0.989309 0.213667
0.993020 0.993985 0.213667
0.000000 0.000003 0.562580
0.134272 0.000879 0.562580
0.458839 0.003246 0.562580
0.799636 0.007033 0.562580
0.993020 0.012181 0.562580
0.000000 0.132518 0.562580
0.134272 0.149496 0.562580
0.458839 0.167220 0.562580
0.799636 0.185641 0.562580
0.993020 0.204714 0.562580
0.000000 0.428937 0.562580
0.134272 0.452168 0.562580
0.458839 0.475484 0.562580
0.799636 0.498841 0.562580
0.993020 0.522193 0.562580
0.000000 0.752506 0.562580
0.134272 0.772662 0.562580
0.458839 0.792261 0.562580
0.799636 0.811259 0.562580
0.993020 0.829611 0.562580
0.000000 0.970840 0.562580
0.134272 0.978778 0.562580
0.458839 0.985527 0.562580
0.799636 0.991041 0.562580
0.993020 0.995278 0.562580
0.000000 0.000128 0.888498
0.134272 0.001520 0.888498
0.458839 0.004376 0.888498
0.799636 0.008632 0.888498
0.993020 0.014228 0.888498
0.000000 0.138197 0.888498
0.134272 0.155434 0.888498
0.458839 0.173400 0.888498
0.799636 0.192048 0.888498
0.993020 0.211331 0.888498
0.000000 0.436814 0.888498
0.134272 0.460079 0.888498
0.458839 0.483414 0.888498
0.799636 0.506774 0.888498
0.993020 0.530114 0.888498
0.000000 0.759410 0.888498
0.134272 0.779382 0.888498
0.458839 0.798782 0.888498
0.799636 0.817566 0.888498
0.993020 0.835689 0.888498
0.000000 0.973666 0.888498
0.134272 0.981206 0.888498
0.458839 0.987540 0.888498
0.799636 0.992625 0.888498
0.993020 0.996419 0.888498
0.000000 0.000431 1.000000
0.134272 0.002329 1.000000
0.458839 0.005668 1.000000
0.799636 0.010385 1.000000
0.993020 0.016424 1.000000
0.000000 0.143966 1.000000
0.134272 0.161456 1.000000
0.458839 0.179659 1.000000
0.799636 0.198528 1.000000
0.993020 0.218016 1.000000
0.000000 0.444704 1.000000
0.134272 0.467998 1.000000
0.458839 0.491347 1.000000
0.799636 0.514705 1.000000
0.993020 0.538028 1.000000
0.000000 0.766254 1.000000
0.134272 0.786037 1.000000
0.458839 0.805233 1.000000
0.799636 0.823797 1.000000
0.993020 0.841685 1.000000
0.000000 0.976359 1.000000
0.134272 0.983494 1.000000
0.458839 0.989409 1.000000
0.799636 0.994061 1.000000
0.993020 0.997405 1.000000
