Fotico/Resources/LUTs/invierno.cube
# Invierno
LUT_3D_SIZE 17
0.000000 0.000000 0.010462
0.005698 0.000000 0.010462
0.031781 0.000000 0.010462
0.075680 0.000014 0.010462
0.134272 0.000116 0.010462
0.204645 0.000315 0.010462
0.284003 0.000610 0.010462
0.369624 0.000999 0.010462
0.458839 0.001480 0.010462
0.549025 0.002053 0.010462
0.637590 0.002716 0.010462
0.721973 0.003468 0.010462
0.799636 0.004309 0.010462
0.868062 0.005238 0.010462
0.924753 0.006253 0.010462
0.967228 0.007354 0.010462
0.993020 0.008539 0.010462
0.000000 0.006617 0.010462
0.005698 0.007747 0.010462
0.031781 0.008961 0.010462
0.075680 0.010258 0.010462
0.134272 0.011638 0.010462
0.204645 0.013100 0.010462
0.284003 0.014643 0.010462
0.369624 0.016267 0.010462
0.458839 0.017969 0.010462
0.549025 0.019750 0.010462
0.637590 0.021609 0.010462
0.721973 0.023544 0.010462
0.799636 0.025556 0.010462
0.868062 0.027643 0.010462
0.924753 0.029804 0.010462
0.967228 0.032039 0.010462
0.993020 0.034347 0.010462
0.000000 0.030554 0.010462
0.005698 0.032814 0.010462
0.031781 0.035146 0.010462
0.075680 0.037550 0.010462
0.134272 0.040025 0.010462
0.204645 0.042570 0.010462
0.284003 0.045185 0.010462
0.369624 0.047869 0.010462
0.458839 0.050620 0.010462
0.549025 0.053438 0.010462
0.637590 0.056323 0.010462
0.721973 0.059273 0.010462
0.799636 0.062288 0.010462
0.868062 0.065367 0.010462
0.924753 0.068510 0.010462
0.967228 0.071715 0.010462
0.993020 0.074982 0.010462
0.000000 0.069590 0.010462
0.005698 0.072816 0.010462
0.031781 0.076104 0.010462
0.075680 0.079452 0.010462
0.134272 0.082860 0.010462
0.204645 0.086328 0.010462
0.284003 0.089854 0.010462
0.369624 0.093437 0.010462
0.458839 0.097078 0.010462
0.549025 0.100775 0.010462
0.637590 0.104527 0.010462
0.721973 0.108334 0.010462
0.799636 0.112196 0.010462
0.868062 0.116110 0.010462
0.924753 0.120077 0.010462
0.967228 0.124095 0.010462
0.993020 0.128165 0.010462
0.000000 0.121434 0.010462
0.005698 0.125471 0.010462
0.031781 0.129557 0.010462
0.075680 0.133694 0.010462
0.134272 0.137880 0.010462
0.204645 0.142115 0.010462
0.284003 0.146397 0.010462
0.369624 0.150727 0.010462
0.458839 0.155103 0.010462
0.549025 0.159525 0.010462
0.637590 0.163991 0.010462
0.721973 0.168502 0.010462
0.799636 0.173056 0.010462
0.868062 0.177652 0.010462
0.924753 0.182291 0.010462
0.967228 0.186971 0.010462
0.993020 0.191691 0.010462
0.000000 0.183874 0.010462
0.005698 0.188568 0.010462
0.031781 0.193302 0.010462
0.075680 0.198075 0.010462
0.134272 0.202887 0.010462
0.204645 0.207738 0.010462
0.284003 0.212625 0.010462
0.369624 0.217550 0.010462
0.458839 0.222510 0.010462
0.549025 0.227505 0.010462
0.637590 0.232535 0.010462
0.721973 0.237598 0.010462
0.799636 0.242695 0.010462
0.868062 0.247823 0.010462
0.924753 0.252984 0.010462
0.967228 0.258175 0.010462
0.993020 0.263396 0.010462
0.000000 0.254741 0.010462
0.005698 0.259943 0.010462
0.031781 0.265174 0.010462
0.075680 0.270434 0.010462
0.134272 0.275723 0.010462
0.204645 0.281040 0.010462
0.284003 0.286383 0.010462
0.369624 0.291753 0.010462
0.458839 0.297148 0.010462
0.549025 0.302568 0.010462
0.637590 0.308013 0.010462
0.721973 0.313480 0.010462
0.799636 0.318970 0.010462
0.868062 0.324483 0.010462
0.924753 0.330016 0.010462
0.967228 0.335570 0.010462
0.993020 0.341144 0.010462
0.000000 0.331898 0.010462
0.005698 0.337459 0.010462
0.031781 0.343040 0.010462
0.075680 0.348639 0.010462
0.134272 0.354257 0.010462
0.204645 0.359891 0.010462
0.284003 0.365543 0.010462
0.369624 0.371211 0.010462
0.458839 0.376894 0.010462
0.549025 0.382591 0.010462
0.637590 0.388303 0.010462
0.721973 0.394027 0.010462
0.799636 0.399764 0.010462
0.868062 0.405513 0.010462
0.924753 0.411273 0.010462
0.967228 0.417043 0.010462
0.993020 0.422823 0.010462
0.000000 0.413230 0.010462
0.005698 0.419003 0.010462
0.031781 0.424786 0.010462
0.075680 0.430577 0.010462
0.134272 0.436377 0.010462
0.204645 0.442184 0.010462
0.284003 0.447997 0.010462
0.369624 0.453816 0.010462
0.458839 0.459641 0.010462
0.549025 0.465469 0.010462
0.637590 0.471302 0.010462
0.721973 0.477137 0.010462
0.799636 0.482975 0.010462
0.868062 0.488814 0.010462
0.924753 0.494654 0.010462
0.967228 0.500495 0.010462
0.993020 0.506335 0.010462
0.000000 0.496636 0.010462
0.005698 0.502476 0.010462
0.031781 0.508316 0.010462
0.075680 0.514154 0.010462
0.134272 0.519990 0.010462
0.204645 0.525823 0.010462
0.284003 0.531653 0.010462
0.369624 0.537478 0.010462
0.458839 0.543298 0.010462
0.549025 0.549113 0.010462
0.637590 0.554921 0.010462
0.721973 0.560722 0.010462
0.799636 0.566516 0.010462
0.868062 0.572300 0.010462
0.924753 0.578076 0.010462
0.967228 0.583842 0.010462
0.993020 0.589597 0.010462
0.000000 0.580033 0.010462
0.005698 0.585796 0.010462
0.031781 0.591547 0.010462
0.075680 0.597287 0.010462
0.134272 0.603015 0.010462
0.204645 0.608730 0.010462
0.284003 0.614431 0.010462
0.369624 0.620117 0.010462
0.458839 0.625789 0.010462
0.549025 0.631445 0.010462
0.637590 0.637085 0.010462
0.721973 0.642707 0.010462
0.799636 0.648312 0.010462
0.868062 0.653898 0.010462
0.924753 0.659465 0.010462
0.967228 0.665012 0.010462
0.993020 0.670538 0.010462
0.000000 0.661349 0.010462
0.005698 0.666889 0.010462
0.031781 0.672408 0.010462
0.075680 0.677906 0.010462
0.134272 0.683381 0.010462
0.204645 0.688834 0.010462
0.284003 0.694262 0.010462
0.369624 0.699667 0.010462
0.458839 0.705046 0.010462
0.549025 0.710400 0.010462
0.637590 0.715727 0.010462
0.721973 0.721027 0.010462
0.799636 0.726299 0.010462
0.868062 0.731543 0.010462
0.924753 0.736758 0.010462
0.967228 0.741942 0.010462
0.993020 0.747096 0.010462
0.000000 0.738520 0.010462
0.005698 0.743694 0.010462
0.031781 0.748838 0.010462
0.075680 0.753950 0.010462
0.134272 0.759029 0.010462
0.204645 0.764076 0.010462
0.284003 0.769089 0.010462
0.369624 0.774068 0.010462
0.458839 0.779012 0.010462
0.549025 0.783920 0.010462
0.637590 0.788792 0.010462
0.721973 0.793626 0.010462
0.799636 0.798423 0.010462
0.868062 0.803181 0.010462
0.924753 0.807901 0.010462
0.967228 0.812580 0.010462
0.993020 0.817219 0.010462
0.000000 0.809493 0.010462
0.005698 0.814158 0.010462
0.031781 0.818783 0.010462
0.075680 0.823366 0.010462
0.134272 0.827908 0.010462
0.204645 0.832406 0.010462
0.284003 0.836861 0.010462
0.369624 0.841271 0.010462
0.458839 0.845637 0.010462
0.549025 0.849956 0.010462
0.637590 0.854230 0.010462
0.721973 0.858456 0.010462
0.799636 0.862635 0.010462
0.868062 0.866766 0.010462
0.924753 0.870847 0.010462
0.967228 0.874879 0.010462
0.993020 0.878860 0.010462
0.000000 0.872221 0.010462
0.005698 0.876235 0.010462
0.031781 0.880199 0.010462
0.075680 0.884111 0.010462
0.134272 0.887971 0.010462
0.204645 0.891779 0.010462
0.284003 0.895533 0.010462
0.369624 0.899233 0.010462
0.458839 0.902878 0.010462
0.549025 0.906467 0.010462
0.637590 0.910001 0.010462
0.721973 0.913477 0.010462
0.799636 0.916896 0.010462
0.868062 0.920256 0.010462
0.924753 0.923558 0.010462
0.967228 0.926800 0.010462
0.993020 0.929981 0.010462
0.000000 0.924664 0.010462
0.005698 0.927886 0.010462
0.031781 0.931047 0.010462
0.075680 0.934146 0.010462
0.134272 0.937184 0.010462
0.204645 0.940159 0.010462
0.284003 0.943070 0.010462
0.369624 0.945918 0.010462
0.458839 0.948701 0.010462
0.549025 0.951418 0.010462
0.637590 0.954069 0.010462
0.721973 0.956654 0.010462
0.799636 0.959171 0.010462
0.868062 0.961620 0.010462
0.924753 0.964000 0.010462
0.967228 0.966310 0.010462
0.993020 0.968551 0.010462
0.000000 0.964792 0.010462
0.005698 0.967078 0.010462
0.031781 0.969295 0.010462
0.075680 0.971440 0.010462
0.134272 0.973513 0.010462
0.204645 0.975514 0.010462
0.284003 0.977442 0.010462
0.369624 0.979295 0.010462
0.458839 0.981075 0.010462
0.549025 0.982779 0.010462
0.637590 0.984407 0.010462
0.721973 0.985958 0.010462
0.799636 0.987432 0.010462
0.868062 0.988828 0.010462
0.924753 0.990146 0.010462
0.967228 0.991384 0.010462
0.993020 0.992542 0.010462
0.000000 0.000000 0.039941
0.005698 0.000000 0.039941
0.031781 0.000000 0.039941
0.075680 0.000037 0.039941
0.134272 0.000173 0.039941
0.204645 0.000405 0.039941
0.284003 0.000731 0.039941
0.369624 0.001152 0.039941
0.458839 0.001664 0.039941
0.549025 0.002268 0.039941
0.637590 0.002961 0.039941
0.721973 0.003744 0.039941
0.799636 0.004615 0.039941
0.868062 0.005573 0.039941
0.924753 0.006617 0.039941
0.967228 0.007747 0.039941
0.993020 0.008961 0.039941
0.000000 0.006991 0.039941
0.005698 0.008149 0.039941
0.031781 0.009392 0.039941
0.075680 0.010718 0.039941
0.134272 0.012126 0.039941
0.204645 0.013615 0.039941
0.284003 0.015186 0.039941
0.369624 0.016836 0.039941
0.458839 0.018565 0.039941
0.549025 0.020373 0.039941
0.637590 0.022258 0.039941
0.721973 0.024219 0.039941
0.799636 0.026256 0.039941
0.868062 0.028368 0.039941
0.924753 0.030555 0.039941
0.967228 0.032815 0.039941
0.993020 0.035147 0.039941
0.000000 0.031313 0.039941
0.005698 0.033598 0.039941
0.031781 0.035954 0.039941
0.075680 0.038383 0.039941
0.134272 0.040882 0.039941
0.204645 0.043451 0.039941
0.284003 0.046089 0.039941
0.369624 0.048795 0.039941
0.458839 0.051569 0.039941
0.549025 0.054410 0.039941
0.637590 0.057318 0.039941
0.721973 0.060290 0.039941
0.799636 0.063327 0.039941
0.868062 0.066428 0.039941
0.924753 0.069591 0.039941
0.967228 0.072817 0.039941
0.993020 0.076105 0.039941
0.000000 0.070679 0.039941
0.005698 0.073926 0.039941
0.031781 0.077234 0.039941
0.075680 0.080603 0.039941
0.134272 0.084031 0.039941
0.204645 0.087519 0.039941
0.284003 0.091064 0.039941
0.369624 0.094667 0.039941
0.458839 0.098327 0.039941
0.549025 0.102043 0.039941
0.637590 0.105814 0.039941
0.721973 0.109640 0.039941
0.799636 0.113519 0.039941
0.868062 0.117451 0.039941
0.924753 0.121436 0.039941
0.967228 0.125472 0.039941
0.993020 0.129559 0.039941
0.000000 0.122799 0.039941
0.005698 0.126853 0.039941
0.031781 0.130957 0.039941
0.075680 0.135110 0.039941
0.134272 0.139313 0.039941
0.204645 0.143564 0.039941
0.284003 0.147863 0.039941
0.369624 0.152208 0.039941
0.458839 0.156600 0.039941
0.549025 0.161036 0.039941
0.637590 0.165518 0.039941
0.721973 0.170043 0.039941
0.799636 0.174612 0.039941
0.868062 0.179223 0.039941
0.924753 0.183876 0.039941
0.967228 0.188569 0.039941
0.993020 0.193303 0.039941
0.000000 0.185464 0.039941
0.005698 0.190171 0.039941
0.031781 0.194918 0.039941
0.075680 0.199705 0.039941
0.134272 0.204530 0.039941
0.204645 0.209393 0.039941
0.284003 0.214294 0.039941
0.369624 0.219230 0.039941
0.458839 0.224202 0.039941
0.549025 0.229209 0.039941
0.637590 0.234251 0.039941
0.721973 0.239325 0.039941
0.799636 0.244433 0.039941
0.868062 0.249572 0.039941
0.924753 0.254743 0.039941
0.967228 0.259944 0.039941
0.993020 0.265176 0.039941
0.000000 0.256504 0.039941
0.005698 0.261716 0.039941
0.031781 0.266957 0.039941
0.075680 0.272227 0.039941
0.134272 0.277526 0.039941
0.204645 0.282851 0.039941
0.284003 0.288204 0.039941
0.369624 0.293582 0.039941
0.458839 0.298986 0.039941
0.549025 0.304415 0.039941
0.637590 0.309867 0.039941
0.721973 0.315342 0.039941
0.799636 0.320840 0.039941
0.868062 0.326360 0.039941
0.924753 0.331900 0.039941
0.967228 0.337461 0.039941
0.993020 0.343042 0.039941
0.000000 0.333785 0.039941
0.005698 0.339352 0.039941
0.031781 0.344939 0.039941
0.075680 0.350545 0.039941
0.134272 0.356168 0.039941
0.204645 0.361809 0.039941
0.284003 0.367466 0.039941
0.369624 0.373139 0.039941
0.458839 0.378827 0.039941
0.549025 0.384529 0.039941
0.637590 0.390245 0.039941
0.721973 0.395974 0.039941
0.799636 0.401715 0.039941
0.868062 0.407468 0.039941
0.924753 0.413231 0.039941
0.967228 0.419005 0.039941
0.993020 0.424788 0.039941
0.000000 0.415189 0.039941
0.005698 0.420966 0.039941
0.031781 0.426752 0.039941
0.075680 0.432546 0.039941
0.134272 0.438348 0.039941
0.204645 0.444157 0.039941
0.284003 0.449973 0.039941
0.369624 0.455794 0.039941
0.458839 0.461620 0.039941
0.549025 0.467450 0.039941
0.637590 0.473283 0.039941
0.721973 0.479119 0.039941
0.799636 0.484958 0.039941
0.868062 0.490797 0.039941
0.924753 0.496638 0.039941
0.967228 0.502478 0.039941
0.993020 0.508318 0.039941
0.000000 0.498619 0.039941
0.005698 0.504460 0.039941
0.031781 0.510299 0.039941
0.075680 0.516136 0.039941
0.134272 0.521971 0.039941
0.204645 0.527803 0.039941
0.284003 0.533631 0.039941
0.369624 0.539455 0.039941
0.458839 0.545274 0.039941
0.549025 0.551086 0.039941
0.637590 0.556892 0.039941
0.721973 0.562691 0.039941
0.799636 0.568481 0.039941
0.868062 0.574263 0.039941
0.924753 0.580035 0.039941
0.967228 0.585798 0.039941
0.993020 0.591549 0.039941
0.000000 0.581992 0.039941
0.005698 0.587750 0.039941
0.031781 0.593498 0.039941
0.075680 0.599234 0.039941
0.134272 0.604957 0.039941
0.204645 0.610667 0.039941
0.284003 0.616364 0.039941
0.369624 0.622045 0.039941
0.458839 0.627712 0.039941
0.549025 0.633362 0.039941
0.637590 0.638996 0.039941
0.721973 0.644613 0.039941
0.799636 0.650211 0.039941
0.868062 0.655791 0.039941
0.924753 0.661351 0.039941
0.967228 0.666891 0.039941
0.993020 0.672410 0.039941
0.000000 0.663233 0.039941
0.005698 0.668766 0.039941
0.031781 0.674278 0.039941
0.075680 0.679768 0.039941
0.134272 0.685236 0.039941
0.204645 0.690680 0.039941
0.284003 0.696101 0.039941
0.369624 0.701497 0.039941
0.458839 0.706867 0.039941
0.549025 0.712212 0.039941
0.637590 0.717530 0.039941
0.721973 0.722821 0.039941
0.799636 0.728083 0.039941
0.868062 0.733317 0.039941
0.924753 0.738522 0.039941
0.967228 0.743696 0.039941
0.993020 0.748839 0.039941
0.000000 0.740281 0.039941
0.005698 0.745445 0.039941
0.031781 0.750577 0.039941
0.075680 0.755678 0.039941
0.134272 0.760747 0.039941
0.204645 0.765782 0.039941
0.284003 0.770784 0.039941
0.369624 0.775751 0.039941
0.458839 0.780683 0.039941
0.549025 0.785579 0.039941
0.637590 0.790438 0.039941
0.721973 0.795260 0.039941
0.799636 0.800043 0.039941
0.868062 0.804788 0.039941
0.924753 0.809494 0.039941
0.967228 0.814160 0.039941
0.993020 0.818785 0.039941
0.000000 0.811082 0.039941
0.005698 0.815733 0.039941
0.031781 0.820344 0.039941
0.075680 0.824913 0.039941
0.134272 0.829440 0.039941
0.204645 0.833924 0.039941
0.284003 0.838363 0.039941
0.369624 0.842759 0.039941
0.458839 0.847109 0.039941
0.549025 0.851413 0.039941
0.637590 0.855671 0.039941
0.721973 0.859881 0.039941
0.799636 0.864043 0.039941
0.868062 0.868157 0.039941
0.924753 0.872222 0.039941
0.967228 0.876236 0.039941
0.993020 0.880200 0.039941
0.000000 0.873589 0.039941
0.005698 0.877587 0.039941
0.031781 0.881533 0.039941
0.075680 0.885428 0.039941
0.134272 0.889270 0.039941
0.204645 0.893060 0.039941
0.284003 0.896796 0.039941
0.369624 0.900477 0.039941
0.458839 0.904103 0.039941
0.549025 0.907674 0.039941
0.637590 0.911188 0.039941
0.721973 0.914645 0.039941
0.799636 0.918044 0.039941
0.868062 0.921384 0.039941
0.924753 0.924665 0.039941
0.967228 0.927887 0.039941
0.993020 0.931048 0.039941
0.000000 0.925765 0.039941
0.005698 0.928966 0.039941
0.031781 0.932106 0.039941
0.075680 0.935185 0.039941
0.134272 0.938201 0.039941
0.204645 0.941155 0.039941
0.284003 0.944045 0.039941
0.369624 0.946870 0.039941
0.458839 0.949631 0.039941
0.549025 0.952326 0.039941
0.637590 0.954955 0.039941
0.721973 0.957516 0.039941
0.799636 0.960010 0.039941
0.868062 0.962436 0.039941
0.924753 0.964792 0.039941
0.967228 0.967079 0.039941
0.993020 0.969295 0.039941
0.000000 0.965576 0.039941
0.005698 0.967839 0.039941
0.031781 0.970031 0.039941
0.075680 0.972152 0.039941
0.134272 0.974201 0.039941
0.204645 0.976177 0.039941
0.284003 0.978080 0.039941
0.369624 0.979908 0.039941
0.458839 0.981662 0.039941
0.549025 0.983340 0.039941
0.637590 0.984942 0.039941
0.721973 0.986467 0.039941
0.799636 0.987915 0.039941
0.868062 0.989284 0.039941
0.924753 0.990575 0.039941
0.967228 0.991786 0.039941
0.993020 0.992917 0.039941
0.000000 0.000000 0.084824
0.005698 0.000000 0.084824
0.031781 0.000002 0.084824
0.075680 0.000072 0.084824
0.134272 0.000241 0.084824
0.204645 0.000505 0.084824
0.284003 0.000864 0.084824
0.369624 0.001315 0.084824
0.458839 0.001859 0.084824
0.549025 0.002493 0.084824
0.637590 0.003217 0.084824
0.721973 0.004030 0.084824
0.799636 0.004931 0.084824
0.868062 0.005918 0.084824
0.924753 0.006991 0.084824
0.967228 0.008150 0.084824
0.993020 0.009392 0.084824
0.000000 0.007375 0.084824
0.005698 0.008562 0.084824
0.031781 0.009833 0.084824
0.075680 0.011187 0.084824
0.134272 0.012623 0.084824
0.204645 0.014140 0.084824
0.284003 0.015737 0.084824
0.369624 0.017414 0.084824
0.458839 0.019170 0.084824
0.549025 0.021004 0.084824
0.637590 0.022915 0.084824
0.721973 0.024902 0.084824
0.799636 0.026965 0.084824
0.868062 0.029103 0.084824
0.924753 0.031314 0.084824
0.967228 0.033598 0.084824
0.993020 0.035955 0.084824
0.000000 0.032081 0.084824
0.005698 0.034390 0.084824
0.031781 0.036771 0.084824
0.075680 0.039224 0.084824
0.134272 0.041746 0.084824
0.204645 0.044339 0.084824
0.284003 0.047000 0.084824
0.369624 0.049730 0.084824
0.458839 0.052527 0.084824
0.549025 0.055390 0.084824
0.637590 0.058320 0.084824
0.721973 0.061314 0.084824
0.799636 0.064373 0.084824
0.868062 0.067495 0.084824
0.924753 0.070680 0.084824
0.967228 0.073927 0.084824
0.993020 0.077235 0.084824
0.000000 0.071775 0.084824
0.005698 0.075043 0.084824
0.031781 0.078371 0.084824
0.075680 0.081760 0.084824
0.134272 0.085209 0.084824
0.204645 0.088716 0.084824
0.284003 0.092282 0.084824
0.369624 0.095904 0.084824
0.458839 0.099583 0.084824
0.549025 0.103318 0.084824
0.637590 0.107107 0.084824
0.721973 0.110951 0.084824
0.799636 0.114848 0.084824
0.868062 0.118799 0.084824
0.924753 0.122801 0.084824
0.967228 0.126854 0.084824
0.993020 0.130958 0.084824
0.000000 0.124170 0.084824
0.005698 0.128241 0.084824
0.031781 0.132362 0.084824
0.075680 0.136532 0.084824
0.134272 0.140751 0.084824
0.204645 0.145019 0.084824
0.284003 0.149333 0.084824
0.369624 0.153694 0.084824
0.458839 0.158101 0.084824
0.549025 0.162553 0.084824
0.637590 0.167050 0.084824
0.721973 0.171590 0.084824
0.799636 0.176173 0.084824
0.868062 0.180798 0.084824
0.924753 0.185465 0.084824
0.967228 0.190172 0.084824
0.993020 0.194920 0.084824
0.000000 0.187058 0.084824
0.005698 0.191779 0.084824
0.031781 0.196540 0.084824
0.075680 0.201339 0.084824
0.134272 0.206178 0.084824
0.204645 0.211053 0.084824
0.284003 0.215966 0.084824
0.369624 0.220915 0.084824
0.458839 0.225899 0.084824
0.549025 0.230917 0.084824
0.637590 0.235970 0.084824
0.721973 0.241056 0.084824
0.799636 0.246175 0.084824
0.868062 0.251325 0.084824
0.924753 0.256506 0.084824
0.967228 0.261718 0.084824
0.993020 0.266959 0.084824
0.000000 0.258271 0.084824
0.005698 0.263493 0.084824
0.031781 0.268744 0.084824
0.075680 0.274024 0.084824
0.134272 0.279331 0.084824
0.204645 0.284666 0.084824
0.284003 0.290028 0.084824
0.369624 0.295415 0.084824
0.458839 0.300827 0.084824
0.549025 0.306263 0.084824
0.637590 0.311724 0.084824
0.721973 0.317207 0.084824
0.799636 0.322712 0.084824
0.868062 0.328239 0.084824
0.924753 0.333786 0.084824
0.967228 0.339354 0.084824
0.993020 0.344941 0.084824
0.000000 0.335673 0.084824
0.005698 0.341248 0.084824
0.031781 0.346841 0.084824
0.075680 0.352453 0.084824
0.134272 0.358082 0.084824
0.204645 0.363728 0.084824
0.284003 0.369391 0.084824
0.369624 0.375069 0.084824
0.458839 0.380762 0.084824
0.549025 0.386469 0.084824
0.637590 0.392189 0.084824
0.721973 0.397923 0.084824
0.799636 0.403668 0.084824
0.868062 0.409424 0.084824
0.924753 0.415191 0.084824
0.967228 0.420968 0.084824
0.993020 0.426754 0.084824
0.000000 0.417150 0.084824
0.005698 0.422930 0.084824
0.031781 0.428719 0.084824
0.075680 0.434516 0.084824
0.134272 0.440320 0.084824
0.204645 0.446132 0.084824
0.284003 0.451949 0.084824
0.369624 0.457772 0.084824
0.458839 0.463599 0.084824
0.549025 0.469430 0.084824
0.637590 0.475265 0.084824
0.721973 0.481102 0.084824
0.799636 0.486941 0.084824
0.868062 0.492781 0.084824
0.924753 0.498621 0.084824
0.967228 0.504461 0.084824
0.993020 0.510301 0.084824
0.000000 0.500603 0.084824
0.005698 0.506443 0.084824
0.031781 0.512281 0.084824
0.075680 0.518118 0.084824
0.134272 0.523952 0.084824
0.204645 0.529783 0.084824
0.284003 0.535610 0.084824
0.369624 0.541432 0.084824
0.458839 0.547248 0.084824
0.549025 0.553059 0.084824
0.637590 0.558862 0.084824
0.721973 0.564658 0.084824
0.799636 0.570446 0.084824
0.868062 0.576224 0.084824
0.924753 0.581993 0.084824
0.967228 0.587752 0.084824
0.993020 0.593500 0.084824
0.000000 0.583948 0.084824
0.005698 0.589703 0.084824
0.031781 0.595447 0.084824
0.075680 0.601179 0.084824
0.134272 0.606898 0.084824
0.204645 0.612603 0.084824
0.284003 0.618295 0.084824
0.369624 0.623971 0.084824
0.458839 0.629633 0.084824
0.549025 0.635277 0.084824
0.637590 0.640905 0.084824
0.721973 0.646516 0.084824
0.799636 0.652108 0.084824
0.868062 0.657681 0.084824
0.924753 0.663235 0.084824
0.967228 0.668768 0.084824
0.993020 0.674279 0.084824
0.000000 0.665114 0.084824
0.005698 0.670640 0.084824
0.031781 0.676145 0.084824
0.075680 0.681627 0.084824
0.134272 0.687087 0.084824
0.204645 0.692524 0.084824
0.284003 0.697936 0.084824
0.369624 0.703323 0.084824
0.458839 0.708685 0.084824
0.549025 0.714021 0.084824
0.637590 0.719330 0.084824
0.721973 0.724611 0.084824
0.799636 0.729864 0.084824
0.868062 0.735088 0.084824
0.924753 0.740282 0.084824
0.967228 0.745446 0.084824
0.993020 0.750579 0.084824
0.000000 0.742038 0.084824
0.005698 0.747191 0.084824
0.031781 0.752313 0.084824
0.075680 0.757403 0.084824
0.134272 0.762461 0.084824
0.204645 0.767485 0.084824
0.284003 0.772475 0.084824
0.369624 0.777430 0.084824
0.458839 0.782349 0.084824
0.549025 0.787233 0.084824
0.637590 0.792079 0.084824
0.721973 0.796888 0.084824
0.799636 0.801659 0.084824
0.868062 0.806391 0.084824
0.924753 0.811083 0.084824
0.967228 0.815735 0.084824
0.993020 0.820346 0.084824
0.000000 0.812666 0.084824
0.005698 0.817304 0.084824
0.031781 0.821901 0.084824
0.075680 0.826455 0.084824
0.134272 0.830968 0.084824
0.204645 0.835436 0.084824
0.284003 0.839861 0.084824
0.369624 0.844241 0.084824
0.458839 0.848576 0.084824
0.549025 0.852864 0.084824
0.637590 0.857106 0.084824
0.721973 0.861300 0.084824
0.799636 0.865446 0.084824
0.868062 0.869543 0.084824
0.924753 0.873591 0.084824
0.967228 0.877588 0.084824
0.993020 0.881534 0.084824
0.000000 0.874953 0.084824
0.005698 0.878933 0.084824
0.031781 0.882862 0.084824
0.075680 0.886739 0.084824
0.134272 0.890563 0.084824
0.204645 0.894335 0.084824
0.284003 0.898052 0.084824
0.369624 0.901715 0.084824
0.458839 0.905322 0.084824
0.549025 0.908873 0.084824
0.637590 0.912368 0.084824
0.721973 0.915805 0.084824
0.799636 0.919185 0.084824
0.868062 0.922505 0.084824
0.924753 0.925766 0.084824
0.967228 0.928967 0.084824
0.993020 0.932107 0.084824
0.000000 0.926859 0.084824
0.005698 0.930039 0.084824
0.031781 0.933159 0.084824
0.075680 0.936216 0.084824
0.134272 0.939211 0.084824
0.204645 0.942143 0.084824
0.284003 0.945011 0.084824
0.369624 0.947815 0.084824
0.458839 0.950553 0.084824
0.549025 0.953226 0.084824
0.637590 0.955832 0.084824
0.721973 0.958371 0.084824
0.799636 0.960842 0.084824
0.868062 0.963244 0.084824
0.924753 0.965577 0.084824
0.967228 0.967840 0.084824
0.993020 0.970032 0.084824
0.000000 0.966352 0.084824
0.005698 0.968591 0.084824
0.031781 0.970759 0.084824
0.075680 0.972856 0.084824
0.134272 0.974880 0.084824
0.204645 0.976831 0.084824
0.284003 0.978709 0.084824
0.369624 0.980512 0.084824
0.458839 0.982240 0.084824
0.549025 0.983893 0.084824
0.637590 0.985469 0.084824
0.721973 0.986968 0.084824
0.799636 0.988389 0.084824
0.868062 0.989732 0.084824
0.924753 0.990995 0.084824
0.967228 0.992179 0.084824
0.993020 0.993282 0.084824
0.000000 0.000000 0.143421
0.005698 0.000000 0.143421
0.031781 0.000015 0.143421
0.075680 0.000119 0.143421
0.134272 0.000320 0.143421
0.204645 0.000616 0.143421
0.284003 0.001007 0.143421
0.369624 0.001490 0.143421
0.458839 0.002064 0.143421
0.549025 0.002729 0.143421
0.637590 0.003483 0.143421
0.721973 0.004326 0.143421
0.799636 0.005256 0.143421
0.868062 0.006273 0.143421
0.924753 0.007375 0.143421
0.967228 0.008562 0.143421
0.993020 0.009833 0.143421
0.000000 0.007769 0.143421
0.005698 0.008984 0.143421
0.031781 0.010283 0.143421
