Fotico/Resources/LUTs/kodak_gold.cube
# Kodak Gold
LUT_3D_SIZE 9
0.013724 0.009217 0.000000
0.123595 0.006642 0.000000
0.287367 0.004170 0.000000
0.483412 0.001818 0.000000
0.686123 0.000000 0.000000
0.866911 0.000000 0.000000
0.994898 0.000000 0.000000
1.000000 0.000000 0.000000
1.000000 0.000000 0.000000
0.003276 0.098742 0.000000
0.103288 0.094295 0.000000
0.260273 0.089913 0.000000
0.453040 0.085597 0.000000
0.656508 0.081346 0.000000
0.842483 0.077163 0.000000
0.980397 0.073047 0.000000
1.000000 0.069000 0.000000
1.000000 0.065022 0.000000
0.000000 0.227700 0.000000
0.084253 0.221912 0.000000
0.233986 0.216167 0.000000
0.422912 0.210467 0.000000
0.626507 0.204812 0.000000
0.816986 0.199204 0.000000
0.964101 0.193643 0.000000
1.000000 0.188131 0.000000
1.000000 0.182667 0.000000
0.000000 0.383060 0.000000
0.066551 0.376476 0.000000
0.208582 0.369912 0.000000
0.393117 0.363370 0.000000
0.596218 0.356852 0.000000
0.790525 0.350356 0.000000
0.946121 0.343886 0.000000
1.000000 0.337441 0.000000
1.000000 0.331023 0.000000
0.000000 0.550661 0.000000
0.050241 0.543870 0.000000
0.184136 0.537075 0.000000
0.363743 0.530278 0.000000
0.565737 0.523480 0.000000
0.763203 0.516681 0.000000
0.928737 0.512013 0.000000
1.000000 0.508538 0.000000
1.000000 0.505066 0.000000
0.000000 0.715424 0.000000
0.035381 0.709048 0.000000
0.160742 0.702660 0.000000
0.339996 0.699340 0.000000
0.545793 0.696014 0.000000
0.749560 0.692683 0.000000
0.919802 0.689347 0.000000
1.000000 0.686005 0.000000
1.000000 0.682659 0.000000
0.002963 0.865044 0.000000
0.028363 0.862304 0.000000
0.152260 0.859549 0.000000
0.328589 0.856781 0.000000
0.533102 0.853999 0.000000
0.737534 0.851202 0.000000
0.910630 0.848393 0.000000
1.000000 0.845570 0.000000
1.000000 0.842734 0.000000
0.010664 0.980614 0.000000
0.024749 0.978846 0.000000
0.144099 0.977054 0.000000
0.317395 0.975240 0.000000
0.520498 0.973404 0.000000
0.725448 0.971545 0.000000
0.901235 0.969664 0.000000
1.000000 0.967762 0.000000
1.000000 0.965837 0.000000
0.018954 1.000000 0.000000
0.022235 1.000000 0.000000
0.136277 1.000000 0.000000
0.306424 1.000000 0.000000
0.507993 1.000000 0.000000
0.713315 1.000000 0.000000
0.891629 1.000000 0.000000
1.000000 1.000000 0.000000
1.000000 1.000000 0.000000
0.012583 0.008332 0.082059
0.121489 0.005791 0.080006
0.284597 0.003356 0.077962
0.480338 0.001055 0.075927
0.683154 0.000000 0.073901
0.864496 0.000000 0.071885
0.993519 0.000000 0.069877
1.000000 0.000000 0.067879
1.000000 0.000000 0.065890
0.002347 0.097225 0.075189
0.101307 0.092800 0.073166
0.257582 0.088440 0.071153
0.449986 0.084146 0.069149
0.653496 0.079918 0.067153
0.839956 0.075757 0.065168
0.978831 0.071665 0.063191
1.000000 0.067641 0.061224
1.000000 0.063687 0.059266
0.000000 0.225729 0.068421
0.082405 0.219956 0.066429
0.231381 0.214226 0.064447
0.419888 0.208541 0.062474
0.623461 0.202903 0.060510
0.814357 0.197310 0.058556
0.962361 0.191766 0.056611
1.000000 0.186270 0.054676
1.000000 0.180823 0.052750
0.000000 0.380822 0.061758
0.064841 0.374244 0.059798
0.206070 0.367688 0.057847
0.390131 0.361154 0.055905
0.593148 0.354643 0.053973
0.787804 0.348156 0.052051
0.944217 0.341694 0.050138
1.000000 0.335258 0.048235
1.000000 0.328849 0.046341
0.000000 0.548355 0.055201
0.048674 0.541563 0.053272
0.181724 0.534767 0.051353
0.360804 0.527970 0.049444
0.562653 0.521171 0.047544
0.760401 0.514372 0.045654
0.927846 0.510833 0.043773
1.000000 0.507359 0.041902
1.000000 0.503887 0.040040
0.000000 0.713262 0.048751
0.033964 0.706875 0.046855
0.159871 0.701533 0.044968
0.338835 0.698211 0.043091
0.544508 0.694884 0.041223
0.748349 0.691551 0.039365
0.918887 0.688213 0.037516
1.000000 0.684869 0.035677
1.000000 0.681521 0.033848
0.003713 0.864115 0.042409
0.027968 0.861370 0.040545
0.151421 0.858611 0.038691
0.327449 0.855838 0.036846
0.531825 0.853051 0.035010
0.736316 0.850250 0.033184
0.909692 0.847436 0.031367
1.000000 0.844608 0.029560
1.000000 0.841767 0.027762
0.011474 0.980016 0.036176
0.024427 0.978240 0.034344
0.143294 0.976441 0.032521
0.316277 0.974619 0.030708
0.519231 0.972775 0.028904
0.724225 0.970909 0.027109
0.900275 0.969021 0.025324
1.000000 0.967110 0.023547
1.000000 0.965179 0.021778
0.019822 1.000000 0.030050
0.022415 1.000000 0.028250
0.135507 1.000000 0.026458
0.305330 1.000000 0.024676
0.506736 1.000000 0.022902
0.712088 1.000000 0.021137
0.890649 1.000000 0.019380
1.000000 1.000000 0.017631
1.000000 1.000000 0.015889
0.011459 0.007458 0.198235
0.119395 0.004951 0.195801
0.281835 0.002557 0.193373
0.477265 0.000322 0.190952
0.680180 0.000000 0.188536
0.862070 0.000000 0.186126
0.992120 0.000000 0.183722
1.000000 0.000000 0.181325
1.000000 0.000000 0.178934
0.001453 0.095715 0.190071
0.099340 0.091312 0.187658
0.254899 0.086974 0.185250
0.446935 0.082702 0.182849
0.650479 0.078497 0.180454
0.837418 0.074360 0.178065
0.977248 0.070291 0.175682
1.000000 0.066291 0.173306
1.000000 0.062361 0.170936
0.000000 0.223764 0.181976
0.080570 0.218005 0.179583
0.228784 0.212290 0.177197
0.416867 0.206621 0.174816
0.620412 0.200998 0.172443
0.811718 0.195422 0.170075
0.960603 0.189894 0.167714
1.000000 0.184414 0.165360
1.000000 0.178985 0.163013
0.000000 0.378586 0.173951
0.063144 0.372015 0.171580
0.203567 0.365466 0.169215
0.387150 0.358940 0.166856
0.590076 0.352437 0.164505
0.785074 0.345959 0.162160
0.942297 0.339506 0.159821
1.000000 0.333079 0.157490
1.000000 0.326679 0.155165
0.000000 0.546049 0.165999
0.047121 0.539255 0.163650
0.179322 0.532459 0.161307
0.357871 0.525661 0.158971
0.559568 0.518862 0.156642
0.759108 0.513129 0.154320
0.926953 0.509653 0.152005
1.000000 0.506180 0.149697
1.000000 0.502709 0.147395
0.000000 0.711096 0.158123
0.032562 0.704700 0.155796
0.159004 0.700405 0.153476
0.337676 0.697082 0.151164
0.543224 0.693753 0.148858
0.747138 0.690418 0.146559
0.917969 0.687078 0.144268
1.000000 0.683733 0.141984
1.000000 0.680383 0.139707
0.004469 0.863184 0.150323
0.027579 0.860435 0.148020
0.150586 0.857671 0.145724
0.326311 0.854893 0.143435
0.530550 0.852101 0.141154
0.735098 0.849296 0.138879
0.908751 0.846477 0.136612
1.000000 0.843645 0.134353
1.000000 0.840800 0.132101
0.012290 0.979416 0.142604
0.024116 0.977631 0.140325
0.142492 0.975825 0.138053
0.315161 0.973995 0.135789
0.517965 0.972144 0.133532
0.723002 0.970270 0.131283
0.899312 0.968374 0.129041
1.000000 0.966457 0.126807
1.000000 0.964518 0.124580
0.020697 1.000000 0.134966
0.023307 1.000000 0.132712
0.134740 1.000000 0.130466
0.304238 1.000000 0.128227
0.505481 1.000000 0.125995
0.710861 1.000000 0.123772
0.889666 1.000000 0.121556
1.000000 1.000000 0.119348
1.000000 1.000000 0.117147
0.010354 0.006595 0.329828
0.117314 0.004125 0.327172
0.279081 0.001775 0.324518
0.474194 0.000000 0.321867
0.677201 0.000000 0.319220
0.859632 0.000000 0.316575
0.990702 0.000000 0.313933
1.000000 0.000000 0.311295
1.000000 0.000000 0.308659
0.000605 0.094212 0.320903
0.097386 0.089831 0.318256
0.252224 0.085516 0.315613
0.443886 0.081267 0.312972
0.647459 0.077085 0.310335
0.834869 0.072970 0.307701
0.975646 0.068925 0.305070
1.000000 0.064948 0.302443
1.000000 0.061042 0.299819
0.000000 0.221803 0.312012
0.078749 0.216059 0.309376
0.226196 0.210360 0.306743
0.413849 0.204706 0.304113
0.617360 0.199099 0.301487
0.809069 0.193539 0.298864
0.958829 0.188028 0.296245
1.000000 0.182565 0.293629
1.000000 0.177152 0.291017
0.000000 0.376352 0.303157
0.061462 0.369789 0.300532
0.201074 0.363248 0.297910
0.384173 0.356729 0.295292
0.587003 0.350234 0.292678
0.782336 0.343764 0.290067
0.940361 0.337320 0.287460
1.000000 0.330902 0.284857
1.000000 0.325449 0.282257
0.000000 0.543742 0.294340
0.045584 0.536947 0.291727
0.176932 0.530150 0.289118
0.354943 0.523352 0.286512
0.556483 0.516553 0.283910
0.757903 0.511948 0.281312
0.926057 0.508473 0.278718
1.000000 0.505001 0.276127
1.000000 0.501531 0.273541
0.000000 0.708927 0.285564
0.031244 0.702597 0.282964
0.158140 0.699277 0.280367
0.336520 0.695952 0.277774
0.541941 0.692621 0.275185
0.745925 0.689284 0.272600
0.917049 0.685942 0.270019
1.000000 0.682596 0.267443
1.000000 0.679244 0.264870
0.005232 0.862252 0.276831
0.027196 0.859497 0.274244
0.149753 0.856729 0.271660
0.325176 0.853946 0.269081
0.529275 0.851150 0.266506
0.733879 0.848340 0.263935
0.907808 0.845517 0.261368
1.000000 0.842680 0.258806
1.000000 0.839831 0.256248
0.013113 0.978812 0.268143
0.023816 0.977020 0.265569
0.141693 0.975206 0.263000
0.314048 0.973369 0.260435
0.516700 0.971510 0.257874
0.721778 0.969629 0.255318
0.898348 0.967726 0.252766
1.000000 0.965801 0.250219
1.000000 0.963854 0.247676
0.021578 1.000000 0.259502
0.024204 1.000000 0.256943
0.133978 1.000000 0.254388
0.303148 1.000000 0.251838
0.504227 1.000000 0.249292
0.709633 1.000000 0.246751
0.888681 1.000000 0.244215
1.000000 1.000000 0.241683
1.000000 1.000000 0.239156
0.009267 0.005744 0.468917
0.115246 0.003312 0.466188
0.276334 0.001013 0.463458
0.471124 0.000000 0.460729
0.674217 0.000000 0.457999
0.857182 0.000000 0.455270
0.989265 0.000000 0.452541
1.000000 0.000000 0.449813
1.000000 0.000000 0.447084
0.000000 0.092717 0.459735
0.095445 0.088359 0.457006
0.249557 0.084066 0.454277
0.440840 0.079839 0.451548
0.644435 0.075680 0.448819
0.832310 0.071589 0.446091
0.974026 0.067566 0.443364
1.000000 0.063614 0.440636
1.000000 0.059732 0.437910
0.000000 0.219848 0.450554
0.076941 0.214119 0.447826
0.223618 0.208435 0.445098
0.410836 0.202797 0.442371
0.614306 0.197206 0.439644
0.806411 0.191662 0.436917
0.957037 0.186167 0.434192
1.000000 0.180721 0.431467
1.000000 0.175325 0.428742
0.000000 0.374121 0.441378
0.059794 0.367565 0.438651
0.198591 0.361031 0.435925
0.381200 0.354521 0.433199
0.583928 0.348034 0.430475
0.779590 0.341573 0.427751
0.938409 0.335138 0.425027
1.000000 0.328729 0.422305
1.000000 0.324356 0.419583
0.000000 0.541435 0.432207
0.044062 0.534639 0.429483
0.174552 0.527842 0.426759
0.352020 0.521043 0.424036
0.553396 0.514244 0.421314
0.756698 0.510768 0.418593
0.925158 0.507293 0.415873
1.000000 0.503822 0.413154
1.000000 0.500354 0.410436
0.000000 0.706755 0.423045
0.030811 0.701470 0.420323
0.157279 0.698149 0.417602
0.335365 0.694821 0.414883
0.540658 0.691488 0.412164
0.744712 0.688150 0.409446
0.916126 0.684806 0.406730
1.000000 0.681458 0.404015
1.000000 0.678105 0.401301
0.006000 0.861318 0.413893
0.026820 0.858559 0.411174
0.148925 0.855785 0.408457
0.324042 0.852998 0.405741
0.528001 0.850197 0.403027
0.732660 0.847383 0.400313
0.906863 0.844555 0.397601
1.000000 0.841714 0.394891
1.000000 0.838860 0.392181
0.013941 0.978206 0.404753
0.023529 0.976407 0.402039
0.140899 0.974585 0.399326
0.312937 0.972740 0.396614
0.515436 0.970873 0.393904
0.720554 0.968985 0.391195
0.897381 0.967074 0.388488
1.000000 0.965142 0.385783
1.000000 0.963189 0.383079
0.022464 1.000000 0.395627
0.025107 1.000000 0.392918
0.133219 1.000000 0.390210
0.302061 1.000000 0.387503
0.502973 1.000000 0.384798
0.708405 1.000000 0.382095
0.887694 1.000000 0.379394
1.000000 1.000000 0.376694
1.000000 1.000000 0.373996
0.008200 0.004905 0.608008
0.113190 0.002513 0.605347
0.273595 0.000282 0.602684
0.468057 0.000000 0.600018
0.671229 0.000000 0.597350
0.854721 0.000000 0.594679
0.987810 0.000000 0.592005
1.000000 0.000000 0.589330
1.000000 0.000000 0.586652
0.000000 0.091230 0.599047
0.093517 0.086893 0.596378
0.246899 0.082623 0.593706
0.437797 0.078419 0.591032
0.641407 0.074283 0.588355
0.829740 0.070215 0.585676
0.972389 0.066216 0.582995
1.000000 0.062287 0.580311
1.000000 0.058429 0.577626
0.000000 0.217897 0.590057
0.075148 0.212183 0.587380
0.221049 0.206515 0.584700
0.407826 0.200893 0.582018
0.611249 0.195318 0.579334
0.803744 0.189790 0.576648
0.955229 0.184312 0.573959
1.000000 0.178883 0.571268
1.000000 0.173505 0.568576
0.000000 0.371892 0.581041
0.058141 0.365343 0.578356
0.196119 0.358818 0.575669
0.378232 0.352315 0.572980
0.580851 0.345837 0.570288
0.776835 0.339385 0.567595
0.936441 0.332958 0.564900
1.000000 0.326559 0.562203
1.000000 0.323265 0.559504
0.000000 0.539127 0.572000
0.042555 0.532331 0.569308
0.172182 0.525533 0.566614
0.349103 0.518734 0.563918
0.552107 0.513063 0.561221
0.755491 0.509587 0.558521
0.924257 0.506114 0.555820
1.000000 0.502644 0.553117
1.000000 0.499176 0.550412
0.000000 0.704579 0.562936
0.030384 0.700343 0.560238
0.156421 0.697019 0.557538
0.334212 0.693690 0.554836
0.539377 0.690355 0.552132
0.743498 0.687015 0.549427
0.915201 0.683670 0.546720
1.000000 0.680320 0.544012
1.000000 0.676965 0.541302
0.006775 0.860383 0.553852
0.026451 0.857618 0.551147
0.148099 0.854840 0.548442
0.322911 0.852048 0.545734
0.526729 0.849243 0.543025
0.731440 0.846424 0.540315
0.905915 0.843591 0.537603
1.000000 0.840746 0.534890
1.000000 0.837888 0.532176
0.014775 0.977598 0.544748
0.023255 0.975790 0.542039
0.140107 0.973961 0.539328
0.311829 0.972109 0.536616
0.514173 0.970235 0.533902
0.719329 0.968338 0.531187
0.896412 0.966421 0.528471
1.000000 0.964481 0.525754
1.000000 0.962520 0.523035
0.023356 1.000000 0.535628
0.026016 1.000000 0.532914
0.132463 1.000000 0.530199
0.300976 1.000000 0.527482
0.501721 1.000000 0.524764
0.707177 1.000000 0.522046
0.886705 1.000000 0.519326
1.000000 1.000000 0.516605
1.000000 1.000000 0.513883
0.007153 0.004079 0.739955
0.111146 0.001732 0.737499
0.270864 0.000000 0.735039
0.464991 0.000000 0.732573
0.668237 0.000000 0.730102
0.852248 0.000000 0.727626
0.986335 0.000000 0.725145
1.000000 0.000000 0.722659
1.000000 0.000000 0.720168
0.000000 0.089750 0.731674
0.091603 0.085436 0.729201
0.244250 0.081188 0.726724
0.434756 0.077007 0.724241
0.638376 0.072894 0.721753
0.827160 0.068849 0.719260
0.970734 0.064874 0.716762
1.000000 0.060969 0.714260
1.000000 0.057135 0.711752
0.000000 0.215952 0.723336
0.073368 0.210253 0.720846
0.218489 0.204600 0.718351
0.404820 0.198994 0.715852
0.608189 0.193435 0.713347
0.801067 0.187924 0.710838
0.953405 0.182463 0.708325
1.000000 0.177051 0.705806
1.000000 0.171690 0.703283
0.000000 0.369666 0.714941
0.056502 0.363125 0.712435
0.193656 0.356607 0.709924
0.375269 0.350112 0.707408
0.577772 0.343643 0.704888
0.774072 0.337199 0.702363
0.934459 0.330782 0.699834
1.000000 0.325388 0.697300
1.000000 0.322175 0.694762
0.000000 0.536820 0.706491
0.041063 0.530022 0.703969
0.169824 0.523224 0.701443
0.346191 0.516425 0.698912
0.550819 0.511882 0.696377
0.754284 0.508408 0.693837
0.923354 0.504935 0.691292
1.000000 0.501466 0.688744
1.000000 0.497999 0.686191
0.000092 0.702535 0.697989
0.029961 0.699215 0.695452
0.155567 0.695889 0.692911
0.333062 0.692558 0.690365
0.538096 0.689221 0.687815
0.742284 0.685879 0.685260
0.914274 0.682533 0.682702
1.000000 0.679181 0.680139
1.000000 0.675824 0.677572
0.007556 0.859446 0.689437
0.026088 0.856677 0.686885
0.147277 0.853894 0.684329
0.321782 0.851097 0.681769
0.525457 0.848287 0.679205
0.730220 0.845463 0.676636
0.904965 0.842627 0.674064
1.000000 0.839777 0.671487
1.000000 0.836914 0.668907
0.015616 0.976986 0.680836
0.022997 0.975172 0.678270
0.139319 0.973334 0.675700
0.310722 0.971475 0.673126
0.512911 0.969593 0.670548
0.718104 0.967690 0.667966
0.895441 0.965764 0.665380
1.000000 0.963818 0.662791
1.000000 0.961850 0.660197
0.024254 1.000000 0.672188
0.026931 1.000000 0.669609
0.131712 1.000000 0.667025
0.299894 1.000000 0.664438
0.500471 1.000000 0.661847
0.705949 1.000000 0.659252
0.885715 1.000000 0.656654
1.000000 1.000000 0.654052
1.000000 1.000000 0.651446
0.006127 0.003267 0.857883
0.109116 0.000972 0.855765
0.268141 0.000000 0.853639
0.461928 0.000000 0.851505
0.665240 0.000000 0.849363
0.849764 0.000000 0.847214
0.984842 0.000000 0.845057
1.000000 0.000000 0.842893
1.000000 0.000000 0.840721
0.000000 0.088277 0.850726
0.089701 0.083985 0.848582
0.241609 0.079760 0.846430
0.431719 0.075602 0.844270
0.635342 0.071512 0.842103
0.824570 0.067491 0.839929
0.969061 0.063540 0.837747
1.000000 0.059659 0.835557
1.000000 0.055849 0.833361
0.000000 0.214011 0.843482
0.071602 0.208328 0.841312
0.215939 0.202691 0.839135
0.401818 0.197101 0.836951
0.605127 0.191558 0.834759
0.798381 0.186064 0.832559
0.951564 0.180619 0.830353
1.000000 0.175224 0.828139
1.000000 0.169881 0.825918
0.000000 0.367442 0.836153
0.054878 0.360909 0.833959
0.191203 0.354399 0.831757
0.372311 0.347913 0.829548
0.574693 0.341452 0.827331
0.771301 0.335017 0.825108
0.932460 0.328609 0.822877
1.000000 0.324296 0.820639
1.000000 0.321086 0.818394
0.000000 0.534511 0.828741
0.039586 0.527714 0.826522
0.167477 0.520915 0.824296
0.343382 0.514179 0.822063
0.549531 0.510702 0.819823
0.753075 0.507228 0.817575
0.922448 0.503757 0.815321
1.000000 0.500288 0.813060
1.000000 0.496823 0.810792
0.000818 0.701408 0.821248
0.029544 0.698086 0.819005
0.154715 0.694759 0.816756
0.331914 0.691425 0.814499
0.536816 0.688087 0.812235
0.741068 0.684743 0.809965
0.913344 0.681395 0.807688
1.000000 0.678041 0.805404
1.000000 0.674683 0.803113
0.008343 0.858507 0.813676
0.025734 0.855733 0.811410
0.146459 0.852945 0.809137
0.320656 0.850144 0.806857
0.524186 0.847329 0.804571
0.728999 0.844501 0.802278
0.904013 0.841660 0.799978
1.000000 0.838806 0.797672
1.000000 0.835939 0.795359
0.016462 0.976373 0.806025
0.022758 0.974550 0.803737
0.138535 0.972705 0.801441
0.309619 0.970838 0.799139
0.511650 0.968949 0.796831
0.716879 0.967038 0.794516
0.894468 0.965106 0.792194
1.000000 0.963152 0.789866
1.000000 0.961176 0.787532
0.025157 1.000000 0.798300
0.027851 1.000000 0.795989
0.130964 1.000000 0.793671
0.298814 1.000000 0.791348
0.499221 1.000000 0.789017
0.704720 1.000000 0.786681
0.884722 1.000000 0.784338
1.000000 1.000000 0.781989
1.000000 1.000000 0.779634
0.005123 0.002470 0.955134
0.107098 0.000243 0.953480
0.265426 0.000000 0.951816
0.458867 0.000000 0.950142
0.662239 0.000000 0.948458
0.847269 0.000000 0.946763
0.983330 0.000000 0.945059
1.000000 0.000000 0.943344
1.000000 0.000000 0.941620
0.000000 0.086812 0.949530
0.087814 0.082543 0.947842
0.238978 0.078341 0.946144
0.428685 0.074206 0.944436
0.632305 0.070139 0.942718
0.821970 0.066142 0.940990
0.967370 0.062214 0.939252
1.000000 0.058357 0.937504
1.000000 0.054572 0.935747
0.000000 0.212076 0.943812
0.069851 0.206409 0.942090
0.213398 0.200787 0.940358
0.398819 0.195213 0.938617
0.602063 0.189687 0.936866
0.795686 0.184209 0.935105
0.949706 0.178781 0.933334
1.000000 0.173404 0.931553
1.000000 0.168078 0.929763
0.000000 0.365221 0.937980
0.053268 0.358695 0.936226
0.188761 0.352193 0.934461
0.369358 0.345716 0.932687
0.571612 0.339263 0.930903
0.768522 0.332837 0.929109
0.930447 0.326439 0.927306
1.000000 0.323204 0.925493
1.000000 0.319998 0.923671
0.000000 0.532203 0.932038
0.038124 0.525405 0.930251
0.165140 0.518606 0.928454
0.342215 0.512998 0.926647
0.548244 0.509522 0.924831
0.751866 0.506049 0.923005
0.921540 0.502579 0.921170
1.000000 0.499111 0.919326
1.000000 0.495647 0.917472
0.001550 0.700281 0.925987
0.029132 0.696957 0.924167
0.153867 0.693627 0.922338
0.330767 0.690292 0.920500
0.535537 0.686952 0.918652
0.739853 0.683607 0.916795
0.912413 0.680257 0.914929
1.000000 0.676902 0.913053
1.000000 0.673542 0.911168
0.009136 0.857566 0.919828
0.025387 0.854788 0.917977
0.145643 0.851996 0.916117
0.319531 0.849190 0.914247
0.522916 0.846371 0.912368
0.727777 0.843538 0.910480
0.903059 0.840692 0.908583
1.000000 0.837834 0.906677
1.000000 0.834963 0.904762
0.017314 0.975756 0.913564
0.022543 0.973926 0.911682
0.137754 0.972074 0.909790
0.308517 0.970199 0.907890
0.510391 0.968303 0.905981
0.715653 0.966384 0.904062
0.893493 0.964444 0.902135
1.000000 0.962483 0.900199
1.000000 0.960501 0.898254
0.026067 1.000000 0.907196
0.028777 1.000000 0.905283
0.130221 1.000000 0.903362
0.297736 1.000000 0.901431
0.497973 1.000000 0.899492
0.703491 1.000000 0.897543
0.883727 1.000000 0.895586
1.000000 1.000000 0.893620
1.000000 1.000000 0.891646
