Fotico/Resources/LUTs/kodak_gold.cube
# Kodak Gold
LUT_3D_SIZE 5
0.013724 0.009217 0.000000
0.287367 0.004170 0.000000
0.686123 0.000000 0.000000
0.994898 0.000000 0.000000
1.000000 0.000000 0.000000
0.000000 0.227700 0.000000
0.233986 0.216167 0.000000
0.626507 0.204812 0.000000
0.964101 0.193643 0.000000
1.000000 0.182667 0.000000
0.000000 0.550661 0.000000
0.184136 0.537075 0.000000
0.565737 0.523480 0.000000
0.928737 0.512013 0.000000
1.000000 0.505066 0.000000
0.002963 0.865044 0.000000
0.152260 0.859549 0.000000
0.533102 0.853999 0.000000
0.910630 0.848393 0.000000
1.000000 0.842734 0.000000
0.018954 1.000000 0.000000
0.136277 1.000000 0.000000
0.507993 1.000000 0.000000
0.891629 1.000000 0.000000
1.000000 1.000000 0.000000
0.011459 0.007458 0.198235
0.281835 0.002557 0.193373
0.680180 0.000000 0.188536
0.992120 0.000000 0.183722
1.000000 0.000000 0.178934
0.000000 0.223764 0.181976
0.228784 0.212290 0.177197
0.620412 0.200998 0.172443
0.960603 0.189894 0.167714
1.000000 0.178985 0.163013
0.000000 0.546049 0.165999
0.179322 0.532459 0.161307
0.559568 0.518862 0.156642
0.926953 0.509653 0.152005
1.000000 0.502709 0.147395
0.004469 0.863184 0.150323
0.150586 0.857671 0.145724
0.530550 0.852101 0.141154
0.908751 0.846477 0.136612
1.000000 0.840800 0.132101
0.020697 1.000000 0.134966
0.134740 1.000000 0.130466
0.505481 1.000000 0.125995
0.889666 1.000000 0.121556
1.000000 1.000000 0.117147
0.009267 0.005744 0.468917
0.276334 0.001013 0.463458
0.674217 0.000000 0.457999
0.989265 0.000000 0.452541
1.000000 0.000000 0.447084
0.000000 0.219848 0.450554
0.223618 0.208435 0.445098
0.614306 0.197206 0.439644
0.957037 0.186167 0.434192
1.000000 0.175325 0.428742
0.000000 0.541435 0.432207
0.174552 0.527842 0.426759
0.553396 0.514244 0.421314
0.925158 0.507293 0.415873
1.000000 0.500354 0.410436
0.006000 0.861318 0.413893
0.148925 0.855785 0.408457
0.528001 0.850197 0.403027
0.906863 0.844555 0.397601
1.000000 0.838860 0.392181
0.022464 1.000000 0.395627
0.133219 1.000000 0.390210
0.502973 1.000000 0.384798
0.887694 1.000000 0.379394
1.000000 1.000000 0.373996
0.007153 0.004079 0.739955
0.270864 0.000000 0.735039
0.668237 0.000000 0.730102
0.986335 0.000000 0.725145
1.000000 0.000000 0.720168
0.000000 0.215952 0.723336
0.218489 0.204600 0.718351
0.608189 0.193435 0.713347
0.953405 0.182463 0.708325
1.000000 0.171690 0.703283
0.000000 0.536820 0.706491
0.169824 0.523224 0.701443
0.550819 0.511882 0.696377
0.923354 0.504935 0.691292
1.000000 0.497999 0.686191
0.007556 0.859446 0.689437
0.147277 0.853894 0.684329
0.525457 0.848287 0.679205
0.904965 0.842627 0.674064
1.000000 0.836914 0.668907
0.024254 1.000000 0.672188
0.131712 1.000000 0.667025
0.500471 1.000000 0.661847
0.885715 1.000000 0.656654
1.000000 1.000000 0.651446
0.005123 0.002470 0.955134
0.265426 0.000000 0.951816
0.662239 0.000000 0.948458
0.983330 0.000000 0.945059
1.000000 0.000000 0.941620
0.000000 0.212076 0.943812
0.213398 0.200787 0.940358
0.602063 0.189687 0.936866
0.949706 0.178781 0.933334
1.000000 0.168078 0.929763
0.000000 0.532203 0.932038
0.165140 0.518606 0.928454
0.548244 0.509522 0.924831
0.921540 0.502579 0.921170
1.000000 0.495647 0.917472
0.009136 0.857566 0.919828
0.145643 0.851996 0.916117
0.522916 0.846371 0.912368
0.903059 0.840692 0.908583
1.000000 0.834963 0.904762
0.026067 1.000000 0.907196
0.130221 1.000000 0.903362
0.497973 1.000000 0.899492
0.883727 1.000000 0.895586
1.000000 1.000000 0.891646
