Fotico/Resources/LUTs/kodak_gold.cube
# Kodak Gold
LUT_3D_SIZE 17
0.013724 0.009217 0.000000
0.060733 0.007917 0.000000
0.123595 0.006642 0.000000
0.199990 0.005393 0.000000
0.287367 0.004170 0.000000
0.382875 0.002977 0.000000
0.483412 0.001818 0.000000
0.585661 0.000704 0.000000
0.686123 0.000000 0.000000
0.781139 0.000000 0.000000
0.866911 0.000000 0.000000
0.939511 0.000000 0.000000
0.994898 0.000000 0.000000
1.000000 0.000000 0.000000
1.000000 0.000000 0.000000
1.000000 0.000000 0.000000
1.000000 0.000000 0.000000
0.008250 0.048259 0.000000
0.052645 0.046456 0.000000
0.113286 0.044672 0.000000
0.187814 0.042906 0.000000
0.273724 0.041159 0.000000
0.368209 0.039431 0.000000
0.468201 0.037722 0.000000
0.570413 0.036032 0.000000
0.671370 0.034361 0.000000
0.767438 0.032709 0.000000
0.854837 0.031077 0.000000
0.929659 0.029464 0.000000
0.987879 0.027871 0.000000
1.000000 0.026298 0.000000
1.000000 0.024744 0.000000
1.000000 0.023211 0.000000
1.000000 0.021698 0.000000
0.003276 0.098742 0.000000
0.044918 0.096511 0.000000
0.103288 0.094295 0.000000
0.175892 0.092096 0.000000
0.260273 0.089913 0.000000
0.353667 0.087747 0.000000
0.453040 0.085597 0.000000
0.555136 0.083463 0.000000
0.656508 0.081346 0.000000
0.753543 0.079246 0.000000
0.842483 0.077163 0.000000
0.919437 0.075096 0.000000
0.980397 0.073047 0.000000
1.000000 0.071015 0.000000
1.000000 0.069000 0.000000
1.000000 0.067003 0.000000
1.000000 0.065022 0.000000
0.000000 0.159080 0.000000
0.037559 0.156482 0.000000
0.093608 0.153898 0.000000
0.164234 0.151327 0.000000
0.247024 0.148770 0.000000
0.339258 0.146227 0.000000
0.437940 0.143697 0.000000
0.539844 0.141182 0.000000
0.641550 0.138681 0.000000
0.739468 0.136194 0.000000
0.829862 0.133721 0.000000
0.908858 0.131263 0.000000
0.972466 0.128819 0.000000
1.000000 0.126391 0.000000
1.000000 0.123976 0.000000
1.000000 0.121577 0.000000
1.000000 0.119193 0.000000
0.000000 0.227700 0.000000
0.030576 0.224800 0.000000
0.084253 0.221912 0.000000
0.152848 0.219034 0.000000
0.233986 0.216167 0.000000
0.324994 0.213311 0.000000
0.422912 0.210467 0.000000
0.524548 0.207634 0.000000
0.626507 0.204812 0.000000
0.725226 0.202002 0.000000
0.816986 0.199204 0.000000
0.897936 0.196418 0.000000
0.964101 0.193643 0.000000
1.000000 0.190881 0.000000
1.000000 0.188131 0.000000
1.000000 0.185393 0.000000
1.000000 0.182667 0.000000
0.000000 0.302940 0.000000
0.023980 0.299807 0.000000
0.075232 0.296682 0.000000
0.141742 0.293565 0.000000
0.221169 0.290457 0.000000
0.310884 0.287357 0.000000
0.407967 0.284265 0.000000
0.509259 0.281182 0.000000
0.611393 0.278108 0.000000
0.710828 0.275042 0.000000
0.803869 0.271986 0.000000
0.886684 0.268938 0.000000
0.955315 0.265900 0.000000
1.000000 0.262871 0.000000
1.000000 0.259851 0.000000
1.000000 0.256841 0.000000
1.000000 0.253841 0.000000
0.000000 0.383060 0.000000
0.017781 0.379765 0.000000
0.066551 0.376476 0.000000
0.130925 0.373191 0.000000
0.208582 0.369912 0.000000
0.296939 0.366638 0.000000
0.393117 0.363370 0.000000
0.493989 0.360108 0.000000
0.596218 0.356852 0.000000
0.696288 0.353601 0.000000
0.790525 0.350356 0.000000
0.875116 0.347118 0.000000
0.946121 0.343886 0.000000
0.999489 0.340660 0.000000
1.000000 0.337441 0.000000
1.000000 0.334229 0.000000
1.000000 0.331023 0.000000
0.000000 0.466254 0.000000
0.012000 0.462872 0.000000
0.058218 0.459491 0.000000
0.120406 0.456112 0.000000
0.196235 0.452736 0.000000
0.283169 0.449362 0.000000
0.378372 0.445991 0.000000
0.478750 0.442623 0.000000
0.580996 0.439257 0.000000
0.681618 0.435895 0.000000
0.776965 0.432535 0.000000
0.863244 0.429179 0.000000
0.936534 0.425825 0.000000
0.992799 0.422476 0.000000
1.000000 0.419130 0.000000
1.000000 0.417297 0.000000
1.000000 0.415600 0.000000
0.000000 0.550661 0.000000
0.006669 0.547266 0.000000
0.050241 0.543870 0.000000
0.110191 0.540473 0.000000
0.184136 0.537075 0.000000
0.269584 0.533677 0.000000
0.363743 0.530278 0.000000
0.463553 0.526879 0.000000
0.565737 0.523480 0.000000
0.666830 0.520080 0.000000
0.763203 0.516681 0.000000
0.851670 0.513752 0.000000
0.928737 0.512013 0.000000
0.988407 0.510276 0.000000
1.000000 0.508538 0.000000
1.000000 0.506802 0.000000
1.000000 0.505066 0.000000
0.000000 0.634368 0.000000
0.001880 0.631039 0.000000
0.042625 0.627705 0.000000
0.100289 0.624368 0.000000
0.172294 0.621026 0.000000
0.256195 0.617681 0.000000
0.349240 0.614332 0.000000
0.448409 0.610979 0.000000
0.552168 0.608679 0.000000
0.656151 0.606953 0.000000
0.755548 0.605226 0.000000
0.846322 0.603500 0.000000
0.924300 0.601772 0.000000
0.985182 0.600045 0.000000
1.000000 0.598317 0.000000
1.000000 0.596589 0.000000
1.000000 0.594861 0.000000
0.000000 0.715424 0.000000
0.000000 0.712240 0.000000
0.035381 0.709048 0.000000
0.090708 0.705848 0.000000
0.160742 0.702660 0.000000
0.245406 0.701000 0.000000
0.339996 0.699340 0.000000
0.441284 0.697678 0.000000
0.545793 0.696014 0.000000
0.649839 0.694350 0.000000
0.749560 0.692683 0.000000
0.840935 0.691016 0.000000
0.919802 0.689347 0.000000
0.981873 0.687677 0.000000
1.000000 0.686005 0.000000
1.000000 0.684333 0.000000
1.000000 0.682659 0.000000
0.000000 0.791837 0.000000
0.000400 0.789414 0.000000
0.030404 0.787876 0.000000
0.085631 0.786335 0.000000
0.156461 0.784792 0.000000
0.240309 0.783246 0.000000
0.334267 0.781698 0.000000
0.435128 0.780148 0.000000
0.539437 0.778595 0.000000
0.643529 0.777040 0.000000
0.743555 0.775482 0.000000
0.835510 0.773922 0.000000
0.915245 0.772360 0.000000
0.978483 0.770795 0.000000
1.000000 0.769228 0.000000
1.000000 0.767659 0.000000
1.000000 0.766088 0.000000
0.002963 0.865044 0.000000
0.004069 0.863676 0.000000
0.028363 0.862304 0.000000
0.082420 0.860928 0.000000
0.152260 0.859549 0.000000
0.235278 0.858167 0.000000
0.328589 0.856781 0.000000
0.429009 0.855392 0.000000
0.533102 0.853999 0.000000
0.637221 0.852602 0.000000
0.737534 0.851202 0.000000
0.830049 0.849799 0.000000
0.910630 0.848393 0.000000
0.975014 0.846983 0.000000
1.000000 0.845570 0.000000
1.000000 0.844153 0.000000
1.000000 0.842734 0.000000
0.006738 0.929099 0.000000
0.007890 0.927948 0.000000
0.026468 0.926793 0.000000
0.079305 0.925633 0.000000
0.148138 0.924469 0.000000
0.230314 0.923300 0.000000
0.322964 0.922126 0.000000
0.422928 0.920948 0.000000
0.526788 0.919766 0.000000
0.630917 0.918579 0.000000
0.731498 0.917387 0.000000
0.824553 0.916191 0.000000
0.905960 0.914991 0.000000
0.971466 0.913786 0.000000
1.000000 0.912577 0.000000
1.000000 0.911363 0.000000
1.000000 0.910145 0.000000
0.010664 0.980614 0.000000
0.011859 0.979733 0.000000
0.024749 0.978846 0.000000
0.076291 0.977953 0.000000
0.144099 0.977054 0.000000
0.225419 0.976150 0.000000
0.317395 0.975240 0.000000
0.416886 0.974325 0.000000
0.520498 0.973404 0.000000
0.624619 0.972477 0.000000
0.725448 0.971545 0.000000
0.819023 0.970607 0.000000
0.901235 0.969664 0.000000
0.967843 0.968716 0.000000
1.000000 0.967762 0.000000
1.000000 0.966802 0.000000
1.000000 0.965837 0.000000
0.014736 1.000000 0.000000
0.015975 1.000000 0.000000
0.023267 1.000000 0.000000
0.073382 1.000000 0.000000
0.140144 1.000000 0.000000
0.220593 1.000000 0.000000
0.311881 1.000000 0.000000
0.410886 1.000000 0.000000
0.514233 1.000000 0.000000
0.618327 1.000000 0.000000
0.719387 1.000000 0.000000
0.813462 1.000000 0.000000
0.896458 1.000000 0.000000
0.964145 1.000000 0.000000
1.000000 1.000000 0.000000
1.000000 1.000000 0.000000
1.000000 1.000000 0.000000
0.018954 1.000000 0.000000
0.020235 1.000000 0.000000
0.022235 1.000000 0.000000
0.070585 1.000000 0.000000
0.136277 1.000000 0.000000
0.215840 1.000000 0.000000
0.306424 1.000000 0.000000
0.404927 1.000000 0.000000
0.507993 1.000000 0.000000
0.612044 1.000000 0.000000
0.713315 1.000000 0.000000
0.807871 1.000000 0.000000
0.891629 1.000000 0.000000
0.960374 1.000000 0.000000
1.000000 1.000000 0.000000
1.000000 1.000000 0.000000
1.000000 1.000000 0.000000
0.013151 0.008773 0.032245
0.059900 0.007482 0.031338
0.122540 0.006215 0.030433
0.198749 0.004974 0.029531
0.285981 0.003761 0.028631
0.381389 0.002579 0.027733
0.481875 0.001433 0.026837
0.584123 0.000341 0.025944
0.684639 0.000000 0.025053
0.779765 0.000000 0.024164
0.865705 0.000000 0.023277
0.938534 0.000000 0.022393
0.994211 0.000000 0.021510
1.000000 0.000000 0.020630
1.000000 0.000000 0.019752
1.000000 0.000000 0.018875
1.000000 0.000000 0.018001
0.007724 0.047645 0.029203
0.051849 0.045848 0.028304
0.112263 0.044070 0.027407
0.186598 0.042311 0.026512
0.272357 0.040570 0.025619
0.366736 0.038848 0.024729
0.466668 0.037146 0.023841
0.568871 0.035462 0.022955
0.669874 0.033798 0.022071
0.766044 0.032152 0.021190
0.853602 0.030527 0.020310
0.928644 0.028921 0.019432
0.987144 0.027334 0.018557
1.000000 0.025768 0.017683
1.000000 0.024221 0.016811
1.000000 0.022695 0.015941
1.000000 0.021189 0.015073
0.002808 0.097982 0.026187
0.044159 0.095757 0.025295
0.102296 0.093547 0.024406
0.174703 0.091353 0.023518
0.258927 0.089176 0.022633
0.352206 0.087015 0.021750
0.451513 0.084870 0.020869
0.553593 0.082742 0.019990
0.655002 0.080631 0.019113
0.752131 0.078537 0.018238
0.841221 0.076459 0.017365
0.918385 0.074399 0.016494
0.979616 0.072355 0.015625
1.000000 0.070329 0.014757
1.000000 0.068320 0.013891
1.000000 0.066328 0.013026
1.000000 0.064354 0.012163
0.000000 0.158197 0.023196
0.036837 0.155603 0.022311
0.092648 0.153023 0.021429
0.163072 0.150457 0.020549
0.245698 0.147905 0.019671
0.337811 0.145366 0.018795
0.436419 0.142841 0.017920
0.538300 0.140331 0.017048
0.640035 0.137834 0.016178
0.738038 0.135352 0.015309
0.828573 0.132885 0.014441
0.907771 0.130432 0.013576
0.971641 0.127993 0.012712
1.000000 0.125569 0.011848
1.000000 0.123160 0.010987
1.000000 0.120766 0.010126
1.000000 0.118386 0.009265
0.000000 0.226714 0.020229
0.029893 0.223818 0.019352
0.083327 0.220933 0.018476
0.151714 0.218059 0.017603
0.232682 0.215196 0.016731
0.323562 0.212344 0.015861
0.421399 0.209503 0.014993
0.523004 0.206674 0.014126
0.624985 0.203857 0.013261
0.723779 0.201051 0.012397
0.815673 0.198257 0.011535
0.896815 0.195474 0.010673
0.963233 0.192704 0.009812
1.000000 0.189946 0.008952
1.000000 0.187200 0.008092
1.000000 0.184466 0.007232
1.000000 0.181744 0.006371
0.000000 0.301875 0.017285
0.023336 0.298745 0.016414
0.074340 0.295623 0.015545
0.140637 0.292509 0.014677
0.219888 0.289403 0.013811
0.309469 0.286306 0.012946
0.406464 0.283217 0.012083
0.507716 0.280137 0.011221
0.609863 0.277066 0.010360
0.709366 0.274003 0.009499
0.802532 0.270950 0.008639
0.885530 0.267906 0.007779
0.954405 0.264870 0.006919
1.000000 0.261845 0.006058
1.000000 0.258828 0.005195
1.000000 0.255821 0.004330
1.000000 0.252824 0.003461
0.000000 0.381941 0.014362
0.017178 0.378648 0.013496
0.065694 0.375360 0.012632
0.129850 0.372077 0.011769
0.207325 0.368800 0.010907
0.295541 0.365528 0.010046
0.391624 0.362262 0.009186
0.492449 0.359001 0.008326
0.594683 0.355747 0.007466
0.694813 0.352498 0.006606
0.789165 0.349256 0.005744
0.873931 0.346020 0.004881
0.945171 0.342790 0.004014
0.998835 0.339566 0.003143
1.000000 0.336349 0.002265
1.000000 0.333139 0.001374
1.000000 0.329936 0.000456
0.000000 0.465105 0.011455
0.011441 0.461723 0.010594
0.057397 0.458343 0.009733
0.119361 0.454965 0.008873
0.195002 0.451590 0.008013
0.281789 0.448217 0.007153
0.376890 0.444847 0.006292
0.477214 0.441480 0.005430
0.579457 0.438115 0.004566
0.680130 0.434753 0.003698
0.775585 0.431395 0.002825
0.862030 0.428039 0.001942
0.935545 0.424687 0.001044
0.992097 0.421339 0.000102
1.000000 0.418419 0.000000
1.000000 0.416721 0.000000
1.000000 0.415023 0.000000
0.000000 0.549508 0.008560
0.006158 0.546113 0.007700
0.049455 0.542716 0.006840
0.109177 0.539319 0.005978
0.182928 0.535921 0.005116
0.268224 0.532523 0.004250
0.362273 0.529124 0.003381
0.462022 0.525725 0.002505
0.564195 0.522325 0.001618
0.665331 0.518926 0.000710
0.761803 0.515526 0.000000
0.851132 0.513161 0.000000
0.928292 0.511423 0.000000
0.988085 0.509685 0.000000
1.000000 0.507949 0.000000
1.000000 0.506212 0.000000
1.000000 0.504477 0.000000
0.000000 0.633238 0.005665
0.001438 0.629907 0.004801
0.041877 0.626572 0.003934
0.099308 0.623233 0.003063
0.171113 0.619890 0.002183
0.254854 0.616544 0.001291
0.347783 0.613194 0.000368
0.446884 0.609840 0.000000
0.551523 0.608093 0.000000
0.655514 0.606367 0.000000
0.754944 0.604640 0.000000
0.845780 0.602913 0.000000
0.923849 0.601186 0.000000
0.984851 0.599458 0.000000
1.000000 0.597730 0.000000
1.000000 0.596002 0.000000
1.000000 0.594274 0.000000
0.000000 0.714343 0.002744
0.000000 0.711156 0.001860
0.034670 0.707962 0.000960
0.089759 0.704760 0.000004
0.160306 0.702096 0.000000
0.244888 0.700437 0.000000
0.339416 0.698776 0.000000
0.440661 0.697113 0.000000
0.545150 0.695449 0.000000
0.649202 0.693784 0.000000
0.748955 0.692117 0.000000
0.840389 0.690449 0.000000
0.919345 0.688780 0.000000
0.981535 0.687109 0.000000
1.000000 0.685437 0.000000
1.000000 0.683764 0.000000
1.000000 0.682090 0.000000
0.000000 0.790834 0.000000
0.000763 0.788892 0.000000
0.030192 0.787353 0.000000
0.085302 0.785811 0.000000
0.156034 0.784267 0.000000
0.239798 0.782721 0.000000
0.333691 0.781172 0.000000
0.434508 0.779621 0.000000
0.538797 0.778067 0.000000
0.642892 0.776511 0.000000
0.742948 0.774953 0.000000
0.834960 0.773392 0.000000
0.914782 0.771829 0.000000
0.978137 0.770263 0.000000
1.000000 0.768696 0.000000
1.000000 0.767126 0.000000
1.000000 0.765553 0.000000
0.003337 0.864580 0.000000
0.004448 0.863210 0.000000
0.028165 0.861837 0.000000
0.082101 0.860460 0.000000
0.151840 0.859080 0.000000
0.234774 0.857697 0.000000
0.328019 0.856309 0.000000
0.428393 0.854919 0.000000
0.532464 0.853525 0.000000
0.636584 0.852127 0.000000
0.736925 0.850726 0.000000
0.829495 0.849322 0.000000
0.910161 0.847914 0.000000
0.974659 0.846503 0.000000
1.000000 0.845089 0.000000
1.000000 0.843672 0.000000
1.000000 0.842251 0.000000
0.007128 0.928709 0.000000
0.008284 0.927557 0.000000
0.026286 0.926400 0.000000
0.078996 0.925238 0.000000
0.147727 0.924072 0.000000
0.229817 0.922902 0.000000
0.322400 0.921727 0.000000
0.422316 0.920547 0.000000
0.526152 0.919363 0.000000
0.630281 0.918174 0.000000
0.730887 0.916981 0.000000
0.823996 0.915784 0.000000
0.905485 0.914582 0.000000
0.971104 0.913376 0.000000
1.000000 0.912165 0.000000
1.000000 0.910950 0.000000
1.000000 0.909731 0.000000
0.011068 0.980316 0.000000
0.012268 0.979432 0.000000
0.024587 0.978543 0.000000
0.075992 0.977648 0.000000
0.143696 0.976748 0.000000
0.224928 0.975842 0.000000
0.316835 0.974930 0.000000
0.416279 0.974013 0.000000
0.519865 0.973090 0.000000
0.623983 0.972161 0.000000
0.724837 0.971227 0.000000
0.818463 0.970288 0.000000
0.900755 0.969343 0.000000
0.967473 0.968392 0.000000
1.000000 0.967436 0.000000
1.000000 0.966475 0.000000
1.000000 0.965508 0.000000
0.015155 1.000000 0.000000
0.016398 1.000000 0.000000
0.023136 1.000000 0.000000
0.073094 1.000000 0.000000
0.139750 1.000000 0.000000
0.220110 1.000000 0.000000
0.311327 1.000000 0.000000
0.410282 1.000000 0.000000
0.513601 1.000000 0.000000
0.617693 1.000000 0.000000
0.718774 1.000000 0.000000
0.812899 1.000000 0.000000
0.895973 1.000000 0.000000
0.963767 1.000000 0.000000
1.000000 1.000000 0.000000
1.000000 1.000000 0.000000
1.000000 1.000000 0.000000
0.019387 1.000000 0.000000
0.020673 1.000000 0.000000
0.022199 1.000000 0.000000
0.070309 1.000000 0.000000
0.135891 1.000000 0.000000
0.215364 1.000000 0.000000
0.305877 1.000000 0.000000
0.404328 1.000000 0.000000
0.507364 1.000000 0.000000
0.611411 1.000000 0.000000
0.712702 1.000000 0.000000
0.807305 1.000000 0.000000
0.891139 1.000000 0.000000
0.959989 1.000000 0.000000
1.000000 1.000000 0.000000
1.000000 1.000000 0.000000
1.000000 1.000000 0.000000
0.012583 0.008332 0.082059
0.059071 0.007049 0.081031
0.121489 0.005791 0.080006
0.197511 0.004559 0.078983
0.284597 0.003356 0.077962
0.379905 0.002186 0.076944
0.480338 0.001055 0.075927
0.582585 0.000000 0.074913
0.683154 0.000000 0.073901
0.778389 0.000000 0.072892
0.864496 0.000000 0.071885
0.937552 0.000000 0.070880
0.993519 0.000000 0.069877
1.000000 0.000000 0.068877
1.000000 0.000000 0.067879
1.000000 0.000000 0.066883
1.000000 0.000000 0.065890
0.007202 0.047033 0.078611
0.051056 0.045242 0.077591
0.111242 0.043471 0.076573
0.185386 0.041718 0.075558
0.270993 0.039983 0.074545
0.365263 0.038268 0.073534
0.465136 0.036572 0.072525
0.567330 0.034895 0.071519
0.668378 0.033237 0.070515
0.764648 0.031598 0.069513
0.852365 0.029979 0.068513
0.927625 0.028380 0.067516
0.986405 0.026800 0.066521
1.000000 0.025240 0.065528
1.000000 0.023701 0.064538
1.000000 0.022181 0.063550
1.000000 0.020682 0.062565
0.002347 0.097225 0.075189
0.043403 0.095004 0.074176
0.101307 0.092800 0.073166
0.173517 0.090612 0.072158
0.257582 0.088440 0.071153
0.350747 0.086285 0.070150
0.449986 0.084146 0.069149
0.552050 0.082023 0.068150
0.653496 0.079918 0.067153
0.750716 0.077829 0.066159
0.839956 0.075757 0.065168
0.917329 0.073703 0.064178
0.978831 0.071665 0.063191
1.000000 0.069645 0.062206
1.000000 0.067641 0.061224
1.000000 0.065656 0.060244
1.000000 0.063687 0.059266
0.000000 0.157314 0.071792
0.036119 0.154726 0.070787
0.091692 0.152150 0.069785
0.161913 0.149589 0.068785
0.244375 0.147041 0.067787
0.336366 0.144507 0.066791
0.434900 0.141987 0.065798
0.536756 0.139481 0.064807
0.638519 0.136990 0.063819
0.736606 0.134513 0.062832
0.827282 0.132050 0.061849
0.906680 0.129602 0.060867
0.970812 0.127168 0.059888
1.000000 0.124749 0.058911
1.000000 0.122345 0.057936
1.000000 0.119956 0.056964
1.000000 0.117582 0.055995
0.000000 0.225729 0.068421
0.029213 0.222837 0.067424
0.082405 0.219956 0.066429
0.150583 0.217085 0.065437
0.231381 0.214226 0.064447
0.322132 0.211378 0.063459
0.419888 0.208541 0.062474
0.521460 0.205716 0.061491
0.623461 0.202903 0.060510
0.722331 0.200101 0.059532
0.814357 0.197310 0.058556
0.895690 0.194532 0.057582
0.962361 0.191766 0.056611
1.000000 0.189012 0.055642
1.000000 0.186270 0.054676
1.000000 0.183540 0.053711
1.000000 0.180823 0.052750
0.000000 0.300811 0.065076
0.022696 0.297684 0.064087
0.073452 0.294564 0.063100
0.139535 0.291453 0.062116
0.218609 0.288350 0.061134
0.308055 0.285256 0.060154
0.404961 0.282170 0.059176
0.506174 0.279093 0.058201
0.608333 0.276025 0.057228
0.707903 0.272965 0.056258
0.801193 0.269915 0.055290
0.884373 0.266874 0.054324
0.953491 0.263842 0.053361
1.000000 0.260819 0.052400
1.000000 0.257806 0.051442
1.000000 0.254802 0.050485
1.000000 0.251808 0.049532
0.000000 0.380822 0.061758
0.016580 0.377530 0.060777
0.064841 0.374244 0.059798
0.128777 0.370963 0.058821
0.206070 0.367688 0.057847
0.294145 0.364418 0.056875
0.390131 0.361154 0.055905
0.490909 0.357896 0.054938
0.593148 0.354643 0.053973
0.693336 0.351397 0.053011
0.787804 0.348156 0.052051
0.872743 0.344922 0.051093
0.944217 0.341694 0.050138
0.998177 0.338473 0.049185
1.000000 0.335258 0.048235
1.000000 0.332050 0.047286
1.000000 0.328849 0.046341
0.000000 0.463957 0.058466
0.010886 0.460575 0.057493
0.056579 0.457196 0.056522
0.118319 0.453819 0.055553
0.193772 0.450444 0.054587
0.280411 0.447072 0.053623
0.375409 0.443703 0.052661
0.475678 0.440337 0.051702
0.577917 0.436973 0.050745
0.678641 0.433612 0.049791
0.774202 0.430255 0.048839
0.860812 0.426901 0.047889
0.934552 0.423550 0.046942
0.991390 0.420203 0.045997
1.000000 0.417842 0.045055
1.000000 0.416144 0.044115
1.000000 0.414447 0.043177
0.000000 0.548355 0.055201
0.005653 0.544959 0.054235
0.048674 0.541563 0.053272
0.108167 0.538165 0.052312
0.181724 0.534767 0.051353
0.266865 0.531369 0.050397
0.360804 0.527970 0.049444
0.460491 0.524570 0.048493
0.562653 0.521171 0.047544
0.663831 0.517771 0.046598
0.760401 0.514372 0.045654
0.850593 0.512571 0.044712
0.927846 0.510833 0.043773
0.987763 0.509096 0.042836
1.000000 0.507359 0.041902
1.000000 0.505623 0.040970
1.000000 0.503887 0.040040
0.000000 0.632107 0.051962
0.001007 0.628775 0.051005
0.041133 0.625439 0.050050
0.098329 0.622098 0.049097
0.169935 0.618754 0.048147
0.253516 0.615407 0.047199
0.346328 0.612055 0.046254
0.446223 0.609233 0.045311
0.550879 0.607507 0.044370
0.654877 0.605780 0.043432
0.754340 0.604054 0.042496
0.845237 0.602327 0.041562
0.923397 0.600599 0.040631
0.984520 0.598871 0.039702
1.000000 0.597143 0.038776
1.000000 0.595415 0.037852
1.000000 0.593687 0.036930
0.000000 0.713262 0.048751
0.000000 0.710072 0.047802
0.033964 0.706875 0.046855
0.088813 0.703671 0.045910
0.159871 0.701533 0.044968
0.244372 0.699873 0.044028
0.338835 0.698211 0.043091
0.440038 0.696548 0.042156
0.544508 0.694884 0.041223
0.648565 0.693218 0.040293
0.748349 0.691551 0.039365
0.839843 0.689882 0.038439
0.918887 0.688213 0.037516
0.981195 0.686542 0.036596
1.000000 0.684869 0.035677
1.000000 0.683196 0.034761
1.000000 0.681521 0.033848
0.000058 0.789907 0.045567
0.001129 0.788369 0.044625
0.029981 0.786830 0.043686
0.084975 0.785287 0.042750
0.155607 0.783743 0.041816
0.239288 0.782195 0.040884
0.333116 0.780646 0.039955
0.433889 0.779094 0.039028
0.538156 0.777539 0.038103
0.642255 0.775982 0.037181
0.742341 0.774423 0.036261
0.834410 0.772861 0.035343
0.914318 0.771297 0.034428
0.977789 0.769731 0.033516
1.000000 0.768163 0.032605
1.000000 0.766592 0.031697
1.000000 0.765019 0.030792
0.003713 0.864115 0.042409
0.004829 0.862744 0.041476
0.027968 0.861370 0.040545
0.081783 0.859992 0.039617
0.151421 0.858611 0.038691
0.234270 0.857226 0.037767
0.327449 0.855838 0.036846
0.427778 0.854446 0.035927
0.531825 0.853051 0.035010
0.635948 0.851652 0.034096
0.736316 0.850250 0.033184
0.828942 0.848844 0.032274
0.909692 0.847436 0.031367
0.974304 0.846023 0.030462
1.000000 0.844608 0.029560
1.000000 0.843189 0.028660
1.000000 0.841767 0.027762
0.007519 0.928318 0.039279
0.008679 0.927164 0.038354
0.026105 0.926006 0.037431
0.078688 0.924843 0.036511
0.147316 0.923675 0.035593
0.229320 0.922503 0.034677
0.321835 0.921327 0.033764
0.421705 0.920145 0.032853
0.525517 0.918960 0.031944
0.629645 0.917770 0.031038
0.730277 0.916575 0.030134
0.823439 0.915376 0.029232
0.905010 0.914173 0.028332
0.970741 0.912965 0.027435
1.000000 0.911753 0.026541
1.000000 0.910536 0.025648
1.000000 0.909316 0.024758
0.011474 0.980016 0.036176
0.012678 0.979131 0.035259
0.024427 0.978240 0.034344
0.075695 0.977343 0.033432
0.143294 0.976441 0.032521
0.224439 0.975533 0.031614
0.316277 0.974619 0.030708
0.415671 0.973700 0.029805
0.519231 0.972775 0.028904
0.623348 0.971845 0.028006
0.724225 0.970909 0.027109
0.817903 0.969967 0.026215
0.900275 0.969021 0.025324
0.967102 0.968068 0.024434
1.000000 0.967110 0.023547
1.000000 0.966147 0.022661
1.000000 0.965179 0.021778
0.015576 1.000000 0.033100
0.016823 1.000000 0.032191
0.023009 1.000000 0.031284
0.072808 1.000000 0.030379
0.139356 1.000000 0.029477
0.219628 1.000000 0.028577
0.310775 1.000000 0.027679
0.409679 1.000000 0.026784
0.512971 1.000000 0.025890
0.617058 1.000000 0.024999
0.718162 1.000000 0.024111
0.812336 1.000000 0.023224
0.895487 1.000000 0.022340
0.963389 1.000000 0.021457
1.000000 1.000000 0.020577
1.000000 1.000000 0.019699
1.000000 1.000000 0.018823
0.019822 1.000000 0.030050
0.021112 1.000000 0.029149
0.022415 1.000000 0.028250
0.070034 1.000000 0.027353
0.135507 1.000000 0.026458
0.214889 1.000000 0.025566
0.305330 1.000000 0.024676
0.403730 1.000000 0.023788
0.506736 1.000000 0.022902
0.610777 1.000000 0.022018
0.712088 1.000000 0.021137
0.806739 1.000000 0.020257
0.890649 1.000000 0.019380
0.959604 1.000000 0.018504
1.000000 1.000000 0.017631
1.000000 1.000000 0.016759
1.000000 1.000000 0.015889
0.012019 0.007893 0.137709
0.058246 0.006619 0.136576
0.120441 0.005369 0.135446
0.196276 0.004147 0.134317
0.283215 0.002955 0.133190
0.378421 0.001796 0.132065
0.478801 0.000683 0.130942
0.581047 0.000000 0.129820
0.681667 0.000000 0.128701
0.777011 0.000000 0.127584
0.863285 0.000000 0.126468
0.936567 0.000000 0.125354
0.992822 0.000000 0.124243
1.000000 0.000000 0.123133
1.000000 0.000000 0.122025
1.000000 0.000000 0.120919
1.000000 0.000000 0.119815
0.006686 0.046423 0.133906
0.050267 0.044639 0.132780
0.110225 0.042873 0.131656
