Fotico/Resources/LUTs/latte.cube
TITLE "Latte"
LUT_3D_SIZE 33
0.216386 0.193500 0.168929
0.228075 0.193924 0.169185
0.239408 0.194349 0.169449
0.250755 0.194788 0.169726
0.262496 0.195255 0.170026
0.275017 0.195768 0.170361
0.288715 0.196347 0.170745
0.303874 0.197007 0.171191
0.320190 0.197740 0.171693
0.337503 0.198543 0.172252
0.355689 0.199415 0.172867
0.374622 0.200351 0.173536
0.394174 0.201349 0.174259
0.414280 0.202408 0.175034
0.436436 0.203611 0.175925
0.459533 0.204906 0.176895
0.481123 0.206153 0.177838
0.500562 0.207306 0.178717
0.519030 0.208427 0.179578
0.536791 0.209529 0.180430
0.554111 0.210625 0.181283
0.571263 0.211732 0.182148
0.588522 0.212867 0.183040
0.606121 0.214046 0.183971
0.623951 0.215263 0.184936
0.641794 0.216502 0.185924
0.659440 0.217749 0.186922
0.676674 0.218988 0.187917
0.693279 0.220200 0.188895
0.709012 0.221365 0.189838
0.723136 0.222425 0.190699
0.736227 0.223420 0.191508
0.749419 0.224433 0.192335
0.217137 0.204337 0.169763
0.228853 0.204795 0.170053
0.240213 0.205252 0.170349
0.251588 0.205723 0.170658
0.263358 0.206224 0.170992
0.275911 0.206773 0.171362
0.289645 0.207390 0.171785
0.304845 0.208092 0.172273
0.321204 0.208871 0.172821
0.338564 0.209723 0.173428
0.356800 0.210645 0.174093
0.375786 0.211635 0.174815
0.395393 0.212687 0.175592
0.415555 0.213801 0.176422
0.437773 0.215066 0.177374
0.460935 0.216425 0.178407
0.482587 0.217731 0.179409
0.502082 0.218938 0.180340
0.520603 0.220110 0.181252
0.538414 0.221260 0.182151
0.555784 0.222404 0.183050
0.572985 0.223558 0.183962
0.590293 0.224740 0.184900
0.607943 0.225967 0.185878
0.625824 0.227233 0.186890
0.643720 0.228521 0.187925
0.661416 0.229816 0.188970
0.678699 0.231101 0.190011
0.695352 0.232358 0.191033
0.711131 0.233567 0.192017
0.725296 0.234665 0.192915
0.738425 0.235695 0.193759
0.751654 0.236745 0.194620
0.217960 0.214806 0.170659
0.229701 0.215296 0.170981
0.241087 0.215784 0.171308
0.252489 0.216287 0.171648
0.264287 0.216819 0.172014
0.276872 0.217402 0.172418
0.290640 0.218057 0.172878
0.305878 0.218800 0.173406
0.322280 0.219624 0.173998
0.339685 0.220522 0.174651
0.357969 0.221493 0.175365
0.377005 0.222534 0.176137
0.396664 0.223639 0.176965
0.416881 0.224806 0.177848
0.439159 0.226130 0.178858
0.462384 0.227550 0.179951
0.484095 0.228914 0.181009
0.503642 0.230172 0.181991
0.522214 0.231393 0.182950
0.540074 0.232590 0.183895
0.557492 0.233780 0.184839
0.574740 0.234979 0.185794
0.592096 0.236207 0.186776
0.609794 0.237481 0.187799
0.627724 0.238793 0.188857
0.645669 0.240128 0.189938
0.663414 0.241469 0.191027
0.680745 0.242799 0.192112
0.697444 0.244100 0.193175
0.713265 0.245350 0.194199
0.727469 0.246485 0.195133
0.740634 0.247550 0.196009
0.753901 0.248633 0.196904
0.218880 0.225341 0.171647
0.230647 0.225863 0.172001
0.242059 0.226383 0.172358
0.253488 0.226916 0.172729
0.265315 0.227482 0.173127
0.277930 0.228099 0.173565
0.291733 0.228791 0.174061
0.307010 0.229576 0.174631
0.323454 0.230443 0.175266
0.340904 0.231389 0.175965
0.359236 0.232409 0.176727
0.378323 0.233501 0.177549
0.398035 0.234658 0.178428
0.418305 0.235880 0.179364
0.440644 0.237263 0.180432
0.463931 0.238745 0.181585
0.485701 0.240166 0.182698
0.505301 0.241476 0.183731
0.523924 0.242746 0.184737
0.541832 0.243990 0.185728
0.559298 0.245226 0.186716
0.576593 0.246470 0.187715
0.593996 0.247743 0.188741
0.611743 0.249063 0.189809
0.629722 0.250422 0.190912
0.647716 0.251804 0.192037
0.665510 0.253192 0.193172
0.682888 0.254568 0.194299
0.699632 0.255912 0.195404
0.715497 0.257203 0.196468
0.729740 0.258375 0.197437
0.742941 0.259474 0.198346
0.756244 0.260592 0.199274
0.219941 0.236400 0.172773
0.231735 0.236956 0.173160
0.243174 0.237509 0.173549
0.254631 0.238075 0.173953
0.266488 0.238674 0.174383
0.279136 0.239327 0.174856
0.292975 0.240058 0.175391
0.308293 0.240887 0.176002
0.324781 0.241801 0.176683
0.342279 0.242795 0.177430
0.360661 0.243867 0.178242
0.379800 0.245012 0.179116
0.399567 0.246224 0.180049
0.419893 0.247503 0.181039
0.442295 0.248947 0.182167
0.465648 0.250494 0.183382
0.487479 0.251975 0.184554
0.507135 0.253339 0.185638
0.525809 0.254660 0.186694
0.543769 0.255954 0.187732
0.561284 0.257237 0.188766
0.578628 0.258529 0.189811
0.596080 0.259850 0.190883
0.613878 0.261218 0.191997
0.631908 0.262626 0.193147
0.649953 0.264057 0.194319
0.667797 0.265493 0.195500
0.685225 0.266916 0.196673
0.702017 0.268306 0.197821
0.717927 0.269639 0.198926
0.732210 0.270851 0.199931
0.745449 0.271985 0.200875
0.758789 0.273139 0.201836
0.221204 0.248464 0.174101
0.233028 0.249057 0.174524
0.244498 0.249645 0.174948
0.255986 0.250247 0.175386
0.267875 0.250883 0.175852
0.280558 0.251575 0.176364
0.294437 0.252349 0.176940
0.309798 0.253224 0.177597
0.326335 0.254189 0.178326
0.343884 0.255237 0.179125
0.362321 0.256364 0.179991
0.381517 0.257567 0.180921
0.401343 0.258839 0.181911
0.421731 0.260178 0.182961
0.444200 0.261691 0.184153
0.467624 0.263307 0.185436
0.489521 0.264854 0.186670
0.509237 0.266276 0.187811
0.527969 0.267652 0.188920
0.545983 0.268999 0.190009
0.563551 0.270335 0.191093
0.580949 0.271678 0.192187
0.598455 0.273050 0.193308
0.616307 0.274471 0.194472
0.634392 0.275932 0.195673
0.652492 0.277416 0.196896
0.670391 0.278905 0.198126
0.687872 0.280379 0.199347
0.704716 0.281818 0.200543
0.720675 0.283198 0.201692
0.735002 0.284451 0.202737
0.748281 0.285624 0.203717
0.761662 0.286817 0.204715
0.222754 0.262038 0.175716
0.234612 0.262672 0.176179
0.246115 0.263301 0.176642
0.257638 0.263942 0.177118
0.269564 0.264619 0.177624
0.282287 0.265355 0.178177
0.296209 0.266176 0.178799
0.311620 0.267104 0.179507
0.328210 0.268125 0.180291
0.345817 0.269233 0.181147
0.364315 0.270423 0.182073
0.383575 0.271690 0.183066
0.403467 0.273029 0.184120
0.423924 0.274437 0.185235
0.446468 0.276024 0.186500
0.469972 0.277719 0.187857
0.491943 0.279338 0.189162
0.511726 0.280826 0.190365
0.530521 0.282264 0.191533
0.548597 0.283671 0.192679
0.566225 0.285064 0.193818
0.583682 0.286465 0.194967
0.601247 0.287895 0.196143
0.619159 0.289374 0.197362
0.637307 0.290895 0.198620
0.655468 0.292438 0.199899
0.673428 0.293985 0.201185
0.690969 0.295516 0.202460
0.707870 0.297010 0.203707
0.723883 0.298443 0.204906
0.738259 0.299742 0.205995
0.751583 0.300958 0.207016
0.765010 0.302195 0.208055
0.224681 0.277526 0.177707
0.236577 0.278207 0.178215
0.248119 0.278880 0.178721
0.259681 0.279567 0.179241
0.271649 0.280291 0.179792
0.284417 0.281076 0.180393
0.298389 0.281951 0.181067
0.313857 0.282939 0.181832
0.330508 0.284023 0.182677
0.348180 0.285199 0.183598
0.366747 0.286460 0.184592
0.386080 0.287801 0.185654
0.406047 0.289215 0.186781
0.426581 0.290700 0.187970
0.449211 0.292373 0.189316
0.472804 0.294156 0.190758
0.494859 0.295858 0.192141
0.514718 0.297419 0.193415
0.533585 0.298928 0.194650
0.551730 0.300402 0.195860
0.569426 0.301861 0.197061
0.586949 0.303327 0.198271
0.604582 0.304822 0.199509
0.622563 0.306367 0.200791
0.640780 0.307955 0.202112
0.659011 0.309565 0.203455
0.677040 0.311179 0.204803
0.694648 0.312774 0.206140
0.711613 0.314331 0.207445
0.727688 0.315822 0.208699
0.742119 0.317174 0.209838
0.755494 0.318439 0.210904
0.768972 0.319725 0.211990
0.226998 0.294647 0.180084
0.238936 0.295380 0.180642
0.250521 0.296103 0.181195
0.262127 0.296839 0.181762
0.274141 0.297614 0.182362
0.286959 0.298453 0.183015
0.300987 0.299388 0.183746
0.316516 0.300440 0.184573
0.333235 0.301595 0.185485
0.350979 0.302845 0.186477
0.369622 0.304183 0.187544
0.389034 0.305605 0.188684
0.409083 0.307102 0.189889
0.429703 0.308672 0.191159
0.452427 0.310438 0.192594
0.476118 0.312318 0.194128
0.498265 0.314110 0.195596
0.518206 0.315753 0.196947
0.537152 0.317339 0.198255
0.555373 0.318886 0.199535
0.573142 0.320417 0.200804
0.590739 0.321954 0.202081
0.608446 0.323520 0.203386
0.626502 0.325138 0.204737
0.644795 0.326799 0.206127
0.663102 0.328483 0.207539
0.681206 0.330169 0.208955
0.698887 0.331835 0.210358
0.715924 0.333459 0.211728
0.732065 0.335015 0.213042
0.746556 0.336425 0.214235
0.759987 0.337743 0.215351
0.773521 0.339083 0.216488
0.229720 0.313211 0.182861
0.241705 0.313998 0.183471
0.253337 0.314775 0.184076
0.264990 0.315565 0.184694
0.277055 0.316394 0.185345
0.289927 0.317292 0.186054
0.304015 0.318290 0.186845
0.319611 0.319413 0.187739
0.336402 0.320643 0.188722
0.354224 0.321972 0.189790
0.372949 0.323394 0.190937
0.392446 0.324902 0.192158
0.412584 0.326488 0.193448
0.433295 0.328149 0.194804
0.456120 0.330015 0.196334
0.479917 0.331999 0.197966
0.502162 0.333888 0.199526
0.522193 0.335618 0.200959
0.541223 0.337287 0.202344
0.559525 0.338914 0.203699
0.577374 0.340521 0.205041
0.595049 0.342134 0.206389
0.612835 0.343777 0.207766
0.630971 0.345473 0.209191
0.649346 0.347213 0.210654
0.667735 0.348975 0.212140
0.685920 0.350739 0.213629
0.703680 0.352481 0.215103
0.720792 0.354178 0.216541
0.737005 0.355802 0.217920
0.751560 0.357274 0.219170
0.765051 0.358650 0.220340
0.778645 0.360047 0.221531
0.232861 0.333054 0.186048
0.244896 0.333900 0.186713
0.256578 0.334733 0.187371
0.268283 0.335579 0.188042
0.280401 0.336467 0.188749
0.293331 0.337426 0.189516
0.307483 0.338492 0.190371
0.323150 0.339689 0.191336
0.340019 0.340999 0.192394
0.357922 0.342412 0.193541
0.376734 0.343922 0.194771
0.396323 0.345521 0.196079
0.416555 0.347201 0.197458
0.437362 0.348959 0.198905
0.460295 0.350931 0.200534
0.484203 0.353025 0.202270
0.506553 0.355017 0.203927
0.526677 0.356839 0.205446
0.545797 0.358594 0.206914
0.564185 0.360305 0.208347
0.582118 0.361994 0.209765
0.599876 0.363687 0.211189
0.617745 0.365411 0.212642
0.635967 0.367190 0.214143
0.654427 0.369013 0.215685
0.672903 0.370858 0.217248
0.691173 0.372704 0.218814
0.709016 0.374526 0.220363
0.726208 0.376300 0.221872
0.742497 0.377997 0.223319
0.757121 0.379534 0.224630
0.770674 0.380970 0.225857
0.784332 0.382428 0.227103
0.236422 0.354002 0.189644
0.248511 0.354910 0.190367
0.260246 0.355802 0.191081
0.272005 0.356707 0.191808
0.284179 0.357655 0.192572
0.297171 0.358679 0.193400
0.311390 0.359815 0.194321
0.327132 0.361089 0.195359
0.344082 0.362482 0.196496
0.362072 0.363983 0.197726
0.380975 0.365585 0.199042
0.400659 0.367280 0.200440
0.420990 0.369058 0.201911
0.441899 0.370917 0.203453
0.464943 0.372999 0.205186
0.488968 0.375208 0.207029
0.511427 0.377307 0.208786
0.531650 0.379225 0.210395
0.550863 0.381071 0.211948
0.569341 0.382869 0.213463
0.587361 0.384644 0.214960
0.605206 0.386421 0.216463
0.623162 0.388229 0.217994
0.641473 0.390093 0.219576
0.660023 0.392003 0.221198
0.678588 0.393935 0.222843
0.696947 0.395866 0.224488
0.714877 0.397772 0.226114
0.732153 0.399626 0.227699
0.748521 0.401399 0.229216
0.763216 0.403004 0.230590
0.776835 0.404503 0.231876
0.790559 0.406024 0.233181
0.240393 0.375868 0.193639
0.252539 0.376838 0.194422
0.264330 0.377791 0.195194
0.276146 0.378757 0.195978
0.288380 0.379768 0.196801
0.301435 0.380859 0.197691
0.315724 0.382067 0.198681
0.331545 0.383422 0.199793
0.348579 0.384901 0.201011
0.366659 0.386492 0.202326
0.385657 0.388189 0.203732
0.405439 0.389982 0.205222
0.425872 0.391862 0.206788
0.446886 0.393824 0.208427
0.470046 0.396021 0.210266
0.494192 0.398348 0.212220
0.516764 0.400557 0.214080
0.537088 0.402574 0.215782
0.556398 0.404514 0.217422
0.574968 0.406402 0.219021
0.593079 0.408264 0.220600
0.611013 0.410128 0.222183
0.629059 0.412023 0.223796
0.647462 0.413975 0.225460
0.666105 0.415974 0.227165
0.684763 0.417996 0.228892
0.703213 0.420015 0.230620
0.721233 0.422007 0.232326
0.738595 0.423943 0.233987
0.755044 0.425795 0.235576
0.769812 0.427470 0.237016
0.783499 0.429034 0.238361
0.797291 0.430621 0.239727
0.244768 0.398526 0.198028
0.256974 0.399561 0.198871
0.268824 0.400577 0.199701
0.280699 0.401605 0.200544
0.292994 0.402680 0.201427
0.306116 0.403839 0.202382
0.320478 0.405122 0.203441
0.336379 0.406559 0.204630
0.353501 0.408125 0.205930
0.371674 0.409810 0.207332
0.390769 0.411604 0.208829
0.410653 0.413498 0.210412
0.431191 0.415481 0.212075
0.452313 0.417550 0.213814
0.475592 0.419863 0.215762
0.499861 0.422311 0.217829
0.522549 0.424633 0.219794
0.542977 0.426751 0.221590
0.562386 0.428788 0.223320
0.581052 0.430768 0.225004
0.599255 0.432719 0.226667
0.617281 0.434671 0.228332
0.635419 0.436655 0.230027
0.653915 0.438698 0.231775
0.672654 0.440789 0.233565
0.691406 0.442902 0.235377
0.709951 0.445011 0.237188
0.728062 0.447091 0.238975
0.745512 0.449112 0.240715
0.762045 0.451043 0.242378
0.776887 0.452790 0.243884
0.790644 0.454420 0.245290
0.804506 0.456074 0.246718
0.249938 0.423763 0.203197
0.262211 0.424869 0.204107
0.274126 0.425954 0.205001
0.286068 0.427050 0.205908
0.298432 0.428196 0.206857
0.311628 0.429430 0.207882
0.326071 0.430795 0.209018
0.342062 0.432322 0.210291
0.359280 0.433985 0.211682
0.377556 0.435772 0.213179
0.396759 0.437673 0.214775
0.416755 0.439678 0.216462
0.437409 0.441776 0.218231
0.458650 0.443961 0.220078
0.482061 0.446402 0.222146
0.506467 0.448983 0.224337
0.529283 0.451429 0.226417
0.549826 0.453659 0.228316
0.569344 0.455801 0.230144
0.588114 0.457882 0.231922
0.606419 0.459932 0.233676
0.624546 0.461982 0.235431
0.642786 0.464063 0.237217
0.661385 0.466206 0.239056
0.680228 0.468397 0.240940
0.699085 0.470610 0.242844
0.717733 0.472819 0.244747
0.735945 0.474994 0.246623
0.753491 0.477109 0.248448
0.770142 0.479092 0.250071
0.785072 0.480856 0.251498
0.798887 0.482482 0.252812
0.812788 0.484112 0.254128
0.255719 0.450422 0.208963
0.268064 0.451603 0.209942
0.280050 0.452760 0.210904
0.292063 0.453928 0.211877
0.304500 0.455148 0.212895
0.317774 0.456460 0.213993
0.332302 0.457910 0.215208
0.348388 0.459531 0.216569
0.365708 0.461295 0.218054
0.384092 0.463189 0.219650
0.403408 0.465201 0.221349
0.423523 0.467321 0.223144
0.444298 0.469538 0.225023
0.465664 0.471845 0.226983
0.489212 0.474420 0.229175
0.513761 0.477140 0.231494
0.536711 0.479715 0.233694
0.557374 0.482061 0.235701
0.577006 0.484312 0.237630
0.595885 0.486499 0.239506
0.614297 0.488652 0.241354
0.632529 0.490802 0.243203
0.650875 0.492986 0.245082
0.669582 0.495232 0.247018
0.688542 0.497521 0.248972
0.707532 0.499778 0.250795
0.726272 0.501992 0.252583
0.744537 0.504139 0.254314
0.762101 0.506191 0.255968
0.778711 0.508122 0.257524
0.793597 0.509844 0.258910
0.807372 0.511431 0.260186
0.821232 0.513020 0.261464
0.261481 0.475665 0.214697
0.273896 0.476916 0.215741
0.285949 0.478140 0.216765
0.298029 0.479375 0.217801
0.310536 0.480664 0.218883
0.323884 0.482050 0.220049
0.338493 0.483580 0.221338
0.354669 0.485289 0.222781
0.372085 0.487147 0.224353
0.390570 0.489140 0.226041
0.409993 0.491257 0.227837
0.430219 0.493485 0.229732
0.451109 0.495812 0.231714
0.472592 0.498233 0.233779
0.496269 0.500933 0.236086
0.520953 0.503782 0.238525
0.544027 0.506479 0.240837
0.564803 0.508932 0.242943
0.584541 0.511287 0.244967
0.603523 0.513572 0.246934
0.622040 0.515816 0.248854
0.640396 0.518005 0.250620
0.658829 0.520190 0.252382
0.677587 0.522401 0.254163
0.696551 0.524623 0.255952
0.715490 0.526829 0.257726
0.734180 0.528993 0.259466
0.752396 0.531090 0.261150
0.769912 0.533095 0.262759
0.786477 0.534982 0.264271
0.801322 0.536664 0.265619
0.815059 0.538213 0.266860
0.828881 0.539766 0.268102
0.266962 0.498659 0.220141
0.279441 0.499972 0.221244
0.291556 0.501257 0.222324
0.303697 0.502552 0.223415
0.316268 0.503903 0.224555
0.329683 0.505355 0.225782
0.344367 0.506957 0.227138
0.360624 0.508745 0.228654
0.378127 0.510688 0.230304
0.396705 0.512771 0.232076
0.416225 0.514981 0.233958
0.436551 0.517307 0.235943
0.457544 0.519734 0.238017
0.479133 0.522257 0.240177
0.502927 0.525069 0.242587
0.527732 0.528035 0.245134
0.550919 0.530840 0.247546
0.571817 0.533367 0.249654
0.591660 0.535732 0.251560
0.610701 0.537989 0.253376
0.629231 0.540171 0.255132
0.647544 0.542316 0.256855
0.665933 0.544456 0.258574
0.684646 0.546621 0.260312
0.703564 0.548797 0.262057
0.722457 0.550957 0.263788
0.741101 0.553076 0.265484
0.759272 0.555129 0.267126
0.776745 0.557092 0.268694
0.793269 0.558938 0.270169
0.808078 0.560584 0.271482
0.821781 0.562100 0.272691
0.835568 0.563619 0.273901
0.272423 0.520735 0.225557
0.284964 0.522109 0.226716
0.297139 0.523450 0.227849
0.309340 0.524804 0.228994
0.321973 0.526213 0.230188
0.335453 0.527728 0.231473
0.350207 0.529398 0.232892
0.366542 0.531262 0.234478
0.384128 0.533285 0.236202
0.402795 0.535453 0.238052
0.422407 0.537752 0.240017
0.442829 0.540170 0.242087
0.463921 0.542692 0.244249
0.485612 0.545313 0.246498
0.509523 0.548226 0.248985
0.534466 0.551214 0.251389
0.557721 0.553977 0.253611
0.578607 0.556441 0.255590
0.598405 0.558761 0.257452
0.617403 0.560974 0.259226
0.635892 0.563113 0.260941
0.654162 0.565215 0.262624
0.672509 0.567313 0.264302
0.691179 0.569435 0.265999
0.710053 0.571567 0.267702
0.728902 0.573684 0.269391
0.747503 0.575759 0.271046
0.765631 0.577770 0.272648
0.783064 0.579692 0.274178
0.799549 0.581500 0.275616
0.814323 0.583112 0.276897
0.827994 0.584596 0.278076
0.841748 0.586083 0.279256
0.277907 0.542177 0.230989
0.290509 0.543608 0.232200
0.302743 0.545006 0.233385
0.315002 0.546414 0.234581
0.327694 0.547881 0.235828
0.341237 0.549456 0.237168
0.356060 0.551191 0.238648
0.372471 0.553127 0.240300
0.390138 0.555229 0.242096
0.408890 0.557478 0.244021
0.428592 0.559863 0.246065
0.449107 0.562369 0.248216
0.470321 0.564940 0.250322
0.492102 0.567547 0.252416
0.516044 0.570391 0.254699
0.540935 0.573324 0.257050
0.564140 0.576035 0.259222
0.584981 0.578452 0.261156
0.604736 0.580728 0.262976
0.623692 0.582898 0.264710
0.642140 0.584996 0.266386
0.660370 0.587057 0.268030
0.678676 0.589114 0.269670
0.697304 0.591195 0.271327
0.716137 0.593285 0.272990
0.734943 0.595359 0.274639
0.753502 0.597393 0.276254
0.771590 0.599363 0.277818
0.788983 0.601246 0.279311
0.805431 0.603017 0.280714
0.820171 0.604596 0.281964
0.833811 0.606050 0.283114
0.847534 0.607506 0.284264
0.283472 0.563287 0.236494
0.296135 0.564774 0.237757
0.308427 0.566226 0.238992
0.320743 0.567688 0.240237
0.333494 0.569210 0.241535
0.347100 0.570844 0.242930
0.361991 0.572644 0.244469
0.378475 0.574650 0.246186
0.396223 0.576827 0.248052
0.415079 0.579130 0.249959
0.434875 0.581514 0.251871
0.455440 0.583973 0.253842
0.476628 0.586488 0.255856
0.498365 0.589048 0.257905
0.522258 0.591839 0.260137
0.547097 0.594717 0.262437
0.570253 0.597378 0.264561
0.591050 0.599749 0.266452
0.610763 0.601982 0.268231
0.629679 0.604110 0.269926
0.648087 0.606168 0.271563
0.666278 0.608190 0.273169
0.684544 0.610207 0.274771
0.703132 0.612246 0.276390
0.721922 0.614295 0.278014
0.740688 0.616328 0.279624
0.759206 0.618321 0.281201
0.777254 0.620252 0.282728
0.794608 0.622097 0.284185
0.811019 0.623832 0.285554
0.825727 0.625379 0.286773
0.839336 0.626803 0.287895
0.853029 0.628228 0.289017
0.289194 0.584384 0.242147
0.301918 0.585927 0.243462
0.314268 0.587432 0.244746
0.326642 0.588947 0.246040
0.339451 0.590525 0.247389
0.353120 0.592217 0.248837
0.368100 0.594048 0.250324
0.384664 0.596052 0.251928
0.402460 0.598191 0.253640
0.421307 0.600440 0.255438
0.441064 0.602781 0.257309
0.461589 0.605195 0.259237
0.482735 0.607663 0.261208
0.504427 0.610176 0.263212
0.528271 0.612916 0.265395
0.553058 0.615739 0.267643
0.576166 0.618350 0.269720
0.596919 0.620676 0.271568
0.616590 0.622866 0.273307
0.635466 0.624953 0.274963
0.653834 0.626971 0.276562
0.671986 0.628953 0.278131
0.690213 0.630930 0.279696
0.708760 0.632930 0.281276
0.727510 0.634938 0.282862
0.746235 0.636930 0.284434
0.764712 0.638883 0.285973
0.782720 0.640775 0.287462
0.800037 0.642582 0.288884
0.816412 0.644281 0.290219
0.831087 0.645796 0.291409
0.844666 0.647190 0.292502
0.858328 0.648586 0.293597
0.295160 0.605804 0.248035
0.307947 0.607404 0.249402
0.320379 0.608928 0.250620
0.332817 0.610445 0.251830
0.345672 0.612003 0.253074
0.359368 0.613653 0.254391
0.374330 0.615445 0.255821
0.390862 0.617413 0.257390
0.408625 0.619512 0.259064
0.427435 0.621720 0.260823
0.447154 0.624018 0.262653
0.467637 0.626386 0.264539
0.488740 0.628808 0.266465
0.510387 0.631273 0.268424
0.534181 0.633960 0.270558
0.558917 0.636730 0.272755
0.581975 0.639290 0.274783
0.602684 0.641571 0.276589
0.622313 0.643717 0.278287
0.641148 0.645763 0.279903
0.659477 0.647741 0.281465
0.677589 0.649683 0.282997
0.695776 0.651620 0.284524
0.714283 0.653579 0.286066
0.732992 0.655546 0.287613
0.751675 0.657497 0.289146
0.770112 0.659410 0.290647
0.788080 0.661262 0.292100
0.805358 0.663032 0.293486
0.821696 0.664695 0.294787
0.836338 0.666177 0.295946
0.849887 0.667542 0.297012
0.863519 0.668908 0.298079
0.301463 0.627654 0.253783
0.314274 0.629208 0.255019
0.326687 0.630705 0.256209
0.339104 0.632193 0.257393
0.351937 0.633722 0.258609
0.365607 0.635341 0.259896
0.380542 0.637099 0.261294
0.397042 0.639029 0.262828
0.414770 0.641089 0.264464
0.433543 0.643254 0.266184
0.453221 0.645507 0.267971
0.473661 0.647830 0.269813
0.494720 0.650204 0.271695
0.516322 0.652620 0.273608
0.540065 0.655254 0.275691
0.564747 0.657968 0.277836
0.587756 0.660476 0.279816
0.608419 0.662710 0.281578
0.628005 0.664813 0.283234
0.646798 0.666817 0.284811
0.665086 0.668754 0.286334
0.683158 0.670655 0.287828
0.701305 0.672552 0.289317
0.719770 0.674469 0.290820
0.738437 0.676394 0.292327
0.757078 0.678303 0.293821
0.775473 0.680175 0.295284
0.793400 0.681987 0.296699
0.810639 0.683717 0.298048
0.826940 0.685344 0.299316
0.841549 0.686794 0.300444
0.855067 0.688128 0.301481
0.868668 0.689463 0.302519
0.307752 0.649604 0.259367
0.320544 0.651129 0.260574
0.332936 0.652596 0.261737
0.345331 0.654055 0.262894
0.358141 0.655555 0.264082
0.371786 0.657142 0.265340
0.386691 0.658866 0.266705
0.403159 0.660758 0.268203
0.420851 0.662777 0.269801
0.439585 0.664899 0.271480
0.459222 0.667107 0.273225
0.479620 0.669383 0.275023
0.500633 0.671709 0.276859
0.522189 0.674076 0.278726
0.545880 0.676656 0.280759
0.570508 0.679313 0.282850
0.593465 0.681769 0.284781
0.614082 0.683956 0.286499
0.633624 0.686014 0.288114
0.652375 0.687975 0.289650
0.670622 0.689871 0.291134
0.688653 0.691731 0.292589
0.706758 0.693586 0.294039
0.725181 0.695461 0.295503
0.743805 0.697344 0.296971
0.762404 0.699211 0.298425
0.780757 0.701041 0.299849
0.798643 0.702812 0.301225
0.815841 0.704503 0.302538
0.832105 0.706093 0.303771
0.846680 0.707509 0.304868
0.860166 0.708813 0.305877
0.873736 0.710117 0.306886
0.313907 0.671401 0.264820
0.326678 0.672896 0.266000
0.339049 0.674334 0.267136
0.351422 0.675765 0.268265
0.364208 0.677234 0.269425
0.377826 0.678790 0.270653
0.392702 0.680480 0.271987
0.409137 0.682334 0.273449
0.426792 0.684312 0.275008
0.445488 0.686391 0.276647
0.465083 0.688554 0.278350
0.485437 0.690783 0.280104
0.506405 0.693061 0.281894
0.527914 0.695378 0.283715
0.551553 0.697903 0.285696
0.576126 0.700505 0.287735
0.599032 0.702908 0.289617
0.619603 0.705048 0.291290
0.639101 0.707062 0.292863
0.657810 0.708980 0.294360
0.676015 0.710833 0.295805
0.694005 0.712652 0.297222
0.712069 0.714466 0.298633
0.730450 0.716299 0.300057
0.749031 0.718140 0.301486
0.767587 0.719964 0.302900
0.785897 0.721752 0.304285
0.803742 0.723482 0.305623
0.820900 0.725135 0.306899
0.837126 0.726687 0.308097
0.851667 0.728070 0.309163
0.865122 0.729343 0.310144
0.878660 0.730617 0.311123
0.319856 0.692790 0.270083
0.332606 0.694255 0.271235
0.344955 0.695665 0.272344
0.357305 0.697067 0.273446
0.370067 0.698507 0.274579
0.383660 0.700032 0.275777
0.398506 0.701687 0.277078
0.414908 0.703503 0.278506
0.432527 0.705441 0.280027
0.451183 0.707477 0.281625
0.470738 0.709595 0.283287
0.491048 0.711778 0.284997
0.511971 0.714008 0.286743
0.533433 0.716277 0.288518
0.557020 0.718748 0.290449
0.581539 0.721294 0.292436
0.604394 0.723645 0.294269
0.624919 0.725739 0.295899
0.644374 0.727708 0.297430
0.663040 0.729584 0.298888
0.681204 0.731396 0.300294
0.699154 0.733174 0.301673
0.717176 0.734948 0.303046
0.735516 0.736739 0.304431
0.754055 0.738537 0.305821
0.772568 0.740320 0.307196
0.790836 0.742066 0.308542
0.808640 0.743756 0.309842
0.825759 0.745370 0.311083
