Fotico/Resources/LUTs/latte.cube
TITLE "Latte"
LUT_3D_SIZE 5
0.216386 0.193500 0.168929
0.320190 0.197740 0.171693
0.481123 0.206153 0.177838
0.623951 0.215263 0.184936
0.749419 0.224433 0.192335
0.226998 0.294647 0.180084
0.333235 0.301595 0.185485
0.498265 0.314110 0.195596
0.644795 0.326799 0.206127
0.773521 0.339083 0.216488
0.261481 0.475665 0.214697
0.372085 0.487147 0.224353
0.544027 0.506479 0.240837
0.696551 0.524623 0.255952
0.828881 0.539766 0.268102
0.307752 0.649604 0.259367
0.420851 0.662777 0.269801
0.593465 0.681769 0.284781
0.743805 0.697344 0.296971
0.873736 0.710117 0.306886
0.348106 0.799313 0.294928
0.459626 0.810637 0.303633
0.629563 0.826842 0.316013
0.777485 0.840004 0.325958
0.904881 0.850665 0.333907
0.217539 0.195555 0.242038
0.321605 0.200076 0.245074
0.482965 0.208910 0.251626
0.626176 0.218382 0.259075
0.751979 0.227864 0.266776
0.228997 0.297556 0.254002
0.335519 0.304794 0.259678
0.500997 0.317742 0.270200
0.647921 0.330804 0.281085
0.776992 0.343410 0.291750
0.264820 0.479967 0.289904
0.375753 0.491748 0.299839
0.548175 0.511525 0.316738
0.700832 0.529620 0.331575
0.832988 0.544583 0.343558
0.311883 0.654583 0.334953
0.424873 0.667595 0.345238
0.597273 0.686342 0.359990
0.747413 0.701706 0.371984
0.876890 0.714276 0.381709
0.351695 0.803740 0.369990
0.463086 0.814899 0.378544
0.632796 0.830857 0.390696
0.780510 0.843806 0.400443
0.907276 0.854248 0.408189
0.219775 0.199374 0.370746
0.324306 0.204390 0.374259
0.486423 0.213963 0.381527
0.630308 0.224073 0.389594
0.756703 0.234105 0.397827
0.232721 0.302882 0.384133
0.339751 0.310629 0.390291
0.506020 0.324338 0.401536
0.653641 0.338058 0.413044
0.783317 0.351230 0.424245
0.270899 0.487746 0.422301
0.382417 0.500053 0.432728
0.555719 0.520542 0.450146
0.708232 0.538284 0.464391
0.840083 0.552931 0.476077
0.319030 0.663215 0.467703
0.431824 0.675943 0.477724
0.603845 0.694261 0.492078
0.753629 0.709252 0.503726
0.881290 0.721386 0.513041
0.357886 0.811400 0.501818
0.469047 0.822269 0.510106
0.638355 0.837792 0.521856
0.785702 0.850365 0.531256
0.911460 0.860431 0.538652
0.221809 0.202703 0.476480
0.326726 0.208125 0.480386
0.489467 0.218305 0.488241
0.633908 0.228939 0.496815
0.760789 0.239423 0.505484
0.235974 0.307451 0.491034
0.343425 0.315616 0.497590
0.510348 0.329951 0.509428
0.658543 0.344211 0.521446
0.788718 0.357848 0.533087
0.276085 0.494331 0.531063
0.388089 0.507071 0.541893
0.561950 0.527834 0.559233
0.714183 0.545275 0.573197
0.845783 0.559663 0.584640
0.324782 0.670180 0.576455
0.437410 0.682674 0.586260
0.609117 0.700639 0.600286
0.758609 0.715325 0.611651
0.884873 0.727109 0.620637
0.362853 0.817565 0.609815
0.473821 0.828197 0.617883
0.642797 0.843363 0.629304
0.789841 0.855627 0.638419
0.914864 0.865392 0.645535
0.224144 0.206402 0.588027
0.329473 0.212251 0.592347
0.492876 0.223071 0.600822
0.637905 0.234258 0.609929
0.765300 0.245218 0.619058
0.239593 0.312460 0.603812
0.347496 0.321066 0.610787
0.515111 0.336061 0.623249
0.663912 0.350890 0.635806
0.794615 0.365018 0.647911
0.281743 0.501468 0.645801
0.394265 0.514664 0.657057
0.568399 0.535403 0.674023
0.720337 0.552528 0.687690
0.851670 0.566642 0.698877
0.330733 0.677403 0.690892
0.443183 0.689651 0.700468
0.614556 0.707244 0.714149
0.763738 0.721608 0.725216
0.888621 0.733030 0.733861
0.367975 0.823946 0.723455
0.478738 0.834328 0.731293
0.647360 0.849117 0.742366
0.794085 0.861056 0.751182
0.918426 0.870510 0.758010
