Fotico/Resources/LUTs/latte.cube
TITLE "Latte"
LUT_3D_SIZE 9
0.216386 0.193500 0.168929
0.262496 0.195255 0.170026
0.320190 0.197740 0.171693
0.394174 0.201349 0.174259
0.481123 0.206153 0.177838
0.554111 0.210625 0.181283
0.623951 0.215263 0.184936
0.693279 0.220200 0.188895
0.749419 0.224433 0.192335
0.219941 0.236400 0.172773
0.266488 0.238674 0.174383
0.324781 0.241801 0.176683
0.399567 0.246224 0.180049
0.487479 0.251975 0.184554
0.561284 0.257237 0.188766
0.631908 0.262626 0.193147
0.702017 0.268306 0.197821
0.758789 0.273139 0.201836
0.226998 0.294647 0.180084
0.274141 0.297614 0.182362
0.333235 0.301595 0.185485
0.409083 0.307102 0.189889
0.498265 0.314110 0.195596
0.573142 0.320417 0.200804
0.644795 0.326799 0.206127
0.715924 0.333459 0.211728
0.773521 0.339083 0.216488
0.240393 0.375868 0.193639
0.288380 0.379768 0.196801
0.348579 0.384901 0.201011
0.425872 0.391862 0.206788
0.516764 0.400557 0.214080
0.593079 0.408264 0.220600
0.666105 0.415974 0.227165
0.738595 0.423943 0.233987
0.797291 0.430621 0.239727
0.261481 0.475665 0.214697
0.310536 0.480664 0.218883
0.372085 0.487147 0.224353
0.451109 0.495812 0.231714
0.544027 0.506479 0.240837
0.622040 0.515816 0.248854
0.696551 0.524623 0.255952
0.769912 0.533095 0.262759
0.828881 0.539766 0.268102
0.283472 0.563287 0.236494
0.333494 0.569210 0.241535
0.396223 0.576827 0.248052
0.476628 0.586488 0.255856
0.570253 0.597378 0.264561
0.648087 0.606168 0.271563
0.721922 0.614295 0.278014
0.794608 0.622097 0.284185
0.853029 0.628228 0.289017
0.307752 0.649604 0.259367
0.358141 0.655555 0.264082
0.420851 0.662777 0.269801
0.500633 0.671709 0.276859
0.593465 0.681769 0.284781
0.670622 0.689871 0.291134
0.743805 0.697344 0.296971
0.815841 0.704503 0.302538
0.873736 0.710117 0.306886
0.330887 0.733346 0.279813
0.380920 0.738840 0.284101
0.443136 0.745498 0.289291
0.522252 0.753717 0.295682
0.614283 0.762951 0.302831
0.690761 0.770368 0.308545
0.763292 0.777192 0.313777
0.834679 0.783714 0.318749
0.891453 0.788769 0.322574
0.348106 0.799313 0.294928
0.397828 0.804436 0.298869
0.459626 0.810637 0.303633
0.538191 0.818277 0.309486
0.629563 0.826842 0.316013
0.705486 0.833705 0.321213
0.777485 0.840004 0.325958
0.848346 0.846009 0.330452
0.904881 0.850665 0.333907
0.216869 0.194369 0.200205
0.263027 0.196178 0.201355
0.320785 0.198729 0.203086
0.394852 0.202422 0.205732
0.481900 0.207322 0.209405
0.554972 0.211874 0.212927
0.624892 0.216587 0.216653
0.694299 0.221598 0.220684
0.750503 0.225891 0.224182
0.220582 0.237427 0.204200
0.267180 0.239756 0.205863
0.325538 0.242950 0.208227
0.400409 0.247458 0.211674
0.488422 0.253307 0.216273
0.562312 0.258650 0.220563
0.633017 0.264115 0.225017
0.703207 0.269870 0.229763
0.760044 0.274764 0.233836
0.227843 0.295881 0.211707
0.275039 0.298903 0.214037
0.334202 0.302953 0.217225
0.410138 0.308546 0.221711
0.499423 0.315653 0.227512
0.574387 0.322043 0.232798
0.646121 0.328503 0.238194
0.717332 0.335239 0.243868
0.774995 0.340924 0.248685
0.241505 0.377377 0.225518
0.289550 0.381334 0.228733
0.349821 0.386536 0.233009
0.427206 0.393585 0.238867
0.518204 0.402380 0.246254
0.594607 0.410171 0.252853
0.667717 0.417960 0.259492
0.740290 0.426006 0.266386
0.799053 0.432746 0.272185
0.262899 0.477495 0.246871
0.312019 0.482552 0.251111
0.373643 0.489105 0.256646
0.452763 0.497859 0.264090
0.545791 0.508627 0.273308
0.623918 0.518004 0.281263
0.698389 0.526767 0.288320
0.771709 0.535197 0.295087
0.830645 0.541833 0.300399
0.285145 0.565384 0.268912
0.335235 0.571365 0.274008
0.398058 0.579039 0.280536
0.478452 0.588639 0.288226
0.572027 0.599474 0.296879
0.649819 0.608218 0.303838
0.723613 0.616301 0.310248
0.796257 0.624060 0.316379
0.854644 0.630157 0.321179
0.309526 0.651741 0.291719
0.359897 0.657661 0.296405
0.422578 0.664845 0.302089
0.502320 0.673729 0.309103
0.595101 0.683732 0.316972
0.672214 0.691787 0.323282
0.745355 0.699217 0.329078
0.817349 0.706333 0.334605
0.875209 0.711912 0.338920
0.332532 0.735352 0.312041
0.382545 0.740815 0.316300
0.444730 0.747435 0.321455
0.523804 0.755605 0.327800
0.615782 0.764782 0.334897
0.692215 0.772152 0.340568
0.764703 0.778933 0.345758
0.836048 0.785410 0.350691
0.892502 0.790409 0.354462
0.349648 0.801214 0.327056
0.399347 0.806305 0.330968
0.461112 0.812467 0.335696
0.539633 0.820058 0.341504
0.630953 0.828566 0.347979
0.706830 0.835382 0.353135
0.778786 0.841637 0.357839
0.849603 0.847599 0.362293
0.905907 0.852204 0.365701
0.217539 0.195555 0.242038
0.263762 0.197436 0.243257
0.321605 0.200076 0.245074
0.395784 0.203881 0.247828
0.482965 0.208910 0.251626
0.556149 0.213568 0.255251
0.626176 0.218382 0.259075
0.695689 0.223492 0.263202
0.751979 0.227864 0.266776
0.221464 0.238825 0.246235
0.268129 0.241227 0.247967
0.326576 0.244511 0.250418
0.401561 0.249132 0.253974
0.489709 0.255112 0.258698
0.563713 0.260563 0.263092
0.634527 0.266131 0.267644
0.704823 0.271987 0.272486
0.761747 0.276962 0.276636
0.228997 0.297556 0.254002
0.276266 0.300653 0.256403
0.335519 0.304794 0.259678
0.411574 0.310501 0.264273
0.500997 0.317742 0.270200
0.576076 0.324241 0.275590
0.647921 0.330804 0.281085
0.719241 0.337643 0.286855
0.776992 0.343410 0.291750
0.243016 0.379421 0.268157
0.291139 0.383453 0.271443
0.351507 0.388748 0.275806
0.429014 0.395914 0.281774
0.520154 0.404844 0.289287
0.596676 0.412745 0.295990
0.669899 0.420640 0.302728
0.742582 0.428790 0.309720
0.801435 0.435612 0.315596
0.264820 0.479967 0.289904
0.314025 0.485101 0.294216
0.375753 0.491748 0.299839
0.455000 0.500620 0.307393
0.548175 0.511525 0.316738
0.626415 0.520914 0.324572
0.700832 0.529620 0.331575
0.774097 0.537993 0.338289
0.832988 0.544583 0.343558
0.287406 0.568213 0.312272
0.337588 0.574272 0.317440
0.400533 0.581965 0.323854
0.480875 0.591501 0.331484
0.574385 0.602261 0.340067
0.652119 0.610944 0.346969
0.725858 0.618968 0.353324
0.798446 0.626670 0.359402
0.856788 0.632721 0.364159
0.311883 0.654583 0.334953
0.362231 0.660462 0.339601
0.424873 0.667595 0.345238
0.504560 0.676414 0.352191
0.597273 0.686342 0.359990
0.674328 0.694335 0.366243
0.747413 0.701706 0.371984
0.819350 0.708764 0.377458
0.876890 0.714276 0.381709
0.334718 0.738020 0.355109
0.384703 0.743441 0.359329
0.446847 0.750009 0.364436
0.525864 0.758114 0.370721
0.617772 0.767216 0.377748
0.694146 0.774523 0.383361
0.766576 0.781244 0.388497
0.837863 0.787664 0.393376
0.893903 0.792588 0.397076
0.351695 0.803740 0.369990
0.401363 0.808789 0.373863
0.463086 0.814899 0.378544
0.541548 0.822425 0.384291
0.632796 0.830857 0.390696
0.708612 0.837610 0.395794
0.780510 0.843806 0.400443
0.851269 0.849708 0.404843
0.907276 0.854248 0.408189
0.218494 0.197210 0.298881
0.264805 0.199190 0.300195
0.322765 0.201950 0.302128
0.397097 0.205906 0.305030
0.484459 0.211110 0.308997
0.557795 0.215914 0.312762
0.627967 0.220864 0.316719
0.697625 0.226109 0.320976
0.754031 0.230589 0.324655
0.222707 0.240768 0.303352
0.269465 0.243269 0.305180
0.328031 0.246675 0.307748
0.403172 0.251451 0.311451
0.491505 0.257608 0.316345
0.565663 0.263207 0.320880
0.636624 0.268914 0.325565
0.707067 0.274906 0.330538
0.764109 0.279991 0.334794
0.230610 0.299876 0.311474
0.277977 0.303074 0.313971
0.337355 0.307339 0.317363
0.413570 0.313202 0.322106
0.503182 0.320623 0.328204
0.578419 0.327271 0.333736
0.650414 0.333976 0.339364
0.721881 0.340954 0.345266
0.779752 0.346832 0.350266
0.245112 0.382242 0.326094
0.293343 0.386377 0.329477
0.353842 0.391798 0.333958
0.431516 0.399122 0.340075
0.522851 0.408235 0.347761
0.599534 0.416288 0.354606
0.672909 0.424326 0.361478
0.745744 0.432616 0.368601
0.804718 0.439552 0.374584
0.267473 0.483371 0.348377
0.316796 0.488608 0.352787
0.378664 0.495384 0.358530
0.458085 0.504416 0.366234
0.551460 0.515506 0.375751
0.629778 0.524840 0.383354
0.704121 0.533467 0.390283
0.777312 0.541763 0.396924
0.836143 0.548291 0.402135
0.290522 0.572101 0.371189
0.340830 0.578267 0.376455
0.403868 0.585912 0.382646
0.484139 0.595361 0.390194
0.577559 0.606020 0.398683
0.655216 0.614619 0.405507
0.728879 0.622564 0.411789
0.801392 0.630188 0.417793
0.859672 0.636176 0.422492
0.315059 0.658417 0.393632
0.365373 0.664239 0.398228
0.427964 0.671303 0.403800
0.507576 0.680034 0.410671
0.600197 0.689860 0.418376
0.677172 0.697769 0.424550
0.750179 0.705059 0.430217
0.822039 0.712039 0.435618
0.878838 0.717436 0.439760
0.337661 0.741616 0.413562
0.387608 0.746981 0.417730
0.449695 0.753479 0.422772
0.528634 0.761495 0.428975
0.620448 0.770494 0.435907
0.696740 0.777716 0.441441
0.769092 0.784357 0.446503
0.840301 0.790697 0.451308
0.895798 0.795522 0.454915
0.354449 0.807144 0.428261
0.404076 0.812136 0.432082
0.465739 0.818175 0.436698
0.544121 0.825612 0.442362
0.635272 0.833941 0.448672
0.711006 0.840608 0.453691
0.782824 0.846723 0.458266
0.853504 0.852547 0.462592
0.909129 0.856998 0.465856
0.219775 0.199374 0.370746
0.266199 0.201478 0.372179
0.324306 0.204390 0.374259
0.398832 0.208538 0.377346
0.486423 0.213963 0.381527
0.559952 0.218950 0.385470
0.630308 0.224073 0.389594
0.700149 0.229488 0.394016
0.756703 0.234105 0.397827
0.224351 0.243296 0.375563
0.271227 0.245924 0.377511
0.329945 0.249484 0.380227
0.405285 0.254454 0.384116
0.493851 0.260836 0.389226
0.568204 0.266620 0.393938
0.639353 0.272503 0.398792
0.709980 0.278669 0.403930
0.767171 0.283893 0.408318
0.232721 0.302882 0.384133
0.280213 0.306207 0.386750
0.339751 0.310629 0.390291
0.416169 0.316690 0.395222
0.506020 0.324338 0.401536
0.581456 0.331175 0.407246
0.653641 0.338058 0.413044
0.725296 0.345211 0.419111
0.783317 0.351230 0.424245
0.247835 0.385881 0.399341
0.296202 0.390147 0.402846
0.356869 0.395727 0.407477
0.434755 0.403251 0.413783
0.526335 0.412595 0.421685
0.603222 0.420839 0.428710
0.676791 0.429058 0.435752
0.749816 0.437526 0.443042
0.808965 0.444581 0.449072
0.270899 0.487746 0.422301
0.320372 0.493116 0.426835
0.382417 0.500053 0.432728
0.462060 0.509289 0.440621
0.555719 0.520542 0.450146
0.633983 0.529756 0.457555
0.708232 0.538284 0.464391
0.781329 0.546481 0.470941
0.840083 0.552931 0.476077
0.294533 0.577090 0.445673
0.345029 0.583310 0.450833
0.408039 0.590855 0.456860
0.488219 0.600193 0.464306
0.581525 0.610725 0.472676
0.659083 0.619218 0.479401
0.732651 0.627063 0.485589
0.805068 0.634588 0.491502
0.863270 0.640496 0.496126
0.319030 0.663215 0.467703
0.369301 0.668967 0.472234
0.431824 0.675943 0.477724
0.511341 0.684563 0.484492
0.603845 0.694261 0.492078
0.680719 0.702062 0.498153
0.753629 0.709252 0.503726
0.825392 0.716132 0.509034
0.881290 0.721386 0.513041
0.341337 0.746115 0.487349
0.391234 0.751408 0.491450
0.453250 0.757818 0.496410
0.532090 0.765722 0.502510
0.623783 0.774591 0.509322
0.699972 0.781706 0.514757
0.772225 0.788245 0.519724
0.843335 0.794486 0.524437
0.898183 0.799186 0.527927
0.357886 0.811400 0.501818
0.407459 0.816319 0.505572
0.469047 0.822269 0.510106
0.547327 0.829594 0.515666
0.638355 0.837792 0.521856
0.713984 0.844352 0.526776
0.785702 0.850365 0.531256
0.856282 0.856088 0.535490
0.911460 0.860431 0.538652
0.220783 0.201039 0.424304
0.267292 0.203235 0.425827
0.325509 0.206260 0.428017
0.400179 0.210551 0.431242
0.487942 0.216141 0.435583
0.561614 0.221264 0.439657
0.632109 0.226517 0.443906
0.702085 0.232058 0.448450
0.758749 0.236777 0.452360
0.225630 0.245233 0.429380
0.272594 0.247954 0.431418
0.331426 0.251630 0.434244
0.406913 0.256745 0.438272
0.495654 0.263294 0.443542
0.570154 0.269217 0.448387
0.641441 0.275231 0.453365
0.712206 0.281525 0.458627
0.769508 0.286852 0.463114
0.234347 0.305174 0.438283
0.281934 0.308595 0.440991
0.341590 0.313133 0.444643
0.418161 0.319341 0.449713
0.508189 0.327160 0.456188
0.583774 0.334137 0.462031
0.656101 0.341153 0.467954
0.727896 0.348437 0.474145
0.786030 0.354561 0.479378
0.249916 0.388646 0.453930
0.298386 0.393008 0.457526
0.359178 0.398707 0.462269
0.437223 0.406380 0.468714
0.528986 0.415897 0.476779
0.606025 0.424283 0.483937
0.679739 0.432637 0.491105
0.752907 0.441238 0.498519
0.812173 0.448285 0.504374
0.273505 0.491060 0.477394
0.323090 0.496528 0.482019
0.385268 0.503586 0.488025
0.465076 0.512973 0.496059
0.558890 0.524250 0.505437
0.637082 0.533385 0.512773
0.711261 0.541839 0.519540
0.784288 0.549964 0.526021
0.842985 0.556355 0.531103
0.297574 0.580861 0.501183
0.348150 0.587024 0.506122
0.411113 0.594504 0.512088
0.491225 0.603761 0.519458
0.584447 0.614197 0.527739
0.661931 0.622611 0.534390
0.735427 0.630381 0.540509
0.807773 0.637833 0.546353
0.865570 0.643656 0.550897
0.321957 0.666757 0.522825
0.372195 0.672456 0.527306
0.434668 0.679367 0.532736
0.514114 0.687904 0.539427
0.606530 0.697506 0.546924
0.683329 0.705228 0.552925
0.756166 0.712342 0.558428
0.827856 0.719148 0.563668
0.883108 0.724299 0.567576
0.344044 0.749434 0.542258
0.393904 0.754673 0.546310
0.455865 0.761017 0.551209
0.534632 0.768837 0.557231
0.626234 0.777610 0.563954
0.702347 0.784645 0.569315
0.774525 0.791109 0.574213
0.845562 0.797275 0.578857
0.899951 0.801885 0.582261
0.360416 0.814537 0.556557
0.409948 0.819403 0.560261
0.471480 0.825286 0.564733
0.549683 0.832527 0.570217
0.640619 0.840628 0.576317
0.716170 0.847107 0.581162
0.787813 0.853045 0.585572
0.858318 0.858693 0.589738
0.913188 0.862957 0.592826
0.221809 0.202703 0.476480
0.268400 0.204989 0.478089
0.326726 0.208125 0.480386
0.401537 0.212554 0.483745
0.489467 0.218305 0.488241
0.563280 0.223561 0.492445
0.633908 0.228939 0.496815
0.704017 0.234604 0.501478
0.760789 0.239423 0.505484
0.226918 0.247163 0.481807
0.273969 0.249975 0.483932
0.332913 0.253763 0.486865
0.408545 0.259019 0.491028
0.497455 0.265731 0.496454
0.572098 0.271789 0.501428
0.643521 0.277931 0.506529
0.714421 0.284351 0.511910
0.771831 0.289779 0.516494
0.235974 0.307451 0.491034
0.283653 0.310964 0.493831
0.343425 0.315616 0.497590
0.420145 0.321967 0.502796
0.510348 0.329951 0.509428
0.586078 0.337065 0.515400
0.658543 0.344211 0.521446
0.730474 0.351622 0.527757
0.788718 0.357848 0.533087
0.251986 0.391383 0.507108
0.300557 0.395840 0.510793
0.361472 0.401654 0.515644
0.439671 0.409473 0.522226
0.531613 0.419157 0.530448
0.608801 0.427682 0.537737
0.682656 0.436167 0.545028
0.755970 0.444890 0.552536
0.815269 0.451866 0.558180
0.276085 0.494331 0.531063
0.325781 0.499896 0.535778
0.388089 0.507071 0.541893
0.468058 0.516605 0.550065
0.561950 0.527834 0.559233
0.640072 0.536893 0.566498
0.714183 0.545275 0.573197
0.787142 0.553329 0.579612
0.845783 0.559663 0.584640
0.300608 0.584506 0.555047
0.351163 0.590614 0.559915
0.414080 0.598031 0.565823
0.494126 0.607208 0.573117
0.587265 0.617551 0.581312
0.664677 0.625889 0.587892
0.738104 0.633586 0.593943
0.810379 0.640966 0.599720
0.867384 0.646675 0.604155
0.324782 0.670180 0.576455
0.374987 0.675827 0.580889
0.437410 0.682674 0.586260
0.516787 0.691130 0.592876
0.609117 0.700639 0.600286
0.685843 0.708284 0.606215
0.758609 0.715325 0.611651
0.830228 0.722059 0.616824
0.884873 0.727109 0.620637
0.346654 0.752638 0.595682
0.396477 0.757826 0.599686
0.458386 0.764105 0.604526
0.537080 0.771845 0.610473
0.628595 0.780523 0.617108
0.704632 0.787480 0.622397
0.776738 0.793870 0.627227
0.847703 0.799964 0.631804
0.901667 0.804487 0.635127
0.362853 0.817565 0.609815
0.412345 0.822378 0.613471
0.473821 0.828197 0.617883
0.551951 0.835356 0.623291
0.642797 0.843363 0.629304
0.718272 0.849764 0.634077
0.789841 0.855627 0.638419
0.860274 0.861203 0.642517
0.914864 0.865392 0.645535
0.222954 0.204532 0.532370
0.269635 0.206914 0.534072
0.328077 0.210168 0.536483
0.403041 0.214747 0.539987
0.491149 0.220669 0.544649
0.565113 0.226067 0.548990
0.635885 0.231580 0.553490
0.706137 0.237378 0.558281
0.763023 0.242303 0.562390
0.228345 0.249276 0.537966
0.275490 0.252187 0.540185
0.334554 0.256094 0.543232
0.410341 0.261502 0.547540
0.499434 0.268389 0.553133
0.574230 0.274591 0.558245
0.645799 0.280869 0.563477
0.716843 0.287424 0.568987
0.774370 0.292960 0.573673
0.237763 0.309936 0.547541
0.285542 0.313548 0.550431
0.345440 0.318323 0.554306
0.422320 0.324827 0.559658
0.512709 0.332988 0.566457
0.588595 0.340249 0.572568
0.661208 0.347533 0.578746
0.733285 0.355080 0.585186
0.791647 0.361416 0.590619
0.254250 0.394362 0.564071
0.302929 0.398920 0.567851
0.363977 0.404858 0.572819
0.442342 0.412832 0.579547
0.534477 0.422696 0.587938
0.611824 0.431370 0.595366
0.685830 0.439995 0.602788
0.759314 0.448756 0.610156
0.818555 0.455672 0.615743
0.278896 0.497882 0.588552
0.328710 0.503550 0.593363
0.391159 0.510851 0.599595
0.471316 0.520528 0.607856
0.565197 0.531642 0.616785
0.643244 0.540620 0.623974
0.717282 0.548925 0.630600
0.790167 0.556903 0.636944
0.848749 0.563176 0.641915
0.303836 0.588375 0.612647
0.354361 0.594429 0.617465
0.417229 0.601778 0.623309
0.497203 0.610869 0.630524
0.590252 0.621113 0.638626
0.667588 0.629369 0.645129
0.740939 0.636988 0.651107
0.813140 0.644291 0.656814
0.869318 0.649880 0.661134
0.327779 0.673815 0.633831
0.377949 0.679407 0.638214
0.440318 0.686186 0.643521
0.519620 0.694556 0.650057
0.611858 0.703964 0.657374
0.688505 0.711526 0.663226
0.761195 0.718489 0.668589
0.832738 0.725146 0.673690
0.886755 0.730091 0.677404
0.349422 0.756041 0.652836
0.399205 0.761172 0.656788
0.461056 0.767383 0.661565
0.539672 0.775035 0.667431
0.631092 0.783613 0.673974
0.707049 0.790487 0.679186
0.779078 0.796797 0.683942
0.849966 0.802813 0.688448
0.903498 0.807247 0.691686
0.365434 0.820778 0.666791
0.414883 0.825535 0.670395
0.476300 0.831285 0.674744
0.554349 0.838356 0.680071
0.645099 0.846262 0.685990
0.720492 0.852579 0.690687
0.791983 0.858363 0.694955
0.862338 0.863861 0.698982
0.916653 0.867971 0.701926
0.224144 0.206402 0.588027
0.270915 0.208879 0.589822
0.329473 0.212251 0.592347
0.404588 0.216978 0.595994
0.492876 0.223071 0.600822
0.566989 0.228611 0.605299
0.637905 0.234258 0.609929
0.708299 0.240187 0.614848
0.765300 0.245218 0.619058
0.229815 0.251429 0.593891
0.277054 0.254437 0.596203
0.336238 0.258464 0.599365
0.412180 0.264022 0.603817
0.501456 0.271083 0.609577
0.576403 0.277429 0.614826
0.648118 0.283843 0.620187
0.719305 0.290532 0.625825
0.776948 0.296175 0.630614
0.239593 0.312460 0.603812
0.287473 0.316171 0.606797
0.347496 0.321066 0.610787
0.424535 0.327724 0.616283
0.515111 0.336061 0.623249
0.591152 0.343467 0.629498
0.663912 0.350890 0.635806
0.736135 0.358573 0.642374
0.794615 0.365018 0.647911
0.256553 0.397377 0.620797
0.305341 0.402035 0.624672
0.366521 0.408097 0.629756
0.445051 0.416226 0.636629
0.537378 0.426268 0.645188
0.614884 0.435090 0.652754
0.689041 0.443856 0.660308
0.762612 0.452574 0.667460
0.821794 0.459431 0.672992
0.281743 0.501468 0.645801
0.331676 0.507238 0.650708
0.394265 0.514664 0.657057
0.474604 0.524386 0.665186
0.568399 0.535403 0.674023
0.646371 0.544300 0.681135
0.720337 0.552528 0.687690
0.793148 0.560430 0.693963
0.851670 0.566642 0.698877
0.307021 0.592197 0.669932
0.357516 0.598196 0.674699
0.420333 0.605478 0.680481
0.500236 0.614484 0.687617
0.593196 0.624629 0.695627
0.670454 0.632803 0.702053
0.743732 0.640344 0.707959
0.815858 0.647572 0.713594
0.871237 0.653043 0.717803
0.330733 0.677403 0.690892
0.380867 0.682941 0.695224
0.443183 0.689651 0.700468
0.522410 0.697935 0.706925
0.614556 0.707244 0.714149
0.691124 0.714724 0.719925
0.763738 0.721608 0.725216
0.835206 0.728188 0.730246
0.888621 0.733030 0.733861
0.352147 0.759397 0.709678
0.401890 0.764473 0.713579
0.463684 0.770615 0.718292
0.542223 0.778181 0.724078
0.633549 0.786658 0.730528
0.709425 0.793449 0.735663
0.781377 0.799681 0.740347
0.852188 0.805620 0.744781
0.905312 0.809965 0.747936
0.367975 0.823946 0.723455
0.417381 0.828647 0.727008
0.478738 0.834328 0.731293
0.556707 0.841312 0.736539
0.647360 0.849117 0.742366
0.722672 0.855351 0.746986
0.794085 0.861056 0.751182
0.864362 0.866477 0.755137
0.918426 0.870510 0.758010
