Fotico/Resources/LUTs/mate.cube
# Mate
LUT_3D_SIZE 17
0.197600 0.187600 0.177600
0.240194 0.187600 0.177600
0.282481 0.187600 0.177600
0.324547 0.187600 0.177600
0.366439 0.187600 0.177600
0.408188 0.187600 0.177600
0.449817 0.187600 0.177600
0.491340 0.187600 0.177600
0.532770 0.187600 0.177600
0.574118 0.187600 0.177600
0.615390 0.187600 0.177600
0.656593 0.187600 0.177600
0.697733 0.187600 0.177600
0.738815 0.187600 0.177600
0.779842 0.187600 0.177600
0.820818 0.187600 0.177600
0.861746 0.187600 0.177600
0.197600 0.230194 0.177600
0.240194 0.230194 0.177600
0.282481 0.230194 0.177600
0.324547 0.230194 0.177600
0.366439 0.230194 0.177600
0.408188 0.230194 0.177600
0.449817 0.230194 0.177600
0.491340 0.230194 0.177600
0.532770 0.230194 0.177600
0.574118 0.230194 0.177600
0.615390 0.230194 0.177600
0.656593 0.230194 0.177600
0.697733 0.230194 0.177600
0.738815 0.230194 0.177600
0.779842 0.230194 0.177600
0.820818 0.230194 0.177600
0.861746 0.230194 0.177600
0.197600 0.272481 0.177600
0.240194 0.272481 0.177600
0.282481 0.272481 0.177600
0.324547 0.272481 0.177600
0.366439 0.272481 0.177600
0.408188 0.272481 0.177600
0.449817 0.272481 0.177600
0.491340 0.272481 0.177600
0.532770 0.272481 0.177600
0.574118 0.272481 0.177600
0.615390 0.272481 0.177600
0.656593 0.272481 0.177600
0.697733 0.272481 0.177600
0.738815 0.272481 0.177600
0.779842 0.272481 0.177600
0.820818 0.272481 0.177600
0.861746 0.272481 0.177600
0.197600 0.314547 0.177600
0.240194 0.314547 0.177600
0.282481 0.314547 0.177600
0.324547 0.314547 0.177600
0.366439 0.314547 0.177600
0.408188 0.314547 0.177600
0.449817 0.314547 0.177600
0.491340 0.314547 0.177600
0.532770 0.314547 0.177600
0.574118 0.314547 0.177600
0.615390 0.314547 0.177600
0.656593 0.314547 0.177600
0.697733 0.314547 0.177600
0.738815 0.314547 0.177600
0.779842 0.314547 0.177600
0.820818 0.314547 0.177600
0.861746 0.314547 0.177600
0.197600 0.356439 0.177600
0.240194 0.356439 0.177600
0.282481 0.356439 0.177600
0.324547 0.356439 0.177600
0.366439 0.356439 0.177600
0.408188 0.356439 0.177600
0.449817 0.356439 0.177600
0.491340 0.356439 0.177600
0.532770 0.356439 0.177600
0.574118 0.356439 0.177600
0.615390 0.356439 0.177600
0.656593 0.356439 0.177600
0.697733 0.356439 0.177600
0.738815 0.356439 0.177600
0.779842 0.356439 0.177600
0.820818 0.356439 0.177600
0.861746 0.356439 0.177600
0.197600 0.398188 0.177600
0.240194 0.398188 0.177600
0.282481 0.398188 0.177600
0.324547 0.398188 0.177600
0.366439 0.398188 0.177600
0.408188 0.398188 0.177600
0.449817 0.398188 0.177600
0.491340 0.398188 0.177600
0.532770 0.398188 0.177600
0.574118 0.398188 0.177600
0.615390 0.398188 0.177600
0.656593 0.398188 0.177600
0.697733 0.398188 0.177600
0.738815 0.398188 0.177600
0.779842 0.398188 0.177600
0.820818 0.398188 0.177600
0.861746 0.398188 0.177600
0.197600 0.439817 0.177600
0.240194 0.439817 0.177600
0.282481 0.439817 0.177600
0.324547 0.439817 0.177600
0.366439 0.439817 0.177600
0.408188 0.439817 0.177600
0.449817 0.439817 0.177600
0.491340 0.439817 0.177600
0.532770 0.439817 0.177600
0.574118 0.439817 0.177600
0.615390 0.439817 0.177600
0.656593 0.439817 0.177600
0.697733 0.439817 0.177600
0.738815 0.439817 0.177600
0.779842 0.439817 0.177600
0.820818 0.439817 0.177600
0.861746 0.439817 0.177600
0.197600 0.481340 0.177600
0.240194 0.481340 0.177600
0.282481 0.481340 0.177600
0.324547 0.481340 0.177600
0.366439 0.481340 0.177600
0.408188 0.481340 0.177600
0.449817 0.481340 0.177600
0.491340 0.481340 0.177600
0.532770 0.481340 0.177600
0.574118 0.481340 0.177600
0.615390 0.481340 0.177600
0.656593 0.481340 0.177600
0.697733 0.481340 0.177600
0.738815 0.481340 0.177600
0.779842 0.481340 0.177600
0.820818 0.481340 0.177600
0.861746 0.481340 0.177600
0.197600 0.522770 0.177600
0.240194 0.522770 0.177600
0.282481 0.522770 0.177600
0.324547 0.522770 0.177600
0.366439 0.522770 0.177600
0.408188 0.522770 0.177600
0.449817 0.522770 0.177600
0.491340 0.522770 0.177600
0.532770 0.522770 0.177600
0.574118 0.522770 0.177600
0.615390 0.522770 0.177600
0.656593 0.522770 0.177600
0.697733 0.522770 0.177600
0.738815 0.522770 0.177600
0.779842 0.522770 0.177600
0.820818 0.522770 0.177600
0.861746 0.522770 0.177600
0.197600 0.564118 0.177600
0.240194 0.564118 0.177600
0.282481 0.564118 0.177600
0.324547 0.564118 0.177600
0.366439 0.564118 0.177600
0.408188 0.564118 0.177600
0.449817 0.564118 0.177600
0.491340 0.564118 0.177600
0.532770 0.564118 0.177600
0.574118 0.564118 0.177600
0.615390 0.564118 0.177600
0.656593 0.564118 0.177600
0.697733 0.564118 0.177600
0.738815 0.564118 0.177600
0.779842 0.564118 0.177600
0.820818 0.564118 0.177600
0.861746 0.564118 0.177600
0.197600 0.605390 0.177600
0.240194 0.605390 0.177600
0.282481 0.605390 0.177600
0.324547 0.605390 0.177600
0.366439 0.605390 0.177600
0.408188 0.605390 0.177600
0.449817 0.605390 0.177600
0.491340 0.605390 0.177600
0.532770 0.605390 0.177600
0.574118 0.605390 0.177600
0.615390 0.605390 0.177600
0.656593 0.605390 0.177600
0.697733 0.605390 0.177600
0.738815 0.605390 0.177600
0.779842 0.605390 0.177600
0.820818 0.605390 0.177600
0.861746 0.605390 0.177600
0.197600 0.646593 0.177600
0.240194 0.646593 0.177600
0.282481 0.646593 0.177600
0.324547 0.646593 0.177600
0.366439 0.646593 0.177600
0.408188 0.646593 0.177600
0.449817 0.646593 0.177600
0.491340 0.646593 0.177600
0.532770 0.646593 0.177600
0.574118 0.646593 0.177600
0.615390 0.646593 0.177600
0.656593 0.646593 0.177600
0.697733 0.646593 0.177600
0.738815 0.646593 0.177600
0.779842 0.646593 0.177600
0.820818 0.646593 0.177600
0.861746 0.646593 0.177600
0.197600 0.687733 0.177600
0.240194 0.687733 0.177600
0.282481 0.687733 0.177600
0.324547 0.687733 0.177600
0.366439 0.687733 0.177600
0.408188 0.687733 0.177600
0.449817 0.687733 0.177600
0.491340 0.687733 0.177600
0.532770 0.687733 0.177600
0.574118 0.687733 0.177600
0.615390 0.687733 0.177600
0.656593 0.687733 0.177600
0.697733 0.687733 0.177600
0.738815 0.687733 0.177600
0.779842 0.687733 0.177600
0.820818 0.687733 0.177600
0.861746 0.687733 0.177600
0.197600 0.728815 0.177600
0.240194 0.728815 0.177600
0.282481 0.728815 0.177600
0.324547 0.728815 0.177600
0.366439 0.728815 0.177600
0.408188 0.728815 0.177600
0.449817 0.728815 0.177600
0.491340 0.728815 0.177600
0.532770 0.728815 0.177600
0.574118 0.728815 0.177600
0.615390 0.728815 0.177600
0.656593 0.728815 0.177600
0.697733 0.728815 0.177600
0.738815 0.728815 0.177600
0.779842 0.728815 0.177600
0.820818 0.728815 0.177600
0.861746 0.728815 0.177600
0.197600 0.769842 0.177600
0.240194 0.769842 0.177600
0.282481 0.769842 0.177600
0.324547 0.769842 0.177600
0.366439 0.769842 0.177600
0.408188 0.769842 0.177600
0.449817 0.769842 0.177600
0.491340 0.769842 0.177600
0.532770 0.769842 0.177600
0.574118 0.769842 0.177600
0.615390 0.769842 0.177600
0.656593 0.769842 0.177600
0.697733 0.769842 0.177600
0.738815 0.769842 0.177600
0.779842 0.769842 0.177600
0.820818 0.769842 0.177600
0.861746 0.769842 0.177600
0.197600 0.810818 0.177600
0.240194 0.810818 0.177600
0.282481 0.810818 0.177600
0.324547 0.810818 0.177600
0.366439 0.810818 0.177600
0.408188 0.810818 0.177600
0.449817 0.810818 0.177600
0.491340 0.810818 0.177600
0.532770 0.810818 0.177600
0.574118 0.810818 0.177600
0.615390 0.810818 0.177600
0.656593 0.810818 0.177600
0.697733 0.810818 0.177600
0.738815 0.810818 0.177600
0.779842 0.810818 0.177600
0.820818 0.810818 0.177600
0.861746 0.810818 0.177600
0.197600 0.851746 0.177600
0.240194 0.851746 0.177600
0.282481 0.851746 0.177600
0.324547 0.851746 0.177600
0.366439 0.851746 0.177600
0.408188 0.851746 0.177600
0.449817 0.851746 0.177600
0.491340 0.851746 0.177600
0.532770 0.851746 0.177600
0.574118 0.851746 0.177600
0.615390 0.851746 0.177600
0.656593 0.851746 0.177600
0.697733 0.851746 0.177600
0.738815 0.851746 0.177600
0.779842 0.851746 0.177600
0.820818 0.851746 0.177600
0.861746 0.851746 0.177600
0.197600 0.187600 0.220194
0.240194 0.187600 0.220194
0.282481 0.187600 0.220194
0.324547 0.187600 0.220194
0.366439 0.187600 0.220194
0.408188 0.187600 0.220194
0.449817 0.187600 0.220194
0.491340 0.187600 0.220194
0.532770 0.187600 0.220194
0.574118 0.187600 0.220194
0.615390 0.187600 0.220194
0.656593 0.187600 0.220194
0.697733 0.187600 0.220194
0.738815 0.187600 0.220194
0.779842 0.187600 0.220194
0.820818 0.187600 0.220194
0.861746 0.187600 0.220194
0.197600 0.230194 0.220194
0.240194 0.230194 0.220194
0.282481 0.230194 0.220194
0.324547 0.230194 0.220194
0.366439 0.230194 0.220194
0.408188 0.230194 0.220194
0.449817 0.230194 0.220194
0.491340 0.230194 0.220194
0.532770 0.230194 0.220194
0.574118 0.230194 0.220194
0.615390 0.230194 0.220194
0.656593 0.230194 0.220194
0.697733 0.230194 0.220194
0.738815 0.230194 0.220194
0.779842 0.230194 0.220194
0.820818 0.230194 0.220194
0.861746 0.230194 0.220194
0.197600 0.272481 0.220194
0.240194 0.272481 0.220194
0.282481 0.272481 0.220194
0.324547 0.272481 0.220194
0.366439 0.272481 0.220194
0.408188 0.272481 0.220194
0.449817 0.272481 0.220194
0.491340 0.272481 0.220194
0.532770 0.272481 0.220194
0.574118 0.272481 0.220194
0.615390 0.272481 0.220194
0.656593 0.272481 0.220194
0.697733 0.272481 0.220194
0.738815 0.272481 0.220194
0.779842 0.272481 0.220194
0.820818 0.272481 0.220194
0.861746 0.272481 0.220194
0.197600 0.314547 0.220194
0.240194 0.314547 0.220194
0.282481 0.314547 0.220194
0.324547 0.314547 0.220194
0.366439 0.314547 0.220194
0.408188 0.314547 0.220194
0.449817 0.314547 0.220194
0.491340 0.314547 0.220194
0.532770 0.314547 0.220194
0.574118 0.314547 0.220194
0.615390 0.314547 0.220194
0.656593 0.314547 0.220194
0.697733 0.314547 0.220194
0.738815 0.314547 0.220194
0.779842 0.314547 0.220194
0.820818 0.314547 0.220194
0.861746 0.314547 0.220194
0.197600 0.356439 0.220194
0.240194 0.356439 0.220194
0.282481 0.356439 0.220194
0.324547 0.356439 0.220194
0.366439 0.356439 0.220194
0.408188 0.356439 0.220194
0.449817 0.356439 0.220194
0.491340 0.356439 0.220194
0.532770 0.356439 0.220194
0.574118 0.356439 0.220194
0.615390 0.356439 0.220194
0.656593 0.356439 0.220194
0.697733 0.356439 0.220194
0.738815 0.356439 0.220194
0.779842 0.356439 0.220194
0.820818 0.356439 0.220194
0.861746 0.356439 0.220194
0.197600 0.398188 0.220194
0.240194 0.398188 0.220194
0.282481 0.398188 0.220194
0.324547 0.398188 0.220194
0.366439 0.398188 0.220194
0.408188 0.398188 0.220194
0.449817 0.398188 0.220194
0.491340 0.398188 0.220194
0.532770 0.398188 0.220194
0.574118 0.398188 0.220194
0.615390 0.398188 0.220194
0.656593 0.398188 0.220194
0.697733 0.398188 0.220194
0.738815 0.398188 0.220194
0.779842 0.398188 0.220194
0.820818 0.398188 0.220194
0.861746 0.398188 0.220194
0.197600 0.439817 0.220194
0.240194 0.439817 0.220194
0.282481 0.439817 0.220194
0.324547 0.439817 0.220194
0.366439 0.439817 0.220194
0.408188 0.439817 0.220194
0.449817 0.439817 0.220194
0.491340 0.439817 0.220194
0.532770 0.439817 0.220194
0.574118 0.439817 0.220194
0.615390 0.439817 0.220194
0.656593 0.439817 0.220194
0.697733 0.439817 0.220194
0.738815 0.439817 0.220194
0.779842 0.439817 0.220194
0.820818 0.439817 0.220194
0.861746 0.439817 0.220194
0.197600 0.481340 0.220194
0.240194 0.481340 0.220194
0.282481 0.481340 0.220194
0.324547 0.481340 0.220194
0.366439 0.481340 0.220194
0.408188 0.481340 0.220194
0.449817 0.481340 0.220194
0.491340 0.481340 0.220194
0.532770 0.481340 0.220194
0.574118 0.481340 0.220194
0.615390 0.481340 0.220194
0.656593 0.481340 0.220194
0.697733 0.481340 0.220194
0.738815 0.481340 0.220194
0.779842 0.481340 0.220194
0.820818 0.481340 0.220194
0.861746 0.481340 0.220194
0.197600 0.522770 0.220194
0.240194 0.522770 0.220194
0.282481 0.522770 0.220194
0.324547 0.522770 0.220194
0.366439 0.522770 0.220194
0.408188 0.522770 0.220194
0.449817 0.522770 0.220194
0.491340 0.522770 0.220194
0.532770 0.522770 0.220194
0.574118 0.522770 0.220194
0.615390 0.522770 0.220194
0.656593 0.522770 0.220194
0.697733 0.522770 0.220194
0.738815 0.522770 0.220194
0.779842 0.522770 0.220194
0.820818 0.522770 0.220194
0.861746 0.522770 0.220194
0.197600 0.564118 0.220194
0.240194 0.564118 0.220194
0.282481 0.564118 0.220194
0.324547 0.564118 0.220194
0.366439 0.564118 0.220194
0.408188 0.564118 0.220194
0.449817 0.564118 0.220194
0.491340 0.564118 0.220194
0.532770 0.564118 0.220194
0.574118 0.564118 0.220194
0.615390 0.564118 0.220194
0.656593 0.564118 0.220194
0.697733 0.564118 0.220194
0.738815 0.564118 0.220194
0.779842 0.564118 0.220194
0.820818 0.564118 0.220194
0.861746 0.564118 0.220194
0.197600 0.605390 0.220194
0.240194 0.605390 0.220194
0.282481 0.605390 0.220194
0.324547 0.605390 0.220194
0.366439 0.605390 0.220194
0.408188 0.605390 0.220194
0.449817 0.605390 0.220194
0.491340 0.605390 0.220194
0.532770 0.605390 0.220194
0.574118 0.605390 0.220194
0.615390 0.605390 0.220194
0.656593 0.605390 0.220194
0.697733 0.605390 0.220194
0.738815 0.605390 0.220194
0.779842 0.605390 0.220194
0.820818 0.605390 0.220194
0.861746 0.605390 0.220194
0.197600 0.646593 0.220194
0.240194 0.646593 0.220194
0.282481 0.646593 0.220194
0.324547 0.646593 0.220194
0.366439 0.646593 0.220194
0.408188 0.646593 0.220194
0.449817 0.646593 0.220194
0.491340 0.646593 0.220194
0.532770 0.646593 0.220194
0.574118 0.646593 0.220194
0.615390 0.646593 0.220194
0.656593 0.646593 0.220194
0.697733 0.646593 0.220194
0.738815 0.646593 0.220194
0.779842 0.646593 0.220194
0.820818 0.646593 0.220194
0.861746 0.646593 0.220194
0.197600 0.687733 0.220194
0.240194 0.687733 0.220194
0.282481 0.687733 0.220194
0.324547 0.687733 0.220194
0.366439 0.687733 0.220194
0.408188 0.687733 0.220194
0.449817 0.687733 0.220194
0.491340 0.687733 0.220194
0.532770 0.687733 0.220194
0.574118 0.687733 0.220194
0.615390 0.687733 0.220194
0.656593 0.687733 0.220194
0.697733 0.687733 0.220194
0.738815 0.687733 0.220194
0.779842 0.687733 0.220194
0.820818 0.687733 0.220194
0.861746 0.687733 0.220194
0.197600 0.728815 0.220194
0.240194 0.728815 0.220194
0.282481 0.728815 0.220194
0.324547 0.728815 0.220194
0.366439 0.728815 0.220194
0.408188 0.728815 0.220194
0.449817 0.728815 0.220194
0.491340 0.728815 0.220194
0.532770 0.728815 0.220194
0.574118 0.728815 0.220194
0.615390 0.728815 0.220194
0.656593 0.728815 0.220194
0.697733 0.728815 0.220194
0.738815 0.728815 0.220194
0.779842 0.728815 0.220194
0.820818 0.728815 0.220194
0.861746 0.728815 0.220194
0.197600 0.769842 0.220194
0.240194 0.769842 0.220194
0.282481 0.769842 0.220194
0.324547 0.769842 0.220194
0.366439 0.769842 0.220194
0.408188 0.769842 0.220194
0.449817 0.769842 0.220194
0.491340 0.769842 0.220194
0.532770 0.769842 0.220194
0.574118 0.769842 0.220194
0.615390 0.769842 0.220194
0.656593 0.769842 0.220194
0.697733 0.769842 0.220194
0.738815 0.769842 0.220194
0.779842 0.769842 0.220194
0.820818 0.769842 0.220194
0.861746 0.769842 0.220194
0.197600 0.810818 0.220194
0.240194 0.810818 0.220194
0.282481 0.810818 0.220194
0.324547 0.810818 0.220194
0.366439 0.810818 0.220194
0.408188 0.810818 0.220194
0.449817 0.810818 0.220194
0.491340 0.810818 0.220194
0.532770 0.810818 0.220194
0.574118 0.810818 0.220194
0.615390 0.810818 0.220194
0.656593 0.810818 0.220194
0.697733 0.810818 0.220194
0.738815 0.810818 0.220194
0.779842 0.810818 0.220194
0.820818 0.810818 0.220194
0.861746 0.810818 0.220194
0.197600 0.851746 0.220194
0.240194 0.851746 0.220194
0.282481 0.851746 0.220194
0.324547 0.851746 0.220194
0.366439 0.851746 0.220194
0.408188 0.851746 0.220194
0.449817 0.851746 0.220194
0.491340 0.851746 0.220194
0.532770 0.851746 0.220194
0.574118 0.851746 0.220194
0.615390 0.851746 0.220194
0.656593 0.851746 0.220194
0.697733 0.851746 0.220194
0.738815 0.851746 0.220194
0.779842 0.851746 0.220194
0.820818 0.851746 0.220194
0.861746 0.851746 0.220194
0.197600 0.187600 0.262481
0.240194 0.187600 0.262481
0.282481 0.187600 0.262481
0.324547 0.187600 0.262481
0.366439 0.187600 0.262481
0.408188 0.187600 0.262481
0.449817 0.187600 0.262481
0.491340 0.187600 0.262481
0.532770 0.187600 0.262481
0.574118 0.187600 0.262481
0.615390 0.187600 0.262481
0.656593 0.187600 0.262481
0.697733 0.187600 0.262481
0.738815 0.187600 0.262481
0.779842 0.187600 0.262481
0.820818 0.187600 0.262481
0.861746 0.187600 0.262481
0.197600 0.230194 0.262481
0.240194 0.230194 0.262481
0.282481 0.230194 0.262481
0.324547 0.230194 0.262481
0.366439 0.230194 0.262481
0.408188 0.230194 0.262481
0.449817 0.230194 0.262481
0.491340 0.230194 0.262481
0.532770 0.230194 0.262481
0.574118 0.230194 0.262481
0.615390 0.230194 0.262481
0.656593 0.230194 0.262481
0.697733 0.230194 0.262481
0.738815 0.230194 0.262481
0.779842 0.230194 0.262481
0.820818 0.230194 0.262481
0.861746 0.230194 0.262481
0.197600 0.272481 0.262481
0.240194 0.272481 0.262481
0.282481 0.272481 0.262481
0.324547 0.272481 0.262481
0.366439 0.272481 0.262481
0.408188 0.272481 0.262481
0.449817 0.272481 0.262481
0.491340 0.272481 0.262481
0.532770 0.272481 0.262481
0.574118 0.272481 0.262481
0.615390 0.272481 0.262481
0.656593 0.272481 0.262481
0.697733 0.272481 0.262481
0.738815 0.272481 0.262481
0.779842 0.272481 0.262481
0.820818 0.272481 0.262481
0.861746 0.272481 0.262481
0.197600 0.314547 0.262481
0.240194 0.314547 0.262481
0.282481 0.314547 0.262481
0.324547 0.314547 0.262481
0.366439 0.314547 0.262481
0.408188 0.314547 0.262481
0.449817 0.314547 0.262481
0.491340 0.314547 0.262481
0.532770 0.314547 0.262481
0.574118 0.314547 0.262481
0.615390 0.314547 0.262481
0.656593 0.314547 0.262481
0.697733 0.314547 0.262481
0.738815 0.314547 0.262481
0.779842 0.314547 0.262481
0.820818 0.314547 0.262481
0.861746 0.314547 0.262481
0.197600 0.356439 0.262481
0.240194 0.356439 0.262481
0.282481 0.356439 0.262481
0.324547 0.356439 0.262481
0.366439 0.356439 0.262481
0.408188 0.356439 0.262481
0.449817 0.356439 0.262481
0.491340 0.356439 0.262481
0.532770 0.356439 0.262481
0.574118 0.356439 0.262481
0.615390 0.356439 0.262481
0.656593 0.356439 0.262481
0.697733 0.356439 0.262481
0.738815 0.356439 0.262481
0.779842 0.356439 0.262481
0.820818 0.356439 0.262481
0.861746 0.356439 0.262481
0.197600 0.398188 0.262481
0.240194 0.398188 0.262481
0.282481 0.398188 0.262481
0.324547 0.398188 0.262481
0.366439 0.398188 0.262481
0.408188 0.398188 0.262481
0.449817 0.398188 0.262481
0.491340 0.398188 0.262481
0.532770 0.398188 0.262481
0.574118 0.398188 0.262481
0.615390 0.398188 0.262481
0.656593 0.398188 0.262481
0.697733 0.398188 0.262481
0.738815 0.398188 0.262481
0.779842 0.398188 0.262481
0.820818 0.398188 0.262481
0.861746 0.398188 0.262481
0.197600 0.439817 0.262481
0.240194 0.439817 0.262481
0.282481 0.439817 0.262481
0.324547 0.439817 0.262481
0.366439 0.439817 0.262481
0.408188 0.439817 0.262481
0.449817 0.439817 0.262481
0.491340 0.439817 0.262481
0.532770 0.439817 0.262481
0.574118 0.439817 0.262481
0.615390 0.439817 0.262481
0.656593 0.439817 0.262481
0.697733 0.439817 0.262481
0.738815 0.439817 0.262481
0.779842 0.439817 0.262481
0.820818 0.439817 0.262481
0.861746 0.439817 0.262481
0.197600 0.481340 0.262481
0.240194 0.481340 0.262481
0.282481 0.481340 0.262481
0.324547 0.481340 0.262481
0.366439 0.481340 0.262481
0.408188 0.481340 0.262481
0.449817 0.481340 0.262481
0.491340 0.481340 0.262481
0.532770 0.481340 0.262481
0.574118 0.481340 0.262481
0.615390 0.481340 0.262481
0.656593 0.481340 0.262481
0.697733 0.481340 0.262481
0.738815 0.481340 0.262481
0.779842 0.481340 0.262481
0.820818 0.481340 0.262481
0.861746 0.481340 0.262481
0.197600 0.522770 0.262481
0.240194 0.522770 0.262481
0.282481 0.522770 0.262481
0.324547 0.522770 0.262481
0.366439 0.522770 0.262481
0.408188 0.522770 0.262481
0.449817 0.522770 0.262481
0.491340 0.522770 0.262481
0.532770 0.522770 0.262481
0.574118 0.522770 0.262481
0.615390 0.522770 0.262481
0.656593 0.522770 0.262481
0.697733 0.522770 0.262481
0.738815 0.522770 0.262481
0.779842 0.522770 0.262481
0.820818 0.522770 0.262481
0.861746 0.522770 0.262481
0.197600 0.564118 0.262481
0.240194 0.564118 0.262481
0.282481 0.564118 0.262481
0.324547 0.564118 0.262481
0.366439 0.564118 0.262481
0.408188 0.564118 0.262481
0.449817 0.564118 0.262481
0.491340 0.564118 0.262481
0.532770 0.564118 0.262481
0.574118 0.564118 0.262481
0.615390 0.564118 0.262481
0.656593 0.564118 0.262481
0.697733 0.564118 0.262481
0.738815 0.564118 0.262481
0.779842 0.564118 0.262481
0.820818 0.564118 0.262481
0.861746 0.564118 0.262481
0.197600 0.605390 0.262481
0.240194 0.605390 0.262481
0.282481 0.605390 0.262481
0.324547 0.605390 0.262481
0.366439 0.605390 0.262481
0.408188 0.605390 0.262481
0.449817 0.605390 0.262481
0.491340 0.605390 0.262481
0.532770 0.605390 0.262481
0.574118 0.605390 0.262481
0.615390 0.605390 0.262481
0.656593 0.605390 0.262481
0.697733 0.605390 0.262481
0.738815 0.605390 0.262481
0.779842 0.605390 0.262481
0.820818 0.605390 0.262481
0.861746 0.605390 0.262481
0.197600 0.646593 0.262481
0.240194 0.646593 0.262481
0.282481 0.646593 0.262481
0.324547 0.646593 0.262481
0.366439 0.646593 0.262481
0.408188 0.646593 0.262481
0.449817 0.646593 0.262481
0.491340 0.646593 0.262481
0.532770 0.646593 0.262481
0.574118 0.646593 0.262481
0.615390 0.646593 0.262481
0.656593 0.646593 0.262481
0.697733 0.646593 0.262481
0.738815 0.646593 0.262481
0.779842 0.646593 0.262481
0.820818 0.646593 0.262481
0.861746 0.646593 0.262481
0.197600 0.687733 0.262481
0.240194 0.687733 0.262481
0.282481 0.687733 0.262481
0.324547 0.687733 0.262481
0.366439 0.687733 0.262481
0.408188 0.687733 0.262481
0.449817 0.687733 0.262481
0.491340 0.687733 0.262481
0.532770 0.687733 0.262481
0.574118 0.687733 0.262481
0.615390 0.687733 0.262481
0.656593 0.687733 0.262481
0.697733 0.687733 0.262481
0.738815 0.687733 0.262481
0.779842 0.687733 0.262481
0.820818 0.687733 0.262481
0.861746 0.687733 0.262481
0.197600 0.728815 0.262481
0.240194 0.728815 0.262481
0.282481 0.728815 0.262481
0.324547 0.728815 0.262481
0.366439 0.728815 0.262481
0.408188 0.728815 0.262481
0.449817 0.728815 0.262481
0.491340 0.728815 0.262481
0.532770 0.728815 0.262481
0.574118 0.728815 0.262481
0.615390 0.728815 0.262481
0.656593 0.728815 0.262481
0.697733 0.728815 0.262481
0.738815 0.728815 0.262481
0.779842 0.728815 0.262481
0.820818 0.728815 0.262481
0.861746 0.728815 0.262481
0.197600 0.769842 0.262481
0.240194 0.769842 0.262481
0.282481 0.769842 0.262481
0.324547 0.769842 0.262481
0.366439 0.769842 0.262481
0.408188 0.769842 0.262481
0.449817 0.769842 0.262481
0.491340 0.769842 0.262481
0.532770 0.769842 0.262481
0.574118 0.769842 0.262481
0.615390 0.769842 0.262481
0.656593 0.769842 0.262481
0.697733 0.769842 0.262481
0.738815 0.769842 0.262481
0.779842 0.769842 0.262481
0.820818 0.769842 0.262481
0.861746 0.769842 0.262481
0.197600 0.810818 0.262481
0.240194 0.810818 0.262481
0.282481 0.810818 0.262481
0.324547 0.810818 0.262481
0.366439 0.810818 0.262481
0.408188 0.810818 0.262481
0.449817 0.810818 0.262481
0.491340 0.810818 0.262481
0.532770 0.810818 0.262481
0.574118 0.810818 0.262481
0.615390 0.810818 0.262481
0.656593 0.810818 0.262481
0.697733 0.810818 0.262481
0.738815 0.810818 0.262481
0.779842 0.810818 0.262481
0.820818 0.810818 0.262481
0.861746 0.810818 0.262481
0.197600 0.851746 0.262481
0.240194 0.851746 0.262481
0.282481 0.851746 0.262481
0.324547 0.851746 0.262481
0.366439 0.851746 0.262481
0.408188 0.851746 0.262481
0.449817 0.851746 0.262481
0.491340 0.851746 0.262481
0.532770 0.851746 0.262481
0.574118 0.851746 0.262481
0.615390 0.851746 0.262481
0.656593 0.851746 0.262481
0.697733 0.851746 0.262481
0.738815 0.851746 0.262481
0.779842 0.851746 0.262481
0.820818 0.851746 0.262481
0.861746 0.851746 0.262481
0.197600 0.187600 0.304547
0.240194 0.187600 0.304547
0.282481 0.187600 0.304547
0.324547 0.187600 0.304547
0.366439 0.187600 0.304547
0.408188 0.187600 0.304547
0.449817 0.187600 0.304547
0.491340 0.187600 0.304547
0.532770 0.187600 0.304547
0.574118 0.187600 0.304547
0.615390 0.187600 0.304547
0.656593 0.187600 0.304547
0.697733 0.187600 0.304547
0.738815 0.187600 0.304547
0.779842 0.187600 0.304547
0.820818 0.187600 0.304547
0.861746 0.187600 0.304547
0.197600 0.230194 0.304547
0.240194 0.230194 0.304547
0.282481 0.230194 0.304547
0.324547 0.230194 0.304547
