Fotico/Resources/LUTs/mate.cube
# Mate
LUT_3D_SIZE 9
0.197600 0.187600 0.177600
0.282481 0.187600 0.177600
0.366439 0.187600 0.177600
0.449817 0.187600 0.177600
0.532770 0.187600 0.177600
0.615390 0.187600 0.177600
0.697733 0.187600 0.177600
0.779842 0.187600 0.177600
0.861746 0.187600 0.177600
0.197600 0.272481 0.177600
0.282481 0.272481 0.177600
0.366439 0.272481 0.177600
0.449817 0.272481 0.177600
0.532770 0.272481 0.177600
0.615390 0.272481 0.177600
0.697733 0.272481 0.177600
0.779842 0.272481 0.177600
0.861746 0.272481 0.177600
0.197600 0.356439 0.177600
0.282481 0.356439 0.177600
0.366439 0.356439 0.177600
0.449817 0.356439 0.177600
0.532770 0.356439 0.177600
0.615390 0.356439 0.177600
0.697733 0.356439 0.177600
0.779842 0.356439 0.177600
0.861746 0.356439 0.177600
0.197600 0.439817 0.177600
0.282481 0.439817 0.177600
0.366439 0.439817 0.177600
0.449817 0.439817 0.177600
0.532770 0.439817 0.177600
0.615390 0.439817 0.177600
0.697733 0.439817 0.177600
0.779842 0.439817 0.177600
0.861746 0.439817 0.177600
0.197600 0.522770 0.177600
0.282481 0.522770 0.177600
0.366439 0.522770 0.177600
0.449817 0.522770 0.177600
0.532770 0.522770 0.177600
0.615390 0.522770 0.177600
0.697733 0.522770 0.177600
0.779842 0.522770 0.177600
0.861746 0.522770 0.177600
0.197600 0.605390 0.177600
0.282481 0.605390 0.177600
0.366439 0.605390 0.177600
0.449817 0.605390 0.177600
0.532770 0.605390 0.177600
0.615390 0.605390 0.177600
0.697733 0.605390 0.177600
0.779842 0.605390 0.177600
0.861746 0.605390 0.177600
0.197600 0.687733 0.177600
0.282481 0.687733 0.177600
0.366439 0.687733 0.177600
0.449817 0.687733 0.177600
0.532770 0.687733 0.177600
0.615390 0.687733 0.177600
0.697733 0.687733 0.177600
0.779842 0.687733 0.177600
0.861746 0.687733 0.177600
0.197600 0.769842 0.177600
0.282481 0.769842 0.177600
0.366439 0.769842 0.177600
0.449817 0.769842 0.177600
0.532770 0.769842 0.177600
0.615390 0.769842 0.177600
0.697733 0.769842 0.177600
0.779842 0.769842 0.177600
0.861746 0.769842 0.177600
0.197600 0.851746 0.177600
0.282481 0.851746 0.177600
0.366439 0.851746 0.177600
0.449817 0.851746 0.177600
0.532770 0.851746 0.177600
0.615390 0.851746 0.177600
0.697733 0.851746 0.177600
0.779842 0.851746 0.177600
0.861746 0.851746 0.177600
0.197600 0.187600 0.262481
0.282481 0.187600 0.262481
0.366439 0.187600 0.262481
0.449817 0.187600 0.262481
0.532770 0.187600 0.262481
0.615390 0.187600 0.262481
0.697733 0.187600 0.262481
0.779842 0.187600 0.262481
0.861746 0.187600 0.262481
0.197600 0.272481 0.262481
0.282481 0.272481 0.262481
0.366439 0.272481 0.262481
0.449817 0.272481 0.262481
0.532770 0.272481 0.262481
0.615390 0.272481 0.262481
0.697733 0.272481 0.262481
0.779842 0.272481 0.262481
0.861746 0.272481 0.262481
0.197600 0.356439 0.262481
0.282481 0.356439 0.262481
0.366439 0.356439 0.262481
0.449817 0.356439 0.262481
0.532770 0.356439 0.262481
0.615390 0.356439 0.262481
0.697733 0.356439 0.262481
0.779842 0.356439 0.262481
0.861746 0.356439 0.262481
0.197600 0.439817 0.262481
0.282481 0.439817 0.262481
0.366439 0.439817 0.262481
0.449817 0.439817 0.262481
0.532770 0.439817 0.262481
0.615390 0.439817 0.262481
0.697733 0.439817 0.262481
0.779842 0.439817 0.262481
0.861746 0.439817 0.262481
0.197600 0.522770 0.262481
0.282481 0.522770 0.262481
0.366439 0.522770 0.262481
0.449817 0.522770 0.262481
0.532770 0.522770 0.262481
0.615390 0.522770 0.262481
0.697733 0.522770 0.262481
0.779842 0.522770 0.262481
0.861746 0.522770 0.262481
0.197600 0.605390 0.262481
0.282481 0.605390 0.262481
0.366439 0.605390 0.262481
0.449817 0.605390 0.262481
0.532770 0.605390 0.262481
0.615390 0.605390 0.262481
0.697733 0.605390 0.262481
0.779842 0.605390 0.262481
0.861746 0.605390 0.262481
0.197600 0.687733 0.262481
0.282481 0.687733 0.262481
0.366439 0.687733 0.262481
0.449817 0.687733 0.262481
0.532770 0.687733 0.262481
0.615390 0.687733 0.262481
0.697733 0.687733 0.262481
0.779842 0.687733 0.262481
0.861746 0.687733 0.262481
0.197600 0.769842 0.262481
0.282481 0.769842 0.262481
0.366439 0.769842 0.262481
0.449817 0.769842 0.262481
0.532770 0.769842 0.262481
0.615390 0.769842 0.262481
0.697733 0.769842 0.262481
0.779842 0.769842 0.262481
0.861746 0.769842 0.262481
0.197600 0.851746 0.262481
0.282481 0.851746 0.262481
0.366439 0.851746 0.262481
0.449817 0.851746 0.262481
0.532770 0.851746 0.262481
0.615390 0.851746 0.262481
0.697733 0.851746 0.262481
0.779842 0.851746 0.262481
0.861746 0.851746 0.262481
0.197600 0.187600 0.346439
0.282481 0.187600 0.346439
0.366439 0.187600 0.346439
0.449817 0.187600 0.346439
0.532770 0.187600 0.346439
0.615390 0.187600 0.346439
0.697733 0.187600 0.346439
0.779842 0.187600 0.346439
0.861746 0.187600 0.346439
0.197600 0.272481 0.346439
0.282481 0.272481 0.346439
0.366439 0.272481 0.346439
0.449817 0.272481 0.346439
0.532770 0.272481 0.346439
0.615390 0.272481 0.346439
0.697733 0.272481 0.346439
0.779842 0.272481 0.346439
0.861746 0.272481 0.346439
0.197600 0.356439 0.346439
0.282481 0.356439 0.346439
0.366439 0.356439 0.346439
0.449817 0.356439 0.346439
0.532770 0.356439 0.346439
0.615390 0.356439 0.346439
0.697733 0.356439 0.346439
0.779842 0.356439 0.346439
0.861746 0.356439 0.346439
0.197600 0.439817 0.346439
0.282481 0.439817 0.346439
0.366439 0.439817 0.346439
0.449817 0.439817 0.346439
0.532770 0.439817 0.346439
0.615390 0.439817 0.346439
0.697733 0.439817 0.346439
0.779842 0.439817 0.346439
0.861746 0.439817 0.346439
0.197600 0.522770 0.346439
0.282481 0.522770 0.346439
0.366439 0.522770 0.346439
0.449817 0.522770 0.346439
0.532770 0.522770 0.346439
0.615390 0.522770 0.346439
0.697733 0.522770 0.346439
0.779842 0.522770 0.346439
0.861746 0.522770 0.346439
0.197600 0.605390 0.346439
0.282481 0.605390 0.346439
0.366439 0.605390 0.346439
0.449817 0.605390 0.346439
0.532770 0.605390 0.346439
0.615390 0.605390 0.346439
0.697733 0.605390 0.346439
0.779842 0.605390 0.346439
0.861746 0.605390 0.346439
0.197600 0.687733 0.346439
0.282481 0.687733 0.346439
0.366439 0.687733 0.346439
0.449817 0.687733 0.346439
0.532770 0.687733 0.346439
0.615390 0.687733 0.346439
0.697733 0.687733 0.346439
0.779842 0.687733 0.346439
0.861746 0.687733 0.346439
0.197600 0.769842 0.346439
0.282481 0.769842 0.346439
0.366439 0.769842 0.346439
0.449817 0.769842 0.346439
0.532770 0.769842 0.346439
0.615390 0.769842 0.346439
0.697733 0.769842 0.346439
0.779842 0.769842 0.346439
0.861746 0.769842 0.346439
0.197600 0.851746 0.346439
0.282481 0.851746 0.346439
0.366439 0.851746 0.346439
0.449817 0.851746 0.346439
0.532770 0.851746 0.346439
0.615390 0.851746 0.346439
0.697733 0.851746 0.346439
0.779842 0.851746 0.346439
0.861746 0.851746 0.346439
0.197600 0.187600 0.429817
0.282481 0.187600 0.429817
0.366439 0.187600 0.429817
0.449817 0.187600 0.429817
0.532770 0.187600 0.429817
0.615390 0.187600 0.429817
0.697733 0.187600 0.429817
0.779842 0.187600 0.429817
0.861746 0.187600 0.429817
0.197600 0.272481 0.429817
0.282481 0.272481 0.429817
0.366439 0.272481 0.429817
0.449817 0.272481 0.429817
0.532770 0.272481 0.429817
0.615390 0.272481 0.429817
0.697733 0.272481 0.429817
0.779842 0.272481 0.429817
0.861746 0.272481 0.429817
0.197600 0.356439 0.429817
0.282481 0.356439 0.429817
0.366439 0.356439 0.429817
0.449817 0.356439 0.429817
0.532770 0.356439 0.429817
0.615390 0.356439 0.429817
0.697733 0.356439 0.429817
0.779842 0.356439 0.429817
0.861746 0.356439 0.429817
0.197600 0.439817 0.429817
0.282481 0.439817 0.429817
0.366439 0.439817 0.429817
0.449817 0.439817 0.429817
0.532770 0.439817 0.429817
0.615390 0.439817 0.429817
0.697733 0.439817 0.429817
0.779842 0.439817 0.429817
0.861746 0.439817 0.429817
0.197600 0.522770 0.429817
0.282481 0.522770 0.429817
0.366439 0.522770 0.429817
0.449817 0.522770 0.429817
0.532770 0.522770 0.429817
0.615390 0.522770 0.429817
0.697733 0.522770 0.429817
0.779842 0.522770 0.429817
0.861746 0.522770 0.429817
0.197600 0.605390 0.429817
0.282481 0.605390 0.429817
0.366439 0.605390 0.429817
0.449817 0.605390 0.429817
0.532770 0.605390 0.429817
0.615390 0.605390 0.429817
0.697733 0.605390 0.429817
0.779842 0.605390 0.429817
0.861746 0.605390 0.429817
0.197600 0.687733 0.429817
0.282481 0.687733 0.429817
0.366439 0.687733 0.429817
0.449817 0.687733 0.429817
0.532770 0.687733 0.429817
0.615390 0.687733 0.429817
0.697733 0.687733 0.429817
0.779842 0.687733 0.429817
0.861746 0.687733 0.429817
0.197600 0.769842 0.429817
0.282481 0.769842 0.429817
0.366439 0.769842 0.429817
0.449817 0.769842 0.429817
0.532770 0.769842 0.429817
0.615390 0.769842 0.429817
0.697733 0.769842 0.429817
0.779842 0.769842 0.429817
0.861746 0.769842 0.429817
0.197600 0.851746 0.429817
0.282481 0.851746 0.429817
0.366439 0.851746 0.429817
0.449817 0.851746 0.429817
0.532770 0.851746 0.429817
0.615390 0.851746 0.429817
0.697733 0.851746 0.429817
0.779842 0.851746 0.429817
0.861746 0.851746 0.429817
0.197600 0.187600 0.512770
0.282481 0.187600 0.512770
0.366439 0.187600 0.512770
0.449817 0.187600 0.512770
0.532770 0.187600 0.512770
0.615390 0.187600 0.512770
0.697733 0.187600 0.512770
0.779842 0.187600 0.512770
0.861746 0.187600 0.512770
0.197600 0.272481 0.512770
0.282481 0.272481 0.512770
0.366439 0.272481 0.512770
0.449817 0.272481 0.512770
0.532770 0.272481 0.512770
0.615390 0.272481 0.512770
0.697733 0.272481 0.512770
0.779842 0.272481 0.512770
0.861746 0.272481 0.512770
0.197600 0.356439 0.512770
0.282481 0.356439 0.512770
0.366439 0.356439 0.512770
0.449817 0.356439 0.512770
0.532770 0.356439 0.512770
0.615390 0.356439 0.512770
0.697733 0.356439 0.512770
0.779842 0.356439 0.512770
0.861746 0.356439 0.512770
0.197600 0.439817 0.512770
0.282481 0.439817 0.512770
0.366439 0.439817 0.512770
0.449817 0.439817 0.512770
0.532770 0.439817 0.512770
0.615390 0.439817 0.512770
0.697733 0.439817 0.512770
0.779842 0.439817 0.512770
0.861746 0.439817 0.512770
0.197600 0.522770 0.512770
0.282481 0.522770 0.512770
0.366439 0.522770 0.512770
0.449817 0.522770 0.512770
0.532770 0.522770 0.512770
0.615390 0.522770 0.512770
0.697733 0.522770 0.512770
0.779842 0.522770 0.512770
0.861746 0.522770 0.512770
0.197600 0.605390 0.512770
0.282481 0.605390 0.512770
0.366439 0.605390 0.512770
0.449817 0.605390 0.512770
0.532770 0.605390 0.512770
0.615390 0.605390 0.512770
0.697733 0.605390 0.512770
0.779842 0.605390 0.512770
0.861746 0.605390 0.512770
0.197600 0.687733 0.512770
0.282481 0.687733 0.512770
0.366439 0.687733 0.512770
0.449817 0.687733 0.512770
0.532770 0.687733 0.512770
0.615390 0.687733 0.512770
0.697733 0.687733 0.512770
0.779842 0.687733 0.512770
0.861746 0.687733 0.512770
0.197600 0.769842 0.512770
0.282481 0.769842 0.512770
0.366439 0.769842 0.512770
0.449817 0.769842 0.512770
0.532770 0.769842 0.512770
0.615390 0.769842 0.512770
0.697733 0.769842 0.512770
0.779842 0.769842 0.512770
0.861746 0.769842 0.512770
0.197600 0.851746 0.512770
0.282481 0.851746 0.512770
0.366439 0.851746 0.512770
0.449817 0.851746 0.512770
0.532770 0.851746 0.512770
0.615390 0.851746 0.512770
0.697733 0.851746 0.512770
0.779842 0.851746 0.512770
0.861746 0.851746 0.512770
0.197600 0.187600 0.595390
0.282481 0.187600 0.595390
0.366439 0.187600 0.595390
0.449817 0.187600 0.595390
0.532770 0.187600 0.595390
0.615390 0.187600 0.595390
0.697733 0.187600 0.595390
0.779842 0.187600 0.595390
0.861746 0.187600 0.595390
0.197600 0.272481 0.595390
0.282481 0.272481 0.595390
0.366439 0.272481 0.595390
0.449817 0.272481 0.595390
0.532770 0.272481 0.595390
0.615390 0.272481 0.595390
0.697733 0.272481 0.595390
0.779842 0.272481 0.595390
0.861746 0.272481 0.595390
0.197600 0.356439 0.595390
0.282481 0.356439 0.595390
0.366439 0.356439 0.595390
0.449817 0.356439 0.595390
0.532770 0.356439 0.595390
0.615390 0.356439 0.595390
0.697733 0.356439 0.595390
0.779842 0.356439 0.595390
0.861746 0.356439 0.595390
0.197600 0.439817 0.595390
0.282481 0.439817 0.595390
0.366439 0.439817 0.595390
0.449817 0.439817 0.595390
0.532770 0.439817 0.595390
0.615390 0.439817 0.595390
0.697733 0.439817 0.595390
0.779842 0.439817 0.595390
0.861746 0.439817 0.595390
0.197600 0.522770 0.595390
0.282481 0.522770 0.595390
0.366439 0.522770 0.595390
0.449817 0.522770 0.595390
0.532770 0.522770 0.595390
0.615390 0.522770 0.595390
0.697733 0.522770 0.595390
0.779842 0.522770 0.595390
0.861746 0.522770 0.595390
0.197600 0.605390 0.595390
0.282481 0.605390 0.595390
0.366439 0.605390 0.595390
0.449817 0.605390 0.595390
0.532770 0.605390 0.595390
0.615390 0.605390 0.595390
0.697733 0.605390 0.595390
0.779842 0.605390 0.595390
0.861746 0.605390 0.595390
0.197600 0.687733 0.595390
0.282481 0.687733 0.595390
0.366439 0.687733 0.595390
0.449817 0.687733 0.595390
0.532770 0.687733 0.595390
0.615390 0.687733 0.595390
0.697733 0.687733 0.595390
0.779842 0.687733 0.595390
0.861746 0.687733 0.595390
0.197600 0.769842 0.595390
0.282481 0.769842 0.595390
0.366439 0.769842 0.595390
0.449817 0.769842 0.595390
0.532770 0.769842 0.595390
0.615390 0.769842 0.595390
0.697733 0.769842 0.595390
0.779842 0.769842 0.595390
0.861746 0.769842 0.595390
0.197600 0.851746 0.595390
0.282481 0.851746 0.595390
0.366439 0.851746 0.595390
0.449817 0.851746 0.595390
0.532770 0.851746 0.595390
0.615390 0.851746 0.595390
0.697733 0.851746 0.595390
0.779842 0.851746 0.595390
0.861746 0.851746 0.595390
0.197600 0.187600 0.677733
0.282481 0.187600 0.677733
0.366439 0.187600 0.677733
0.449817 0.187600 0.677733
0.532770 0.187600 0.677733
0.615390 0.187600 0.677733
0.697733 0.187600 0.677733
0.779842 0.187600 0.677733
0.861746 0.187600 0.677733
0.197600 0.272481 0.677733
0.282481 0.272481 0.677733
0.366439 0.272481 0.677733
0.449817 0.272481 0.677733
0.532770 0.272481 0.677733
0.615390 0.272481 0.677733
0.697733 0.272481 0.677733
0.779842 0.272481 0.677733
0.861746 0.272481 0.677733
0.197600 0.356439 0.677733
0.282481 0.356439 0.677733
0.366439 0.356439 0.677733
0.449817 0.356439 0.677733
0.532770 0.356439 0.677733
0.615390 0.356439 0.677733
0.697733 0.356439 0.677733
0.779842 0.356439 0.677733
0.861746 0.356439 0.677733
0.197600 0.439817 0.677733
0.282481 0.439817 0.677733
0.366439 0.439817 0.677733
0.449817 0.439817 0.677733
0.532770 0.439817 0.677733
0.615390 0.439817 0.677733
0.697733 0.439817 0.677733
0.779842 0.439817 0.677733
0.861746 0.439817 0.677733
0.197600 0.522770 0.677733
0.282481 0.522770 0.677733
0.366439 0.522770 0.677733
0.449817 0.522770 0.677733
0.532770 0.522770 0.677733
0.615390 0.522770 0.677733
0.697733 0.522770 0.677733
0.779842 0.522770 0.677733
0.861746 0.522770 0.677733
0.197600 0.605390 0.677733
0.282481 0.605390 0.677733
0.366439 0.605390 0.677733
0.449817 0.605390 0.677733
0.532770 0.605390 0.677733
0.615390 0.605390 0.677733
0.697733 0.605390 0.677733
0.779842 0.605390 0.677733
0.861746 0.605390 0.677733
0.197600 0.687733 0.677733
0.282481 0.687733 0.677733
0.366439 0.687733 0.677733
0.449817 0.687733 0.677733
0.532770 0.687733 0.677733
0.615390 0.687733 0.677733
0.697733 0.687733 0.677733
0.779842 0.687733 0.677733
0.861746 0.687733 0.677733
0.197600 0.769842 0.677733
0.282481 0.769842 0.677733
0.366439 0.769842 0.677733
0.449817 0.769842 0.677733
0.532770 0.769842 0.677733
0.615390 0.769842 0.677733
0.697733 0.769842 0.677733
0.779842 0.769842 0.677733
0.861746 0.769842 0.677733
0.197600 0.851746 0.677733
0.282481 0.851746 0.677733
0.366439 0.851746 0.677733
0.449817 0.851746 0.677733
0.532770 0.851746 0.677733
0.615390 0.851746 0.677733
0.697733 0.851746 0.677733
0.779842 0.851746 0.677733
0.861746 0.851746 0.677733
0.197600 0.187600 0.759842
0.282481 0.187600 0.759842
0.366439 0.187600 0.759842
0.449817 0.187600 0.759842
0.532770 0.187600 0.759842
0.615390 0.187600 0.759842
0.697733 0.187600 0.759842
0.779842 0.187600 0.759842
0.861746 0.187600 0.759842
0.197600 0.272481 0.759842
0.282481 0.272481 0.759842
0.366439 0.272481 0.759842
0.449817 0.272481 0.759842
0.532770 0.272481 0.759842
0.615390 0.272481 0.759842
0.697733 0.272481 0.759842
0.779842 0.272481 0.759842
0.861746 0.272481 0.759842
0.197600 0.356439 0.759842
0.282481 0.356439 0.759842
0.366439 0.356439 0.759842
0.449817 0.356439 0.759842
0.532770 0.356439 0.759842
0.615390 0.356439 0.759842
0.697733 0.356439 0.759842
0.779842 0.356439 0.759842
0.861746 0.356439 0.759842
0.197600 0.439817 0.759842
0.282481 0.439817 0.759842
0.366439 0.439817 0.759842
0.449817 0.439817 0.759842
0.532770 0.439817 0.759842
0.615390 0.439817 0.759842
0.697733 0.439817 0.759842
0.779842 0.439817 0.759842
0.861746 0.439817 0.759842
0.197600 0.522770 0.759842
0.282481 0.522770 0.759842
0.366439 0.522770 0.759842
0.449817 0.522770 0.759842
0.532770 0.522770 0.759842
0.615390 0.522770 0.759842
0.697733 0.522770 0.759842
0.779842 0.522770 0.759842
0.861746 0.522770 0.759842
0.197600 0.605390 0.759842
0.282481 0.605390 0.759842
0.366439 0.605390 0.759842
0.449817 0.605390 0.759842
0.532770 0.605390 0.759842
0.615390 0.605390 0.759842
0.697733 0.605390 0.759842
0.779842 0.605390 0.759842
0.861746 0.605390 0.759842
0.197600 0.687733 0.759842
0.282481 0.687733 0.759842
0.366439 0.687733 0.759842
0.449817 0.687733 0.759842
0.532770 0.687733 0.759842
0.615390 0.687733 0.759842
0.697733 0.687733 0.759842
0.779842 0.687733 0.759842
0.861746 0.687733 0.759842
0.197600 0.769842 0.759842
0.282481 0.769842 0.759842
0.366439 0.769842 0.759842
0.449817 0.769842 0.759842
0.532770 0.769842 0.759842
0.615390 0.769842 0.759842
0.697733 0.769842 0.759842
0.779842 0.769842 0.759842
0.861746 0.769842 0.759842
0.197600 0.851746 0.759842
0.282481 0.851746 0.759842
0.366439 0.851746 0.759842
0.449817 0.851746 0.759842
0.532770 0.851746 0.759842
0.615390 0.851746 0.759842
0.697733 0.851746 0.759842
0.779842 0.851746 0.759842
0.861746 0.851746 0.759842
0.197600 0.187600 0.841746
0.282481 0.187600 0.841746
0.366439 0.187600 0.841746
0.449817 0.187600 0.841746
0.532770 0.187600 0.841746
0.615390 0.187600 0.841746
0.697733 0.187600 0.841746
0.779842 0.187600 0.841746
0.861746 0.187600 0.841746
0.197600 0.272481 0.841746
0.282481 0.272481 0.841746
0.366439 0.272481 0.841746
0.449817 0.272481 0.841746
0.532770 0.272481 0.841746
0.615390 0.272481 0.841746
0.697733 0.272481 0.841746
0.779842 0.272481 0.841746
0.861746 0.272481 0.841746
0.197600 0.356439 0.841746
0.282481 0.356439 0.841746
0.366439 0.356439 0.841746
0.449817 0.356439 0.841746
0.532770 0.356439 0.841746
0.615390 0.356439 0.841746
0.697733 0.356439 0.841746
0.779842 0.356439 0.841746
0.861746 0.356439 0.841746
0.197600 0.439817 0.841746
0.282481 0.439817 0.841746
0.366439 0.439817 0.841746
0.449817 0.439817 0.841746
0.532770 0.439817 0.841746
0.615390 0.439817 0.841746
0.697733 0.439817 0.841746
0.779842 0.439817 0.841746
0.861746 0.439817 0.841746
0.197600 0.522770 0.841746
0.282481 0.522770 0.841746
0.366439 0.522770 0.841746
0.449817 0.522770 0.841746
0.532770 0.522770 0.841746
0.615390 0.522770 0.841746
0.697733 0.522770 0.841746
0.779842 0.522770 0.841746
0.861746 0.522770 0.841746
0.197600 0.605390 0.841746
0.282481 0.605390 0.841746
0.366439 0.605390 0.841746
0.449817 0.605390 0.841746
0.532770 0.605390 0.841746
0.615390 0.605390 0.841746
0.697733 0.605390 0.841746
0.779842 0.605390 0.841746
0.861746 0.605390 0.841746
0.197600 0.687733 0.841746
0.282481 0.687733 0.841746
0.366439 0.687733 0.841746
0.449817 0.687733 0.841746
0.532770 0.687733 0.841746
0.615390 0.687733 0.841746
0.697733 0.687733 0.841746
0.779842 0.687733 0.841746
0.861746 0.687733 0.841746
0.197600 0.769842 0.841746
0.282481 0.769842 0.841746
0.366439 0.769842 0.841746
0.449817 0.769842 0.841746
0.532770 0.769842 0.841746
0.615390 0.769842 0.841746
0.697733 0.769842 0.841746
0.779842 0.769842 0.841746
0.861746 0.769842 0.841746
0.197600 0.851746 0.841746
0.282481 0.851746 0.841746
0.366439 0.851746 0.841746
0.449817 0.851746 0.841746
0.532770 0.851746 0.841746
0.615390 0.851746 0.841746
0.697733 0.851746 0.841746
0.779842 0.851746 0.841746
0.861746 0.851746 0.841746
