Fotico/Resources/LUTs/mate.cube
# Mate
LUT_3D_SIZE 5
0.197600 0.187600 0.177600
0.366439 0.187600 0.177600
0.532770 0.187600 0.177600
0.697733 0.187600 0.177600
0.861746 0.187600 0.177600
0.197600 0.356439 0.177600
0.366439 0.356439 0.177600
0.532770 0.356439 0.177600
0.697733 0.356439 0.177600
0.861746 0.356439 0.177600
0.197600 0.522770 0.177600
0.366439 0.522770 0.177600
0.532770 0.522770 0.177600
0.697733 0.522770 0.177600
0.861746 0.522770 0.177600
0.197600 0.687733 0.177600
0.366439 0.687733 0.177600
0.532770 0.687733 0.177600
0.697733 0.687733 0.177600
0.861746 0.687733 0.177600
0.197600 0.851746 0.177600
0.366439 0.851746 0.177600
0.532770 0.851746 0.177600
0.697733 0.851746 0.177600
0.861746 0.851746 0.177600
0.197600 0.187600 0.346439
0.366439 0.187600 0.346439
0.532770 0.187600 0.346439
0.697733 0.187600 0.346439
0.861746 0.187600 0.346439
0.197600 0.356439 0.346439
0.366439 0.356439 0.346439
0.532770 0.356439 0.346439
0.697733 0.356439 0.346439
0.861746 0.356439 0.346439
0.197600 0.522770 0.346439
0.366439 0.522770 0.346439
0.532770 0.522770 0.346439
0.697733 0.522770 0.346439
0.861746 0.522770 0.346439
0.197600 0.687733 0.346439
0.366439 0.687733 0.346439
0.532770 0.687733 0.346439
0.697733 0.687733 0.346439
0.861746 0.687733 0.346439
0.197600 0.851746 0.346439
0.366439 0.851746 0.346439
0.532770 0.851746 0.346439
0.697733 0.851746 0.346439
0.861746 0.851746 0.346439
0.197600 0.187600 0.512770
0.366439 0.187600 0.512770
0.532770 0.187600 0.512770
0.697733 0.187600 0.512770
0.861746 0.187600 0.512770
0.197600 0.356439 0.512770
0.366439 0.356439 0.512770
0.532770 0.356439 0.512770
0.697733 0.356439 0.512770
0.861746 0.356439 0.512770
0.197600 0.522770 0.512770
0.366439 0.522770 0.512770
0.532770 0.522770 0.512770
0.697733 0.522770 0.512770
0.861746 0.522770 0.512770
0.197600 0.687733 0.512770
0.366439 0.687733 0.512770
0.532770 0.687733 0.512770
0.697733 0.687733 0.512770
0.861746 0.687733 0.512770
0.197600 0.851746 0.512770
0.366439 0.851746 0.512770
0.532770 0.851746 0.512770
0.697733 0.851746 0.512770
0.861746 0.851746 0.512770
0.197600 0.187600 0.677733
0.366439 0.187600 0.677733
0.532770 0.187600 0.677733
0.697733 0.187600 0.677733
0.861746 0.187600 0.677733
0.197600 0.356439 0.677733
0.366439 0.356439 0.677733
0.532770 0.356439 0.677733
0.697733 0.356439 0.677733
0.861746 0.356439 0.677733
0.197600 0.522770 0.677733
0.366439 0.522770 0.677733
0.532770 0.522770 0.677733
0.697733 0.522770 0.677733
0.861746 0.522770 0.677733
0.197600 0.687733 0.677733
0.366439 0.687733 0.677733
0.532770 0.687733 0.677733
0.697733 0.687733 0.677733
0.861746 0.687733 0.677733
0.197600 0.851746 0.677733
0.366439 0.851746 0.677733
0.532770 0.851746 0.677733
0.697733 0.851746 0.677733
0.861746 0.851746 0.677733
0.197600 0.187600 0.841746
0.366439 0.187600 0.841746
0.532770 0.187600 0.841746
0.697733 0.187600 0.841746
0.861746 0.187600 0.841746
0.197600 0.356439 0.841746
0.366439 0.356439 0.841746
0.532770 0.356439 0.841746
0.697733 0.356439 0.841746
0.861746 0.356439 0.841746
0.197600 0.522770 0.841746
0.366439 0.522770 0.841746
0.532770 0.522770 0.841746
0.697733 0.522770 0.841746
0.861746 0.522770 0.841746
0.197600 0.687733 0.841746
0.366439 0.687733 0.841746
0.532770 0.687733 0.841746
0.697733 0.687733 0.841746
0.861746 0.687733 0.841746
0.197600 0.851746 0.841746
0.366439 0.851746 0.841746
0.532770 0.851746 0.841746
0.697733 0.851746 0.841746
0.861746 0.851746 0.841746
