Fotico/Resources/LUTs/miel.cube
# Miel
LUT_3D_SIZE 17
0.038078 0.020400 0.000000
0.101168 0.022069 0.000000
0.165547 0.023734 0.000000
0.230695 0.025394 0.000369
0.296390 0.027045 0.004201
0.362504 0.028685 0.007917
0.428955 0.030310 0.011590
0.495683 0.031918 0.015242
0.562640 0.033506 0.018883
0.629792 0.035071 0.022521
0.697106 0.036610 0.026162
0.764559 0.038122 0.029809
0.832126 0.039602 0.033466
0.899790 0.041049 0.037138
0.967531 0.042460 0.040826
1.000000 0.043832 0.044534
1.000000 0.045164 0.048264
0.048667 0.088471 0.001792
0.112006 0.090119 0.005561
0.176480 0.091753 0.009257
0.241653 0.093373 0.012921
0.307328 0.094974 0.016568
0.373387 0.096553 0.020208
0.439752 0.098109 0.023846
0.506366 0.099639 0.027488
0.573185 0.101139 0.031139
0.640174 0.102608 0.034801
0.707303 0.104042 0.038479
0.774548 0.105439 0.042174
0.841887 0.106797 0.045889
0.909303 0.108113 0.049628
0.976777 0.109385 0.053391
1.000000 0.110611 0.057182
1.000000 0.111789 0.061002
0.059117 0.156433 0.014250
0.122598 0.158026 0.017894
0.187087 0.159598 0.021532
0.252214 0.161144 0.025171
0.317799 0.162664 0.028816
0.383735 0.164153 0.032471
0.449948 0.165609 0.036138
0.516383 0.167030 0.039822
0.583000 0.168413 0.043524
0.649763 0.169756 0.047247
0.716646 0.171056 0.050995
0.783624 0.172312 0.054768
0.850677 0.173521 0.058569
0.917788 0.174680 0.062400
0.984941 0.175789 0.066263
1.000000 0.176844 0.070159
1.000000 0.177845 0.074090
0.069204 0.224176 0.026497
0.132729 0.225684 0.030145
0.197157 0.227162 0.033804
0.262166 0.228605 0.037477
0.327595 0.230013 0.041167
0.393343 0.231382 0.044877
0.459340 0.232709 0.048609
0.525536 0.233994 0.052365
0.591890 0.235233 0.056148
0.658370 0.236424 0.059960
0.724950 0.237565 0.063803
0.791607 0.238654 0.067677
0.858322 0.239690 0.071586
0.925078 0.240670 0.075530
0.991860 0.241593 0.079512
1.000000 0.242457 0.083531
1.000000 0.243261 0.087590
0.078715 0.291597 0.038818
0.142194 0.292991 0.042515
0.206487 0.294345 0.046233
0.271312 0.295657 0.049973
0.336521 0.296925 0.053739
0.402020 0.298147 0.057533
0.467743 0.299320 0.061356
0.533642 0.300443 0.065210
0.599679 0.301513 0.069096
0.665824 0.302528 0.073018
0.732051 0.303488 0.076975
0.798340 0.304390 0.080971
0.864671 0.305232 0.085004
0.931029 0.306013 0.089078
0.997399 0.306732 0.093193
1.000000 0.307388 0.097350
1.000000 0.307979 0.101550
0.087450 0.358599 0.051341
0.150800 0.359850 0.055117
0.214890 0.361055 0.058921
0.279468 0.362210 0.062755
0.344398 0.363313 0.066621
0.409592 0.364364 0.070520
0.474988 0.365359 0.074454
0.540541 0.366298 0.078426
0.606213 0.367178 0.082435
0.671977 0.367998 0.086483
0.737808 0.368757 0.090571
0.803687 0.369454 0.094702
0.869596 0.370086 0.098874
0.935521 0.370653 0.103090
1.000000 0.371155 0.107350
1.000000 0.371589 0.111655
1.000000 0.371956 0.116006
0.095226 0.425092 0.064159
0.158372 0.426177 0.068036
0.222196 0.427208 0.071948
0.286471 0.428183 0.075896
0.351070 0.429100 0.079881
0.415909 0.429959 0.083904
0.480932 0.430757 0.087967
0.546094 0.431493 0.092070
0.611361 0.432166 0.096216
0.676706 0.432775 0.100404
0.742107 0.433319 0.104636
0.807544 0.433796 0.108913
0.873002 0.434206 0.113234
0.938466 0.434548 0.117601
1.000000 0.434821 0.122014
1.000000 0.435026 0.126474
1.000000 0.435161 0.130981
0.101881 0.490998 0.077342
0.164755 0.491895 0.081341
0.228258 0.492731 0.085378
0.292179 0.493507 0.089456
0.356401 0.494221 0.093575
0.420845 0.494870 0.097736
0.485456 0.495456 0.101940
0.550192 0.495975 0.106188
0.615021 0.496428 0.110481
0.679918 0.496813 0.114819
0.744861 0.497130 0.119203
0.809833 0.497379 0.123633
0.874819 0.497558 0.128109
0.939806 0.497668 0.132633
1.000000 0.497709 0.137204
1.000000 0.497680 0.141821
1.000000 0.497581 0.146486
0.107274 0.556249 0.090950
0.169819 0.556940 0.095085
0.232952 0.557566 0.099261
0.296479 0.558127 0.103481
0.360286 0.558623 0.107745
0.424300 0.559051 0.112055
0.488469 0.559411 0.116409
0.552752 0.559704 0.120810
0.617121 0.559927 0.125257
0.681549 0.560081 0.129751
0.746017 0.560166 0.134292
0.810510 0.560181 0.138879
0.875012 0.560127 0.143514
0.939514 0.560003 0.148196
1.000000 0.559809 0.152925
1.000000 0.559547 0.157700
1.000000 0.559216 0.162521
0.111294 0.620790 0.105029
0.173461 0.621261 0.109309
0.236185 0.621665 0.113635
0.299283 0.622001 0.118006
0.362647 0.622268 0.122424
0.426206 0.622466 0.126888
0.489911 0.622595 0.131399
0.553725 0.622655 0.135956
0.617617 0.622644 0.140561
0.681566 0.622565 0.145213
0.745552 0.622415 0.149912
0.809560 0.622196 0.154658
0.873578 0.621909 0.159450
0.937595 0.621553 0.164288
1.000000 0.621130 0.169172
1.000000 0.620639 0.174101
1.000000 0.620082 0.179074
0.113856 0.684581 0.119609
0.175606 0.684823 0.124043
0.237890 0.684996 0.128524
0.300534 0.685100 0.133052
0.363435 0.685134 0.137627
0.426525 0.685098 0.142249
0.489754 0.684993 0.146918
0.553089 0.684819 0.151634
0.616501 0.684575 0.156397
0.679968 0.684262 0.161206
0.743473 0.683882 0.166061
0.807003 0.683434 0.170961
0.870544 0.682919 0.175907
0.934089 0.682338 0.180896
0.997629 0.681693 0.185929
1.000000 0.680984 0.191005
1.000000 0.680212 0.196122
0.114907 0.747595 0.134713
0.176209 0.747604 0.139305
0.238033 0.747543 0.143944
0.300209 0.747413 0.148630
0.362636 0.747213 0.153363
0.425249 0.746944 0.158142
0.488001 0.746607 0.162968
0.550859 0.746201 0.167840
0.613794 0.745729 0.172756
0.676788 0.745190 0.177718
0.739824 0.744586 0.182723
0.802889 0.743917 0.187772
0.865971 0.743185 0.192863
0.929064 0.742391 0.197996
0.992159 0.741537 0.203169
1.000000 0.740623 0.208381
1.000000 0.739652 0.213631
0.114424 0.809823 0.150348
0.175260 0.809598 0.155097
0.236611 0.809304 0.159894
0.298313 0.808942 0.164736
0.360265 0.808512 0.169624
0.422405 0.808015 0.174558
0.484687 0.807453 0.179535
0.547077 0.806825 0.184557
0.609551 0.806133 0.189621
0.672090 0.805378 0.194727
0.734676 0.804562 0.199874
0.797300 0.803686 0.205062
0.859950 0.802751 0.210288
0.922620 0.801760 0.215552
0.985303 0.800713 0.220853
1.000000 0.799613 0.226188
1.000000 0.798462 0.231558
0.112419 0.871268 0.166511
0.172776 0.870814 0.171415
0.233653 0.870293 0.176365
0.294884 0.869707 0.181358
0.356370 0.869055 0.186395
0.418049 0.868340 0.191475
0.479877 0.867563 0.196596
0.541821 0.866725 0.201758
0.603856 0.865827 0.206960
0.665965 0.864872 0.212200
0.728132 0.863860 0.217478
0.790347 0.862794 0.222791
0.852600 0.861675 0.228139
0.914885 0.860505 0.233521
0.977196 0.859287 0.238934
1.000000 0.858022 0.244377
1.000000 0.856713 0.249850
0.108932 0.931952 0.183187
0.168809 0.931277 0.188240
0.229219 0.930540 0.193335
0.289991 0.929740 0.198471
0.351029 0.928880 0.203648
0.412269 0.927961 0.208863
0.473668 0.926985 0.214117
0.535194 0.925953 0.219408
0.596823 0.924867 0.224734
0.658537 0.923730 0.230095
0.720322 0.922542 0.235488
0.782168 0.921306 0.240912
0.844067 0.920025 0.246366
0.906011 0.918700 0.251849
0.967998 0.917334 0.257357
1.000000 0.915930 0.262890
1.000000 0.914488 0.268447
0.104037 0.991909 0.200351
0.163441 0.991027 0.205542
0.223398 0.990087 0.210772
0.283734 0.989091 0.216039
0.344349 0.988039 0.221343
0.405181 0.986934 0.226682
0.466184 0.985778 0.232054
0.527328 0.984573 0.237459
0.588590 0.983320 0.242895
0.649952 0.982023 0.248359
0.711400 0.980683 0.253851
0.772925 0.979302 0.259369
0.834519 0.977884 0.264911
0.896176 0.976430 0.270475
0.957892 0.974943 0.276059
1.000000 0.973426 0.281663
1.000000 0.971881 0.287283
0.097836 1.000000 0.217966
0.156780 1.000000 0.223283
0.216308 1.000000 0.228634
0.276237 1.000000 0.234018
0.336464 1.000000 0.239435
0.396925 1.000000 0.244881
0.457574 1.000000 0.250355
0.518381 1.000000 0.255857
0.579322 1.000000 0.261384
0.640381 1.000000 0.266934
0.701544 1.000000 0.272506
0.762801 1.000000 0.278097
0.824146 1.000000 0.283707
0.885573 1.000000 0.289333
0.947078 1.000000 0.294973
1.000000 1.000000 0.300625
1.000000 1.000000 0.306287
0.039146 0.020967 0.033857
0.102267 0.022635 0.037357
0.166659 0.024299 0.040850
0.231813 0.025956 0.044339
0.297509 0.027604 0.047827
0.363621 0.029239 0.051318
0.430066 0.030858 0.054813
0.496785 0.032460 0.058315
0.563732 0.034040 0.061827
0.630870 0.035597 0.065351
0.698169 0.037127 0.068889
0.765603 0.038628 0.072444
0.833150 0.040097 0.076017
0.900791 0.041532 0.079612
0.968509 0.042930 0.083229
1.000000 0.044289 0.086871
1.000000 0.045606 0.090540
0.049732 0.089032 0.045609
0.113090 0.090675 0.049098
0.177569 0.092305 0.052589
0.242741 0.093919 0.056087
0.308410 0.095513 0.059592
0.374459 0.097085 0.063108
0.440812 0.098632 0.066637
0.507411 0.100152 0.070181
0.574212 0.101642 0.073742
0.641181 0.103099 0.077323
0.708288 0.104520 0.080926
0.775509 0.105905 0.084552
0.842822 0.107249 0.088204
0.910209 0.108550 0.091883
0.977653 0.109807 0.095591
1.000000 0.111017 0.099330
1.000000 0.112177 0.103101
0.060155 0.156976 0.057362
0.123645 0.158563 0.060871
0.188131 0.160126 0.064391
0.253249 0.161664 0.067925
0.318822 0.163173 0.071475
0.384742 0.164651 0.075044
0.450936 0.166095 0.078632
0.517350 0.167504 0.082243
0.583942 0.168874 0.085878
0.650679 0.170202 0.089540
0.717534 0.171488 0.093229
0.784482 0.172728 0.096948
0.851504 0.173920 0.100699
0.918581 0.175063 0.104482
0.985698 0.176153 0.108301
1.000000 0.177190 0.112155
1.000000 0.178172 0.116046
0.070193 0.224691 0.069216
0.133718 0.226190 0.072772
0.198135 0.227656 0.076348
0.263129 0.229088 0.079944
0.328539 0.230482 0.083564
0.394264 0.231837 0.087208
0.460236 0.233151 0.090880
0.526405 0.234420 0.094580
0.592729 0.235642 0.098310
0.659178 0.236817 0.102072
0.725724 0.237941 0.105868
0.792346 0.239012 0.109700
0.859024 0.240029 0.113567
0.925742 0.240990 0.117473
0.992484 0.241893 0.121417
1.000000 0.242737 0.125402
1.000000 0.243520 0.129429
0.079635 0.292075 0.081259
0.143105 0.293455 0.084888
0.207380 0.294795 0.088542
0.272183 0.296093 0.092223
0.337367 0.297345 0.095934
0.402837 0.298551 0.099676
0.468529 0.299707 0.103450
0.534396 0.300812 0.107259
0.600398 0.301864 0.111103
0.666507 0.302861 0.114985
0.732696 0.303801 0.118904
0.798944 0.304682 0.122864
0.865234 0.305504 0.126863
0.931550 0.306265 0.130905
0.997877 0.306962 0.134990
1.000000 0.307596 0.139118
1.000000 0.308165 0.143290
0.088281 0.359029 0.093571
0.151614 0.360265 0.097293
0.215680 0.361452 0.101046
0.280230 0.362590 0.104833
0.345129 0.363676 0.108654
0.410289 0.364708 0.112512
0.475650 0.365684 0.116407
0.541164 0.366603 0.120341
0.606798 0.367463 0.124315
0.672521 0.368263 0.128330
0.738310 0.369001 0.132387
0.804146 0.369676 0.136487
0.870010 0.370286 0.140632
0.935890 0.370831 0.144821
1.000000 0.371310 0.149055
1.000000 0.371721 0.153336
1.000000 0.372065 0.157663
0.095951 0.425467 0.106220
0.159072 0.426533 0.110055
0.222867 0.427545 0.113926
0.287108 0.428501 0.117835
0.351671 0.429398 0.121783
0.416472 0.430237 0.125772
0.481455 0.431014 0.129802
0.546575 0.431729 0.133875
0.611800 0.432380 0.137991
0.677101 0.432967 0.142152
0.742456 0.433488 0.146357
0.807847 0.433942 0.150608
0.873258 0.434329 0.154906
0.938675 0.434648 0.159250
1.000000 0.434899 0.163641
1.000000 0.435080 0.168079
1.000000 0.435191 0.172566
0.102484 0.491309 0.119268
0.165328 0.492186 0.123231
0.228795 0.493002 0.127234
0.292679 0.493757 0.131280
0.356861 0.494449 0.135368
0.421262 0.495076 0.139501
0.485830 0.495639 0.143677
0.550521 0.496136 0.147899
0.615305 0.496566 0.152167
0.680155 0.496928 0.156482
0.745051 0.497222 0.160843
0.809975 0.497447 0.165251
0.874913 0.497603 0.169707
0.939851 0.497690 0.174211
1.000000 0.497707 0.178762
1.000000 0.497654 0.183361
1.000000 0.497531 0.188008
0.107744 0.556491 0.132763
0.170253 0.557160 0.136868
0.233347 0.557764 0.141016
0.296831 0.558303 0.145209
0.360595 0.558776 0.149448
0.424564 0.559181 0.153733
0.488687 0.559518 0.158064
0.552923 0.559787 0.162442
0.617244 0.559987 0.166868
0.681624 0.560118 0.171341
0.746044 0.560179 0.175862
0.810488 0.560170 0.180431
0.874941 0.560092 0.185047
0.939394 0.559945 0.189711
1.000000 0.559728 0.194423
1.000000 0.559442 0.199182
1.000000 0.559088 0.203987
0.111620 0.620958 0.146747
0.173747 0.621406 0.151002
0.236428 0.621787 0.155304
0.299480 0.622099 0.159653
0.362798 0.622343 0.164048
0.426311 0.622518 0.168491
0.489968 0.622623 0.172982
0.553734 0.622659 0.177520
0.617577 0.622625 0.182106
0.681477 0.622522 0.186740
0.745415 0.622349 0.191421
0.809374 0.622107 0.196150
0.873344 0.621796 0.200926
0.937313 0.621417 0.205748
1.000000 0.620970 0.210616
1.000000 0.620457 0.215530
1.000000 0.619878 0.220488
0.114031 0.684671 0.161247
0.175737 0.684890 0.165660
0.237976 0.685039 0.170120
0.300573 0.685119 0.174628
0.363427 0.685130 0.179184
0.426468 0.685070 0.183788
0.489650 0.684942 0.188439
0.552936 0.684743 0.193137
0.616299 0.684476 0.197883
0.679718 0.684141 0.202676
0.743175 0.683737 0.207515
0.806657 0.683266 0.212400
0.870151 0.682729 0.217330
0.933649 0.682126 0.222304
0.997143 0.681459 0.227323
1.000000 0.680729 0.232384
1.000000 0.679936 0.237487
0.114928 0.747606 0.176281
0.176184 0.747591 0.180855
0.237961 0.747507 0.185475
0.300088 0.747352 0.190144
0.362467 0.747129 0.194860
0.425032 0.746837 0.199623
0.487737 0.746477 0.204432
0.550546 0.746048 0.209288
0.613435 0.745553 0.214189
0.676382 0.744992 0.219136
0.739371 0.744366 0.224126
0.802390 0.743676 0.229160
0.865428 0.742922 0.234237
0.928476 0.742108 0.239355
0.991528 0.741233 0.244514
1.000000 0.740300 0.249712
1.000000 0.739310 0.254948
0.114291 0.809754 0.191855
0.175078 0.809506 0.196588
0.236382 0.809189 0.201368
0.298035 0.808804 0.206195
0.359940 0.808351 0.211067
0.422033 0.807832 0.215985
0.484268 0.807247 0.220947
0.546612 0.806597 0.225954
0.609041 0.805884 0.231004
0.671534 0.805108 0.236095
0.734077 0.804271 0.241228
0.796658 0.803375 0.246402
0.859266 0.802421 0.251614
0.921895 0.801410 0.256864
0.984539 0.800345 0.262150
1.000000 0.799228 0.267472
1.000000 0.798059 0.272827
0.112133 0.871121 0.207963
0.172442 0.870645 0.212852
0.233271 0.870101 0.217786
0.294455 0.869493 0.222765
0.355895 0.868820 0.227787
0.417529 0.868083 0.232853
0.479312 0.867285 0.237959
0.541212 0.866427 0.243107
0.603205 0.865509 0.248295
0.665272 0.864535 0.253521
0.727399 0.863504 0.258784
0.789574 0.862420 0.264083
0.851790 0.861283 0.269417
0.914038 0.860097 0.274784
0.976314 0.858862 0.280183
1.000000 0.857582 0.285612
1.000000 0.856258 0.291070
0.108501 0.931730 0.224589
0.168329 0.931034 0.229627
0.228692 0.930275 0.234707
0.289420 0.929455 0.239829
0.350414 0.928575 0.244991
0.411611 0.927636 0.250193
0.472968 0.926641 0.255433
0.534454 0.925590 0.260709
0.596043 0.924487 0.266021
0.657720 0.923332 0.271368
0.719469 0.922128 0.276746
0.781280 0.920876 0.282156
0.843146 0.919580 0.287596
0.905059 0.918241 0.293063
0.967016 0.916862 0.298557
1.000000 0.915444 0.304075
1.000000 0.913991 0.309616
0.103469 0.991616 0.241704
0.162825 0.990715 0.246881
0.222737 0.989755 0.252096
0.283031 0.988740 0.257350
0.343606 0.987670 0.262639
0.404398 0.986547 0.267964
0.465363 0.985374 0.273322
0.526471 0.984152 0.278712
0.587699 0.982885 0.284133
0.649027 0.981572 0.289583
0.710444 0.980218 0.295060
0.771940 0.978825 0.300563
0.833506 0.977394 0.306089
0.895137 0.975929 0.311638
0.956829 0.974431 0.317207
1.000000 0.972905 0.322794
1.000000 0.971351 0.328398
0.097142 1.000000 0.259271
0.156041 1.000000 0.264574
0.215527 1.000000 0.269911
0.275417 1.000000 0.275281
0.335607 1.000000 0.280682
0.396033 1.000000 0.286114
0.456649 1.000000 0.291574
0.517424 1.000000 0.297061
0.578336 1.000000 0.302572
0.639367 1.000000 0.308107
0.700504 1.000000 0.313663
0.761738 1.000000 0.319239
0.823061 1.000000 0.324833
0.884467 1.000000 0.330442
0.945955 1.000000 0.336065
1.000000 1.000000 0.341700
1.000000 1.000000 0.347344
0.040216 0.021534 0.076344
0.103365 0.023200 0.079763
0.167770 0.024863 0.083182
0.232929 0.026517 0.086602
0.298625 0.028160 0.090026
0.364734 0.029791 0.093456
0.431173 0.031404 0.096895
0.497883 0.032999 0.100344
0.564818 0.034572 0.103806
0.631942 0.036119 0.107283
0.699224 0.037640 0.110778
0.766640 0.039131 0.114291
0.834166 0.040588 0.117825
0.901784 0.042011 0.121383
0.969477 0.043396 0.124965
1.000000 0.044741 0.128574
1.000000 0.046044 0.132212
0.050796 0.089592 0.087848
0.114172 0.091231 0.091274
0.178654 0.092855 0.094707
0.243824 0.094462 0.098149
0.309486 0.096049 0.101603
0.375526 0.097613 0.105070
0.441866 0.099151 0.108553
0.508449 0.100661 0.112054
0.575232 0.102140 0.115575
0.642180 0.103586 0.119118
0.709264 0.104995 0.122684
0.776460 0.106366 0.126276
0.843746 0.107695 0.129895
0.911104 0.108982 0.133544
0.978518 0.110223 0.137223
1.000000 0.111416 0.140934
1.000000 0.112560 0.144680
0.061190 0.157517 0.099405
0.124687 0.159096 0.102863
0.189170 0.160651 0.106336
0.254279 0.162179 0.109826
0.319838 0.163678 0.113334
0.385741 0.165145 0.116862
0.451915 0.166578 0.120413
0.518307 0.167973 0.123989
0.584875 0.169330 0.127590
0.651586 0.170644 0.131220
0.718412 0.171914 0.134879
0.785329 0.173138 0.138570
0.852319 0.174314 0.142294
0.919362 0.175439 0.146052
0.986443 0.176511 0.149846
1.000000 0.177530 0.153677
1.000000 0.178492 0.157547
0.071177 0.225204 0.111101
0.134700 0.226691 0.114616
0.199106 0.228146 0.118152
0.264084 0.229565 0.121712
0.329473 0.230947 0.125297
0.395176 0.232288 0.128909
0.461122 0.233587 0.132549
0.527262 0.234840 0.136219
0.593557 0.236047 0.139922
0.659973 0.237204 0.143658
0.726486 0.238311 0.147429
0.793072 0.239364 0.151236
0.859713 0.240362 0.155081
0.926392 0.241303 0.158965
0.993094 0.242186 0.162890
1.000000 0.243010 0.166855
1.000000 0.243772 0.170863
0.080547 0.292548 0.123014
0.144006 0.293915 0.126609
0.208264 0.295241 0.130230
0.273044 0.296523 0.133882
0.338201 0.297760 0.137564
0.403643 0.298949 0.141278
0.469304 0.300088 0.145027
0.535137 0.301175 0.148811
0.601104 0.302208 0.152632
0.667176 0.303186 0.156491
0.733326 0.304107 0.160389
0.799535 0.304968 0.164329
0.865783 0.305769 0.168309
0.932056 0.306509 0.172333
0.998340 0.307185 0.176400
1.000000 0.307797 0.180512
1.000000 0.308344 0.184669
0.089103 0.359454 0.135218
0.152417 0.360674 0.138912
0.216458 0.361845 0.142639
0.280980 0.362965 0.146400
0.345847 0.364033 0.150197
0.410973 0.365046 0.154032
0.476297 0.366003 0.157905
0.541774 0.366902 0.161819
0.607368 0.367742 0.165773
0.673050 0.368521 0.169769
0.738797 0.369237 0.173809
0.804589 0.369890 0.177892
0.870409 0.370478 0.182020
0.936242 0.371001 0.186194
1.000000 0.371457 0.190414
1.000000 0.371846 0.194680
1.000000 0.372166 0.198994
0.096665 0.425835 0.147778
0.159761 0.426883 0.151589
0.223524 0.427876 0.155438
0.287732 0.428812 0.159325
0.352258 0.429690 0.163254
0.417021 0.430508 0.167223
0.481963 0.431264 0.171235
0.547042 0.431957 0.175290
0.612223 0.432587 0.179390
0.677480 0.433151 0.183534
0.742790 0.433650 0.187725
0.808134 0.434081 0.191961
0.873498 0.434445 0.196245
0.938867 0.434741 0.200576
1.000000 0.434968 0.204954
1.000000 0.435125 0.209381
1.000000 0.435214 0.213855
0.103075 0.491614 0.160751
0.165888 0.492470 0.164694
0.229319 0.493265 0.168679
0.293164 0.493999 0.172706
0.357305 0.494669 0.176778
0.421665 0.495275 0.180894
0.486188 0.495816 0.185055
0.550835 0.496290 0.189262
0.615573 0.496697 0.193516
0.680376 0.497036 0.197816
0.745225 0.497307 0.202164
0.810101 0.497508 0.206560
0.874989 0.497641 0.211004
0.939879 0.497703 0.215496
1.000000 0.497697 0.220036
1.000000 0.497620 0.224624
1.000000 0.497474 0.229260
0.108199 0.556725 0.174183
0.170672 0.557372 0.178271
0.233726 0.557954 0.182403
0.297168 0.558471 0.186581
0.360888 0.558921 0.190805
0.424812 0.559303 0.195076
0.488888 0.559617 0.199394
0.553078 0.559863 0.203759
0.617351 0.560039 0.208172
0.681683 0.560146 0.212634
0.746054 0.560184 0.217143
0.810449 0.560152 0.221701
0.874854 0.560050 0.226306
0.939257 0.559879 0.230960
1.000000 0.559638 0.235661
1.000000 0.559329 0.240409
1.000000 0.558952 0.245205
0.111931 0.621117 0.188113
0.174017 0.621543 0.192354
0.236654 0.621900 0.196642
0.299662 0.622190 0.200977
0.362933 0.622410 0.205360
0.426399 0.622561 0.209791
0.490009 0.622643 0.214270
0.553726 0.622655 0.218797
0.617521 0.622598 0.223372
0.681373 0.622471 0.227995
0.745261 0.622274 0.232666
0.809172 0.622009 0.237384
0.873093 0.621675 0.242150
0.937014 0.621273 0.246962
1.000000 0.620804 0.251821
1.000000 0.620268 0.256725
1.000000 0.619667 0.261674
0.114191 0.684753 0.202568
0.175853 0.684948 0.206968
0.238046 0.685074 0.211416
0.300596 0.685131 0.215912
0.363402 0.685117 0.220457
0.426395 0.685034 0.225049
0.489528 0.684882 0.229690
0.552766 0.684660 0.234378
0.616081 0.684370 0.239114
0.679452 0.684011 0.243897
0.742861 0.683585 0.248726
0.806295 0.683091 0.253601
0.869743 0.682532 0.258521
0.933194 0.681907 0.263486
0.996642 0.681218 0.268495
1.000000 0.680467 0.273547
1.000000 0.679654 0.278640
0.114933 0.747609 0.217561
0.176143 0.747570 0.222123
0.237872 0.747462 0.226733
0.299952 0.747284 0.231391
0.362283 0.747038 0.236097
0.424800 0.746722 0.240850
0.487456 0.746339 0.245649
0.550218 0.745888 0.250495
0.613059 0.745370 0.255387
0.675960 0.744787 0.260324
0.738903 0.744139 0.265305
0.801876 0.743427 0.270329
0.864869 0.742653 0.275396
0.927873 0.741817 0.280505
0.990883 0.740923 0.285654
1.000000 0.739970 0.290842
1.000000 0.738961 0.296069
0.114141 0.809678 0.233099
0.174881 0.809406 0.237822
0.236136 0.809065 0.242592
0.297742 0.808657 0.247408
0.359599 0.808182 0.252271
0.421645 0.807640 0.257179
0.483833 0.807033 0.262132
0.546132 0.806362 0.267129
0.608515 0.805627 0.272169
0.670964 0.804831 0.277251
0.733464 0.803974 0.282375
0.796002 0.803057 0.287538
0.858569 0.802084 0.292741
0.921158 0.801055 0.297981
0.983762 0.799972 0.303257
1.000000 0.798836 0.308568
1.000000 0.797651 0.313913
0.111832 0.870967 0.249173
0.172093 0.870467 0.254053
0.232874 0.869902 0.258977
0.294011 0.869271 0.263946
0.355405 0.868577 0.268959
0.416994 0.867819 0.274015
0.478733 0.867000 0.279112
0.540589 0.866122 0.284250
0.602540 0.865185 0.289428
0.664566 0.864191 0.294644
0.726653 0.863142 0.299897
0.788789 0.862039 0.305186
0.850967 0.860886 0.310510
0.913180 0.859683 0.315866
0.975421 0.858433 0.321254
1.000000 0.857137 0.326672
1.000000 0.855799 0.332118
0.108055 0.931501 0.265766
0.167835 0.930783 0.270795
0.228152 0.930003 0.275866
0.288834 0.929162 0.280978
0.349784 0.928262 0.286131
0.410939 0.927304 0.291322
0.472256 0.926290 0.296552
0.533701 0.925221 0.301819
0.595252 0.924100 0.307121
0.656891 0.922928 0.312456
0.718605 0.921708 0.317824
0.780382 0.920441 0.323223
0.842215 0.919130 0.328651
0.904097 0.917777 0.334107
0.966025 0.916384 0.339589
1.000000 0.914954 0.345095
1.000000 0.913490 0.350623
0.102887 0.991317 0.282849
0.162196 0.990395 0.288016
0.222064 0.989416 0.293222
0.282316 0.988382 0.298465
0.342850 0.987294 0.303745
0.403603 0.986154 0.309059
0.464531 0.984965 0.314407
0.525604 0.983727 0.319786
0.586797 0.982444 0.325196
0.648093 0.981117 0.330635
0.709479 0.979749 0.336100
0.770946 0.978343 0.341591
0.832485 0.976900 0.347105
0.894090 0.975424 0.352641
0.955759 0.973916 0.358197
1.000000 0.972380 0.363771
1.000000 0.970818 0.369361
0.096437 1.000000 0.300383
0.155290 1.000000 0.305676
0.214735 1.000000 0.311002
0.274586 1.000000 0.316362
0.334740 1.000000 0.321752
0.395131 1.000000 0.327173
0.455714 1.000000 0.332621
0.516459 1.000000 0.338096
0.577341 1.000000 0.343596
0.638345 1.000000 0.349118
0.699457 1.000000 0.354662
0.760668 1.000000 0.360224
0.821969 1.000000 0.365804
0.883357 1.000000 0.371399
0.944827 1.000000 0.377008
1.000000 1.000000 0.382628
1.000000 1.000000 0.388258
0.041286 0.022100 0.118092
0.104463 0.023766 0.121469
0.168879 0.025425 0.124847
0.234043 0.027076 0.128228
0.299739 0.028716 0.131616
0.365844 0.030341 0.135012
0.432276 0.031948 0.138418
0.498976 0.033536 0.141837
0.565899 0.035100 0.145269
0.633007 0.036639 0.148719
0.700273 0.038150 0.152187
0.767669 0.039629 0.155676
0.835174 0.041076 0.159186
0.902768 0.042486 0.162722
0.970435 0.043858 0.166283
1.000000 0.045188 0.169872
1.000000 0.046476 0.173491
0.051857 0.090150 0.129461
0.115250 0.091784 0.132851
0.179736 0.093403 0.136251
0.244903 0.095004 0.139661
