Fotico/Resources/LUTs/miel.cube
# Miel
LUT_3D_SIZE 5
0.038078 0.020400 0.000000
0.296390 0.027045 0.004201
0.562640 0.033506 0.018883
0.832126 0.039602 0.033466
1.000000 0.045164 0.048264
0.078715 0.291597 0.038818
0.336521 0.296925 0.053739
0.599679 0.301513 0.069096
0.864671 0.305232 0.085004
1.000000 0.307979 0.101550
0.107274 0.556249 0.090950
0.360286 0.558623 0.107745
0.617121 0.559927 0.125257
0.875012 0.560127 0.143514
1.000000 0.559216 0.162521
0.114424 0.809823 0.150348
0.360265 0.808512 0.169624
0.609551 0.806133 0.189621
0.859950 0.802751 0.210288
1.000000 0.798462 0.231558
0.097836 1.000000 0.217966
0.336464 1.000000 0.239435
0.579322 1.000000 0.261384
0.824146 1.000000 0.283707
1.000000 1.000000 0.306287
0.042356 0.022666 0.159393
0.300849 0.029269 0.172810
0.566973 0.035626 0.186378
0.836173 0.041559 0.200227
1.000000 0.046903 0.214478
0.082346 0.293481 0.205362
0.339838 0.298573 0.219787
0.602477 0.302879 0.234758
0.866837 0.306278 0.250360
1.000000 0.308677 0.266661
0.109068 0.557172 0.256211
0.361426 0.559188 0.272779
0.617515 0.560120 0.290104
0.874628 0.559941 0.308201
1.000000 0.558657 0.327066
0.113796 0.809500 0.314981
0.358872 0.807821 0.334120
0.607421 0.805093 0.353982
0.857135 0.801391 0.374511
1.000000 0.796819 0.395632
0.094991 1.000000 0.382137
0.332974 1.000000 0.403451
0.575327 1.000000 0.425228
0.819769 1.000000 0.447356
1.000000 1.000000 0.469714
0.046634 0.024925 0.321966
0.305253 0.031465 0.335157
0.571207 0.037697 0.348555
0.840079 0.043447 0.362285
1.000000 0.048557 0.376460
0.085838 0.295290 0.367388
0.342972 0.300130 0.381751
0.605060 0.304140 0.396695
0.868764 0.307209 0.412297
1.000000 0.309251 0.428617
0.110631 0.557975 0.418153
0.362314 0.559628 0.434746
0.617647 0.560184 0.452105
0.873980 0.559628 0.470239
1.000000 0.557975 0.489135
0.112922 0.809051 0.477032
0.357235 0.807009 0.496198
0.605060 0.803940 0.516074
0.854111 0.799930 0.536598
1.000000 0.795090 0.557688
0.091963 1.000000 0.544215
0.329324 1.000000 0.565488
0.571207 1.000000 0.587193
0.815306 1.000000 0.609215
1.000000 1.000000 0.631431
0.050896 0.027169 0.482006
0.309588 0.033625 0.495102
0.575327 0.039712 0.508450
0.843833 0.045262 0.522170
1.000000 0.050121 0.536372
0.089180 0.297019 0.527279
0.345914 0.301591 0.541681
0.607421 0.305293 0.556690
0.870446 0.308021 0.572379
1.000000 0.309700 0.588800
0.111959 0.558657 0.578271
0.362945 0.559941 0.594967
0.617515 0.560120 0.612434
0.873068 0.559188 0.630673
1.000000 0.557172 0.649664
0.111803 0.808477 0.637502
0.355358 0.806078 0.656757
0.602477 0.802679 0.676704
0.850889 0.798373 0.697273
1.000000 0.793281 0.718379
0.088763 1.000000 0.704900
0.325526 1.000000 0.726177
0.566973 1.000000 0.747851
0.810769 1.000000 0.769804
1.000000 1.000000 0.791912
0.055127 0.029392 0.640453
0.313839 0.035742 0.653513
0.579322 0.041665 0.666867
0.847422 0.046997 0.680632
1.000000 0.051589 0.694911
0.092358 0.298662 0.685766
0.348654 0.302951 0.700255
0.609551 0.306333 0.715377
0.871876 0.308712 0.731196
1.000000 0.310023 0.747759
0.113047 0.559216 0.737138
0.363320 0.560127 0.753978
0.617121 0.559927 0.771590
0.871898 0.558623 0.789967
1.000000 0.556249 0.809083
0.110445 0.807779 0.796843
0.353249 0.805032 0.816217
0.599679 0.801313 0.836260
0.847480 0.796725 0.856899
1.000000 0.791397 0.878042
0.085402 1.000000 0.864543
0.321593 1.000000 0.885844
0.562640 1.000000 0.907505
0.806175 1.000000 0.929406
1.000000 1.000000 0.951420
