Fotico/Resources/LUTs/miel.cube
# Miel
LUT_3D_SIZE 9
0.038078 0.020400 0.000000
0.165547 0.023734 0.000000
0.296390 0.027045 0.004201
0.428955 0.030310 0.011590
0.562640 0.033506 0.018883
0.697106 0.036610 0.026162
0.832126 0.039602 0.033466
0.967531 0.042460 0.040826
1.000000 0.045164 0.048264
0.059117 0.156433 0.014250
0.187087 0.159598 0.021532
0.317799 0.162664 0.028816
0.449948 0.165609 0.036138
0.583000 0.168413 0.043524
0.716646 0.171056 0.050995
0.850677 0.173521 0.058569
0.984941 0.175789 0.066263
1.000000 0.177845 0.074090
0.078715 0.291597 0.038818
0.206487 0.294345 0.046233
0.336521 0.296925 0.053739
0.467743 0.299320 0.061356
0.599679 0.301513 0.069096
0.732051 0.303488 0.076975
0.864671 0.305232 0.085004
0.997399 0.306732 0.093193
1.000000 0.307979 0.101550
0.095226 0.425092 0.064159
0.222196 0.427208 0.071948
0.351070 0.429100 0.079881
0.480932 0.430757 0.087967
0.611361 0.432166 0.096216
0.742107 0.433319 0.104636
0.873002 0.434206 0.113234
1.000000 0.434821 0.122014
1.000000 0.435161 0.130981
0.107274 0.556249 0.090950
0.232952 0.557566 0.099261
0.360286 0.558623 0.107745
0.488469 0.559411 0.116409
0.617121 0.559927 0.125257
0.746017 0.560166 0.134292
0.875012 0.560127 0.143514
1.000000 0.559809 0.152925
1.000000 0.559216 0.162521
0.113856 0.684581 0.119609
0.237890 0.684996 0.128524
0.363435 0.685134 0.137627
0.489754 0.684993 0.146918
0.616501 0.684575 0.156397
0.743473 0.683882 0.166061
0.870544 0.682919 0.175907
0.997629 0.681693 0.185929
1.000000 0.680212 0.196122
0.114424 0.809823 0.150348
0.236611 0.809304 0.159894
0.360265 0.808512 0.169624
0.484687 0.807453 0.179535
0.609551 0.806133 0.189621
0.734676 0.804562 0.199874
0.859950 0.802751 0.210288
0.985303 0.800713 0.220853
1.000000 0.798462 0.231558
0.108932 0.931952 0.183187
0.229219 0.930540 0.193335
0.351029 0.928880 0.203648
0.473668 0.926985 0.214117
0.596823 0.924867 0.224734
0.720322 0.922542 0.235488
0.844067 0.920025 0.246366
0.967998 0.917334 0.257357
1.000000 0.914488 0.268447
0.097836 1.000000 0.217966
0.216308 1.000000 0.228634
0.336464 1.000000 0.239435
0.457574 1.000000 0.250355
0.579322 1.000000 0.261384
0.701544 1.000000 0.272506
0.824146 1.000000 0.283707
0.947078 1.000000 0.294973
1.000000 1.000000 0.306287
0.040216 0.021534 0.076344
0.167770 0.024863 0.083182
0.298625 0.028160 0.090026
0.431173 0.031404 0.096895
0.564818 0.034572 0.103806
0.699224 0.037640 0.110778
0.834166 0.040588 0.117825
0.969477 0.043396 0.124965
1.000000 0.046044 0.132212
0.061190 0.157517 0.099405
0.189170 0.160651 0.106336
0.319838 0.163678 0.113334
0.451915 0.166578 0.120413
0.584875 0.169330 0.127590
0.718412 0.171914 0.134879
0.852319 0.174314 0.142294
0.986443 0.176511 0.149846
1.000000 0.178492 0.157547
0.080547 0.292548 0.123014
0.208264 0.295241 0.130230
0.338201 0.297760 0.137564
0.469304 0.300088 0.145027
0.601104 0.302208 0.152632
0.733326 0.304107 0.160389
0.865783 0.305769 0.168309
0.998340 0.307185 0.176400
1.000000 0.308344 0.184669
0.096665 0.425835 0.147778
0.223524 0.427876 0.155438
0.352258 0.429690 0.163254
0.481963 0.431264 0.171235
0.612223 0.432587 0.179390
0.742790 0.433650 0.187725
0.873498 0.434445 0.196245
1.000000 0.434968 0.204954
1.000000 0.435214 0.213855
0.108199 0.556725 0.174183
0.233726 0.557954 0.182403
0.360888 0.558921 0.190805
0.488888 0.559617 0.199394
0.617351 0.560039 0.208172
0.746054 0.560184 0.217143
0.874854 0.560050 0.226306
1.000000 0.559638 0.235661
1.000000 0.558952 0.245205
0.114191 0.684753 0.202568
0.238046 0.685074 0.211416
0.363402 0.685117 0.220457
0.489528 0.684882 0.229690
0.616081 0.684370 0.239114
0.742861 0.683585 0.248726
0.869743 0.682532 0.258521
0.996642 0.681218 0.268495
1.000000 0.679654 0.278640
0.114141 0.809678 0.233099
0.236136 0.809065 0.242592
0.359599 0.808182 0.252271
0.483833 0.807033 0.262132
0.608515 0.805627 0.272169
0.733464 0.803974 0.282375
0.858569 0.802084 0.292741
0.983762 0.799972 0.303257
1.000000 0.797651 0.313913
0.108055 0.931501 0.265766
0.228152 0.930003 0.275866
0.349784 0.928262 0.286131
0.472256 0.926290 0.296552
0.595252 0.924100 0.307121
0.718605 0.921708 0.317824
0.842215 0.919130 0.328651
0.966025 0.916384 0.339589
1.000000 0.913490 0.350623
0.096437 1.000000 0.300383
0.214735 1.000000 0.311002
0.334740 1.000000 0.321752
0.455714 1.000000 0.332621
0.577341 1.000000 0.343596
0.699457 1.000000 0.354662
0.821969 1.000000 0.365804
0.944827 1.000000 0.377008
1.000000 1.000000 0.388258
0.042356 0.022666 0.159393
0.169987 0.025987 0.166091
0.300849 0.029269 0.172810
0.433374 0.032490 0.179567
0.566973 0.035626 0.186378
0.701314 0.038656 0.193259
0.836173 0.041559 0.200227
0.971384 0.044314 0.207295
1.000000 0.046903 0.214478
0.063246 0.158592 0.182039
0.191229 0.161692 0.188874
0.321847 0.164678 0.195785
0.453848 0.167530 0.202787
0.586711 0.170227 0.209896
0.720134 0.172751 0.217124
0.853911 0.175084 0.224484
0.987893 0.177209 0.231988
1.000000 0.179113 0.239647
0.082346 0.293481 0.205362
0.210002 0.296117 0.212513
0.339838 0.298573 0.219787
0.470817 0.300832 0.227199
0.602477 0.302879 0.234758
0.734545 0.304698 0.242475
0.866837 0.306278 0.250360
0.999219 0.307608 0.258420
1.000000 0.308677 0.266661
0.098057 0.426553 0.229933
0.224801 0.428518 0.237549
0.353390 0.430252 0.245326
0.482935 0.431742 0.253274
0.613023 0.432977 0.261399
0.743409 0.433950 0.269708
0.873929 0.434654 0.278204
1.000000 0.435082 0.286893
1.000000 0.435234 0.295774
0.109068 0.557172 0.256211
0.234438 0.558312 0.264402
0.361426 0.559188 0.272779
0.489243 0.559792 0.281345
0.617515 0.560120 0.290104
0.746025 0.560170 0.299056
0.874628 0.559941 0.308201
1.000000 0.559436 0.317539
1.000000 0.558657 0.327066
0.114464 0.684893 0.284512
0.238137 0.685120 0.293340
0.363303 0.685069 0.302363
0.489237 0.684739 0.311579
0.615597 0.684134 0.320986
0.742186 0.683257 0.330581
0.868879 0.682114 0.340359
0.995595 0.680714 0.350315
1.000000 0.679067 0.360440
0.113796 0.809500 0.314981
0.235599 0.808796 0.324457
0.358872 0.807821 0.334120
0.482920 0.806584 0.343963
0.607421 0.805093 0.353982
0.732195 0.803358 0.364167
0.857135 0.801391 0.374511
0.982171 0.799206 0.385003
1.000000 0.796819 0.395632
0.107120 0.931020 0.347591
0.227029 0.929439 0.357671
0.348486 0.927618 0.367915
0.470792 0.925570 0.378314
0.593634 0.923310 0.388858
0.716843 0.920852 0.399534
0.840323 0.918215 0.410330
0.964016 0.915417 0.421234
1.000000 0.912477 0.432231
0.094991 1.000000 0.382137
0.213118 1.000000 0.392730
0.332974 1.000000 0.403451
0.453816 1.000000 0.414288
0.575327 1.000000 0.425228
0.697342 1.000000 0.436255
0.819769 1.000000 0.447356
0.942558 1.000000 0.458514
1.000000 1.000000 0.469714
0.044496 0.023797 0.241098
0.172196 0.027107 0.247723
0.303059 0.030371 0.254377
0.435555 0.033565 0.261076
0.569103 0.036668 0.267836
0.703373 0.039657 0.274674
0.838144 0.042512 0.281604
0.973251 0.045213 0.288641
1.000000 0.047741 0.295798
0.065284 0.159657 0.263529
0.193263 0.162720 0.270316
0.323826 0.165663 0.277186
0.455745 0.168464 0.284153
0.588507 0.171104 0.291232
0.721811 0.173565 0.298436
0.855455 0.175829 0.305777
0.989290 0.177881 0.313266
1.000000 0.179707 0.320914
0.084110 0.294395 0.286716
0.211698 0.296972 0.293839
0.341428 0.299363 0.301092
0.472279 0.301552 0.308486
0.603796 0.303523 0.316031
0.735707 0.305262 0.323739
0.867831 0.306758 0.331618
1.000000 0.308000 0.339674
1.000000 0.308980 0.347914
0.099400 0.427245 0.311215
0.226025 0.429134 0.318818
0.354466 0.430786 0.326587
0.483848 0.432190 0.334530
0.613761 0.433338 0.342652
0.743964 0.434220 0.350960
0.874295 0.434830 0.359458
1.000000 0.435165 0.368148
1.000000 0.435222 0.377032
0.109879 0.557588 0.337466
0.235090 0.558640 0.345655
0.361902 0.559424 0.354032
0.489533 0.559934 0.362599
0.617614 0.560168 0.371360
0.745929 0.560123 0.380315
0.874337 0.559800 0.389463
1.000000 0.559202 0.398804
1.000000 0.558331 0.408333
0.114675 0.685001 0.365766
0.238164 0.685134 0.374598
0.363140 0.684988 0.383623
0.488882 0.684564 0.392842
0.615049 0.683866 0.402251
0.741447 0.682898 0.411848
0.867953 0.681667 0.421626
0.994488 0.680182 0.431580
1.000000 0.678453 0.441702
0.113390 0.809292 0.396246
0.235000 0.808495 0.405724
0.358084 0.807430 0.415387
0.481947 0.806106 0.425230
0.606269 0.804530 0.435246
0.730872 0.802715 0.445427
0.855648 0.800673 0.455763
0.980532 0.798417 0.466245
1.000000 0.795965 0.476860
0.106130 0.930511 0.428857
0.225852 0.928847 0.438934
0.347135 0.926947 0.449172
0.469278 0.924825 0.459563
0.591969 0.922496 0.470095
0.715040 0.919976 0.480756
0.838393 0.917282 0.491534
0.961973 0.914433 0.502416
1.000000 0.911450 0.513387
0.093499 1.000000 0.463381
0.211457 1.000000 0.473962
0.331168 1.000000 0.484667
0.451883 1.000000 0.495484
0.573282 1.000000 0.506400
0.695201 1.000000 0.517400
0.817547 1.000000 0.528469
0.940272 1.000000 0.539590
1.000000 1.000000 0.550750
0.046634 0.024925 0.321966
0.174395 0.028222 0.328544
0.305253 0.031465 0.335157
0.437715 0.034630 0.341823
0.571207 0.037697 0.348555
0.705401 0.040643 0.355371
0.840079 0.043447 0.362285
0.975077 0.046092 0.369310
1.000000 0.048557 0.376460
0.067301 0.160709 0.344265
0.195271 0.163734 0.351026
0.325772 0.166631 0.357876
0.457605 0.169380 0.364829
0.590260 0.171961 0.371898
0.723441 0.174357 0.379096
0.856948 0.176551 0.386436
0.990632 0.178527 0.393928
1.000000 0.180273 0.401581
0.085838 0.295290 0.367388
0.213353 0.297806 0.374503
0.342972 0.300130 0.381751
0.473691 0.302246 0.389145
0.605060 0.304140 0.396695
0.736811 0.305798 0.404409
0.868764 0.307209 0.412297
1.000000 0.308363 0.420364
1.000000 0.309251 0.428617
0.100694 0.427912 0.391875
0.227194 0.429722 0.399484
0.355485 0.431291 0.407260
0.484700 0.432609 0.415213
0.614437 0.433667 0.423347
0.744454 0.434458 0.431669
0.874595 0.434975 0.440181
1.000000 0.435216 0.448887
1.000000 0.435178 0.457787
0.110631 0.557975 0.418153
0.235680 0.558936 0.426355
0.362314 0.559628 0.434746
0.489758 0.560045 0.443328
0.617647 0.560184 0.452105
0.745767 0.560045 0.461075
0.873980 0.559628 0.470239
1.000000 0.558936 0.479594
1.000000 0.557975 0.489135
0.114823 0.685078 0.446501
0.238128 0.685116 0.455348
0.362913 0.684875 0.464389
0.488461 0.684358 0.473623
0.614437 0.683567 0.483046
0.740645 0.682509 0.492655
0.866967 0.681191 0.502444
0.993323 0.679622 0.512406
1.000000 0.677812 0.522533
0.112922 0.809051 0.477032
0.234339 0.808163 0.486523
0.357235 0.807009 0.496198
0.480914 0.805598 0.506051
0.605060 0.803940 0.516074
0.729494 0.802046 0.526260
0.854111 0.799930 0.536598
0.978846 0.797606 0.547078
1.000000 0.795090 0.557688
0.105084 0.929973 0.509681
0.224620 0.928227 0.519764
0.345733 0.926251 0.530006
0.467717 0.924057 0.540397
0.590260 0.921661 0.550926
0.713195 0.919080 0.561581
0.836426 0.916331 0.572348
0.959898 0.913434 0.583215
1.000000 0.910409 0.594167
0.091963 1.000000 0.544215
0.209754 1.000000 0.554791
0.329324 1.000000 0.565488
0.449915 1.000000 0.576294
0.571207 1.000000 0.587193
0.693034 1.000000 0.598172
0.815306 1.000000 0.609215
0.937972 1.000000 0.620307
1.000000 1.000000 0.631431
0.048768 0.026049 0.402225
0.176582 0.029331 0.408771
0.307430 0.032549 0.415359
0.439852 0.035684 0.422004
0.573282 0.038712 0.428722
0.707396 0.041612 0.435529
0.841976 0.044364 0.442438
0.976860 0.046950 0.449464
1.000000 0.049351 0.456618
0.069297 0.161750 0.424441
0.197249 0.164733 0.431189
0.327684 0.167582 0.438032
0.459425 0.170276 0.444982
0.591969 0.172796 0.452053
0.725024 0.175125 0.459258
0.858389 0.177247 0.466607
0.991920 0.179147 0.474112
1.000000 0.180811 0.481782
0.087529 0.296165 0.447542
0.214965 0.298617 0.454660
0.344468 0.300873 0.461916
0.475051 0.302915 0.469321
0.606269 0.304730 0.476885
0.737856 0.306306 0.484616
0.869636 0.307630 0.492523
1.000000 0.308695 0.500612
1.000000 0.309492 0.508888
0.101938 0.428553 0.472056
0.228309 0.430282 0.479680
0.356445 0.431767 0.487474
0.485492 0.432998 0.495447
0.615049 0.433966 0.503603
0.744880 0.434664 0.511948
0.874829 0.435088 0.520484
1.000000 0.435234 0.529213
1.000000 0.435101 0.538137
0.111325 0.558331 0.498395
0.236209 0.559202 0.506619
0.362662 0.559800 0.515033
0.489917 0.560123 0.523639
0.617614 0.560168 0.532440
0.745539 0.559934 0.541434
0.873557 0.559424 0.550621
1.000000 0.558640 0.559997
1.000000 0.557588 0.569559
0.114909 0.685122 0.526821
0.238027 0.685065 0.535692
0.362621 0.684730 0.544756
0.487977 0.684120 0.554013
0.613761 0.683238 0.563457
0.739782 0.682090 0.573086
0.865921 0.680686 0.582892
0.992101 0.679034 0.592869
1.000000 0.677145 0.603009
0.112393 0.808780 0.557429
0.233618 0.807800 0.566942
0.356326 0.806558 0.576635
0.479824 0.805062 0.586505
0.603796 0.803323 0.596542
0.728064 0.801352 0.606739
0.852524 0.799163 0.617084
0.977113 0.796772 0.627568
1.000000 0.794195 0.638179
0.103984 0.929407 0.590140
0.223336 0.927581 0.600236
0.344280 0.925529 0.610488
0.466107 0.923265 0.620886
0.588507 0.920804 0.631417
0.711310 0.918164 0.642071
0.834424 0.915363 0.652833
0.957792 0.912420 0.663689
1.000000 0.909357 0.674626
0.090383 1.000000 0.624705
0.208010 1.000000 0.635282
0.327443 1.000000 0.645977
0.447914 1.000000 0.656775
0.569103 1.000000 0.667663
0.690844 1.000000 0.678625
0.813046 1.000000 0.689647
0.935659 1.000000 0.700713
1.000000 1.000000 0.711806
0.050896 0.027169 0.482006
0.178756 0.030432 0.488531
0.309588 0.033625 0.495102
0.441965 0.036725 0.501737
0.575327 0.039712 0.508450
0.709356 0.042564 0.515256
0.843833 0.045262 0.522170
0.978599 0.047787 0.529204
1.000000 0.050121 0.536372
0.071269 0.162777 0.504171
0.199197 0.165717 0.510916
0.329561 0.168515 0.517760
0.461205 0.171152 0.524716
0.593634 0.173610 0.531798
0.726557 0.175870 0.539016
0.859777 0.177918 0.546384
0.993151 0.179739 0.553909
1.000000 0.181320 0.561602
0.089180 0.297019 0.527279
0.216531 0.299406 0.534409
0.345914 0.301591 0.541681
0.476358 0.303558 0.549105
0.607421 0.305293 0.556690
0.738842 0.306784 0.564446
0.870446 0.308021 0.572379
1.000000 0.308996 0.580496
1.000000 0.309700 0.588800
0.103130 0.429167 0.551847
0.229368 0.430814 0.559494
0.357346 0.432214 0.567313
0.486221 0.433357 0.575313
0.615597 0.434234 0.583497
0.745240 0.434839 0.591871
0.874996 0.435169 0.600437
1.000000 0.435220 0.609197
1.000000 0.434993 0.618150
0.111959 0.558657 0.578271
0.236675 0.559436 0.586524
0.362945 0.559941 0.594967
0.490012 0.560170 0.603604
0.617515 0.560120 0.612434
0.745246 0.559792 0.621458
0.873068 0.559188 0.630673
1.000000 0.558312 0.640077
1.000000 0.557172 0.649664
0.114933 0.685134 0.606796
0.237863 0.684982 0.615697
0.362265 0.684554 0.624791
0.487429 0.683850 0.634075
0.613023 0.682877 0.643546
0.738858 0.681642 0.653199
0.864816 0.680152 0.663028
0.990821 0.678418 0.673024
1.000000 0.676453 0.683180
0.111803 0.808477 0.637502
0.232836 0.807408 0.647040
0.355358 0.806078 0.656757
0.478677 0.804498 0.666648
0.602477 0.802679 0.676704
0.726582 0.800632 0.686916
0.850889 0.798373 0.697273
0.975336 0.795917 0.707765
1.000000 0.793281 0.718379
0.102831 0.928813 0.670290
0.222000 0.926909 0.680404
0.342778 0.924784 0.690670
0.464452 0.922451 0.701078
0.586711 0.919927 0.711616
0.709388 0.917230 0.722271
0.832388 0.914378 0.733031
0.955658 0.911392 0.743881
1.000000 0.908292 0.754806
0.088763 1.000000 0.704900
0.206228 1.000000 0.715482
0.325526 1.000000 0.726177
0.445882 1.000000 0.736971
0.566973 1.000000 0.747851
0.688632 1.000000 0.758800
0.810769 1.000000 0.769804
0.933334 1.000000 0.780846
1.000000 1.000000 0.791912
0.053016 0.028284 0.561395
0.180915 0.031525 0.567905
0.311724 0.034689 0.574468
0.444051 0.037753 0.581099
0.577341 0.040697 0.587813
0.711279 0.043499 0.594626
0.845649 0.046140 0.601551
0.980292 0.048602 0.608600
1.000000 0.050867 0.615786
0.073216 0.163790 0.583533
0.201114 0.166684 0.590282
0.331400 0.169430 0.597133
0.462943 0.172008 0.604102
0.595252 0.174400 0.611200
0.728040 0.176590 0.618439
0.861111 0.178562 0.625829
0.994324 0.180303 0.633381
1.000000 0.181801 0.641103
0.090790 0.297851 0.606670
0.218051 0.300172 0.613818
0.347310 0.302284 0.621111
0.477610 0.304174 0.628559
0.608515 0.305827 0.636172
0.739767 0.307233 0.643958
0.871193 0.308382 0.651922
1.000000 0.309265 0.660072
1.000000 0.309878 0.668410
0.104270 0.429754 0.631312
0.230370 0.431318 0.638986
0.358187 0.432632 0.646836
0.486888 0.433685 0.654868
0.616081 0.434470 0.663086
0.745535 0.434982 0.671494
0.875097 0.435217 0.680094
1.000000 0.435174 0.688889
1.000000 0.434853 0.697876
0.112533 0.558952 0.657838
0.237078 0.559638 0.666124
0.363165 0.560050 0.674603
0.490041 0.560184 0.683274
0.617351 0.560039 0.692138
0.744887 0.559617 0.701195
0.872515 0.558921 0.710443
1.000000 0.557954 0.719878
1.000000 0.556725 0.729494
0.114893 0.685114 0.686478
0.237635 0.684868 0.695413
0.361845 0.684345 0.704540
0.486818 0.683550 0.713857
0.612223 0.682487 0.723358
0.737873 0.681164 0.733039
0.863652 0.679590 0.742893
0.989487 0.677776 0.752912
1.000000 0.675735 0.763088
0.111154 0.808144 0.717294
0.231995 0.806985 0.726862
0.354332 0.805569 0.736607
0.477474 0.803907 0.746522
0.601104 0.802008 0.756599
0.725049 0.799888 0.766829
0.849207 0.797560 0.777201
0.973517 0.795041 0.787704
1.000000 0.792348 0.798324
0.101626 0.928192 0.750173
0.220614 0.926211 0.760307
0.341228 0.924014 0.770589
0.462753 0.921614 0.781010
0.584875 0.919030 0.791557
0.707429 0.916278 0.802217
0.830320 0.913378 0.812977
0.953496 0.910351 0.823823
1.000000 0.907217 0.834739
0.087101 1.000000 0.784836
0.204407 1.000000 0.795426
0.323576 1.000000 0.806124
0.443821 1.000000 0.816917
0.564818 1.000000 0.827790
0.686401 1.000000 0.838728
0.808478 1.000000 0.849715
0.931001 1.000000 0.860736
1.000000 1.000000 0.871775
0.055127 0.029392 0.640453
0.183058 0.032609 0.646954
0.313839 0.035742 0.653513
0.446109 0.038767 0.660146
0.579322 0.041665 0.666867
0.713164 0.044415 0.673692
0.847422 0.046997 0.680632
0.981938 0.049394 0.687701
1.000000 0.051589 0.694911
0.075136 0.164788 0.662582
0.202997 0.167634 0.669339
0.333201 0.170325 0.676204
0.464638 0.172842 0.683190
0.596823 0.175167 0.690309
0.729471 0.177285 0.697573
0.862390 0.179180 0.704992
0.995439 0.180840 0.712574
1.000000 0.182252 0.720329
0.092358 0.298662 0.685766
0.219524 0.300913 0.692936
0.348654 0.302951 0.700255
0.478807 0.304762 0.707733
0.609551 0.306333 0.715377
0.740632 0.307653 0.723196
0.871876 0.308712 0.731196
1.000000 0.309504 0.739383
1.000000 0.310023 0.747759
0.105356 0.430312 0.710496
0.231314 0.431793 0.718203
0.358968 0.433019 0.726088
0.487493 0.433982 0.734155
0.616501 0.434675 0.742410
0.745764 0.435093 0.750856
0.875131 0.435234 0.759494
1.000000 0.435096 0.768326
1.000000 0.434681 0.777351
0.113047 0.559216 0.737138
0.237418 0.559809 0.745463
0.363320 0.560127 0.753978
0.490005 0.560166 0.762688
0.617121 0.559927 0.771590
0.744462 0.559411 0.780684
0.871898 0.558623 0.789967
0.999340 0.557566 0.799435
1.000000 0.556249 0.809083
0.114792 0.685061 0.765906
0.237343 0.684721 0.774878
0.361361 0.684106 0.784042
0.486143 0.683219 0.793392
0.611361 0.682066 0.802927
0.736829 0.680657 0.812638
0.862432 0.679000 0.822521
0.988097 0.677108 0.832565
1.000000 0.674992 0.842762
0.110445 0.807779 0.796843
0.231095 0.806532 0.806442
0.353249 0.805032 0.816217
0.476216 0.803288 0.826159
0.599679 0.801313 0.836260
0.723468 0.799120 0.846510
0.847480 0.796725 0.856899
0.971655 0.794145 0.867413
1.000000 0.791397 0.878042
0.100369 0.927545 0.829819
0.219178 0.925489 0.839975
0.339632 0.923221 0.850277
0.461010 0.920756 0.860713
0.583000 0.918113 0.871270
0.705435 0.915309 0.881937
0.828222 0.912364 0.892698
0.951310 0.909298 0.903541
1.000000 0.906133 0.914449
0.085402 1.000000 0.864543
0.202551 1.000000 0.875142
0.321593 1.000000 0.885844
0.441732 1.000000 0.896637
0.562640 1.000000 0.907505
0.684152 1.000000 0.918433
0.806175 1.000000 0.929406
0.928660 1.000000 0.940407
1.000000 1.000000 0.951420
