Fotico/Resources/LUTs/niebla.cube
# Niebla
LUT_3D_SIZE 17
0.198092 0.206957 0.219330
0.223895 0.211030 0.222425
0.249430 0.215094 0.225519
0.274748 0.219152 0.228611
0.299883 0.223203 0.231702
0.324861 0.227247 0.234791
0.349700 0.231285 0.237879
0.374416 0.235317 0.240966
0.399021 0.239342 0.244052
0.423526 0.243362 0.247136
0.447937 0.247376 0.250219
0.472264 0.251385 0.253301
0.496511 0.255388 0.256382
0.520684 0.259386 0.259462
0.544787 0.263379 0.262540
0.568826 0.267368 0.265618
0.592803 0.271351 0.268694
0.213347 0.243816 0.229736
0.238985 0.247829 0.232827
0.264387 0.251837 0.235916
0.289593 0.255840 0.239003
0.314633 0.259838 0.242090
0.339527 0.263830 0.245175
0.364292 0.267818 0.248259
0.388941 0.271801 0.251341
0.413486 0.275780 0.254423
0.437935 0.279753 0.257503
0.462295 0.283723 0.260583
0.486574 0.287688 0.263661
0.510777 0.291649 0.266738
0.534908 0.295606 0.269814
0.558973 0.299559 0.272889
0.582975 0.303508 0.275963
0.606918 0.307454 0.279035
0.228499 0.280202 0.240127
0.253993 0.284171 0.243213
0.279275 0.288136 0.246298
0.304380 0.292097 0.249381
0.329332 0.296053 0.252463
0.354148 0.300006 0.255545
0.378843 0.303954 0.258625
0.403430 0.307899 0.261703
0.427917 0.311840 0.264781
0.452313 0.315778 0.267858
0.476624 0.319712 0.270933
0.500858 0.323642 0.274008
0.525018 0.327569 0.277081
0.549110 0.331492 0.280154
0.573137 0.335412 0.283225
0.597104 0.339329 0.286296
0.621012 0.343243 0.289366
0.243563 0.316222 0.250504
0.268928 0.320156 0.253585
0.294102 0.324086 0.256666
0.319114 0.328012 0.259746
0.343984 0.331935 0.262824
0.368727 0.335855 0.265901
0.393357 0.339772 0.268978
0.417884 0.343685 0.272053
0.442316 0.347595 0.275127
0.466662 0.351502 0.278200
0.490927 0.355406 0.281272
0.515116 0.359307 0.284343
0.539236 0.363206 0.287414
0.563289 0.367101 0.290483
0.587280 0.370993 0.293551
0.611212 0.374883 0.296619
0.635088 0.378770 0.299685
0.258548 0.351944 0.260866
0.283797 0.355847 0.263945
0.308873 0.359748 0.267021
0.333799 0.363646 0.270097
0.358592 0.367541 0.273172
0.383267 0.371433 0.276246
0.407835 0.375322 0.279319
0.432305 0.379209 0.282390
0.456686 0.383093 0.285461
0.480983 0.386974 0.288531
0.505203 0.390853 0.291600
0.529350 0.394729 0.294668
0.553430 0.398602 0.297735
0.577446 0.402473 0.300801
0.601402 0.406342 0.303866
0.625301 0.410208 0.306931
0.649145 0.414071 0.309994
0.273462 0.387412 0.271217
0.298606 0.391291 0.274291
0.323591 0.395166 0.277365
0.348437 0.399040 0.280437
0.373159 0.402910 0.283509
0.397770 0.406778 0.286579
0.422279 0.410644 0.289649
0.446695 0.414508 0.292717
0.471026 0.418369 0.295785
0.495277 0.422227 0.298851
0.519453 0.426084 0.301917
0.543561 0.429938 0.304982
0.567602 0.433789 0.308046
0.591583 0.437639 0.311109
0.615504 0.441486 0.314172
0.639371 0.445332 0.317233
0.663184 0.449175 0.320294
0.288313 0.422663 0.281555
0.313360 0.426519 0.284627
0.338261 0.430373 0.287697
0.363033 0.434225 0.290766
0.387688 0.438074 0.293834
0.412237 0.441921 0.296901
0.436691 0.445766 0.299968
0.461056 0.449609 0.303033
0.485338 0.453450 0.306098
0.509545 0.457288 0.309161
0.533680 0.461125 0.312224
0.557748 0.464959 0.315286
0.581753 0.468792 0.318348
0.605699 0.472623 0.321408
0.629587 0.476451 0.324467
0.653422 0.480278 0.327526
0.677206 0.484103 0.330584
0.303105 0.457722 0.291883
0.328064 0.461558 0.294951
0.352886 0.465393 0.298018
0.377588 0.469225 0.301084
0.402179 0.473055 0.304149
0.426671 0.476884 0.307213
0.451072 0.480710 0.310277
0.475387 0.484535 0.313339
0.499625 0.488357 0.316401
0.523788 0.492178 0.319462
0.547884 0.495997 0.322522
0.571914 0.499814 0.325581
0.595883 0.503629 0.328640
0.619795 0.507442 0.331697
0.643652 0.511254 0.334754
0.667456 0.515064 0.337810
0.691211 0.518872 0.340866
0.317843 0.492609 0.302200
0.342720 0.496428 0.305265
0.367469 0.500245 0.308329
0.392105 0.504060 0.311392
0.416636 0.507873 0.314454
0.441073 0.511685 0.317515
0.465423 0.515494 0.320576
0.489692 0.519302 0.323636
0.513885 0.523108 0.326695
0.538008 0.526913 0.329753
0.562065 0.530715 0.332810
0.586059 0.534517 0.335867
0.609994 0.538316 0.338923
0.633872 0.542114 0.341978
0.657698 0.545910 0.345032
0.681473 0.549704 0.348086
0.705199 0.553497 0.351139
0.332532 0.527342 0.312507
0.357332 0.531145 0.315569
0.382012 0.534946 0.318630
0.406585 0.538745 0.321690
0.431060 0.542543 0.324749
0.455445 0.546339 0.327808
0.479746 0.550133 0.330866
0.503970 0.553926 0.333923
0.528121 0.557717 0.336980
0.552204 0.561507 0.340035
0.576224 0.565295 0.343090
0.600183 0.569081 0.346144
0.624084 0.572866 0.349198
0.647931 0.576650 0.352250
0.671727 0.580432 0.355302
0.695472 0.584212 0.358353
0.719171 0.587991 0.361404
0.347174 0.561935 0.322804
0.371902 0.565723 0.325863
0.396518 0.569509 0.328922
0.421032 0.573294 0.331979
0.445453 0.577077 0.335036
0.469788 0.580859 0.338092
0.494043 0.584639 0.341147
0.518223 0.588418 0.344202
0.542334 0.592195 0.347256
0.566379 0.595971 0.350309
0.590362 0.599746 0.353361
0.614287 0.603519 0.356413
0.638156 0.607290 0.359464
0.661972 0.611061 0.362514
0.685738 0.614830 0.365564
0.709456 0.618597 0.368613
0.733127 0.622363 0.371661
0.361773 0.596398 0.333092
0.386434 0.600172 0.336149
0.410988 0.603945 0.339205
0.435447 0.607717 0.342260
0.459816 0.611487 0.345314
0.484103 0.615255 0.348367
0.508313 0.619023 0.351420
0.532452 0.622789 0.354473
0.556523 0.626553 0.357524
0.580531 0.630316 0.360575
0.604480 0.634078 0.363625
0.628371 0.637839 0.366674
0.652209 0.641598 0.369723
0.675995 0.645356 0.372771
0.699733 0.649113 0.375818
0.723423 0.652868 0.378865
0.747068 0.656622 0.381911
0.376331 0.630742 0.343372
0.400928 0.634503 0.346426
0.425425 0.638264 0.349479
0.449830 0.642023 0.352532
0.474150 0.645781 0.355584
0.498391 0.649537 0.358635
0.522559 0.653293 0.361685
0.546657 0.657047 0.364735
0.570691 0.660799 0.367784
0.594663 0.664551 0.370833
0.618578 0.668301 0.373880
0.642437 0.672050 0.376928
0.666244 0.675798 0.379974
0.690001 0.679544 0.383020
0.713711 0.683290 0.386065
0.737374 0.687034 0.389110
0.760994 0.690777 0.392154
0.390852 0.664975 0.353643
0.415388 0.668725 0.356694
0.439830 0.672473 0.359745
0.464184 0.676221 0.362796
0.488457 0.679967 0.365845
0.512654 0.683713 0.368894
0.536780 0.687457 0.371942
0.560840 0.691199 0.374990
0.584837 0.694941 0.378037
0.608775 0.698681 0.381083
0.632657 0.702421 0.384129
0.656485 0.706159 0.387174
0.680262 0.709896 0.390218
0.703991 0.713632 0.393262
0.727673 0.717366 0.396305
0.751311 0.721100 0.399348
0.774905 0.724832 0.402390
0.405336 0.699104 0.363906
0.429815 0.702843 0.366955
0.454204 0.706581 0.370004
0.478510 0.710318 0.373052
0.502737 0.714054 0.376099
0.526892 0.717788 0.379146
0.550979 0.721522 0.382192
0.575001 0.725254 0.385237
0.598963 0.728985 0.388282
0.622867 0.732715 0.391326
0.646717 0.736444 0.394370
0.670515 0.740172 0.397413
0.694263 0.743899 0.400455
0.717964 0.747624 0.403497
0.741620 0.751349 0.406538
0.765232 0.755073 0.409579
0.788802 0.758795 0.412619
0.419785 0.733137 0.374161
0.444211 0.736865 0.377209
0.468550 0.740593 0.380255
0.492808 0.744320 0.383301
0.516992 0.748045 0.386346
0.541106 0.751770 0.389391
0.565155 0.755493 0.392434
0.589141 0.759216 0.395478
0.613069 0.762937 0.398520
0.636941 0.766657 0.401563
0.660759 0.770377 0.404604
0.684528 0.774095 0.407645
0.708248 0.777812 0.410685
0.731922 0.781528 0.413725
0.755552 0.785244 0.416764
0.779139 0.788958 0.419803
0.802685 0.792671 0.422841
0.434202 0.767078 0.384409
0.458576 0.770797 0.387454
0.482867 0.774515 0.390499
0.507081 0.778232 0.393542
0.531223 0.781948 0.396586
0.555298 0.785663 0.399628
0.579309 0.789377 0.402670
0.603261 0.793090 0.405711
0.627155 0.796802 0.408752
0.650995 0.800513 0.411792
0.674784 0.804224 0.414832
0.698524 0.807933 0.417871
0.722217 0.811641 0.420909
0.745864 0.815348 0.423947
0.769469 0.819054 0.426984
0.793032 0.822760 0.430021
0.816555 0.826464 0.433057
0.199637 0.208341 0.247367
0.225422 0.212411 0.250450
0.250943 0.216473 0.253532
0.276249 0.220529 0.256613
0.301375 0.224577 0.259693
0.326343 0.228619 0.262771
0.351175 0.232655 0.265848
0.375884 0.236684 0.268925
0.400483 0.240708 0.272000
0.424982 0.244726 0.275074
0.449388 0.248738 0.278147
0.473710 0.252745 0.281219
0.497952 0.256746 0.284291
0.522121 0.260743 0.287361
0.546221 0.264734 0.290430
0.570255 0.268721 0.293498
0.594229 0.272703 0.296566
0.214881 0.245179 0.257734
0.240503 0.249191 0.260814
0.265893 0.253197 0.263892
0.291089 0.257198 0.266969
0.316119 0.261194 0.270044
0.341005 0.265185 0.273119
0.365763 0.269171 0.276193
0.390405 0.273153 0.279266
0.414944 0.277130 0.282338
0.439387 0.281102 0.285408
0.463743 0.285070 0.288478
0.488017 0.289034 0.291547
0.512215 0.292994 0.294615
0.536343 0.296949 0.297682
0.560404 0.300901 0.300748
0.584402 0.304849 0.303814
0.608341 0.308793 0.306878
0.230024 0.281551 0.268088
0.255503 0.285518 0.271164
0.280775 0.289482 0.274238
0.305870 0.293441 0.277312
0.330813 0.297396 0.280384
0.355622 0.301347 0.283456
0.380310 0.305294 0.286526
0.404891 0.309238 0.289596
0.429372 0.313178 0.292664
0.453763 0.317114 0.295732
0.478069 0.321047 0.298799
0.502298 0.324976 0.301864
0.526454 0.328902 0.304929
0.550542 0.332824 0.307993
0.574566 0.336743 0.311057
0.598529 0.340659 0.314119
0.622434 0.344571 0.317180
0.245079 0.317559 0.278431
0.270432 0.321491 0.281503
0.295596 0.325420 0.284574
0.320599 0.329345 0.287644
0.345461 0.333267 0.290713
0.370197 0.337186 0.293781
0.394820 0.341101 0.296848
0.419341 0.345013 0.299915
0.443768 0.348922 0.302980
0.468109 0.352828 0.306045
0.492369 0.356732 0.309109
0.516554 0.360632 0.312172
0.540670 0.364529 0.315234
0.564719 0.368423 0.318295
0.588706 0.372315 0.321355
0.612635 0.376203 0.324415
0.636508 0.380089 0.327474
0.260057 0.353270 0.288761
0.285294 0.357172 0.291830
0.310361 0.361072 0.294898
0.335279 0.364969 0.297965
0.360065 0.368863 0.301031
0.384733 0.372754 0.304096
0.409295 0.376643 0.307160
0.433759 0.380528 0.310224
0.458134 0.384411 0.313286
0.482427 0.388291 0.316348
0.506642 0.392169 0.319409
0.530786 0.396044 0.322469
0.554862 0.399917 0.325529
0.578874 0.403787 0.328587
0.602827 0.407655 0.331645
0.626722 0.411520 0.334702
0.650563 0.415383 0.337758
0.274964 0.388730 0.299081
0.300098 0.392607 0.302147
0.325074 0.396482 0.305212
0.349912 0.400354 0.308276
0.374628 0.404224 0.311339
0.399232 0.408092 0.314401
0.423735 0.411957 0.317463
0.448146 0.415819 0.320523
0.472472 0.419679 0.323583
0.496718 0.423537 0.326642
0.520891 0.427393 0.329700
0.544994 0.431246 0.332758
0.569032 0.435097 0.335814
0.593009 0.438946 0.338870
0.616927 0.442793 0.341925
0.640790 0.446637 0.344980
0.664601 0.450479 0.348033
0.289809 0.423973 0.309391
0.314847 0.427828 0.312454
0.339740 0.431681 0.315516
0.364504 0.435532 0.318577
0.389152 0.439381 0.321637
0.413696 0.443227 0.324697
0.438144 0.447071 0.327756
0.462504 0.450913 0.330813
0.486782 0.454754 0.333871
0.510984 0.458591 0.336927
0.535115 0.462427 0.339983
0.559179 0.466261 0.343037
0.583181 0.470093 0.346092
0.607123 0.473923 0.349145
0.631008 0.477751 0.352198
0.654840 0.481577 0.355250
0.678621 0.485401 0.358301
0.304595 0.459025 0.319691
0.329545 0.462861 0.322751
0.354360 0.466694 0.325811
0.379055 0.470526 0.328869
0.403640 0.474356 0.331927
0.428127 0.478183 0.334983
0.452522 0.482009 0.338040
0.476833 0.485833 0.341095
0.501065 0.489655 0.344149
0.525225 0.493475 0.347203
0.549316 0.497293 0.350256
0.573343 0.501110 0.353309
0.597309 0.504924 0.356361
0.621217 0.508737 0.359412
0.645071 0.512548 0.362462
0.668872 0.516357 0.365512
0.692624 0.520165 0.368561
0.319328 0.493907 0.329982
0.344197 0.497725 0.333040
0.368939 0.501541 0.336096
0.393568 0.505355 0.339152
0.418094 0.509168 0.342207
0.442525 0.512979 0.345261
0.466870 0.516788 0.348315
0.491134 0.520595 0.351368
0.515323 0.524400 0.354420
0.539442 0.528204 0.357471
0.563495 0.532007 0.360522
0.587485 0.535807 0.363572
0.611417 0.539606 0.366622
0.635293 0.543403 0.369670
0.659115 0.547199 0.372719
0.682887 0.550993 0.375766
0.706610 0.554785 0.378813
0.334012 0.528634 0.340264
0.358804 0.532436 0.343319
0.383478 0.536236 0.346373
0.408045 0.540035 0.349426
0.432515 0.543832 0.352479
0.456894 0.547628 0.355531
0.481191 0.551421 0.358582
0.505410 0.555214 0.361633
0.529557 0.559004 0.364683
0.553636 0.562793 0.367732
0.577652 0.566581 0.370780
0.601607 0.570367 0.373828
0.625505 0.574151 0.376875
0.649349 0.577934 0.379922
0.673142 0.581716 0.382968
0.696885 0.585496 0.386013
0.720581 0.589274 0.389057
0.348650 0.563221 0.350538
0.373371 0.567009 0.353590
0.397981 0.570794 0.356642
0.422489 0.574579 0.359693
0.446904 0.578362 0.362743
0.471234 0.582143 0.365793
0.495484 0.585923 0.368842
0.519660 0.589701 0.371890
0.543767 0.593478 0.374937
0.567808 0.597253 0.377984
0.591788 0.601027 0.381031
0.615709 0.604800 0.384076
0.639575 0.608571 0.387121
0.663388 0.612341 0.390166
0.687151 0.616109 0.393210
0.710866 0.619876 0.396253
0.734535 0.623642 0.399295
0.363245 0.597680 0.360803
0.387899 0.601454 0.363853
0.412447 0.605226 0.366903
0.436900 0.608997 0.369951
0.461264 0.612767 0.372999
0.485546 0.616535 0.376047
0.509752 0.620302 0.379094
0.533887 0.624067 0.382140
0.557954 0.627831 0.385185
0.581959 0.631594 0.388230
0.605904 0.635356 0.391274
0.629792 0.639116 0.394318
0.653627 0.642875 0.397360
0.677410 0.646632 0.400403
0.701144 0.650388 0.403445
0.724832 0.654143 0.406486
0.748475 0.657897 0.409526
0.377799 0.632019 0.371061
0.402390 0.635781 0.374109
0.426881 0.639541 0.377156
0.451280 0.643299 0.380203
0.475596 0.647057 0.383248
0.499832 0.650813 0.386294
0.523995 0.654568 0.389338
0.548090 0.658321 0.392382
0.572120 0.662073 0.395425
0.596089 0.665824 0.398468
0.620000 0.669574 0.401510
0.643856 0.673323 0.404552
0.667660 0.677070 0.407593
0.691414 0.680816 0.410633
0.715121 0.684561 0.413673
0.738782 0.688305 0.416712
0.762399 0.692047 0.419751
0.392315 0.666248 0.381312
0.416846 0.669998 0.384357
0.441282 0.673746 0.387402
0.465631 0.677494 0.390446
0.489900 0.681240 0.393490
0.514092 0.684984 0.396533
0.538215 0.688728 0.399576
0.562271 0.692470 0.402618
0.586264 0.696211 0.405659
0.610199 0.699951 0.408700
0.634077 0.703690 0.411740
0.657902 0.707428 0.414779
0.681677 0.711165 0.417818
0.705402 0.714900 0.420857
0.729082 0.718634 0.423895
0.752717 0.722367 0.426932
0.776309 0.726099 0.429969
0.406796 0.700374 0.391555
0.431270 0.704113 0.394598
0.455654 0.707850 0.397641
0.479954 0.711587 0.400683
0.504177 0.715322 0.403725
0.528328 0.719056 0.406766
0.552411 0.722789 0.409807
0.576429 0.726521 0.412847
0.600388 0.730252 0.415886
0.624289 0.733982 0.418925
0.648136 0.737710 0.421963
0.671930 0.741438 0.425001
0.695676 0.745164 0.428038
0.719374 0.748889 0.431074
0.743027 0.752614 0.434110
0.766637 0.756337 0.437146
0.790205 0.760059 0.440181
0.421242 0.734403 0.401791
0.445662 0.738131 0.404832
0.469996 0.741859 0.407873
0.494250 0.745585 0.410913
0.518430 0.749310 0.413953
0.542540 0.753035 0.416992
0.566585 0.756758 0.420031
0.590567 0.760480 0.423069
0.614492 0.764201 0.426106
0.638360 0.767921 0.429143
0.662176 0.771640 0.432180
0.685942 0.775357 0.435216
0.709659 0.779074 0.438251
0.733330 0.782790 0.441286
0.756957 0.786505 0.444320
0.780542 0.790219 0.447354
0.804086 0.793932 0.450387
0.435656 0.768341 0.412020
0.460024 0.772060 0.415060
0.484311 0.775777 0.418099
0.508520 0.779494 0.421137
0.532658 0.783210 0.424175
0.556729 0.786925 0.427212
0.580737 0.790638 0.430249
0.604685 0.794351 0.433285
0.628576 0.798063 0.436321
0.652413 0.801774 0.439356
0.676199 0.805483 0.442390
0.699936 0.809192 0.445424
0.723626 0.812900 0.448458
0.747271 0.816607 0.451491
0.770873 0.820313 0.454524
0.794433 0.824018 0.457556
0.817954 0.827722 0.460587
0.201181 0.209724 0.275305
0.226949 0.213791 0.278378
0.252456 0.217851 0.281450
0.277750 0.221904 0.284521
0.302865 0.225951 0.287591
0.327826 0.229990 0.290660
0.352649 0.234024 0.293728
0.377352 0.238051 0.296796
0.401945 0.242073 0.299862
0.426437 0.246089 0.302928
0.450839 0.250099 0.305992
0.475155 0.254104 0.309056
0.499393 0.258104 0.312119
0.523558 0.262099 0.315181
0.547653 0.266089 0.318242
0.571684 0.270074 0.321303
0.595654 0.274054 0.324362
0.216414 0.246542 0.285639
0.242021 0.250552 0.288709
0.267398 0.254556 0.291777
0.292583 0.258556 0.294845
0.317605 0.262550 0.297912
0.342482 0.266539 0.300978
0.367233 0.270524 0.304043
0.391869 0.274504 0.307108
0.416402 0.278479 0.310171
0.440840 0.282450 0.313234
0.465190 0.286417 0.316296
0.489460 0.290379 0.319356
0.513654 0.294337 0.322417
0.537778 0.298292 0.325476
0.561835 0.302242 0.328534
0.585829 0.306188 0.331592
0.609765 0.310131 0.334649
0.231548 0.282898 0.295962
0.257014 0.286865 0.299029
0.282274 0.290827 0.302094
0.307359 0.294784 0.305159
0.332294 0.298738 0.308223
0.357095 0.302688 0.311286
0.381777 0.306634 0.314349
0.406351 0.310576 0.317410
0.430827 0.314515 0.320471
0.455212 0.318450 0.323530
0.479514 0.322381 0.326589
0.503739 0.326309 0.329648
0.527890 0.330234 0.332705
0.551974 0.334155 0.335762
0.575994 0.338073 0.338818
0.599954 0.341988 0.341873
0.623856 0.345899 0.344927
0.246595 0.318894 0.306275
0.271935 0.322825 0.309338
0.297089 0.326753 0.312401
0.322083 0.330677 0.315463
0.346937 0.334598 0.318524
0.371666 0.338516 0.321585
0.396283 0.342430 0.324644
0.420798 0.346341 0.327703
0.445220 0.350249 0.330761
0.469555 0.354154 0.333818
0.493811 0.358056 0.336874
0.517992 0.361955 0.339930
0.542103 0.365852 0.342985
0.566149 0.369745 0.346039
0.590133 0.373636 0.349093
0.614058 0.377523 0.352145
0.637928 0.381408 0.355197
0.261565 0.354595 0.316578
0.286792 0.358497 0.319639
0.311849 0.362396 0.322699
0.336758 0.366292 0.325758
0.361537 0.370185 0.328816
0.386198 0.374075 0.331874
0.410754 0.377962 0.334931
0.435213 0.381847 0.337987
0.459583 0.385729 0.341042
0.483871 0.389609 0.344097
0.508082 0.393486 0.347151
0.532221 0.397360 0.350204
0.556293 0.401232 0.353256
0.580302 0.405101 0.356308
0.604251 0.408968 0.359359
0.628143 0.412832 0.362410
0.651981 0.416694 0.365459
0.276466 0.390047 0.326871
0.301589 0.393923 0.329930
0.326557 0.397797 0.332987
0.351387 0.401669 0.336044
0.376096 0.405538 0.339099
0.400694 0.409404 0.342154
0.425191 0.413269 0.345209
0.449597 0.417130 0.348262
0.473918 0.420990 0.351315
0.498160 0.424847 0.354368
0.522328 0.428702 0.357419
0.546427 0.432554 0.360470
0.570461 0.436404 0.363520
0.594434 0.440253 0.366569
0.618349 0.444098 0.369618
0.642209 0.447942 0.372666
0.666017 0.451784 0.375714
0.291304 0.425282 0.337156
0.316333 0.429137 0.340212
0.341218 0.432989 0.343267
0.365974 0.436839 0.346321
0.390616 0.440687 0.349374
0.415154 0.444533 0.352427
0.439597 0.448376 0.355479
0.463951 0.452218 0.358530
0.488225 0.456057 0.361580
0.512423 0.459894 0.364630
0.536550 0.463730 0.367679
0.560610 0.467563 0.370728
0.584608 0.471394 0.373776
0.608546 0.475223 0.376823
0.632429 0.479050 0.379869
0.656257 0.482876 0.382915
0.680035 0.486699 0.385960
0.306085 0.460328 0.347432
0.331026 0.464163 0.350485
0.355834 0.467996 0.353538
0.380522 0.471827 0.356589
0.405101 0.475656 0.359640
0.429582 0.479483 0.362691
0.453971 0.483308 0.365740
0.478278 0.487131 0.368789
0.502506 0.490952 0.371837
0.526661 0.494772 0.374885
0.550749 0.498589 0.377932
0.574772 0.502405 0.380978
0.598734 0.506219 0.384024
0.622639 0.510031 0.387069
0.646489 0.513842 0.390113
0.670288 0.517650 0.393157
0.694036 0.521457 0.396200
0.320813 0.495203 0.357700
0.345673 0.499021 0.360751
0.370409 0.502836 0.363801
0.395031 0.506650 0.366850
0.419551 0.510462 0.369899
0.443977 0.514272 0.372947
0.468317 0.518081 0.375994
0.492577 0.521887 0.379041
0.516761 0.525692 0.382087
0.540876 0.529496 0.385133
0.564925 0.533297 0.388177
0.588912 0.537097 0.391222
0.612840 0.540896 0.394265
0.636712 0.544692 0.397308
0.660532 0.548487 0.400350
0.684301 0.552281 0.403392
0.708021 0.556073 0.406433
0.335492 0.529925 0.367960
0.360277 0.533727 0.371009
0.384944 0.537527 0.374057
0.409505 0.541325 0.377104
0.433969 0.545121 0.380150
0.458343 0.548916 0.383196
0.482635 0.552709 0.386241
0.506850 0.556501 0.389286
0.530993 0.560291 0.392330
0.555068 0.564080 0.395373
0.579080 0.567867 0.398416
0.603032 0.571652 0.401458
0.626927 0.575436 0.404500
0.650768 0.579219 0.407540
0.674557 0.583000 0.410581
0.698297 0.586779 0.413621
0.721990 0.590557 0.416660
0.350125 0.564508 0.378213
0.374839 0.568295 0.381259
0.399443 0.572080 0.384305
0.423945 0.575864 0.387350
0.448355 0.579646 0.390394
0.472680 0.583427 0.393438
0.496926 0.587206 0.396481
0.521098 0.590984 0.399523
0.545200 0.594760 0.402565
0.569238 0.598535 0.405607
0.593214 0.602309 0.408647
0.617132 0.606081 0.411688
0.640995 0.609851 0.414727
0.664805 0.613621 0.417766
0.688565 0.617389 0.420805
0.712277 0.621155 0.423843
0.735943 0.624920 0.426880
0.364716 0.598962 0.388458
0.389363 0.602735 0.391502
0.413906 0.606507 0.394546
0.438353 0.610277 0.397589
0.462712 0.614047 0.400631
0.486990 0.617814 0.403673
0.511191 0.621581 0.406714
0.535322 0.625346 0.409754
0.559385 0.629109 0.412794
0.583386 0.632872 0.415834
0.607328 0.636633 0.418872
0.631213 0.640392 0.421911
0.655044 0.644151 0.424948
0.678824 0.647908 0.427986
0.702556 0.651664 0.431022
0.726241 0.655418 0.434058
0.749881 0.659172 0.437094
0.379266 0.633297 0.398696
0.403851 0.637058 0.401738
0.428336 0.640817 0.404780
0.452730 0.644575 0.407821
0.477041 0.648332 0.410861
0.501273 0.652088 0.413901
0.525432 0.655842 0.416940
0.549522 0.659596 0.419979
0.573549 0.663347 0.423017
0.597514 0.667098 0.426054
0.621422 0.670847 0.429091
0.645275 0.674596 0.432128
0.669076 0.678343 0.435163
0.692827 0.682088 0.438199
0.716531 0.685833 0.441233
0.740189 0.689576 0.444268
0.763804 0.693318 0.447302
0.393779 0.667522 0.408928
0.418304 0.671271 0.411968
0.442735 0.675019 0.415007
0.467079 0.678766 0.418046
0.491342 0.682511 0.421085
0.515531 0.686256 0.424123
0.539649 0.689999 0.427160
0.563701 0.693741 0.430197
0.587691 0.697482 0.433233
0.611622 0.701221 0.436268
0.635497 0.704960 0.439304
0.659319 0.708697 0.442338
0.683091 0.712433 0.445372
0.706814 0.716168 0.448406
0.730490 0.719902 0.451439
0.754123 0.723635 0.454471
0.777712 0.727367 0.457504
0.408256 0.701644 0.419153
0.432724 0.705382 0.422191
0.457103 0.709119 0.425228
0.481399 0.712855 0.428265
0.505617 0.716590 0.431302
0.529764 0.720324 0.434338
0.553843 0.724057 0.437374
0.577858 0.727788 0.440408
0.601812 0.731519 0.443443
0.625710 0.735248 0.446477
0.649554 0.738976 0.449510
0.673346 0.742703 0.452543
0.697088 0.746429 0.455575
0.720784 0.750154 0.458607
0.744434 0.753878 0.461639
0.768041 0.757601 0.464669
0.791607 0.761323 0.467700
0.422699 0.735669 0.429371
0.447113 0.739397 0.432407
0.471442 0.743124 0.435443
0.495692 0.746850 0.438479
0.519868 0.750575 0.441513
0.543974 0.754299 0.444547
0.568014 0.758022 0.447581
0.591993 0.761743 0.450614
0.615914 0.765464 0.453647
0.639780 0.769184 0.456679
0.663592 0.772902 0.459711
0.687355 0.776620 0.462742
0.711070 0.780336 0.465773
0.734738 0.784052 0.468803
0.758363 0.787766 0.471833
0.781945 0.791480 0.474862
0.805487 0.795192 0.477891
0.437109 0.769604 0.439583
0.461473 0.773322 0.442618
0.485754 0.777040 0.445652
0.509960 0.780756 0.448686
0.534094 0.784472 0.451719
0.558161 0.788186 0.454751
0.582165 0.791899 0.457783
0.606109 0.795612 0.460815
0.629997 0.799323 0.463846
0.653831 0.803034 0.466876
0.677614 0.806743 0.469906
0.701348 0.810451 0.472936
0.725035 0.814159 0.475965
0.748677 0.817865 0.478993
0.772277 0.821571 0.482021
0.795835 0.825276 0.485049
0.819353 0.828979 0.488076
0.202723 0.211106 0.303157
0.228474 0.215171 0.306222
0.253967 0.219228 0.309286
0.279250 0.223279 0.312349
0.304356 0.227323 0.315411
0.329307 0.231361 0.318472
0.354124 0.235392 0.321532
0.378819 0.239418 0.324592
0.403406 0.243437 0.327650
0.427893 0.247451 0.330708
0.452289 0.251460 0.333765
0.476600 0.255463 0.336822
0.500834 0.259461 0.339878
0.524994 0.263454 0.342932
0.549086 0.267443 0.345987
0.573113 0.271426 0.349040
0.597080 0.275405 0.352093
0.217946 0.247905 0.313463
0.243538 0.251913 0.316525
0.268903 0.255915 0.319586
0.294077 0.259913 0.322646
