Fotico/Resources/LUTs/niebla.cube
# Niebla
LUT_3D_SIZE 9
0.198092 0.206957 0.219330
0.249430 0.215094 0.225519
0.299883 0.223203 0.231702
0.349700 0.231285 0.237879
0.399021 0.239342 0.244052
0.447937 0.247376 0.250219
0.496511 0.255388 0.256382
0.544787 0.263379 0.262540
0.592803 0.271351 0.268694
0.228499 0.280202 0.240127
0.279275 0.288136 0.246298
0.329332 0.296053 0.252463
0.378843 0.303954 0.258625
0.427917 0.311840 0.264781
0.476624 0.319712 0.270933
0.525018 0.327569 0.277081
0.573137 0.335412 0.283225
0.621012 0.343243 0.289366
0.258548 0.351944 0.260866
0.308873 0.359748 0.267021
0.358592 0.367541 0.273172
0.407835 0.375322 0.279319
0.456686 0.383093 0.285461
0.505203 0.390853 0.291600
0.553430 0.398602 0.297735
0.601402 0.406342 0.303866
0.649145 0.414071 0.309994
0.288313 0.422663 0.281555
0.338261 0.430373 0.287697
0.387688 0.438074 0.293834
0.436691 0.445766 0.299968
0.485338 0.453450 0.306098
0.533680 0.461125 0.312224
0.581753 0.468792 0.318348
0.629587 0.476451 0.324467
0.677206 0.484103 0.330584
0.317843 0.492609 0.302200
0.367469 0.500245 0.308329
0.416636 0.507873 0.314454
0.465423 0.515494 0.320576
0.513885 0.523108 0.326695
0.562065 0.530715 0.332810
0.609994 0.538316 0.338923
0.657698 0.545910 0.345032
0.705199 0.553497 0.351139
0.347174 0.561935 0.322804
0.396518 0.569509 0.328922
0.445453 0.577077 0.335036
0.494043 0.584639 0.341147
0.542334 0.592195 0.347256
0.590362 0.599746 0.353361
0.638156 0.607290 0.359464
0.685738 0.614830 0.365564
0.733127 0.622363 0.371661
0.376331 0.630742 0.343372
0.425425 0.638264 0.349479
0.474150 0.645781 0.355584
0.522559 0.653293 0.361685
0.570691 0.660799 0.367784
0.618578 0.668301 0.373880
0.666244 0.675798 0.379974
0.713711 0.683290 0.386065
0.760994 0.690777 0.392154
0.405336 0.699104 0.363906
0.454204 0.706581 0.370004
0.502737 0.714054 0.376099
0.550979 0.721522 0.382192
0.598963 0.728985 0.388282
0.646717 0.736444 0.394370
0.694263 0.743899 0.400455
0.741620 0.751349 0.406538
0.788802 0.758795 0.412619
0.434202 0.767078 0.384409
0.482867 0.774515 0.390499
0.531223 0.781948 0.396586
0.579309 0.789377 0.402670
0.627155 0.796802 0.408752
0.674784 0.804224 0.414832
0.722217 0.811641 0.420909
0.769469 0.819054 0.426984
0.816555 0.826464 0.433057
0.201181 0.209724 0.275305
0.252456 0.217851 0.281450
0.302865 0.225951 0.287591
0.352649 0.234024 0.293728
0.401945 0.242073 0.299862
0.450839 0.250099 0.305992
0.499393 0.258104 0.312119
0.547653 0.266089 0.318242
0.595654 0.274054 0.324362
0.231548 0.282898 0.295962
0.282274 0.290827 0.302094
0.332294 0.298738 0.308223
0.381777 0.306634 0.314349
0.430827 0.314515 0.320471
0.479514 0.322381 0.326589
0.527890 0.330234 0.332705
0.575994 0.338073 0.338818
0.623856 0.345899 0.344927
0.261565 0.354595 0.316578
0.311849 0.362396 0.322699
0.361537 0.370185 0.328816
0.410754 0.377962 0.334931
0.459583 0.385729 0.341042
0.508082 0.393486 0.347151
0.556293 0.401232 0.353256
0.604251 0.408968 0.359359
0.651981 0.416694 0.365459
0.291304 0.425282 0.337156
0.341218 0.432989 0.343267
0.390616 0.440687 0.349374
0.439597 0.448376 0.355479
0.488225 0.456057 0.361580
0.536550 0.463730 0.367679
0.584608 0.471394 0.373776
0.632429 0.479050 0.379869
0.680035 0.486699 0.385960
0.320813 0.495203 0.357700
0.370409 0.502836 0.363801
0.419551 0.510462 0.369899
0.468317 0.518081 0.375994
0.516761 0.525692 0.382087
0.564925 0.533297 0.388177
0.612840 0.540896 0.394265
0.660532 0.548487 0.400350
0.708021 0.556073 0.406433
0.350125 0.564508 0.378213
0.399443 0.572080 0.384305
0.448355 0.579646 0.390394
0.496926 0.587206 0.396481
0.545200 0.594760 0.402565
0.593214 0.602309 0.408647
0.640995 0.609851 0.414727
0.688565 0.617389 0.420805
0.735943 0.624920 0.426880
0.379266 0.633297 0.398696
0.428336 0.640817 0.404780
0.477041 0.648332 0.410861
0.525432 0.655842 0.416940
0.573549 0.663347 0.423017
0.621422 0.670847 0.429091
0.669076 0.678343 0.435163
0.716531 0.685833 0.441233
0.763804 0.693318 0.447302
0.408256 0.701644 0.419153
0.457103 0.709119 0.425228
0.505617 0.716590 0.431302
0.553843 0.724057 0.437374
0.601812 0.731519 0.443443
0.649554 0.738976 0.449510
0.697088 0.746429 0.455575
0.744434 0.753878 0.461639
0.791607 0.761323 0.467700
0.437109 0.769604 0.439583
0.485754 0.777040 0.445652
0.534094 0.784472 0.451719
0.582165 0.791899 0.457783
0.629997 0.799323 0.463846
0.677614 0.806743 0.469906
0.725035 0.814159 0.475965
0.772277 0.821571 0.482021
0.819353 0.828979 0.488076
0.204265 0.212487 0.330938
0.255478 0.220605 0.337051
0.305845 0.228695 0.343161
0.355597 0.236760 0.349269
0.404866 0.244801 0.355374
0.453739 0.252820 0.361475
0.502274 0.260818 0.367574
0.550518 0.268796 0.373671
0.598505 0.276755 0.379765
0.234592 0.285593 0.351492
0.285270 0.293515 0.357595
0.335254 0.301421 0.363696
0.384709 0.309312 0.369794
0.433735 0.317188 0.375890
0.482403 0.325050 0.381982
0.530762 0.332898 0.388073
0.578850 0.340732 0.394160
0.626698 0.348554 0.400246
0.264579 0.357246 0.372014
0.314822 0.365042 0.378108
0.364479 0.372827 0.384200
0.413672 0.380601 0.390289
0.462480 0.388364 0.396376
0.510960 0.396117 0.402461
0.559156 0.403860 0.408543
0.607099 0.411593 0.414623
0.654816 0.419316 0.420700
0.294293 0.427901 0.392506
0.344172 0.435605 0.398592
0.393544 0.443299 0.404675
0.442501 0.450986 0.410757
0.491110 0.458664 0.416835
0.539418 0.466333 0.422912
0.587462 0.473995 0.428987
0.635269 0.481649 0.435059
0.682863 0.489295 0.441129
0.323780 0.497796 0.412970
0.373346 0.505427 0.419048
0.422465 0.513050 0.425124
0.471210 0.520666 0.431198
0.519637 0.528276 0.437269
0.567785 0.535879 0.443338
0.615686 0.543475 0.449406
0.663365 0.551064 0.455471
0.710843 0.558647 0.461534
0.353074 0.567080 0.433408
0.402365 0.574650 0.439479
0.451256 0.582214 0.445548
0.499808 0.589772 0.451614
0.548066 0.597324 0.457679
0.596065 0.604871 0.463741
0.643833 0.612412 0.469802
0.691391 0.619947 0.475860
0.738759 0.627477 0.481917
0.382199 0.635851 0.453822
0.431246 0.643370 0.459886
0.479930 0.650883 0.465948
0.528304 0.658392 0.472008
0.576406 0.665895 0.478066
0.624265 0.673393 0.484122
0.671907 0.680887 0.490176
0.719351 0.688375 0.496228
0.766613 0.695859 0.502279
0.411174 0.704183 0.474213
0.460000 0.711657 0.480271
0.508496 0.719126 0.486326
0.556706 0.726591 0.492380
0.604661 0.734052 0.498431
0.652390 0.741508 0.504481
0.699912 0.748960 0.510529
0.747248 0.756407 0.516576
0.794410 0.763850 0.522620
0.440015 0.772130 0.494583
0.488641 0.779564 0.500634
0.536963 0.786995 0.506683
0.585019 0.794421 0.512731
0.632838 0.801843 0.518776
0.680443 0.809262 0.524821
0.727853 0.816677 0.530863
0.775084 0.824087 0.536904
0.822151 0.831494 0.542943
0.207345 0.215247 0.386312
0.258498 0.223355 0.392401
0.308823 0.231437 0.398487
0.358543 0.239493 0.404571
0.407787 0.247527 0.410652
0.456637 0.255538 0.416731
0.505155 0.263530 0.422808
0.553383 0.271501 0.428882
0.601355 0.279454 0.434954
0.237633 0.288285 0.406785
0.288263 0.296202 0.412865
0.338212 0.304103 0.418943
0.387639 0.311989 0.425019
0.436642 0.319860 0.431093
0.485290 0.327716 0.437165
0.533632 0.335560 0.443234
0.581706 0.343390 0.449301
0.629540 0.351208 0.455367
0.267590 0.359895 0.427231
0.317794 0.367687 0.433304
0.367420 0.375469 0.439375
0.416588 0.383239 0.445443
0.465375 0.390999 0.451510
0.513837 0.398748 0.457574
0.562017 0.406487 0.463637
0.609946 0.414217 0.469698
0.657651 0.421937 0.475756
0.297279 0.430518 0.447652
0.347125 0.438219 0.453718
0.396470 0.445911 0.459782
0.445405 0.453594 0.465844
0.493995 0.461269 0.471904
0.542286 0.468936 0.477961
0.590314 0.476595 0.484018
0.638109 0.484246 0.490072
0.685691 0.491890 0.496124
0.326746 0.500389 0.468050
0.376283 0.508017 0.474109
0.425377 0.515637 0.480166
0.474102 0.523251 0.486222
0.522511 0.530859 0.492275
0.570643 0.538459 0.498327
0.618531 0.546053 0.504377
0.666197 0.553640 0.510425
0.713664 0.561221 0.516472
0.356022 0.569651 0.488426
0.405287 0.577219 0.494479
0.454156 0.584781 0.500530
0.502689 0.592337 0.506579
0.550931 0.599888 0.512627
0.598916 0.607432 0.518673
0.646670 0.614971 0.524717
0.694216 0.622505 0.530759
0.741573 0.630033 0.536800
0.385131 0.638405 0.508781
0.434154 0.645922 0.514828
0.482819 0.653434 0.520873
0.531175 0.660940 0.526917
0.579262 0.668442 0.532958
0.627108 0.675939 0.538999
0.674737 0.683430 0.545037
0.722170 0.690917 0.551074
0.769422 0.698400 0.557109
0.414092 0.706722 0.529116
0.462897 0.714194 0.535158
0.511375 0.721662 0.541197
0.559568 0.729125 0.547235
0.607509 0.736584 0.553271
0.655225 0.744039 0.559306
0.702736 0.751489 0.565339
0.750060 0.758935 0.571371
0.797213 0.766377 0.577401
0.442920 0.774655 0.549433
0.491526 0.782088 0.555469
0.539831 0.789517 0.561503
0.587873 0.796942 0.567536
0.635678 0.804363 0.573567
0.683271 0.811780 0.579596
0.730670 0.819194 0.585624
0.777891 0.826603 0.591651
0.824949 0.834009 0.597676
0.210420 0.218004 0.441480
0.261515 0.226103 0.447548
0.311799 0.234176 0.453614
0.361488 0.242224 0.459678
0.410706 0.250250 0.465739
0.459535 0.258255 0.471799
0.508034 0.266239 0.477857
0.556246 0.274204 0.483913
0.604204 0.282151 0.489968
0.240671 0.290976 0.461885
0.291254 0.298887 0.467946
0.341169 0.306783 0.474005
0.390568 0.314663 0.480062
0.439548 0.322529 0.486118
0.488177 0.330382 0.492171
0.536502 0.338220 0.498223
0.584560 0.346047 0.504273
0.632381 0.353860 0.510321
0.270598 0.362542 0.482267
0.320763 0.370331 0.488322
0.370360 0.378109 0.494375
0.419503 0.385875 0.500426
0.468269 0.393631 0.506475
0.516714 0.401377 0.512523
0.564877 0.409113 0.518569
0.612793 0.416839 0.524613
0.660485 0.424556 0.530655
0.300263 0.433134 0.502628
0.350076 0.440832 0.508677
0.399394 0.448521 0.514724
0.448307 0.456202 0.520769
0.496878 0.463874 0.526813
0.545153 0.471538 0.532854
0.593167 0.479194 0.538895
0.640947 0.486843 0.544933
0.688518 0.494484 0.550970
0.329709 0.502980 0.522970
0.379217 0.510605 0.529012
0.428288 0.518224 0.535054
0.476993 0.525836 0.541093
0.525384 0.533440 0.547131
0.573501 0.541039 0.553168
0.621375 0.548630 0.559202
0.669029 0.556215 0.565236
0.716484 0.563794 0.571267
0.358968 0.572222 0.543292
0.408207 0.579788 0.549329
0.457055 0.587348 0.555365
0.505569 0.594902 0.561399
0.553795 0.602451 0.567432
0.601765 0.609993 0.573463
0.649507 0.617530 0.579493
0.697041 0.625062 0.585521
0.744387 0.632588 0.591548
0.388061 0.640959 0.563596
0.437061 0.648474 0.569628
0.485706 0.655984 0.575658
0.534046 0.663489 0.581687
0.582117 0.670989 0.587715
0.629950 0.678483 0.593741
0.677567 0.685974 0.599766
0.724988 0.693459 0.605789
0.772230 0.700940 0.611811
0.417008 0.709260 0.583882
0.465792 0.716731 0.589909
0.514252 0.724197 0.595935
0.562429 0.731659 0.601959
0.610356 0.739116 0.607982
0.658059 0.746570 0.614003
0.705559 0.754018 0.620023
0.752873 0.761463 0.626042
0.800015 0.768903 0.632059
0.445823 0.777180 0.604152
0.494410 0.784611 0.610174
0.542699 0.792039 0.616195
0.590725 0.799463 0.622215
0.638517 0.806883 0.628233
0.686098 0.814298 0.634250
0.733486 0.821710 0.640265
0.780698 0.829119 0.646279
0.827746 0.836523 0.652292
0.213491 0.220757 0.496474
0.264529 0.228847 0.502524
0.314773 0.236912 0.508573
0.364430 0.244952 0.514620
0.413623 0.252971 0.520665
0.462431 0.260968 0.526709
0.510912 0.268946 0.532751
0.559108 0.276905 0.538791
0.607052 0.284846 0.544829
0.243706 0.293664 0.516821
0.294243 0.301570 0.522866
0.344123 0.309461 0.528909
0.393495 0.317336 0.534950
0.442453 0.325198 0.540989
0.491062 0.333045 0.547027
0.539371 0.340880 0.553064
0.587414 0.348701 0.559099
0.635222 0.356511 0.565132
0.273604 0.365189 0.537149
0.323731 0.372974 0.543188
0.373298 0.380747 0.549225
0.422416 0.388510 0.555261
0.471162 0.396263 0.561295
0.519589 0.404005 0.567328
0.567737 0.411738 0.573359
0.615638 0.419461 0.579389
0.663318 0.427175 0.585417
0.303245 0.435749 0.557458
0.353025 0.443444 0.563492
0.402317 0.451130 0.569524
0.451208 0.458808 0.575555
0.499760 0.466478 0.581584
0.548019 0.474139 0.587611
0.596018 0.481793 0.593638
0.643785 0.489439 0.599662
0.691344 0.497077 0.605686
0.332671 0.505570 0.577750
0.382150 0.513194 0.583778
0.431197 0.520810 0.589805
0.479882 0.528419 0.595831
0.528256 0.536022 0.601855
0.576358 0.543617 0.607878
0.624218 0.551207 0.613900
0.671860 0.558790 0.619920
0.719304 0.566367 0.625938
0.361912 0.574792 0.598025
0.411126 0.582356 0.604048
0.459952 0.589914 0.610071
0.508449 0.597466 0.616091
0.556658 0.605013 0.622111
0.604614 0.612554 0.628129
0.652342 0.620089 0.634146
0.699865 0.627619 0.640162
0.747201 0.635143 0.646176
0.390989 0.643511 0.618283
0.439967 0.651025 0.624302
0.488593 0.658533 0.630320
0.536915 0.666036 0.636336
0.584972 0.673534 0.642351
0.632791 0.681028 0.648365
0.680396 0.688516 0.654377
0.727806 0.696000 0.660389
0.775038 0.703479 0.666398
0.419922 0.711798 0.638526
0.468686 0.719267 0.644541
0.517128 0.726732 0.650554
0.565289 0.734192 0.656566
0.613203 0.741648 0.662577
0.660893 0.749100 0.668586
0.708381 0.756547 0.674594
0.755684 0.763990 0.680601
0.802817 0.771429 0.686607
0.448725 0.779704 0.658754
0.497293 0.787134 0.664765
0.545566 0.794561 0.670774
0.593577 0.801983 0.676781
0.641356 0.809401 0.682788
0.688925 0.816816 0.688793
0.736302 0.824227 0.694797
0.783503 0.831634 0.700800
0.830542 0.839037 0.706802
0.216558 0.223508 0.551319
0.267540 0.231589 0.557354
0.317744 0.239645 0.563388
0.367371 0.247678 0.569420
0.416539 0.255689 0.575451
0.465327 0.263680 0.581480
0.513790 0.271651 0.587508
0.561969 0.279604 0.593534
0.609899 0.287539 0.599559
0.246737 0.296351 0.571616
0.297229 0.304251 0.577646
0.347076 0.312137 0.583675
0.396421 0.320007 0.589702
0.445357 0.327864 0.595728
0.493947 0.335707 0.601752
0.542238 0.343537 0.607775
0.590267 0.351355 0.613796
0.638061 0.359160 0.619816
0.276607 0.367834 0.591896
0.326697 0.375615 0.597921
0.376234 0.383385 0.603945
0.425328 0.391144 0.609967
0.474054 0.398894 0.615988
0.522463 0.406633 0.622008
0.570596 0.414362 0.628026
0.618483 0.422082 0.634043
0.666150 0.429792 0.640058
0.306225 0.438364 0.612159
0.355973 0.446055 0.618180
0.405238 0.453739 0.624199
0.454108 0.461414 0.630216
0.502641 0.469080 0.636233
0.550883 0.476739 0.642248
0.598868 0.484390 0.648262
0.646623 0.492034 0.654274
0.694170 0.499670 0.660285
0.335631 0.508160 0.632407
0.385082 0.515781 0.638423
0.434106 0.523395 0.644437
0.482771 0.531002 0.650451
0.531128 0.538602 0.656463
0.579214 0.546196 0.662473
0.627060 0.553783 0.668483
0.674690 0.561364 0.674491
0.722123 0.568938 0.680498
0.364854 0.577362 0.652639
0.414043 0.584924 0.658651
0.462849 0.592480 0.664661
0.511327 0.600030 0.670670
0.559520 0.607574 0.676678
0.607462 0.615113 0.682684
0.655178 0.622647 0.688690
0.702689 0.630175 0.694694
0.750014 0.637697 0.700697
0.393917 0.646064 0.672858
0.442871 0.653575 0.678865
0.491478 0.661082 0.684871
0.539784 0.668583 0.690876
0.587825 0.676080 0.696879
0.635631 0.683571 0.702882
0.683224 0.691058 0.708883
0.730623 0.698540 0.714883
0.777845 0.706018 0.720882
0.422836 0.714335 0.693062
0.471579 0.721803 0.699065
0.520003 0.729266 0.705067
0.568149 0.736725 0.711068
0.616048 0.744179 0.717067
0.663726 0.751629 0.723066
0.711202 0.759075 0.729063
0.758495 0.766517 0.735060
0.805619 0.773955 0.741055
0.451626 0.782228 0.713252
0.500175 0.789657 0.719251
0.548431 0.797082 0.725250
0.596428 0.804503 0.731247
0.644194 0.811920 0.737242
0.691751 0.819333 0.743237
0.739117 0.826743 0.749231
0.786309 0.834148 0.755223
0.833338 0.841550 0.761215
0.219621 0.226255 0.606034
0.270548 0.234327 0.612056
0.320714 0.242375 0.618076
0.370311 0.250401 0.624095
0.419454 0.258405 0.630113
0.468221 0.266389 0.636129
0.516666 0.274354 0.642144
0.564830 0.282300 0.648158
0.612745 0.290230 0.654171
0.249766 0.299036 0.626286
0.300214 0.306931 0.632303
0.350027 0.314811 0.638319
0.399345 0.322677 0.644334
0.448259 0.330529 0.650347
0.496830 0.338368 0.656359
0.545105 0.346194 0.662370
0.593119 0.354007 0.668379
0.640900 0.361808 0.674388
0.279608 0.370478 0.646523
0.329660 0.378255 0.652536
0.379169 0.386021 0.658548
0.428239 0.393777 0.664558
0.476945 0.401523 0.670567
0.525336 0.409259 0.676575
0.573454 0.416985 0.682581
0.621327 0.424701 0.688586
0.668982 0.432409 0.694591
0.309203 0.440977 0.666746
0.358919 0.448666 0.672754
0.408159 0.456346 0.678762
0.457007 0.464018 0.684768
0.505522 0.471682 0.690772
0.553747 0.479338 0.696776
0.601718 0.486987 0.702779
0.649459 0.494628 0.708780
0.696994 0.502261 0.714780
0.338589 0.510749 0.686954
0.388012 0.518367 0.692958
0.437013 0.525979 0.698962
0.485658 0.533583 0.704964
0.533998 0.541181 0.710964
0.582070 0.548773 0.716964
0.629902 0.556358 0.722963
0.677520 0.563937 0.728960
0.724941 0.571509 0.734957
0.367795 0.579930 0.707148
0.416959 0.587490 0.713149
0.465744 0.595044 0.719148
0.514204 0.602593 0.725146
0.562382 0.610135 0.731143
0.610309 0.617672 0.737139
0.658012 0.625204 0.743134
0.705512 0.632730 0.749128
0.752826 0.640251 0.755120
0.396842 0.648615 0.727330
0.445775 0.656125 0.733326
0.494362 0.663630 0.739322
0.542651 0.671130 0.745316
0.590678 0.678624 0.751310
0.638470 0.686114 0.757302
0.686051 0.693600 0.763293
0.733439 0.701080 0.769283
0.780651 0.708556 0.775272
0.425748 0.716871 0.747498
0.474470 0.724338 0.753491
0.522877 0.731799 0.759483
0.571008 0.739257 0.765474
0.618893 0.746710 0.771463
0.666558 0.754159 0.777452
0.714023 0.761603 0.783440
0.761306 0.769043 0.789426
0.808419 0.776480 0.795412
0.454526 0.784751 0.767655
0.503056 0.792179 0.773644
0.551296 0.799602 0.779632
0.599279 0.807022 0.785619
0.647031 0.814438 0.791605
0.694576 0.821850 0.797591
0.741932 0.829258 0.803575
0.789113 0.836662 0.809558
0.836133 0.844063 0.815540
0.222680 0.228999 0.660632
0.273554 0.237063 0.666642
0.323682 0.245103 0.672651
0.373249 0.253121 0.678658
0.422368 0.261119 0.684664
0.471114 0.269096 0.690669
0.519541 0.277054 0.696673
0.567690 0.284995 0.702675
0.615591 0.292919 0.708677
0.252791 0.301719 0.680845
0.303196 0.309609 0.686851
0.352976 0.317484 0.692855
0.402268 0.325345 0.698858
0.451160 0.333193 0.704860
0.499712 0.341027 0.710861
0.547971 0.348848 0.716861
0.595970 0.356658 0.722860
0.643738 0.364455 0.728857
0.282606 0.373120 0.701044
0.332622 0.380894 0.707045
0.382102 0.388656 0.713046
0.431149 0.396409 0.719045
0.479834 0.404151 0.725043
0.528209 0.411883 0.731040
0.576311 0.419606 0.737036
0.624171 0.427320 0.743031
0.671813 0.435024 0.749025
0.312178 0.443589 0.721229
0.361863 0.451275 0.727227
0.411077 0.458952 0.733223
0.459904 0.466622 0.739219
0.508401 0.474283 0.745213
0.556610 0.481937 0.751206
0.604566 0.489583 0.757199
0.652295 0.497221 0.763190
0.699819 0.504852 0.769180
0.341545 0.513337 0.741401
0.390941 0.520953 0.747395
0.439919 0.528562 0.753388
0.488545 0.536165 0.759380
0.536868 0.543760 0.765371
0.584924 0.551350 0.771360
0.632743 0.558932 0.777349
0.680349 0.566509 0.783337
0.727759 0.574080 0.789323
0.370734 0.582498 0.761561
0.419874 0.590056 0.767552
0.468638 0.597608 0.773541
0.517080 0.605155 0.779529
0.565242 0.612695 0.785516
0.613155 0.620231 0.791503
0.660846 0.627760 0.797488
0.708334 0.635285 0.803472
0.755637 0.642804 0.809455
0.399766 0.651166 0.781709
0.448677 0.658674 0.787696
0.497245 0.666177 0.793682
0.545518 0.673675 0.799666
0.593530 0.681169 0.805650
0.641309 0.688657 0.811633
0.688878 0.696141 0.817615
0.736255 0.703620 0.823596
0.783457 0.711094 0.829575
0.428659 0.719407 0.801845
0.477361 0.726872 0.807828
0.525750 0.734332 0.813811
0.573865 0.741788 0.819792
0.621737 0.749240 0.825773
0.669390 0.756687 0.831752
0.716844 0.764130 0.837731
0.764115 0.771569 0.843708
0.811219 0.779004 0.849685
0.457424 0.787274 0.821970
0.505936 0.794700 0.827950
0.554160 0.802123 0.833929
0.602128 0.809541 0.839907
0.649868 0.816955 0.845884
0.697401 0.824366 0.851861
0.744746 0.831773 0.857836
0.791917 0.839176 0.863810
0.838928 0.846576 0.869784
