Fotico/Resources/LUTs/niebla.cube
# Niebla
LUT_3D_SIZE 5
0.198092 0.206957 0.219330
0.299883 0.223203 0.231702
0.399021 0.239342 0.244052
0.496511 0.255388 0.256382
0.592803 0.271351 0.268694
0.258548 0.351944 0.260866
0.358592 0.367541 0.273172
0.456686 0.383093 0.285461
0.553430 0.398602 0.297735
0.649145 0.414071 0.309994
0.317843 0.492609 0.302200
0.416636 0.507873 0.314454
0.513885 0.523108 0.326695
0.609994 0.538316 0.338923
0.705199 0.553497 0.351139
0.376331 0.630742 0.343372
0.474150 0.645781 0.355584
0.570691 0.660799 0.367784
0.666244 0.675798 0.379974
0.760994 0.690777 0.392154
0.434202 0.767078 0.384409
0.531223 0.781948 0.396586
0.627155 0.796802 0.408752
0.722217 0.811641 0.420909
0.816555 0.826464 0.433057
0.204265 0.212487 0.330938
0.305845 0.228695 0.343161
0.404866 0.244801 0.355374
0.502274 0.260818 0.367574
0.598505 0.276755 0.379765
0.264579 0.357246 0.372014
0.364479 0.372827 0.384200
0.462480 0.388364 0.396376
0.559156 0.403860 0.408543
0.654816 0.419316 0.420700
0.323780 0.497796 0.412970
0.422465 0.513050 0.425124
0.519637 0.528276 0.437269
0.615686 0.543475 0.449406
0.710843 0.558647 0.461534
0.382199 0.635851 0.453822
0.479930 0.650883 0.465948
0.576406 0.665895 0.478066
0.671907 0.680887 0.490176
0.766613 0.695859 0.502279
0.440015 0.772130 0.494583
0.536963 0.786995 0.506683
0.632838 0.801843 0.518776
0.727853 0.816677 0.530863
0.822151 0.831494 0.542943
0.210420 0.218004 0.441480
0.311799 0.234176 0.453614
0.410706 0.250250 0.465739
0.508034 0.266239 0.477857
0.604204 0.282151 0.489968
0.270598 0.362542 0.482267
0.370360 0.378109 0.494375
0.468269 0.393631 0.506475
0.564877 0.409113 0.518569
0.660485 0.424556 0.530655
0.329709 0.502980 0.522970
0.428288 0.518224 0.535054
0.525384 0.533440 0.547131
0.621375 0.548630 0.559202
0.716484 0.563794 0.571267
0.388061 0.640959 0.563596
0.485706 0.655984 0.575658
0.582117 0.670989 0.587715
0.677567 0.685974 0.599766
0.772230 0.700940 0.611811
0.445823 0.777180 0.604152
0.542699 0.792039 0.616195
0.638517 0.806883 0.628233
0.733486 0.821710 0.640265
0.827746 0.836523 0.652292
0.216558 0.223508 0.551319
0.317744 0.239645 0.563388
0.416539 0.255689 0.575451
0.513790 0.271651 0.587508
0.609899 0.287539 0.599559
0.276607 0.367834 0.591896
0.376234 0.383385 0.603945
0.474054 0.398894 0.615988
0.570596 0.414362 0.628026
0.666150 0.429792 0.640058
0.335631 0.508160 0.632407
0.434106 0.523395 0.644437
0.531128 0.538602 0.656463
0.627060 0.553783 0.668483
0.722123 0.568938 0.680498
0.393917 0.646064 0.672858
0.491478 0.661082 0.684871
0.587825 0.676080 0.696879
0.683224 0.691058 0.708883
0.777845 0.706018 0.720882
0.451626 0.782228 0.713252
0.548431 0.797082 0.725250
0.644194 0.811920 0.737242
0.739117 0.826743 0.749231
0.833338 0.841550 0.761215
0.222680 0.228999 0.660632
0.323682 0.245103 0.672651
0.422368 0.261119 0.684664
0.519541 0.277054 0.696673
0.615591 0.292919 0.708677
0.282606 0.373120 0.701044
0.382102 0.388656 0.713046
0.479834 0.404151 0.725043
0.576311 0.419606 0.737036
0.671813 0.435024 0.749025
0.341545 0.513337 0.741401
0.439919 0.528562 0.753388
0.536868 0.543760 0.765371
0.632743 0.558932 0.777349
0.727759 0.574080 0.789323
0.399766 0.651166 0.781709
0.497245 0.666177 0.793682
0.593530 0.681169 0.805650
0.688878 0.696141 0.817615
0.783457 0.711094 0.829575
0.457424 0.787274 0.821970
0.554160 0.802123 0.833929
0.649868 0.816955 0.845884
0.744746 0.831773 0.857836
0.838928 0.846576 0.869784
