Fotico/Resources/LUTs/noche.cube
# Noche
LUT_3D_SIZE 9
0.000000 0.000137 0.159806
0.024684 0.005412 0.151925
0.158076 0.014973 0.144012
0.273922 0.023627 0.136064
0.382613 0.031819 0.128079
0.486792 0.039702 0.120053
0.587700 0.047355 0.111984
0.686061 0.054827 0.103869
0.736488 0.058599 0.095702
0.000000 0.079193 0.133161
0.048018 0.082285 0.125162
0.176594 0.089197 0.117121
0.291040 0.096030 0.109035
0.398918 0.102791 0.100902
0.502530 0.109485 0.092715
0.603007 0.116119 0.084471
0.701021 0.122696 0.076161
0.751291 0.126049 0.067778
0.020961 0.220910 0.106080
0.086112 0.223566 0.097928
0.209055 0.229541 0.089721
0.321323 0.235492 0.081453
0.427867 0.241422 0.073118
0.530527 0.247329 0.064706
0.630270 0.253215 0.056205
0.727688 0.259081 0.047599
0.777689 0.262081 0.038866
0.062055 0.349115 0.078427
0.121744 0.351595 0.070065
0.240773 0.357182 0.061622
0.351183 0.362756 0.053085
0.456524 0.368317 0.044436
0.558304 0.373866 0.035649
0.657357 0.379402 0.026684
0.754210 0.384926 0.017465
0.803953 0.387754 0.007812
0.099092 0.470448 0.049950
0.155852 0.472821 0.041255
0.271875 0.478167 0.032409
0.380667 0.483504 0.023363
0.484914 0.488832 0.014018
0.585875 0.494151 0.004082
0.683219 0.499463 0.000000
0.777938 0.504768 0.000000
0.825856 0.507486 0.000000
0.134109 0.587203 0.020003
0.188865 0.589498 0.010501
0.302440 0.594671 0.000000
0.408019 0.599839 0.000000
0.509602 0.605001 0.000000
0.608211 0.610155 0.000000
0.704468 0.615304 0.000000
0.798784 0.620445 0.000000
0.846518 0.623081 0.000000
0.164996 0.700553 0.000000
0.216393 0.702790 0.000000
0.326369 0.707831 0.000000
0.430934 0.712866 0.000000
0.531785 0.717896 0.000000
0.629827 0.722921 0.000000
0.725621 0.727940 0.000000
0.819548 0.732954 0.000000
0.867105 0.735525 0.000000
0.191057 0.811206 0.000000
0.241488 0.813395 0.000000
0.350036 0.818326 0.000000
0.453668 0.823254 0.000000
0.553831 0.828177 0.000000
0.651332 0.833095 0.000000
0.746682 0.838009 0.000000
0.840234 0.842919 0.000000
0.887618 0.845436 0.000000
0.204219 0.867088 0.000000
0.254210 0.869255 0.000000
0.362085 0.874138 0.000000
0.465265 0.879017 0.000000
0.565091 0.883892 0.000000
0.662323 0.888763 0.000000
0.757452 0.893629 0.000000
0.850817 0.898492 0.000000
0.898115 0.900986 0.000000
0.000000 0.002725 0.238394
0.027642 0.007430 0.230768
0.160332 0.016734 0.223121
0.276000 0.025278 0.215453
0.384590 0.033400 0.207763
0.488698 0.041232 0.200050
0.589554 0.048847 0.192314
0.687872 0.056286 0.184552
0.738280 0.060044 0.176764
0.000000 0.080575 0.212656
0.050707 0.083659 0.204958
0.178812 0.090555 0.197236
0.293100 0.097373 0.189491
0.400882 0.104120 0.181720
0.504427 0.110802 0.173922
0.604854 0.117425 0.166097
0.702826 0.123991 0.158241
0.753078 0.127339 0.150355
0.023987 0.222096 0.186665
0.088580 0.224750 0.178884
0.211218 0.230720 0.171077
0.323352 0.236667 0.163240
0.429811 0.242592 0.155374
0.532409 0.248495 0.147475
0.632104 0.254377 0.139543
0.729484 0.260239 0.131574
0.779467 0.263237 0.123566
0.064645 0.350222 0.160380
0.124089 0.352702 0.152502
0.242892 0.358286 0.144591
0.353185 0.363857 0.136646
0.458449 0.369416 0.128663
0.560172 0.374962 0.120641
0.659180 0.380496 0.112575
0.755996 0.386017 0.104463
0.805722 0.388845 0.096301
0.101510 0.471507 0.133744
0.158112 0.473879 0.125747
0.273955 0.479223 0.117710
0.382645 0.484558 0.109628
0.486822 0.489885 0.101498
0.587730 0.495202 0.093315
0.684472 0.500513 0.093161
0.779167 0.505816 0.093161
0.827073 0.508533 0.093161
0.136420 0.588227 0.106674
0.191062 0.590522 0.098525
0.303855 0.595694 0.093161
0.409372 0.600861 0.093161
0.510910 0.606021 0.093161
0.609486 0.611174 0.093161
0.705715 0.616321 0.093161
0.800007 0.621462 0.093161
0.847731 0.624097 0.093161
0.166545 0.701551 0.093161
0.217881 0.703788 0.093161
0.327768 0.708827 0.093161
0.432276 0.713862 0.093161
0.533086 0.718890 0.093161
0.631095 0.723914 0.093161
0.726862 0.728933 0.093161
0.820767 0.733946 0.093161
0.868313 0.736516 0.093161
0.192573 0.812183 0.093161
0.242952 0.814371 0.093161
0.351421 0.819302 0.093161
0.455000 0.824228 0.093161
0.555124 0.829150 0.093161
0.652593 0.834068 0.093161
0.747918 0.838981 0.093161
0.841448 0.843890 0.093161
0.888823 0.846407 0.093161
0.205719 0.868055 0.093161
0.255662 0.870221 0.093161
0.363463 0.875104 0.093161
0.466592 0.879982 0.093161
0.566379 0.884856 0.093161
0.663582 0.889726 0.093161
0.758686 0.894592 0.093161
0.852029 0.899454 0.093161
0.899317 0.901947 0.093161
0.000000 0.006384 0.370610
0.031977 0.010720 0.363251
0.163695 0.019696 0.355881
0.279103 0.028075 0.348498
0.387543 0.036088 0.341103
0.491547 0.043840 0.333694
0.592324 0.051391 0.326273
0.690578 0.058778 0.318838
0.740958 0.062512 0.311390
0.000000 0.082939 0.345807
0.054687 0.086010 0.338407
0.182121 0.092879 0.330994
0.296174 0.099672 0.323568
0.403817 0.106397 0.316128
0.507263 0.113058 0.308674
0.607613 0.119661 0.301206
0.705524 0.126209 0.293723
0.755748 0.129548 0.286224
0.028408 0.224130 0.320861
0.092251 0.226780 0.313416
0.214446 0.232742 0.305957
0.326382 0.238682 0.298483
0.432714 0.244599 0.290995
0.535221 0.250495 0.283491
0.634845 0.256370 0.275970
0.732167 0.262225 0.268434
0.782123 0.265220 0.260881
0.068488 0.352122 0.295759
0.127582 0.354600 0.288264
0.246054 0.360179 0.280755
0.356176 0.365746 0.273229
0.461325 0.371301 0.265686
0.562963 0.376842 0.258126
0.661904 0.382372 0.250549
0.758665 0.387890 0.242953
0.808365 0.390715 0.235338
0.105108 0.473324 0.270485
0.161482 0.475695 0.262936
0.277061 0.481036 0.255370
0.385599 0.486368 0.247786
0.489672 0.491692 0.240183
0.589960 0.497007 0.235008
0.686621 0.502315 0.235008
0.781274 0.507615 0.235008
0.829162 0.510331 0.235008
0.139865 0.589986 0.245020
0.194338 0.592279 0.237410
0.306282 0.597450 0.235008
0.411693 0.602614 0.235008
0.513155 0.607772 0.235008
0.611673 0.612923 0.235008
0.707854 0.618068 0.235008
0.802107 0.623206 0.235008
0.849812 0.625840 0.235008
0.169199 0.703264 0.235008
0.220431 0.705500 0.235008
0.330167 0.710538 0.235008
0.434578 0.715570 0.235008
0.535317 0.720597 0.235008
0.633270 0.725619 0.235008
0.728992 0.730636 0.235008
0.822858 0.735647 0.235008
0.870387 0.738216 0.235008
0.195170 0.813858 0.235008
0.245461 0.816046 0.235008
0.353795 0.820975 0.235008
0.457284 0.825900 0.235008
0.557341 0.830821 0.235008
0.654758 0.835737 0.235008
0.750038 0.840649 0.235008
0.843531 0.845556 0.235008
0.890889 0.848072 0.235008
0.208291 0.869714 0.235008
0.258152 0.871880 0.235008
0.365825 0.876761 0.235008
0.468867 0.881637 0.235008
0.568590 0.886510 0.235008
0.665741 0.891379 0.235008
0.760802 0.896244 0.235008
0.854108 0.901104 0.235008
0.901380 0.903597 0.235008
0.000000 0.009734 0.499069
0.036227 0.013862 0.491885
0.167048 0.022593 0.484693
0.282200 0.030830 0.477492
0.390492 0.038746 0.470282
0.494393 0.046425 0.463064
0.595092 0.053917 0.455837
0.693283 0.061255 0.448600
0.743635 0.064967 0.441354
0.000000 0.085293 0.474868
0.058625 0.088352 0.467655
0.185422 0.095194 0.460434
0.299244 0.101963 0.453203
0.406748 0.108666 0.445963
0.510095 0.115306 0.438714
0.610370 0.121890 0.431455
0.708220 0.128422 0.424186
0.758417 0.131752 0.416907
0.032727 0.226161 0.450568
0.095900 0.228807 0.443325
0.217667 0.234762 0.436072
0.329408 0.240694 0.428810
0.435615 0.246603 0.421537
0.538032 0.252492 0.414255
0.637585 0.258360 0.406962
0.734848 0.264209 0.399659
0.784778 0.267201 0.392345
0.072300 0.354020 0.426163
0.131061 0.356496 0.418887
0.249209 0.362071 0.411601
0.359162 0.367634 0.404305
0.464198 0.373184 0.396998
0.565752 0.378722 0.389680
0.664626 0.384247 0.382351
0.761332 0.389761 0.375011
0.810531 0.392585 0.369839
0.108687 0.475141 0.401646
0.164842 0.477510 0.394335
0.280162 0.482848 0.387013
0.388551 0.488177 0.379680
0.492520 0.493498 0.372336
0.592157 0.498811 0.369839
0.688768 0.504116 0.369839
0.783381 0.509413 0.369839
0.831250 0.512127 0.369839
0.143297 0.591743 0.377008
0.197558 0.594036 0.369839
0.308705 0.599204 0.369839
0.414012 0.604366 0.369839
0.515399 0.609522 0.369839
0.613858 0.614671 0.369839
0.709992 0.619814 0.369839
0.804205 0.624950 0.369839
0.851892 0.627582 0.369839
0.171847 0.704976 0.369839
0.222976 0.707211 0.369839
0.332563 0.712247 0.369839
0.436878 0.717278 0.369839
0.537546 0.722303 0.369839
0.635444 0.727323 0.369839
0.731121 0.732338 0.369839
0.824949 0.737348 0.369839
0.872460 0.739916 0.369839
0.197762 0.815534 0.369839
0.247965 0.817720 0.369839
0.356167 0.822648 0.369839
0.459567 0.827572 0.369839
0.559557 0.832491 0.369839
0.656921 0.837405 0.369839
0.752158 0.842316 0.369839
0.845614 0.847222 0.369839
0.892955 0.849737 0.369839
0.210858 0.871373 0.369839
0.260638 0.873538 0.369839
0.368185 0.878417 0.369839
0.471141 0.883293 0.369839
0.570799 0.888164 0.369839
0.667899 0.893031 0.369839
0.762917 0.897895 0.369839
0.856187 0.902754 0.369839
0.903442 0.905246 0.369839
0.000000 0.012916 0.624904
0.040402 0.016901 0.617849
0.170390 0.025434 0.610788
0.285292 0.033549 0.603720
0.393437 0.041378 0.596645
0.497237 0.048988 0.589564
0.597858 0.056424 0.582476
0.695987 0.063716 0.575381
0.746310 0.067407 0.568279
0.000000 0.087638 0.601145
0.062523 0.090684 0.594068
0.188713 0.097501 0.586985
0.302309 0.104247 0.579894
0.409675 0.110928 0.572797
0.512926 0.117549 0.565692
0.613126 0.124114 0.558580
0.710915 0.130628 0.551461
0.761084 0.133950 0.544335
0.036962 0.228189 0.577311
0.099528 0.230832 0.570211
0.220881 0.236779 0.563104
0.332429 0.242703 0.555989
0.438513 0.248606 0.548868
0.540840 0.254487 0.541739
0.640322 0.260349 0.534602
0.737528 0.266190 0.527458
0.787432 0.269179 0.520306
0.076081 0.355917 0.553398
0.134526 0.358391 0.546273
0.252359 0.363962 0.539142
0.362145 0.369520 0.532002
0.467069 0.375066 0.524855
0.568539 0.380600 0.517701
0.667346 0.386121 0.510538
0.763998 0.391631 0.503367
0.812626 0.394453 0.500755
0.112249 0.476956 0.529401
0.168191 0.479324 0.522252
0.283257 0.484659 0.515094
0.391499 0.489985 0.507928
0.495365 0.495302 0.500755
0.594353 0.500613 0.500755
0.690915 0.505916 0.500755
0.785487 0.511210 0.500755
0.833337 0.513923 0.500755
0.146716 0.593499 0.505318
0.200146 0.595792 0.500755
0.311126 0.600958 0.500755
0.416329 0.606118 0.500755
0.517641 0.611271 0.500755
0.616042 0.616418 0.500755
0.712129 0.621559 0.500755
0.806303 0.626693 0.500755
0.853972 0.629324 0.500755
0.174488 0.706688 0.500755
0.225517 0.708922 0.500755
0.334957 0.713956 0.500755
0.439177 0.718985 0.500755
0.539774 0.724009 0.500755
0.637617 0.729027 0.500755
0.733248 0.734040 0.500755
0.827038 0.739048 0.500755
0.874532 0.741615 0.500755
0.200349 0.817208 0.500755
0.250467 0.819394 0.500755
0.358536 0.824321 0.500755
0.461848 0.829243 0.500755
0.561772 0.834160 0.500755
0.659083 0.839073 0.500755
0.754277 0.843982 0.500755
0.847696 0.848887 0.500755
0.895020 0.851402 0.500755
0.213420 0.873031 0.500755
0.263121 0.875195 0.500755
0.370543 0.880073 0.500755
0.473414 0.884947 0.500755
0.573008 0.889817 0.500755
0.670055 0.894683 0.500755
0.765031 0.899545 0.500755
0.858265 0.904404 0.500755
0.905504 0.906894 0.500755
0.000000 0.015982 0.748730
0.044514 0.019858 0.741777
0.173723 0.028228 0.734818
0.288379 0.036236 0.727855
0.396380 0.043984 0.720886
0.500078 0.051531 0.713912
0.600622 0.058916 0.706932
0.698689 0.066164 0.699947
0.748984 0.069834 0.692956
0.000000 0.089973 0.725318
0.066385 0.093007 0.718348
0.191996 0.099799 0.711371
0.305370 0.106522 0.704390
0.412600 0.113183 0.697402
0.515754 0.119784 0.690409
0.615879 0.126332 0.683411
0.713608 0.132829 0.676407
0.763750 0.136143 0.669397
0.041126 0.230214 0.701846
0.103137 0.232854 0.694857
0.224088 0.238793 0.687862
0.335447 0.244710 0.680862
0.441408 0.250605 0.673855
0.543645 0.256480 0.666843
0.643058 0.262335 0.659825
0.740207 0.268170 0.652801
0.790084 0.271155 0.645771
0.079834 0.357813 0.678311
0.137977 0.360284 0.671303
0.255503 0.365851 0.664289
0.365124 0.371405 0.657268
0.469937 0.376947 0.650242
0.571324 0.382476 0.643210
0.670065 0.387993 0.636171
0.766662 0.393499 0.629126
0.814720 0.396320 0.628954
0.115795 0.478770 0.654711
0.171530 0.481136 0.647683
0.286347 0.486468 0.640648
0.394443 0.491792 0.633607
0.497621 0.497107 0.628954
0.596548 0.502415 0.628954
0.693061 0.507715 0.628954
0.787592 0.513006 0.628954
0.835424 0.515717 0.628954
0.150124 0.595255 0.631042
0.202728 0.597547 0.628954
0.313544 0.602711 0.628954
0.418644 0.607869 0.628954
0.519882 0.613020 0.628954
0.618225 0.618165 0.628954
0.714265 0.623303 0.628954
0.808400 0.628435 0.628954
0.856051 0.631065 0.628954
0.177124 0.708399 0.628954
0.228054 0.710632 0.628954
0.337349 0.715665 0.628954
0.441473 0.720692 0.628954
0.542001 0.725713 0.628954
0.639789 0.730730 0.628954
0.735375 0.735741 0.628954
0.829127 0.740748 0.628954
0.876604 0.743314 0.628954
0.202931 0.818882 0.628954
0.252964 0.821068 0.628954
0.360904 0.825993 0.628954
0.464127 0.830913 0.628954
0.563985 0.835829 0.628954
0.661244 0.840741 0.628954
0.756395 0.845649 0.628954
0.849777 0.850552 0.628954
0.897084 0.853066 0.628954
0.215978 0.874688 0.628954
0.265600 0.876852 0.628954
0.372898 0.881729 0.628954
0.475685 0.886602 0.628954
0.575214 0.891470 0.628954
0.672211 0.896335 0.628954
0.767145 0.901196 0.628954
0.860342 0.906053 0.628954
0.907565 0.908543 0.628954
0.000000 0.018963 0.870930
0.048569 0.022751 0.864061
0.177047 0.030982 0.857188
0.291461 0.038893 0.850310
0.399319 0.046567 0.843427
0.502917 0.054056 0.836541
0.603384 0.061391 0.829649
0.701389 0.068597 0.822753
0.751656 0.072249 0.815853
0.000000 0.092299 0.847805
0.070213 0.095322 0.840921
0.195270 0.102090 0.834032
0.308425 0.108791 0.827139
0.415522 0.115431 0.820242
0.518580 0.122014 0.813340
0.618631 0.128544 0.806433
0.716300 0.135025 0.799521
0.766415 0.138330 0.792604
0.045227 0.232237 0.824629
0.106726 0.234874 0.817729
0.227288 0.240805 0.810826
0.338460 0.246714 0.803917
0.444301 0.252603 0.797003
0.546449 0.258471 0.790085
0.645792 0.264319 0.783162
0.742884 0.270147 0.776234
0.792735 0.273129 0.769301
0.083561 0.359706 0.801400
0.141416 0.362176 0.794485
0.258641 0.367739 0.787565
0.368099 0.373288 0.780641
0.472802 0.378826 0.773711
0.574107 0.384351 0.766776
0.672782 0.389865 0.759836
0.768814 0.395367 0.755081
0.816814 0.398186 0.755081
0.119323 0.480583 0.778118
0.174860 0.482948 0.771187
0.289433 0.488277 0.764250
0.397385 0.493598 0.757309
0.499875 0.498911 0.755081
0.598742 0.504216 0.755081
0.695206 0.509512 0.755081
0.789696 0.514801 0.755081
0.837510 0.517511 0.755081
0.153431 0.597010 0.755081
0.205305 0.599302 0.755081
0.315959 0.604464 0.755081
0.420957 0.609619 0.755081
0.522121 0.614768 0.755081
0.620407 0.619910 0.755081
0.716401 0.625046 0.755081
0.810496 0.630176 0.755081
0.858129 0.632805 0.755081
0.179753 0.710109 0.755081
0.230587 0.712342 0.755081
0.339737 0.717372 0.755081
0.443768 0.722398 0.755081
0.544226 0.727418 0.755081
0.641960 0.732432 0.755081
0.737501 0.737442 0.755081
0.831215 0.742447 0.755081
0.878674 0.745012 0.755081
0.205508 0.820556 0.755081
0.255458 0.822741 0.755081
0.363268 0.827664 0.755081
0.466405 0.832583 0.755081
0.566198 0.837498 0.755081
0.663404 0.842408 0.755081
0.758512 0.847314 0.755081
0.851858 0.852216 0.755081
0.899148 0.854729 0.755081
0.218531 0.876346 0.755081
0.268076 0.878509 0.755081
0.375252 0.883384 0.755081
0.477954 0.888256 0.755081
0.577420 0.893123 0.755081
0.674366 0.897986 0.755081
0.769257 0.902846 0.755081
0.862419 0.907701 0.755081
0.909625 0.910191 0.755081
0.000000 0.021874 0.991769
0.052574 0.025590 0.984971
0.180361 0.033699 0.978170
0.294538 0.041523 0.971365
0.402255 0.049129 0.964556
0.505753 0.056563 0.957743
0.606144 0.063852 0.950926
0.704088 0.071018 0.944105
0.754327 0.074651 0.937280
0.004908 0.094616 0.968886
0.074011 0.097628 0.962076
0.198536 0.104373 0.955261
0.311477 0.111053 0.948443
0.418440 0.117673 0.941621
0.521403 0.124237 0.934795
0.621381 0.130750 0.927965
0.718990 0.137215 0.921130
0.769078 0.140513 0.914292
0.049273 0.234257 0.945960
0.110298 0.236890 0.939136
0.230482 0.242814 0.932309
0.341469 0.248717 0.925477
0.447190 0.254598 0.918641
0.549250 0.260459 0.911802
0.648524 0.266300 0.904958
0.745559 0.272122 0.898110
0.795385 0.275101 0.891258
0.087263 0.361599 0.922989
0.144842 0.364067 0.916152
0.261774 0.369625 0.909311
0.371071 0.375170 0.902465
0.475665 0.380704 0.895616
0.576887 0.386225 0.888762
0.675498 0.391734 0.881904
0.770926 0.397233 0.879536
0.818907 0.400050 0.879536
0.122837 0.482395 0.899972
0.178180 0.484759 0.893121
0.292513 0.490085 0.886266
0.400289 0.495402 0.879536
0.502127 0.500713 0.879536
0.600934 0.506015 0.879536
0.697350 0.511309 0.879536
0.791800 0.516595 0.879536
0.839595 0.519304 0.879536
0.156117 0.598765 0.879536
0.207878 0.601055 0.879536
0.318371 0.606215 0.879536
0.423268 0.611368 0.879536
0.524359 0.616515 0.879536
0.622588 0.621655 0.879536
0.718535 0.626789 0.879536
0.812591 0.631917 0.879536
0.860207 0.634545 0.879536
0.182377 0.711819 0.879536
0.233115 0.714051 0.879536
0.342124 0.719080 0.879536
0.446061 0.724103 0.879536
0.546450 0.729121 0.879536
0.644130 0.734134 0.879536
0.739626 0.739142 0.879536
0.833303 0.744145 0.879536
0.880745 0.746710 0.879536
0.208080 0.822229 0.879536
0.257948 0.824413 0.879536
0.365631 0.829335 0.879536
0.468680 0.834253 0.879536
0.568408 0.839166 0.879536
0.665563 0.844075 0.879536
0.760628 0.848979 0.879536
0.853937 0.853880 0.879536
0.901211 0.856392 0.879536
0.221080 0.878002 0.879536
0.270548 0.880165 0.879536
0.377603 0.885039 0.879536
0.480222 0.889909 0.879536
0.579624 0.894775 0.879536
0.676520 0.899637 0.879536
0.771369 0.904495 0.879536
0.864495 0.909349 0.879536
0.911684 0.911838 0.879536
0.000000 0.022947 1.000000
0.054572 0.026638 1.000000
0.182025 0.034706 1.000000
0.296085 0.042499 1.000000
0.403731 0.050082 1.000000
0.507180 0.057495 1.000000
0.607533 0.064768 0.994503
0.705445 0.071920 0.987707
0.755671 0.075546 0.980907
0.007666 0.095480 1.000000
0.075911 0.098488 1.000000
0.200177 0.105224 0.998823
0.313011 0.111896 0.992029
0.419908 0.118509 0.985232
0.522823 0.125067 0.978430
0.622764 0.131573 0.971625
0.720344 0.138032 0.964816
0.770418 0.141327 0.958003
0.051291 0.235012 0.989555
0.112089 0.237643 0.982756
0.232086 0.243564 0.975953
0.342982 0.249464 0.969147
0.448643 0.255343 0.962336
0.550660 0.261201 0.955522
0.649899 0.267040 0.948704
0.746905 0.272860 0.941882
0.796718 0.275837 0.935056
0.089118 0.362306 0.966668
0.146562 0.364773 0.959856
0.263348 0.370329 0.953040
0.372566 0.375873 0.946221
0.477105 0.381405 0.939397
0.578286 0.386925 0.932570
0.676864 0.392433 0.925738
0.771716 0.397931 0.925700
0.819689 0.400747 0.925700
0.124599 0.483072 0.943737
0.179848 0.485435 0.936912
0.294061 0.490760 0.930083
0.401160 0.496077 0.925700
0.502969 0.501387 0.925700
0.601754 0.506688 0.925700
0.698152 0.511981 0.925700
0.792586 0.517266 0.925700
0.840374 0.519974 0.925700
0.157120 0.599421 0.925700
0.208839 0.601711 0.925700
0.319273 0.606870 0.925700
0.424131 0.612022 0.925700
0.525195 0.617168 0.925700
0.623403 0.622307 0.925700
0.719333 0.627441 0.925700
0.813374 0.632567 0.925700
0.860983 0.635195 0.925700
0.183357 0.712458 0.925700
0.234059 0.714690 0.925700
0.343015 0.719718 0.925700
0.446918 0.724741 0.925700
0.547282 0.729758 0.925700
0.644940 0.734771 0.925700
0.740421 0.739778 0.925700
0.834083 0.744780 0.925700
0.881518 0.747344 0.925700
0.209041 0.822855 0.925700
0.258878 0.825039 0.925700
0.366514 0.829960 0.925700
0.469531 0.834877 0.925700
0.569235 0.839789 0.925700
0.666370 0.844698 0.925700
0.761419 0.849602 0.925700
0.854715 0.854502 0.925700
0.901982 0.857014 0.925700
0.222032 0.878622 0.925700
0.271472 0.880784 0.925700
0.378481 0.885658 0.925700
0.481069 0.890527 0.925700
0.580448 0.895393 0.925700
0.677325 0.900254 0.925700
0.772158 0.905112 0.925700
0.865271 0.909965 0.925700
0.912454 0.912454 0.925700
