Fotico/Resources/LUTs/noche.cube
# Noche
LUT_3D_SIZE 5
0.000000 0.000137 0.159806
0.158076 0.014973 0.144012
0.382613 0.031819 0.128079
0.587700 0.047355 0.111984
0.736488 0.058599 0.095702
0.020961 0.220910 0.106080
0.209055 0.229541 0.089721
0.427867 0.241422 0.073118
0.630270 0.253215 0.056205
0.777689 0.262081 0.038866
0.099092 0.470448 0.049950
0.271875 0.478167 0.032409
0.484914 0.488832 0.014018
0.683219 0.499463 0.000000
0.825856 0.507486 0.000000
0.164996 0.700553 0.000000
0.326369 0.707831 0.000000
0.531785 0.717896 0.000000
0.725621 0.727940 0.000000
0.867105 0.735525 0.000000
0.204219 0.867088 0.000000
0.362085 0.874138 0.000000
0.565091 0.883892 0.000000
0.757452 0.893629 0.000000
0.898115 0.900986 0.000000
0.000000 0.006384 0.370610
0.163695 0.019696 0.355881
0.387543 0.036088 0.341103
0.592324 0.051391 0.326273
0.740958 0.062512 0.311390
0.028408 0.224130 0.320861
0.214446 0.232742 0.305957
0.432714 0.244599 0.290995
0.634845 0.256370 0.275970
0.782123 0.265220 0.260881
0.105108 0.473324 0.270485
0.277061 0.481036 0.255370
0.489672 0.491692 0.240183
0.686621 0.502315 0.235008
0.829162 0.510331 0.235008
0.169199 0.703264 0.235008
0.330167 0.710538 0.235008
0.535317 0.720597 0.235008
0.728992 0.730636 0.235008
0.870387 0.738216 0.235008
0.208291 0.869714 0.235008
0.365825 0.876761 0.235008
0.568590 0.886510 0.235008
0.760802 0.896244 0.235008
0.901380 0.903597 0.235008
0.000000 0.012916 0.624904
0.170390 0.025434 0.610788
0.393437 0.041378 0.596645
0.597858 0.056424 0.582476
0.746310 0.067407 0.568279
0.036962 0.228189 0.577311
0.220881 0.236779 0.563104
0.438513 0.248606 0.548868
0.640322 0.260349 0.534602
0.787432 0.269179 0.520306
0.112249 0.476956 0.529401
0.283257 0.484659 0.515094
0.495365 0.495302 0.500755
0.690915 0.505916 0.500755
0.833337 0.513923 0.500755
0.174488 0.706688 0.500755
0.334957 0.713956 0.500755
0.539774 0.724009 0.500755
0.733248 0.734040 0.500755
0.874532 0.741615 0.500755
0.213420 0.873031 0.500755
0.370543 0.880073 0.500755
0.573008 0.889817 0.500755
0.765031 0.899545 0.500755
0.905504 0.906894 0.500755
0.000000 0.018963 0.870930
0.177047 0.030982 0.857188
0.399319 0.046567 0.843427
0.603384 0.061391 0.829649
0.751656 0.072249 0.815853
0.045227 0.232237 0.824629
0.227288 0.240805 0.810826
0.444301 0.252603 0.797003
0.645792 0.264319 0.783162
0.792735 0.273129 0.769301
0.119323 0.480583 0.778118
0.289433 0.488277 0.764250
0.499875 0.498911 0.755081
0.695206 0.509512 0.755081
0.837510 0.517511 0.755081
0.179753 0.710109 0.755081
0.339737 0.717372 0.755081
0.544226 0.727418 0.755081
0.737501 0.737442 0.755081
0.878674 0.745012 0.755081
0.218531 0.876346 0.755081
0.375252 0.883384 0.755081
0.577420 0.893123 0.755081
0.769257 0.902846 0.755081
0.909625 0.910191 0.755081
0.000000 0.022947 1.000000
0.182025 0.034706 1.000000
0.403731 0.050082 1.000000
0.607533 0.064768 0.994503
0.755671 0.075546 0.980907
0.051291 0.235012 0.989555
0.232086 0.243564 0.975953
0.448643 0.255343 0.962336
0.649899 0.267040 0.948704
0.796718 0.275837 0.935056
0.124599 0.483072 0.943737
0.294061 0.490760 0.930083
0.502969 0.501387 0.925700
0.698152 0.511981 0.925700
0.840374 0.519974 0.925700
0.183357 0.712458 0.925700
0.343015 0.719718 0.925700
0.547282 0.729758 0.925700
0.740421 0.739778 0.925700
0.881518 0.747344 0.925700
0.222032 0.878622 0.925700
0.378481 0.885658 0.925700
0.580448 0.895393 0.925700
0.772158 0.905112 0.925700
0.912454 0.912454 0.925700
