Fotico/Resources/LUTs/noche.cube
# Noche
LUT_3D_SIZE 17
0.000000 0.000137 0.159806
0.000000 0.000134 0.155869
0.024684 0.005412 0.151925
0.095343 0.010366 0.147973
0.158076 0.014973 0.144012
0.217175 0.019374 0.140043
0.273922 0.023627 0.136064
0.328945 0.027769 0.132076
0.382613 0.031819 0.128079
0.435172 0.035793 0.124071
0.486792 0.039702 0.120053
0.537602 0.043554 0.116024
0.587700 0.047355 0.111984
0.637165 0.051112 0.107933
0.686061 0.054827 0.103869
0.734438 0.058504 0.099792
0.736488 0.058599 0.095702
0.000000 0.000126 0.146532
0.000000 0.000123 0.142568
0.029191 0.005406 0.138595
0.099060 0.010360 0.134613
0.161526 0.014968 0.130622
0.220466 0.019368 0.126621
0.277102 0.023623 0.122609
0.332039 0.027764 0.118588
0.385638 0.031814 0.114555
0.438139 0.035789 0.110511
0.489709 0.039698 0.106455
0.540476 0.043550 0.102386
0.590537 0.047351 0.098305
0.639968 0.051107 0.094210
0.688832 0.054822 0.090100
0.737181 0.058500 0.085976
0.739230 0.058594 0.081836
0.000000 0.079193 0.133161
0.000000 0.079192 0.129166
0.048018 0.082285 0.125162
0.115196 0.085752 0.121146
0.176594 0.089197 0.117121
0.234876 0.092623 0.113084
0.291040 0.096030 0.109035
0.345614 0.099419 0.104975
0.398918 0.102791 0.100902
0.451171 0.106146 0.096816
0.502530 0.109485 0.092715
0.553111 0.112810 0.088601
0.603007 0.116119 0.084471
0.652290 0.119415 0.080324
0.701021 0.122696 0.076161
0.749248 0.125965 0.071979
0.751291 0.126049 0.067778
0.000000 0.152638 0.119682
0.000000 0.152637 0.115652
0.067475 0.155444 0.111611
0.132540 0.158600 0.107559
0.192927 0.161747 0.103494
0.250553 0.164885 0.099416
0.306238 0.168014 0.095324
0.360435 0.171134 0.091219
0.413430 0.174245 0.087099
0.465423 0.177349 0.082963
0.516557 0.180444 0.078811
0.566941 0.183531 0.074641
0.616661 0.186610 0.070452
0.665786 0.189682 0.066243
0.714373 0.192746 0.062013
0.762469 0.195803 0.057759
0.764507 0.195882 0.053481
0.020961 0.220910 0.106080
0.022345 0.220909 0.102010
0.086112 0.223566 0.097928
0.149549 0.226557 0.093832
0.209055 0.229541 0.089721
0.266085 0.232520 0.085595
0.321323 0.235492 0.081453
0.375165 0.238460 0.077295
0.427867 0.241422 0.073118
0.479610 0.244378 0.068922
0.530527 0.247329 0.064706
0.580720 0.250274 0.060467
0.630270 0.253215 0.056205
0.679241 0.256150 0.051916
0.727688 0.259081 0.047599
0.775656 0.262006 0.043250
0.777689 0.262081 0.038866
0.042297 0.286101 0.092337
0.043546 0.286100 0.088221
0.104158 0.288656 0.084089
0.166271 0.291535 0.079941
0.224998 0.294409 0.075776
0.281482 0.297279 0.071593
0.336303 0.300145 0.067389
0.389808 0.303007 0.063165
0.442230 0.305865 0.058918
0.493734 0.308719 0.054646
0.544442 0.311569 0.050348
0.594450 0.314415 0.046020
0.643835 0.317257 0.041659
0.692656 0.320095 0.037261
0.740967 0.322930 0.032821
0.788809 0.325761 0.028332
0.790837 0.325834 0.023785
0.062055 0.349115 0.078427
0.063236 0.349114 0.074255
0.121744 0.351595 0.070065
0.182745 0.354391 0.065854
0.240773 0.357182 0.061622
0.296754 0.359971 0.057366
0.351183 0.362756 0.053085
0.404370 0.365538 0.048776
0.456524 0.368317 0.044436
0.507797 0.371093 0.040062
0.558304 0.373866 0.035649
0.608133 0.376635 0.031192
0.657357 0.379402 0.026684
0.706033 0.382165 0.022113
0.754210 0.384926 0.017465
0.801930 0.387684 0.012714
0.803953 0.387754 0.007812
0.080895 0.410457 0.064316
0.082030 0.410456 0.060075
0.138955 0.412878 0.055810
0.198998 0.415607 0.051519
0.256395 0.418333 0.047199
0.311908 0.421057 0.042848
0.365969 0.423778 0.038460
0.418853 0.426496 0.034032
0.470751 0.429212 0.029557
0.521803 0.431925 0.025028
0.572114 0.434635 0.020431
0.621770 0.437343 0.015749
0.670837 0.440049 0.010951
0.719371 0.442751 0.005971
0.767419 0.445452 0.000542
0.814280 0.448151 0.000000
0.815496 0.448221 0.000000
0.099092 0.470448 0.049950
0.100193 0.470447 0.045619
0.155852 0.472821 0.041255
0.215055 0.475495 0.036853
0.271875 0.478167 0.032409
0.326953 0.480836 0.027915
0.380667 0.483504 0.023363
0.433262 0.486169 0.018737
0.484914 0.488832 0.014018
0.535752 0.491493 0.009165
0.585875 0.494151 0.004082
0.635126 0.496808 0.000000
0.683219 0.499463 0.000000
0.730809 0.502116 0.000000
0.777938 0.504768 0.000000
0.824643 0.507417 0.000000
0.825856 0.507486 0.000000
0.116799 0.529310 0.035240
0.117873 0.529309 0.030779
0.172477 0.531641 0.026265
0.230933 0.534268 0.021688
0.287224 0.536894 0.017032
0.341895 0.539518 0.012269
0.395279 0.542140 0.007350
0.447599 0.544760 0.002117
0.498456 0.547378 0.000000
0.548243 0.549995 0.000000
0.597361 0.552611 0.000000
0.645879 0.555224 0.000000
0.693856 0.557835 0.000000
0.741340 0.560445 0.000000
0.788371 0.563053 0.000000
0.834986 0.565659 0.000000
0.836196 0.565727 0.000000
0.134109 0.587203 0.020003
0.135161 0.587202 0.015312
0.188865 0.589498 0.010501
0.246649 0.592086 0.005498
0.302440 0.594671 0.000000
0.355820 0.597256 0.000000
0.408019 0.599839 0.000000
0.459233 0.602421 0.000000
0.509602 0.605001 0.000000
0.559233 0.607579 0.000000
0.608211 0.610155 0.000000
0.656605 0.612730 0.000000
0.704468 0.615304 0.000000
0.751848 0.617875 0.000000
0.798784 0.620445 0.000000
0.845309 0.623014 0.000000
0.846518 0.623081 0.000000
0.151090 0.644251 0.003594
0.151736 0.644251 0.000000
0.203683 0.646516 0.000000
0.259954 0.649069 0.000000
0.314439 0.651620 0.000000
0.367535 0.654170 0.000000
0.419500 0.656718 0.000000
0.470515 0.659265 0.000000
0.520711 0.661810 0.000000
0.570191 0.664354 0.000000
0.619033 0.666896 0.000000
0.667304 0.669437 0.000000
0.715056 0.671976 0.000000
0.762334 0.674514 0.000000
0.809176 0.677051 0.000000
0.855614 0.679586 0.000000
0.856821 0.679652 0.000000
0.164996 0.700553 0.000000
0.164996 0.700553 0.000000
0.216393 0.702790 0.000000
0.272221 0.705311 0.000000
0.326369 0.707831 0.000000
0.379194 0.710349 0.000000
0.430934 0.712866 0.000000
0.481757 0.715382 0.000000
0.531785 0.717896 0.000000
0.581117 0.720409 0.000000
0.629827 0.722921 0.000000
0.677978 0.725431 0.000000
0.725621 0.727940 0.000000
0.772799 0.730448 0.000000
0.819548 0.732954 0.000000
0.865901 0.735459 0.000000
0.867105 0.735525 0.000000
0.178098 0.756183 0.000000
0.178098 0.756183 0.000000
0.228992 0.758395 0.000000
0.284406 0.760887 0.000000
0.338233 0.763379 0.000000
0.390800 0.765869 0.000000
0.442323 0.768357 0.000000
0.492959 0.770845 0.000000
0.542825 0.773331 0.000000
0.592012 0.775817 0.000000
0.640593 0.778301 0.000000
0.688627 0.780783 0.000000
0.736163 0.783265 0.000000
0.783242 0.785745 0.000000
0.829901 0.788225 0.000000
0.876169 0.790703 0.000000
0.877371 0.790767 0.000000
0.191057 0.811206 0.000000
0.191057 0.811206 0.000000
0.241488 0.813395 0.000000
0.296512 0.815861 0.000000
0.350036 0.818326 0.000000
0.402354 0.820791 0.000000
0.453668 0.823254 0.000000
0.504124 0.825716 0.000000
0.553831 0.828177 0.000000
0.602878 0.830636 0.000000
0.651332 0.833095 0.000000
0.699251 0.835553 0.000000
0.746682 0.838009 0.000000
0.793665 0.840465 0.000000
0.840234 0.842919 0.000000
0.886419 0.845372 0.000000
0.887618 0.845436 0.000000
0.203886 0.865674 0.000000
0.203886 0.865674 0.000000
0.253888 0.867841 0.000000
0.308546 0.870284 0.000000
0.361780 0.872726 0.000000
0.413859 0.875166 0.000000
0.464971 0.877606 0.000000
0.515251 0.880044 0.000000
0.564805 0.882482 0.000000
0.613714 0.884918 0.000000
0.662044 0.887354 0.000000
0.709851 0.889788 0.000000
0.757179 0.892222 0.000000
0.804067 0.894654 0.000000
0.850548 0.897086 0.000000
0.896651 0.899517 0.000000
0.897849 0.899580 0.000000
0.204219 0.867088 0.000000
0.204219 0.867088 0.000000
0.254210 0.869255 0.000000
0.308858 0.871697 0.000000
0.362085 0.874138 0.000000
0.414158 0.876578 0.000000
0.465265 0.879017 0.000000
0.515541 0.881455 0.000000
0.565091 0.883892 0.000000
0.613996 0.886328 0.000000
0.662323 0.888763 0.000000
0.710127 0.891197 0.000000
0.757452 0.893629 0.000000
0.804338 0.896061 0.000000
0.850817 0.898492 0.000000
0.896917 0.900922 0.000000
0.898115 0.900986 0.000000
0.000000 0.000581 0.170158
0.000000 0.000578 0.166242
0.025436 0.005704 0.162318
0.095958 0.010631 0.158387
0.158646 0.015224 0.154448
0.217719 0.019615 0.150501
0.274447 0.023862 0.146546
0.329456 0.027998 0.142582
0.383113 0.032044 0.138609
0.435661 0.036014 0.134627
0.487273 0.039919 0.130636
0.538076 0.043768 0.126635
0.588168 0.047567 0.122623
0.637628 0.051321 0.118601
0.686518 0.055034 0.114569
0.734891 0.058709 0.110525
0.736940 0.058804 0.106469
0.000000 0.000572 0.156954
0.000000 0.000570 0.153012
0.029924 0.005698 0.149062
0.099671 0.010625 0.145103
0.162094 0.015219 0.141136
0.221008 0.019610 0.137160
0.277626 0.023857 0.133175
0.332549 0.027993 0.129180
0.386137 0.032039 0.125175
0.438628 0.036009 0.121160
0.490190 0.039915 0.117135
0.540950 0.043764 0.113098
0.591005 0.047563 0.109049
0.640430 0.051316 0.104989
0.689289 0.055029 0.100916
0.737634 0.058705 0.096830
0.739682 0.058799 0.092730
0.000000 0.079389 0.143660
0.000000 0.079388 0.139690
0.048699 0.082480 0.135710
0.115794 0.085945 0.131722
0.177154 0.089390 0.127723
0.235413 0.092815 0.123715
0.291561 0.096221 0.119696
0.346121 0.099608 0.115666
0.399414 0.102979 0.111625
0.451658 0.106334 0.107573
0.503009 0.109672 0.103508
0.553583 0.112995 0.099430
0.603473 0.116304 0.095339
0.652751 0.119599 0.091233
0.701476 0.122880 0.087113
0.749699 0.126148 0.082977
0.751742 0.126232 0.078825
0.000000 0.152815 0.130267
0.000000 0.152814 0.126265
0.068123 0.155621 0.122253
0.133125 0.158777 0.118230
0.193480 0.161923 0.114196
0.251085 0.165060 0.110151
0.306754 0.168189 0.106094
0.360938 0.171308 0.102025
0.413924 0.174419 0.097942
0.465908 0.177522 0.093846
0.517034 0.180617 0.089735
0.567411 0.183704 0.085609
0.617126 0.186782 0.081468
0.666246 0.189854 0.077309
0.714828 0.192918 0.073132
0.762919 0.195974 0.068937
0.764957 0.196053 0.064720
0.021731 0.221078 0.116763
0.023108 0.221077 0.112725
0.086737 0.223734 0.108676
0.150123 0.226724 0.104614
0.209601 0.229708 0.100540
0.266612 0.232686 0.096452
0.321836 0.235659 0.092351
0.375665 0.238626 0.088235
0.428358 0.241587 0.084103
0.480092 0.244543 0.079956
0.531002 0.247494 0.075791
0.581189 0.250439 0.071607
0.630733 0.253380 0.067404
0.679699 0.256315 0.063180
0.728142 0.259245 0.058933
0.776105 0.262170 0.054661
0.778138 0.262245 0.050363
0.042991 0.286262 0.103132
0.044237 0.286261 0.099053
0.104765 0.288818 0.094961
0.166837 0.291696 0.090854
0.225538 0.294570 0.086733
0.282005 0.297440 0.082595
0.336812 0.300306 0.078441
0.390306 0.303168 0.074270
0.442719 0.306025 0.070079
0.494214 0.308879 0.065869
0.544915 0.311728 0.061636
0.594918 0.314574 0.057381
0.644296 0.317416 0.053100
0.693113 0.320254 0.048791
0.741419 0.323089 0.044451
0.789257 0.325919 0.040077
0.791285 0.325992 0.035665
0.062711 0.349271 0.089355
0.063889 0.349270 0.085228
0.122337 0.351752 0.081085
0.183303 0.354547 0.076925
0.241308 0.357339 0.072746
0.297272 0.360127 0.068549
0.351689 0.362912 0.064330
0.404865 0.365694 0.060090
0.457010 0.368473 0.055825
0.508276 0.371248 0.051534
0.558776 0.374021 0.047214
0.608599 0.376790 0.042863
0.657817 0.379557 0.038475
0.706488 0.382320 0.034048
0.754661 0.385081 0.029573
0.802377 0.387838 0.025043
0.804400 0.387909 0.020447
0.081525 0.410610 0.075406
0.082659 0.410609 0.071220
0.139536 0.413031 0.067015
0.199549 0.415760 0.062789
0.256925 0.418486 0.058540
0.312423 0.421209 0.054266
0.366472 0.423930 0.049965
0.419346 0.426648 0.045634
0.471235 0.429364 0.041270
0.522279 0.432076 0.036868
0.572584 0.434787 0.032424
0.622234 0.437495 0.027931
0.671296 0.440200 0.023378
0.719825 0.442903 0.018754
0.767659 0.445603 0.015266
0.814453 0.448302 0.015266
0.815669 0.448373 0.015266
0.099704 0.470598 0.061245
0.100803 0.470597 0.056987
0.156423 0.472971 0.052703
0.215599 0.475645 0.048392
0.272401 0.478316 0.044049
0.327464 0.480986 0.039672
0.381166 0.483653 0.035256
0.433752 0.486318 0.030795
0.485396 0.488981 0.026281
0.536227 0.491642 0.021704
0.586343 0.494300 0.017048
0.635306 0.496957 0.015266
0.683397 0.499612 0.015266
0.730985 0.502265 0.015266
0.778113 0.504916 0.015266
0.824815 0.507565 0.015266
0.826028 0.507634 0.015266
0.117395 0.529457 0.046815
0.118468 0.529456 0.042460
0.173040 0.531788 0.038069
0.231472 0.534416 0.033637
0.287745 0.537041 0.029158
0.342403 0.539665 0.024623
0.395776 0.542287 0.020019
0.448087 0.544906 0.015328
0.498642 0.547525 0.015266
0.548427 0.550142 0.015266
0.597542 0.552757 0.015266
0.646058 0.555371 0.015266
0.694033 0.557982 0.015266
0.741515 0.560592 0.015266
0.788545 0.563199 0.015266
0.835158 0.565805 0.015266
0.836369 0.565873 0.015266
0.134693 0.587348 0.032012
0.135745 0.587347 0.027514
0.189420 0.589643 0.022955
0.247183 0.592231 0.018323
0.302641 0.594816 0.015266
0.356016 0.597401 0.015266
0.408211 0.599984 0.015266
0.459421 0.602566 0.015266
0.509787 0.605145 0.015266
0.559416 0.607723 0.015266
0.608392 0.610300 0.015266
0.656783 0.612875 0.015266
0.704645 0.615448 0.015266
0.752023 0.618019 0.015266
0.798957 0.620589 0.015266
0.845481 0.623158 0.015266
0.846690 0.623225 0.015266
0.151664 0.644394 0.016614
0.151958 0.644394 0.015266
0.203896 0.646659 0.015266
0.260159 0.649212 0.015266
0.314638 0.651763 0.015266
0.367730 0.654313 0.015266
0.419691 0.656861 0.015266
0.470703 0.659407 0.015266
0.520896 0.661953 0.015266
0.570373 0.664496 0.015266
0.619214 0.667039 0.015266
0.667482 0.669579 0.015266
0.715232 0.672119 0.015266
0.762509 0.674657 0.015266
0.809349 0.677193 0.015266
0.855786 0.679728 0.015266
0.856992 0.679794 0.015266
0.165216 0.700694 0.015266
0.165216 0.700694 0.015266
0.216604 0.702931 0.015266
0.272425 0.705452 0.015266
0.326567 0.707972 0.015266
0.379388 0.710490 0.015266
0.431125 0.713007 0.015266
0.481944 0.715523 0.015266
0.531970 0.718037 0.015266
0.581299 0.720550 0.015266
0.630007 0.723061 0.015266
0.678156 0.725572 0.015266
0.725797 0.728081 0.015266
0.772973 0.730588 0.015266
0.819721 0.733095 0.015266
0.866072 0.735600 0.015266
0.867276 0.735665 0.015266
0.178316 0.756323 0.015266
0.178316 0.756323 0.015266
0.229202 0.758535 0.015266
0.284608 0.761027 0.015266
0.338431 0.763518 0.015266
0.390993 0.766008 0.015266
0.442513 0.768497 0.015266
0.493146 0.770985 0.015266
0.543009 0.773471 0.015266
0.592194 0.775956 0.015266
0.640772 0.778440 0.015266
0.688804 0.780923 0.015266
0.736338 0.783404 0.015266
0.783416 0.785885 0.015266
0.830073 0.788364 0.015266
0.876340 0.790842 0.015266
0.877542 0.790906 0.015266
0.191272 0.811345 0.015266
0.191272 0.811345 0.015266
0.241696 0.813533 0.015266
0.296714 0.815999 0.015266
0.350233 0.818465 0.015266
0.402547 0.820929 0.015266
0.453857 0.823392 0.015266
0.504309 0.825854 0.015266
0.554015 0.828315 0.015266
0.603059 0.830774 0.015266
0.651511 0.833233 0.015266
0.699428 0.835691 0.015266
0.746857 0.838147 0.015266
0.793838 0.840602 0.015266
0.840406 0.843057 0.015266
0.886589 0.845510 0.015266
0.887789 0.845574 0.015266
0.204099 0.865811 0.015266
0.204099 0.865811 0.015266
0.254094 0.867978 0.015266
0.308746 0.870421 0.015266
0.361975 0.872863 0.015266
0.414050 0.875303 0.015266
0.465159 0.877743 0.015266
0.515436 0.880181 0.015266
0.564987 0.882619 0.015266
0.613894 0.885055 0.015266
0.662223 0.887491 0.015266
0.710027 0.889925 0.015266
0.757354 0.892358 0.015266
0.804240 0.894791 0.015266
0.850720 0.897222 0.015266
0.896821 0.899653 0.015266
0.898019 0.899716 0.015266
0.204432 0.867225 0.015266
0.204432 0.867225 0.015266
0.254416 0.869392 0.015266
0.309059 0.871834 0.015266
0.362280 0.874275 0.015266
0.414350 0.876715 0.015266
0.465453 0.879154 0.015266
0.515726 0.881592 0.015266
0.565273 0.884028 0.015266
0.614177 0.886464 0.015266
0.662502 0.888899 0.015266
0.710304 0.891333 0.015266
0.757627 0.893766 0.015266
0.804511 0.896198 0.015266
0.850988 0.898629 0.015266
0.897088 0.901059 0.015266
0.898286 0.901122 0.015266
0.000000 0.002725 0.238394
0.000000 0.002723 0.234584
0.027642 0.007430 0.230768
0.097774 0.012219 0.226947
0.160332 0.016734 0.223121
0.219326 0.021072 0.219289
0.276000 0.025278 0.215453
0.330967 0.029381 0.211611
0.384590 0.033400 0.207763
0.437111 0.037347 0.203910
0.488698 0.041232 0.200050
0.539480 0.045064 0.196185
0.589554 0.048847 0.192314
0.638997 0.052586 0.188436
0.687872 0.056286 0.184552
0.736231 0.059950 0.180662
0.738280 0.060044 0.176764
0.000000 0.002718 0.225554
0.000000 0.002716 0.221727
0.032079 0.007424 0.217893
0.101477 0.012214 0.214055
0.163774 0.016729 0.210211
0.222612 0.021067 0.206361
0.279176 0.025273 0.202505
0.334058 0.029376 0.198644
0.387612 0.033395 0.194776
0.440076 0.037342 0.190903
0.491614 0.041228 0.187023
0.542354 0.045059 0.183137
0.592389 0.048842 0.179244
0.641798 0.052582 0.175344
0.690642 0.056282 0.171437
0.738973 0.059945 0.167523
0.741021 0.060039 0.163602
0.000000 0.080575 0.212656
0.000000 0.080574 0.208810
0.050707 0.083659 0.204958
0.117560 0.087117 0.201100
0.178812 0.090555 0.197236
0.237002 0.093973 0.193367
0.293100 0.097373 0.189491
0.347621 0.100755 0.185609
0.400882 0.104120 0.181720
0.453100 0.107469 0.177825
0.504427 0.110802 0.173922
0.554982 0.114121 0.170013
0.604854 0.117425 0.166097
0.654115 0.120715 0.162173
0.702826 0.123991 0.158241
0.751035 0.127255 0.154302
0.753078 0.127339 0.150355
0.000000 0.153891 0.199694
0.000096 0.153890 0.195828
0.070034 0.156694 0.191956
0.134855 0.159846 0.188078
0.195116 0.162990 0.184194
0.252659 0.166124 0.180303
0.308282 0.169249 0.176405
0.362429 0.172366 0.172500
0.415384 0.175474 0.168588
0.467343 0.178574 0.164669
0.518447 0.181666 0.160742
0.568804 0.184750 0.156808
0.618501 0.187826 0.152866
0.667606 0.190895 0.148916
0.716173 0.193957 0.144957
0.764252 0.197011 0.140989
0.766289 0.197089 0.137013
0.023987 0.222096 0.186665
0.025344 0.222095 0.182778
0.088580 0.224750 0.178884
0.151823 0.227738 0.174984
0.211218 0.230720 0.171077
0.268172 0.233696 0.167162
0.323352 0.236667 0.163240
0.377147 0.239632 0.159311
0.429811 0.242592 0.155374
0.481521 0.245546 0.151429
0.532409 0.248495 0.147475
0.582577 0.251438 0.143513
0.632104 0.254377 0.139543
0.681055 0.257310 0.135563
0.729484 0.260239 0.131574
0.777434 0.263162 0.127575
0.779467 0.263237 0.123566
0.045035 0.287241 0.173562
0.046273 0.287240 0.169652
0.106558 0.289796 0.165735
0.168510 0.292673 0.161811
0.227138 0.295545 0.157879
0.283552 0.298414 0.153938
0.338318 0.301278 0.149990
0.391779 0.304138 0.146034
0.444165 0.306995 0.142069
0.495636 0.309847 0.138095
0.546317 0.312695 0.134112
0.596301 0.315540 0.130119
0.645663 0.318380 0.126117
0.694465 0.321217 0.122104
0.742758 0.324050 0.118081
0.790583 0.326880 0.114047
0.792610 0.326953 0.110001
0.064645 0.350222 0.160380
0.065818 0.350221 0.156445
0.124089 0.352702 0.152502
0.184952 0.355495 0.148551
0.242892 0.358286 0.144591
0.298807 0.361073 0.140623
0.353185 0.363857 0.136646
0.406330 0.366638 0.132659
0.458449 0.369416 0.128663
0.509692 0.372190 0.124657
0.560172 0.374962 0.120641
0.609977 0.377730 0.116614
0.659180 0.380496 0.112575
0.707836 0.383258 0.108526
0.755996 0.386017 0.104463
0.803699 0.388774 0.100389
0.805722 0.388845 0.096301
0.083386 0.411538 0.147110
0.084516 0.411537 0.143148
0.141254 0.413958 0.139176
0.201178 0.416686 0.135196
0.258494 0.419411 0.131206
0.313946 0.422134 0.127206
0.367959 0.424853 0.123196
0.420803 0.427571 0.119176
0.472667 0.430285 0.115145
0.523690 0.432997 0.111102
0.573976 0.435707 0.107048
0.623608 0.438414 0.102982
0.672655 0.441118 0.098902
0.721170 0.443820 0.094809
0.768715 0.446520 0.093161
0.815500 0.449218 0.093161
0.816715 0.449289 0.093161
0.101510 0.471507 0.133744
0.102607 0.471506 0.129751
0.158112 0.473879 0.125747
0.217209 0.476552 0.121734
0.273955 0.479223 0.117710
0.328977 0.481892 0.113674
0.382645 0.484558 0.109628
0.435202 0.487223 0.105569
0.486822 0.489885 0.101498
0.537632 0.492545 0.097414
0.587730 0.495202 0.093315
0.636392 0.497859 0.093161
0.684472 0.500513 0.093161
0.732049 0.503166 0.093161
0.779167 0.505816 0.093161
0.825860 0.508464 0.093161
0.827073 0.508533 0.093161
0.119158 0.530350 0.120270
0.120229 0.530349 0.116242
0.174703 0.532681 0.112203
0.233065 0.535307 0.108152
0.289287 0.537932 0.104088
0.343905 0.540555 0.100012
0.397246 0.543176 0.095923
0.449243 0.545796 0.093161
0.499769 0.548414 0.093161
0.549538 0.551030 0.093161
0.598638 0.553645 0.093161
0.647142 0.556258 0.093161
0.695105 0.558868 0.093161
0.742577 0.561477 0.093161
0.789597 0.564084 0.093161
0.836201 0.566690 0.093161
0.837412 0.566758 0.093161
0.136420 0.588227 0.106674
0.137470 0.588227 0.102606
0.191062 0.590522 0.098525
0.248760 0.593109 0.094431
0.303855 0.595694 0.093161
0.357201 0.598279 0.093161
0.409372 0.600861 0.093161
0.460562 0.603442 0.093161
0.510910 0.606021 0.093161
0.560524 0.608599 0.093161
0.609486 0.611174 0.093161
0.657864 0.613749 0.093161
0.705715 0.616321 0.093161
0.753082 0.618892 0.093161
0.800007 0.621462 0.093161
0.846523 0.624030 0.093161
0.847731 0.624097 0.093161
0.153304 0.645262 0.093161
0.153304 0.645262 0.093161
0.205184 0.647526 0.093161
0.261401 0.650078 0.093161
0.315845 0.652629 0.093161
0.368909 0.655178 0.093161
0.420848 0.657726 0.093161
0.471839 0.660272 0.093161
0.522016 0.662817 0.093161
0.571478 0.665360 0.093161
0.620305 0.667902 0.093161
0.668561 0.670442 0.093161
0.716300 0.672981 0.093161
0.763566 0.675518 0.093161
0.810397 0.678054 0.093161
0.856825 0.680589 0.093161
0.858031 0.680655 0.093161
0.166545 0.701551 0.093161
0.166545 0.701551 0.093161
0.217881 0.703788 0.093161
0.273658 0.706308 0.093161
0.327768 0.708827 0.093161
0.380562 0.711345 0.093161
0.432276 0.713862 0.093161
0.483076 0.716377 0.093161
0.533086 0.718890 0.093161
0.582400 0.721403 0.093161
0.631095 0.723914 0.093161
0.679232 0.726424 0.093161
0.726862 0.728933 0.093161
0.774028 0.731440 0.093161
0.820767 0.733946 0.093161
0.867109 0.736450 0.093161
0.868313 0.736516 0.093161
0.179630 0.757170 0.093161
0.179630 0.757170 0.093161
0.230467 0.759381 0.093161
0.285834 0.761873 0.093161
0.339625 0.764364 0.093161
0.392162 0.766854 0.093161
0.443660 0.769342 0.093161
0.494274 0.771829 0.093161
0.544122 0.774315 0.093161
0.593292 0.776800 0.093161
0.641858 0.779283 0.093161
0.689878 0.781765 0.093161
0.737401 0.784247 0.093161
0.784469 0.786727 0.093161
0.831117 0.789205 0.093161
0.877375 0.791683 0.093161
0.878577 0.791748 0.093161
0.192573 0.812183 0.093161
0.192573 0.812183 0.093161
0.242952 0.814371 0.093161
0.297932 0.816837 0.093161
0.351421 0.819302 0.093161
0.403710 0.821765 0.093161
0.455000 0.824228 0.093161
0.505434 0.826690 0.093161
0.555124 0.829150 0.093161
0.604154 0.831609 0.093161
0.652593 0.834068 0.093161
0.700499 0.836525 0.093161
0.747918 0.838981 0.093161
0.794889 0.841436 0.093161
0.841448 0.843890 0.093161
0.887623 0.846343 0.093161
0.888823 0.846407 0.093161
0.205387 0.866641 0.093161
0.205387 0.866641 0.093161
0.255340 0.868808 0.093161
0.309956 0.871250 0.093161
0.363157 0.873692 0.093161
0.415209 0.876132 0.093161
0.466297 0.878571 0.093161
0.516558 0.881009 0.093161
0.566093 0.883446 0.093161
0.614987 0.885882 0.093161
0.663303 0.888317 0.093161
0.711096 0.890752 0.093161
0.758412 0.893185 0.093161
0.805289 0.895617 0.093161
0.851760 0.898048 0.093161
0.897853 0.900478 0.093161
0.899051 0.900541 0.093161
0.205719 0.868055 0.093161
0.205719 0.868055 0.093161
0.255662 0.870221 0.093161
0.310269 0.872663 0.093161
0.363463 0.875104 0.093161
0.415508 0.877543 0.093161
0.466592 0.879982 0.093161
0.516847 0.882419 0.093161
0.566379 0.884856 0.093161
0.615269 0.887291 0.093161
0.663582 0.889726 0.093161
0.711372 0.892159 0.093161
0.758686 0.894592 0.093161
0.805560 0.897023 0.093161
0.852029 0.899454 0.093161
0.898120 0.901884 0.093161
0.899317 0.901947 0.093161
0.000000 0.004611 0.305080
0.000000 0.004609 0.301344
0.029821 0.009097 0.297605
0.099586 0.013777 0.293861
0.162015 0.018224 0.290114
0.220932 0.022513 0.286363
0.277552 0.026682 0.282608
0.332477 0.030755 0.278849
0.386067 0.034748 0.275086
0.438559 0.038673 0.271319
0.490123 0.042539 0.267548
0.540884 0.046354 0.263772
0.590939 0.050121 0.259992
0.640365 0.053847 0.256208
0.689225 0.057534 0.252419
0.737571 0.061186 0.248626
0.739619 0.061280 0.244828
0.000000 0.004605 0.292498
0.000000 0.004603 0.288749
0.034212 0.009092 0.284997
0.103279 0.013772 0.281240
