Fotico/Resources/LUTs/nostalgia.cube
# Nostalgia
LUT_3D_SIZE 9
0.085281 0.059894 0.015175
0.152055 0.067799 0.023554
0.224872 0.075836 0.032049
0.302362 0.084003 0.040657
0.383155 0.092296 0.049377
0.465880 0.100713 0.058205
0.549166 0.109250 0.067138
0.631643 0.117905 0.076175
0.711940 0.126673 0.085313
0.113029 0.145480 0.044544
0.182557 0.154584 0.053313
0.257542 0.163790 0.062188
0.336613 0.173095 0.071168
0.418401 0.182495 0.080251
0.501533 0.191989 0.089433
0.584641 0.201572 0.098713
0.666353 0.211241 0.108087
0.745298 0.220995 0.117554
0.141612 0.240358 0.074779
0.213609 0.250341 0.083901
0.290485 0.260396 0.093123
0.370870 0.270520 0.102441
0.453392 0.280708 0.111852
0.536681 0.290960 0.121355
0.619367 0.301271 0.130947
0.700079 0.311638 0.140625
0.777446 0.322059 0.150387
0.171065 0.341804 0.105928
0.245271 0.352361 0.115374
0.323783 0.362960 0.124910
0.405229 0.373598 0.134534
0.488239 0.384272 0.144244
0.571442 0.394977 0.154036
0.653468 0.405713 0.163909
0.732947 0.416475 0.173860
0.808507 0.427260 0.183887
0.201338 0.447005 0.137948
0.277503 0.457840 0.147687
0.357402 0.468686 0.157509
0.439665 0.479542 0.167410
0.522922 0.490403 0.177388
0.605802 0.501267 0.187440
0.686935 0.512130 0.197565
0.764949 0.522990 0.207759
0.838474 0.533844 0.218021
0.232357 0.553172 0.170773
0.310236 0.563991 0.180777
0.391281 0.574793 0.190854
0.474122 0.585574 0.201002
0.557390 0.596331 0.211220
0.639712 0.607061 0.221503
0.719718 0.617761 0.231851
0.796039 0.628428 0.242259
0.867303 0.639058 0.252727
0.264041 0.657547 0.204326
0.343393 0.668063 0.214565
0.425346 0.678531 0.224870
0.508529 0.688949 0.235238
0.591572 0.699313 0.245666
0.673105 0.709620 0.256152
0.751755 0.719868 0.266694
0.826154 0.730054 0.277289
0.894930 0.740173 0.287934
0.296303 0.757404 0.238527
0.376892 0.767330 0.248973
0.459517 0.777178 0.259477
0.542809 0.786947 0.270036
0.625396 0.796632 0.280647
0.705908 0.806232 0.291308
0.782974 0.815742 0.302016
0.855224 0.825160 0.312769
0.921288 0.834483 0.323564
0.329056 0.850044 0.273292
0.410646 0.859095 0.283919
0.493711 0.868040 0.294594
0.576879 0.876876 0.305316
0.658780 0.885599 0.316082
0.738044 0.894206 0.326890
0.813299 0.902695 0.337737
0.883174 0.911063 0.348620
0.946301 0.919305 0.359538
0.088053 0.062660 0.069911
0.155119 0.070612 0.078979
0.228169 0.078695 0.088148
0.305832 0.086907 0.097414
0.386738 0.095244 0.106776
0.469516 0.103703 0.116230
0.552795 0.112282 0.125774
0.635206 0.120977 0.135406
0.715376 0.129785 0.145123
0.115933 0.148671 0.101590
0.185728 0.157812 0.110993
0.260920 0.167053 0.120488
0.340139 0.176391 0.130072
0.422014 0.185825 0.139742
0.505174 0.195350 0.149497
0.588249 0.204964 0.159333
0.669869 0.214664 0.169248
0.748662 0.224446 0.179240
0.144636 0.243862 0.133919
0.216875 0.253871 0.143623
0.293933 0.263950 0.153411
0.374440 0.274097 0.163279
0.457024 0.284308 0.173225
0.540315 0.294581 0.183247
0.622944 0.304912 0.193342
0.703538 0.315299 0.203507
0.780727 0.325737 0.213741
0.174198 0.345513 0.166966
0.248620 0.356086 0.176941
0.327289 0.366699 0.186990
0.408832 0.377350 0.197112
0.491879 0.388035 0.207303
0.575059 0.398751 0.217562
0.657003 0.409496 0.227885
0.736339 0.420267 0.238270
0.811697 0.431059 0.248716
0.204568 0.450815 0.200698
0.280924 0.461655 0.210913
0.360956 0.472505 0.221195
0.443291 0.483363 0.231540
0.526560 0.494225 0.241947
0.609393 0.505089 0.252413
0.690417 0.515952 0.262935
0.768264 0.526810 0.273511
0.841562 0.537660 0.284139
0.235674 0.556980 0.235051
0.313719 0.567794 0.245478
0.394872 0.578589 0.255963
0.477760 0.589362 0.266504
0.561015 0.600110 0.277098
0.643265 0.610829 0.287742
0.723139 0.621518 0.298435
0.799267 0.632172 0.309173
0.870279 0.642790 0.319954
0.267434 0.661252 0.269952
0.346928 0.671751 0.280563
0.428963 0.682202 0.291223
0.512169 0.692602 0.301931
0.595175 0.702946 0.312683
0.676610 0.713233 0.323478
0.755104 0.723459 0.334313
0.829286 0.733622 0.345185
0.897785 0.743718 0.356092
0.299762 0.760905 0.305324
0.380468 0.770804 0.316090
0.463151 0.780624 0.326898
0.546440 0.790364 0.337745
0.628966 0.800020 0.348628
0.709356 0.809588 0.359545
0.786240 0.819066 0.370494
0.858249 0.828451 0.381473
0.924011 0.837740 0.392477
0.332570 0.853241 0.341086
0.414254 0.862255 0.351980
0.497352 0.871162 0.362907
0.580493 0.879958 0.373865
0.662307 0.888641 0.384852
0.741424 0.897207 0.395864
0.816473 0.905653 0.406900
0.886083 0.913977 0.417957
0.948883 0.922175 0.429032
0.090728 0.065332 0.126338
0.158073 0.073329 0.135975
0.231344 0.081456 0.145697
0.309171 0.089710 0.155502
0.390183 0.098089 0.165387
0.473009 0.106589 0.175349
0.556280 0.115208 0.185387
0.638624 0.123941 0.195497
0.718670 0.132787 0.205677
0.118735 0.151749 0.159914
0.188784 0.160923 0.169834
0.264172 0.170198 0.179830
0.343530 0.179569 0.189901
0.425486 0.189034 0.200043
0.508670 0.198590 0.210253
0.591712 0.208233 0.220531
0.673240 0.217960 0.230872
0.751885 0.227770 0.241275
0.147552 0.247237 0.193937
0.220020 0.257270 0.204107
0.297251 0.267372 0.214345
0.377872 0.277541 0.224648
0.460513 0.287773 0.235015
0.543805 0.298066 0.245442
0.626375 0.308416 0.255927
0.706854 0.318821 0.266467
0.783871 0.329276 0.277061
0.177216 0.349082 0.228494
0.251845 0.359668 0.238883
0.330661 0.370294 0.249332
0.412295 0.380957 0.259838
0.495375 0.391653 0.270398
0.578532 0.402380 0.281011
0.660393 0.413134 0.291674
0.739590 0.423912 0.302383
0.814751 0.434711 0.313138
0.207680 0.454477 0.263556
0.284218 0.465320 0.274135
0.364373 0.476173 0.284766
0.446775 0.487033 0.295445
0.530054 0.497896 0.306171
0.612838 0.508760 0.316940
0.693757 0.519622 0.327751
0.771440 0.530478 0.338601
0.844518 0.541325 0.349487
0.238868 0.560637 0.299065
0.317071 0.571445 0.309806
0.398324 0.582232 0.320589
0.481255 0.592997 0.331414
0.564495 0.603736 0.342276
0.646673 0.614445 0.353174
0.726417 0.625123 0.364105
0.802359 0.635765 0.375066
0.873126 0.646369 0.386056
0.270700 0.664805 0.334951
0.350328 0.675289 0.345826
0.432440 0.685723 0.356734
0.515665 0.696104 0.367676
0.598633 0.706429 0.378646
0.679972 0.716696 0.389645
0.758312 0.726901 0.400667
0.832283 0.737041 0.411713
0.900514 0.747114 0.422778
0.303090 0.764259 0.371139
0.383906 0.774131 0.382119
0.466643 0.783925 0.393125
0.549927 0.793637 0.404155
0.632391 0.803263 0.415207
0.712661 0.812802 0.426278
0.789369 0.822249 0.437365
0.861143 0.831601 0.448466
0.926613 0.840857 0.459579
0.335950 0.856299 0.407550
0.417721 0.865277 0.418608
0.500848 0.874147 0.429684
0.583962 0.882905 0.440775
0.665690 0.891549 0.451880
0.744664 0.900075 0.462996
0.819512 0.908480 0.474120
0.888864 0.916762 0.485250
0.951348 0.924917 0.496383
0.093360 0.067964 0.184705
0.160975 0.076004 0.194810
0.234461 0.084173 0.204986
0.312445 0.092469 0.215229
0.393559 0.100888 0.225538
0.476430 0.109428 0.235910
0.559690 0.118085 0.246342
0.641966 0.126856 0.256832
0.721889 0.135738 0.267377
0.121490 0.154773 0.219833
0.191785 0.163981 0.230170
0.267363 0.173288 0.240569
0.346854 0.182691 0.251027
0.428888 0.192186 0.261542
0.512093 0.201771 0.272112
0.595100 0.211442 0.282733
0.676537 0.221197 0.293403
0.755034 0.231033 0.304120
0.150417 0.250549 0.255215
0.223108 0.260605 0.265752
0.300505 0.270730 0.276342
0.381236 0.280920 0.286983
0.463931 0.291173 0.297672
0.547220 0.301485 0.308407
0.629731 0.311853 0.319186
0.710095 0.322275 0.330005
0.786940 0.332747 0.340862
0.180182 0.352580 0.290950
0.255009 0.363180 0.301657
0.333969 0.373819 0.312408
0.415689 0.384493 0.323202
0.498799 0.395199 0.334036
0.581929 0.405935 0.344907
0.663708 0.416697 0.355813
0.742766 0.427483 0.366752
0.817732 0.438289 0.377720
0.210735 0.458064 0.327018
0.287448 0.468911 0.337865
0.367723 0.479766 0.348749
0.450188 0.490627 0.359667
0.533473 0.501491 0.370616
0.616208 0.512355 0.381595
0.697021 0.523215 0.392600
0.774542 0.534068 0.403629
0.847401 0.544912 0.414679
0.242002 0.564215 0.363364
0.320358 0.575016 0.374323
0.401707 0.585797 0.385311
0.484678 0.596553 0.396325
0.567901 0.607283 0.407361
0.650006 0.617982 0.418419
0.729621 0.628648 0.429494
0.805377 0.639278 0.440586
0.875902 0.649869 0.451691
0.273904 0.668280 0.399920
0.353661 0.678747 0.410964
0.435846 0.689164 0.422028
0.519088 0.699527 0.433109
0.602015 0.709833 0.444205
0.683258 0.720080 0.455314
0.761446 0.730264 0.466432
0.835208 0.740382 0.477558
0.903174 0.750431 0.488690
0.306354 0.767534 0.436614
0.387276 0.777381 0.447714
0.470062 0.787148 0.458826
0.553340 0.796832 0.469947
0.635740 0.806429 0.481075
0.715892 0.815938 0.492208
0.792424 0.825354 0.503342
0.863966 0.834675 0.514475
0.929148 0.843897 0.525605
0.339265 0.859281 0.473367
0.421118 0.868224 0.484496
0.504272 0.877057 0.495629
0.587355 0.885778 0.506763
0.668998 0.894383 0.517896
0.747829 0.902870 0.529024
0.822478 0.911234 0.540146
0.891575 0.919475 0.551259
0.953748 0.927587 0.562361
0.095966 0.070571 0.244740
0.163846 0.078654 0.255221
0.237540 0.086865 0.265758
0.315677 0.095201 0.276348
0.396889 0.103660 0.286989
0.479803 0.112238 0.297679
0.563049 0.120933 0.308414
0.645257 0.129741 0.319192
0.725056 0.138658 0.330011
0.124215 0.157765 0.281103
0.194751 0.167006 0.291765
0.270514 0.176344 0.302476
0.350135 0.185777 0.313230
0.432243 0.195302 0.324027
0.515467 0.204915 0.334864
0.598437 0.214615 0.345738
0.679781 0.224396 0.356646
0.758130 0.234257 0.367587
0.153251 0.253820 0.317532
0.226160 0.263899 0.328345
0.303718 0.274046 0.339197
0.384555 0.284257 0.350085
0.467301 0.294529 0.361007
0.550585 0.304860 0.371960
0.633036 0.315246 0.382942
0.713284 0.325685 0.393950
0.789958 0.336172 0.404982
0.183114 0.356033 0.354140
0.258135 0.366646 0.365074
0.337233 0.377296 0.376038
0.419035 0.387981 0.387030
0.502173 0.398697 0.398047
0.585275 0.409442 0.409087
0.666971 0.420212 0.420148
0.745890 0.431005 0.431226
0.820661 0.441817 0.442320
0.213754 0.461600 0.390912
0.290638 0.472450 0.401938
0.371028 0.483308 0.412985
0.453553 0.494170 0.424052
0.536842 0.505034 0.435137
0.619526 0.515897 0.446235
0.700232 0.526755 0.457346
0.777591 0.537606 0.468466
0.850233 0.548446 0.479593
0.245099 0.567740 0.427797
0.323602 0.578535 0.438886
0.405043 0.589308 0.449989
0.488051 0.600056 0.461103
0.571256 0.610775 0.472226
0.653286 0.621464 0.483355
0.732772 0.632119 0.494488
0.808343 0.642736 0.505622
0.878627 0.653313 0.516754
0.277068 0.671699 0.464729
0.356951 0.682150 0.475854
0.439205 0.692549 0.486984
0.522460 0.702894 0.498118
0.605346 0.713181 0.509251
0.686492 0.723408 0.520383
0.764527 0.733571 0.531510
0.838081 0.743667 0.542631
0.905784 0.753693 0.553741
0.309576 0.770754 0.501636
0.390601 0.780575 0.512769
0.473433 0.790315 0.523900
0.556703 0.799971 0.535025
0.639038 0.809540 0.546143
0.719070 0.819019 0.557250
0.795426 0.828404 0.568344
0.866737 0.837693 0.579423
0.931633 0.846883 0.590484
0.342536 0.862210 0.538443
0.424469 0.871117 0.549557
0.507646 0.879914 0.560661
0.590698 0.888597 0.571751
0.672253 0.897164 0.582825
0.750942 0.905611 0.593880
0.825393 0.913936 0.604914
0.894236 0.922134 0.615925
0.956100 0.930205 0.626909
0.098555 0.073164 0.306073
0.166693 0.081288 0.316843
0.240592 0.089540 0.327653
0.318879 0.097916 0.338503
0.400185 0.106414 0.349388
0.483139 0.115030 0.360308
0.566369 0.123761 0.371259
0.648507 0.132605 0.382239
0.728181 0.141558 0.393246
0.126922 0.160735 0.343368
0.197693 0.170007 0.354269
0.273637 0.179376 0.365203
0.353384 0.188839 0.376168
0.435563 0.198393 0.387160
0.518803 0.208034 0.398177
0.601734 0.217760 0.409218
0.682985 0.227568 0.420278
0.761186 0.237454 0.431357
0.156064 0.257064 0.380549
0.229185 0.267165 0.391551
0.306900 0.277332 0.402578
0.387841 0.287563 0.413627
0.470634 0.297855 0.424695
0.553911 0.308204 0.435780
0.636300 0.318607 0.446880
0.716431 0.329062 0.457991
0.792934 0.339565 0.469111
0.186022 0.359451 0.417739
0.261233 0.370077 0.428813
0.340465 0.380739 0.439904
0.422348 0.391434 0.451008
0.505510 0.402160 0.462123
0.588582 0.412913 0.473247
0.670193 0.423691 0.484376
0.748972 0.434490 0.495509
0.823549 0.445308 0.506643
0.216747 0.465098 0.454926
0.293799 0.475951 0.466045
0.374300 0.486811 0.477171
0.456882 0.497674 0.488302
0.540174 0.508538 0.499435
0.622804 0.519400 0.510569
0.703403 0.530256 0.521700
0.780600 0.541103 0.532827
0.853023 0.551940 0.543946
0.248169 0.571224 0.492064
0.326816 0.582012 0.503198
0.408346 0.592777 0.514331
0.491388 0.603516 0.525461
0.574572 0.614226 0.536586
0.656527 0.624904 0.547702
0.735882 0.635547 0.558807
0.811267 0.646152 0.569899
0.881312 0.656716 0.580976
0.280204 0.675075 0.529089
0.360208 0.685510 0.540211
0.442528 0.695892 0.551324
0.525795 0.706219 0.562425
0.608638 0.716487 0.573513
0.689685 0.726693 0.584584
0.767568 0.736835 0.595636
0.840914 0.746908 0.606666
0.908353 0.756912 0.617673
0.312769 0.773930 0.565930
0.393892 0.783726 0.577013
0.476768 0.793439 0.588078
0.560026 0.803067 0.599124
0.642296 0.812607 0.610147
0.722206 0.822056 0.621146
0.798387 0.831411 0.632117
0.869468 0.840668 0.643059
0.934078 0.849826 0.653968
0.345775 0.865094 0.602514
0.427784 0.873967 0.613530
0.510983 0.882727 0.624521
0.594001 0.891373 0.635483
0.675468 0.899902 0.646415
0.754013 0.908310 0.657314
0.828266 0.916594 0.668178
0.896856 0.924751 0.679004
0.958412 0.932779 0.689789
0.101132 0.075747 0.368306
0.169525 0.083912 0.379279
0.243624 0.092204 0.390278
0.322057 0.100620 0.401303
0.403454 0.109155 0.412349
0.486445 0.117809 0.423415
0.569659 0.126576 0.434498
0.651725 0.135455 0.445596
0.731272 0.144442 0.456706
0.129614 0.163688 0.406242
0.200617 0.172992 0.417297
0.276738 0.182391 0.428371
0.356608 0.191883 0.439461
0.438855 0.201465 0.450565
0.522109 0.211134 0.461679
0.604999 0.220887 0.472802
0.686155 0.230720 0.483932
0.764206 0.240630 0.495065
0.158860 0.260285 0.443888
0.232190 0.270408 0.454997
0.310060 0.280596 0.466115
0.391100 0.290846 0.477241
0.473939 0.301157 0.488372
0.557206 0.311523 0.499506
0.639532 0.321944 0.510639
0.719545 0.332414 0.521771
0.795875 0.342932 0.532897
0.188912 0.362843 0.481378
0.264309 0.373481 0.492510
0.343673 0.384154 0.503644
0.425632 0.394859 0.514777
0.508817 0.405594 0.525907
0.591858 0.416356 0.537031
0.673382 0.427141 0.548146
0.752021 0.437946 0.559251
0.826402 0.448769 0.570343
0.219722 0.468567 0.518702
0.296936 0.479422 0.529830
0.377547 0.490283 0.540951
0.460183 0.501147 0.552064
0.543474 0.512010 0.563164
0.626050 0.522870 0.574251
0.706540 0.533724 0.585321
0.783573 0.544568 0.596371
0.855780 0.555400 0.607400
0.251217 0.574674 0.555817
0.330005 0.585455 0.566913
0.411621 0.596213 0.577994
0.494695 0.606943 0.589058
0.577856 0.617643 0.600101
0.659734 0.628310 0.611122
0.738958 0.638941 0.622119
0.814158 0.649533 0.633088
0.883962 0.660083 0.644027
0.283317 0.678416 0.592661
0.363439 0.688834 0.603697
0.445823 0.699199 0.614711
0.529099 0.709507 0.625698
0.611897 0.719756 0.636658
0.692845 0.729942 0.647586
0.770573 0.740062 0.658482
0.843711 0.750114 0.669342
0.910888 0.760094 0.680163
0.315937 0.777070 0.629165
0.397156 0.786839 0.640115
0.480073 0.796526 0.651033
0.563318 0.806126 0.661917
0.645521 0.815638 0.672765
0.725309 0.825057 0.683574
0.801314 0.834381 0.694342
0.872164 0.843606 0.705066
0.936489 0.852731 0.715743
0.348990 0.867942 0.665255
0.431072 0.876779 0.676092
0.514289 0.885503 0.686888
0.597272 0.894112 0.697642
0.678649 0.902602 0.708352
0.757050 0.910971 0.719014
0.831105 0.919215 0.729627
0.899441 0.927332 0.740188
0.960690 0.935318 0.750693
0.103700 0.078323 0.431033
0.172344 0.086529 0.442127
0.246639 0.094861 0.453233
0.325215 0.103315 0.464350
0.406701 0.111888 0.475475
0.489727 0.120578 0.486605
0.572921 0.129381 0.497739
0.654914 0.138294 0.508872
0.734335 0.147315 0.520004
0.132297 0.166629 0.469326
0.203527 0.175963 0.480453
0.279822 0.185393 0.491585
0.359811 0.194914 0.502719
0.442123 0.204524 0.513853
0.525389 0.214219 0.524983
0.608237 0.223997 0.536107
0.689297 0.233855 0.547224
0.767198 0.243790 0.558330
0.161645 0.263489 0.507160
0.235180 0.273633 0.518293
0.313200 0.283841 0.529421
0.394337 0.294111 0.540542
0.477219 0.304439 0.551655
0.560475 0.314823 0.562756
0.642736 0.325260 0.573843
0.722630 0.335746 0.584914
0.798787 0.346278 0.595965
0.191790 0.366214 0.544674
0.267368 0.376863 0.555783
0.346860 0.387547 0.566879
0.428894 0.398262 0.577960
0.512099 0.409005 0.589024
0.595106 0.419775 0.600067
0.676543 0.430566 0.611089
0.755039 0.441378 0.622085
0.829225 0.452205 0.633054
0.222682 0.472010 0.581863
0.300055 0.482867 0.592920
0.380772 0.493729 0.603956
0.463459 0.504593 0.614969
0.546749 0.515456 0.625956
0.629268 0.526314 0.636915
0.709648 0.537166 0.647843
0.786517 0.548006 0.658737
0.858505 0.558833 0.669596
0.254250 0.578097 0.618685
0.333175 0.588871 0.629663
0.414874 0.599620 0.640612
0.497978 0.610341 0.651529
0.581114 0.621031 0.662412
0.662913 0.631687 0.673258
0.742005 0.642306 0.684065
0.817018 0.652885 0.694831
0.886581 0.663421 0.705552
0.286413 0.681726 0.655081
0.366650 0.692128 0.665952
0.449095 0.702475 0.676786
0.532378 0.712765 0.687580
0.615129 0.722994 0.698331
0.695976 0.733160 0.709038
0.773549 0.743258 0.719697
0.846479 0.753288 0.730306
0.913393 0.763244 0.740864
0.319086 0.780178 0.690982
0.400398 0.789921 0.701719
0.483354 0.799581 0.712411
0.566584 0.809153 0.723055
0.648717 0.818636 0.733648
0.728383 0.828025 0.744188
0.804211 0.837318 0.754673
0.874830 0.846512 0.765099
0.938870 0.855604 0.775465
0.352184 0.870758 0.726316
0.434336 0.879559 0.736893
0.517571 0.888247 0.747416
0.600516 0.896819 0.757883
0.681802 0.905271 0.768291
0.760058 0.913600 0.778638
0.833913 0.921804 0.788920
0.901997 0.929879 0.799137
0.962938 0.937823 0.809284
0.106263 0.080896 0.493848
0.175154 0.089142 0.504982
0.249642 0.097512 0.516115
0.328358 0.106004 0.527244
0.409930 0.114614 0.538367
0.492987 0.123340 0.549482
0.576161 0.132178 0.560586
0.658079 0.141126 0.571675
0.737371 0.150180 0.582749
0.134972 0.169560 0.532221
0.206426 0.178925 0.543341
0.282891 0.188384 0.554451
0.362996 0.197933 0.565548
0.445372 0.207570 0.576631
0.528647 0.217292 0.587697
0.611451 0.227096 0.598744
0.692413 0.236979 0.609768
0.770162 0.246937 0.620767
0.164421 0.266679 0.569971
0.238157 0.276843 0.581047
0.316325 0.287071 0.592106
0.397556 0.297360 0.603144
0.480478 0.307706 0.614158
0.563721 0.318107 0.625147
0.645915 0.328560 0.636108
0.725689 0.339060 0.647038
0.801672 0.349607 0.657936
0.194656 0.369566 0.607240
0.270414 0.380227 0.618246
0.350031 0.390920 0.629224
0.432136 0.401645 0.640174
0.515360 0.412397 0.651093
0.598330 0.423174 0.661977
0.679678 0.433972 0.672825
0.758032 0.444789 0.683633
0.832021 0.455621 0.694401
0.225629 0.475431 0.644028
0.303160 0.486290 0.654935
0.383979 0.497153 0.665806
0.466716 0.508017 0.676641
0.550001 0.518879 0.687435
0.632462 0.529735 0.698187
0.712731 0.540584 0.708894
0.789435 0.551420 0.719554
0.861204 0.562243 0.730164
0.257269 0.581495 0.680293
0.336328 0.592261 0.691074
0.418108 0.603002 0.701811
0.501239 0.613714 0.712502
0.584349 0.624393 0.723146
0.666068 0.635038 0.733739
0.745025 0.645645 0.744278
0.819851 0.656210 0.754762
0.889173 0.666732 0.765188
0.289494 0.685011 0.715978
0.369843 0.695395 0.726605
0.452347 0.705725 0.737181
0.535635 0.715996 0.747702
0.618337 0.726205 0.758168
0.699082 0.736350 0.768574
0.776499 0.746427 0.778919
0.849219 0.756434 0.789200
0.915869 0.766367 0.799414
0.322220 0.783258 0.751016
0.403622 0.792975 0.761463
0.486615 0.802608 0.771850
0.569827 0.812152 0.782175
0.651890 0.821605 0.792435
0.731431 0.830965 0.802628
0.807081 0.840227 0.812751
0.877468 0.849389 0.822802
0.941223 0.858448 0.832779
0.355361 0.873544 0.785335
0.437582 0.882310 0.795575
0.520831 0.890961 0.805747
0.603737 0.899495 0.815848
0.684930 0.907909 0.825876
0.763039 0.916200 0.835830
0.836694 0.924363 0.845705
0.904524 0.932397 0.855499
0.965159 0.940299 0.865211
