Fotico/Resources/LUTs/nostalgia.cube
# Nostalgia
LUT_3D_SIZE 5
0.085281 0.059894 0.015175
0.224872 0.075836 0.032049
0.383155 0.092296 0.049377
0.549166 0.109250 0.067138
0.711940 0.126673 0.085313
0.141612 0.240358 0.074779
0.290485 0.260396 0.093123
0.453392 0.280708 0.111852
0.619367 0.301271 0.130947
0.777446 0.322059 0.150387
0.201338 0.447005 0.137948
0.357402 0.468686 0.157509
0.522922 0.490403 0.177388
0.686935 0.512130 0.197565
0.838474 0.533844 0.218021
0.264041 0.657547 0.204326
0.425346 0.678531 0.224870
0.591572 0.699313 0.245666
0.751755 0.719868 0.266694
0.894930 0.740173 0.287934
0.329056 0.850044 0.273292
0.493711 0.868040 0.294594
0.658780 0.885599 0.316082
0.813299 0.902695 0.337737
0.946301 0.919305 0.359538
0.090728 0.065332 0.126338
0.231344 0.081456 0.145697
0.390183 0.098089 0.165387
0.556280 0.115208 0.185387
0.718670 0.132787 0.205677
0.147552 0.247237 0.193937
0.297251 0.267372 0.214345
0.460513 0.287773 0.235015
0.626375 0.308416 0.255927
0.783871 0.329276 0.277061
0.207680 0.454477 0.263556
0.364373 0.476173 0.284766
0.530054 0.497896 0.306171
0.693757 0.519622 0.327751
0.844518 0.541325 0.349487
0.270700 0.664805 0.334951
0.432440 0.685723 0.356734
0.598633 0.706429 0.378646
0.758312 0.726901 0.400667
0.900514 0.747114 0.422778
0.335950 0.856299 0.407550
0.500848 0.874147 0.429684
0.665690 0.891549 0.451880
0.819512 0.908480 0.474120
0.951348 0.924917 0.496383
0.095966 0.070571 0.244740
0.237540 0.086865 0.265758
0.396889 0.103660 0.286989
0.563049 0.120933 0.308414
0.725056 0.138658 0.330011
0.153251 0.253820 0.317532
0.303718 0.274046 0.339197
0.467301 0.294529 0.361007
0.633036 0.315246 0.382942
0.789958 0.336172 0.404982
0.213754 0.461600 0.390912
0.371028 0.483308 0.412985
0.536842 0.505034 0.435137
0.700232 0.526755 0.457346
0.850233 0.548446 0.479593
0.277068 0.671699 0.464729
0.439205 0.692549 0.486984
0.605346 0.713181 0.509251
0.764527 0.733571 0.531510
0.905784 0.753693 0.553741
0.342536 0.862210 0.538443
0.507646 0.879914 0.560661
0.672253 0.897164 0.582825
0.825393 0.913936 0.604914
0.956100 0.930205 0.626909
0.101132 0.075747 0.368306
0.243624 0.092204 0.390278
0.403454 0.109155 0.412349
0.569659 0.126576 0.434498
0.731272 0.144442 0.456706
0.158860 0.260285 0.443888
0.310060 0.280596 0.466115
0.473939 0.301157 0.488372
0.639532 0.321944 0.510639
0.795875 0.342932 0.532897
0.219722 0.468567 0.518702
0.377547 0.490283 0.540951
0.543474 0.512010 0.563164
0.706540 0.533724 0.585321
0.855780 0.555400 0.607400
0.283317 0.678416 0.592661
0.445823 0.699199 0.614711
0.611897 0.719756 0.636658
0.770573 0.740062 0.658482
0.910888 0.760094 0.680163
0.348990 0.867942 0.665255
0.514289 0.885503 0.686888
0.678649 0.902602 0.708352
0.831105 0.919215 0.729627
0.960690 0.935318 0.750693
0.106263 0.080896 0.493848
0.249642 0.097512 0.516115
0.409930 0.114614 0.538367
0.576161 0.132178 0.560586
0.737371 0.150180 0.582749
0.164421 0.266679 0.569971
0.316325 0.287071 0.592106
0.480478 0.307706 0.614158
0.645915 0.328560 0.636108
0.801672 0.349607 0.657936
0.225629 0.475431 0.644028
0.383979 0.497153 0.665806
0.550001 0.518879 0.687435
0.712731 0.540584 0.708894
0.861204 0.562243 0.730164
0.289494 0.685011 0.715978
0.452347 0.705725 0.737181
0.618337 0.726205 0.758168
0.776499 0.746427 0.778919
0.915869 0.766367 0.799414
0.355361 0.873544 0.785335
0.520831 0.890961 0.805747
0.684930 0.907909 0.825876
0.836694 0.924363 0.845705
0.965159 0.940299 0.865211
