Fotico/Resources/LUTs/nostalgia.cube
# Nostalgia
LUT_3D_SIZE 17
0.085281 0.059894 0.015175
0.117827 0.063829 0.019350
0.152055 0.067799 0.023554
0.187794 0.071801 0.027787
0.224872 0.075836 0.032049
0.263119 0.079903 0.036339
0.302362 0.084003 0.040657
0.342432 0.088134 0.045003
0.383155 0.092296 0.049377
0.424362 0.096489 0.053777
0.465880 0.100713 0.058205
0.507539 0.104967 0.062658
0.549166 0.109250 0.067138
0.590591 0.113563 0.071644
0.631643 0.117905 0.076175
0.672150 0.122275 0.080732
0.711940 0.126673 0.085313
0.099063 0.101370 0.029765
0.132353 0.105628 0.034040
0.167252 0.109916 0.038343
0.203588 0.114234 0.042674
0.241190 0.118580 0.047033
0.279886 0.122955 0.051419
0.319506 0.127357 0.055832
0.359877 0.131788 0.060271
0.400830 0.136246 0.064737
0.442191 0.140731 0.069229
0.483791 0.145242 0.073747
0.525457 0.149780 0.078290
0.567019 0.154344 0.082858
0.608304 0.158933 0.087451
0.649142 0.163547 0.092069
0.689362 0.168186 0.096710
0.728792 0.172850 0.101375
0.113029 0.145480 0.044544
0.147025 0.150019 0.048915
0.182557 0.154584 0.053313
0.219453 0.159174 0.057737
0.257542 0.163790 0.062188
0.296652 0.168430 0.066665
0.336613 0.173095 0.071168
0.377253 0.177783 0.075697
0.418401 0.182495 0.080251
0.459884 0.187231 0.084830
0.501533 0.191989 0.089433
0.543176 0.196769 0.094061
0.584641 0.201572 0.098713
0.625757 0.206396 0.103388
0.666353 0.211241 0.108087
0.706257 0.216108 0.112809
0.745298 0.220995 0.117554
0.127210 0.191923 0.059546
0.161877 0.196703 0.064008
0.198006 0.201505 0.068496
0.235428 0.206329 0.073009
0.273970 0.211174 0.077548
0.313461 0.216040 0.082112
0.353730 0.220927 0.086701
0.394605 0.225834 0.091315
0.435916 0.230760 0.095952
0.477490 0.235706 0.100614
0.519158 0.240671 0.105299
0.560746 0.245655 0.110007
0.602084 0.250657 0.114739
0.643001 0.255676 0.119493
0.683325 0.260714 0.124269
0.722885 0.265768 0.129067
0.761510 0.270839 0.133887
0.141612 0.240358 0.074779
0.176915 0.245341 0.079328
0.213609 0.250341 0.083901
0.251523 0.255360 0.088500
0.290485 0.260396 0.093123
0.330325 0.265449 0.097770
0.370870 0.270520 0.102441
0.411949 0.275606 0.107135
0.453392 0.280708 0.111852
0.495026 0.285827 0.116592
0.536681 0.290960 0.121355
0.578185 0.296108 0.126140
0.619367 0.301271 0.130947
0.660055 0.306448 0.135775
0.700079 0.311638 0.140625
0.739266 0.316842 0.145496
0.777446 0.322059 0.150387
0.156232 0.290436 0.090241
0.192139 0.295583 0.094873
0.229365 0.300744 0.099529
0.267740 0.305919 0.104208
0.307091 0.311108 0.108911
0.347247 0.316311 0.113637
0.388037 0.321526 0.118386
0.429289 0.326755 0.123157
0.470833 0.331995 0.127951
0.512497 0.337247 0.132766
0.554110 0.342511 0.137602
0.595499 0.347786 0.142460
0.636495 0.353072 0.147338
0.676926 0.358367 0.152237
0.716619 0.363673 0.157157
0.755405 0.368989 0.162096
0.793111 0.374314 0.167055
0.171065 0.341804 0.105928
0.207544 0.347077 0.110639
0.245271 0.352361 0.115374
0.284074 0.357656 0.120131
0.323783 0.362960 0.124910
0.364224 0.368275 0.129711
0.405229 0.373598 0.134534
0.446624 0.378931 0.139378
0.488239 0.384272 0.144244
0.529902 0.389621 0.149130
0.571442 0.394977 0.154036
0.612688 0.400342 0.158963
0.653468 0.405713 0.163909
0.693612 0.411091 0.168875
0.732947 0.416475 0.173860
0.771302 0.421864 0.178864
0.808507 0.427260 0.183887
0.186103 0.394110 0.121833
0.223123 0.399473 0.126620
0.261320 0.404843 0.131429
0.300521 0.410220 0.136260
0.340555 0.415603 0.141112
0.381252 0.420992 0.145984
0.422440 0.426386 0.150878
0.463948 0.431786 0.155791
0.505604 0.437190 0.160725
0.547237 0.442599 0.165679
0.588675 0.448012 0.170651
0.629748 0.453428 0.175643
0.670283 0.458848 0.180654
0.710111 0.464270 0.185683
0.749059 0.469695 0.190730
0.786955 0.475122 0.195795
0.823630 0.480551 0.200878
0.201338 0.447005 0.137948
0.238868 0.452420 0.142807
0.277503 0.457840 0.147687
0.317071 0.463262 0.152588
0.357402 0.468686 0.157509
0.398324 0.474113 0.162449
0.439665 0.479542 0.167410
0.481255 0.484972 0.172389
0.522922 0.490403 0.177388
0.564495 0.495835 0.182405
0.605802 0.501267 0.187440
0.646673 0.506699 0.192494
0.686935 0.512130 0.197565
0.726417 0.517561 0.202653
0.764949 0.522990 0.207759
0.802358 0.528418 0.212882
0.838474 0.533844 0.218021
0.216759 0.500140 0.154265
0.254768 0.505573 0.159192
0.293811 0.511004 0.164140
0.333717 0.516435 0.169107
0.374313 0.521865 0.174093
0.415430 0.527293 0.179097
0.456896 0.532719 0.184121
0.498538 0.538143 0.189162
0.540187 0.543564 0.194222
0.581670 0.548983 0.199299
0.622817 0.554398 0.204394
0.663456 0.559809 0.209505
0.703416 0.565215 0.214633
0.742525 0.570618 0.219778
0.780612 0.576015 0.224938
0.817505 0.581407 0.230115
0.853035 0.586793 0.235307
0.232357 0.553172 0.170773
0.270815 0.558583 0.175766
0.310236 0.563991 0.180777
0.350448 0.569395 0.185806
0.391281 0.574793 0.190854
0.432563 0.580186 0.195919
0.474122 0.585574 0.201002
0.515788 0.590956 0.206103
0.557390 0.596331 0.211220
0.598754 0.601700 0.216353
0.639712 0.607061 0.221503
0.680090 0.612415 0.226669
0.719718 0.617761 0.231851
0.758425 0.623099 0.237048
0.796039 0.628428 0.242259
0.832388 0.633748 0.247486
0.867303 0.639058 0.252727
0.248121 0.605754 0.187464
0.286998 0.611110 0.192517
0.326766 0.616458 0.197589
0.367256 0.621798 0.202677
0.408295 0.627129 0.207783
0.449712 0.632451 0.212906
0.491337 0.637764 0.218045
0.532997 0.643067 0.223200
0.574521 0.648361 0.228371
0.615738 0.653643 0.233558
0.656477 0.658915 0.238759
0.696566 0.664176 0.243976
0.735835 0.669425 0.249207
0.774110 0.674662 0.254453
0.811223 0.679887 0.259713
0.847000 0.685099 0.264986
0.881271 0.690298 0.270273
0.264041 0.657547 0.204326
0.303306 0.662810 0.209437
0.343393 0.668063 0.214565
0.384130 0.673303 0.219710
0.425346 0.678531 0.224870
0.466869 0.683746 0.230046
0.508529 0.688949 0.235238
0.550154 0.694138 0.240444
0.591572 0.699313 0.245666
0.632613 0.704474 0.250902
0.673105 0.709620 0.256152
0.712876 0.714752 0.261416
0.751755 0.719868 0.266694
0.789572 0.724969 0.271985
0.826154 0.730054 0.277289
0.861331 0.735122 0.282605
0.894930 0.740173 0.287934
0.280105 0.708209 0.221351
0.319729 0.713345 0.226516
0.360105 0.718466 0.231697
0.401060 0.723571 0.236894
0.442423 0.728660 0.242105
0.484024 0.733733 0.247331
0.525690 0.738789 0.252572
0.567250 0.743828 0.257826
0.608534 0.748849 0.263095
0.649369 0.753853 0.268377
0.689585 0.758838 0.273672
0.729009 0.763805 0.278980
0.767472 0.768753 0.284300
0.804801 0.773681 0.289633
0.840825 0.778590 0.294978
0.875372 0.783479 0.300334
0.908272 0.788347 0.305701
0.296303 0.757404 0.238527
0.336257 0.762376 0.243743
0.376892 0.767330 0.248973
0.418035 0.772264 0.254218
0.459517 0.777178 0.259477
0.501165 0.782073 0.264750
0.542809 0.786947 0.270036
0.584276 0.791800 0.275335
0.625396 0.796632 0.280647
0.665997 0.801443 0.285972
0.705908 0.806232 0.291308
0.744957 0.810998 0.296656
0.782974 0.815742 0.302016
0.819787 0.820463 0.307387
0.855224 0.825160 0.312769
0.889115 0.829834 0.318162
0.921288 0.834483 0.323564
0.312623 0.804794 0.255844
0.352878 0.809567 0.261107
0.393742 0.814318 0.266384
0.435046 0.819045 0.271674
0.476616 0.823750 0.276977
0.518283 0.828431 0.282293
0.559875 0.833087 0.287621
0.601220 0.837719 0.292961
0.642148 0.842327 0.298313
0.682486 0.846909 0.303677
0.722064 0.851466 0.309051
0.760710 0.855996 0.314436
0.798253 0.860501 0.319832
0.834522 0.864978 0.325238
0.869344 0.869429 0.330653
0.902550 0.873852 0.336079
0.933967 0.878247 0.341513
0.329056 0.850044 0.273292
0.369581 0.854583 0.278599
0.410646 0.859095 0.283919
0.452080 0.863581 0.289250
0.493711 0.868040 0.294594
0.535368 0.872472 0.299950
0.576879 0.876876 0.305316
0.618074 0.881252 0.310694
0.658780 0.885599 0.316082
0.698827 0.889917 0.321481
0.738044 0.894206 0.326890
0.776258 0.898466 0.332309
0.813299 0.902695 0.337737
0.848995 0.906894 0.343174
0.883174 0.911063 0.348620
0.915667 0.915200 0.354075
0.946301 0.919305 0.359538
0.086686 0.061296 0.042413
0.119310 0.065244 0.046770
0.153609 0.069225 0.051154
0.189411 0.073239 0.055566
0.226545 0.077285 0.060004
0.264839 0.081364 0.064468
0.304123 0.085475 0.068959
0.344225 0.089617 0.073475
0.384974 0.093791 0.078016
0.426198 0.097995 0.082583
0.467726 0.102229 0.087174
0.509387 0.106494 0.091790
0.551009 0.110788 0.096430
0.592421 0.115111 0.101094
0.633452 0.119463 0.105782
0.673931 0.123843 0.110493
0.713685 0.128251 0.115226
0.100502 0.102888 0.057625
0.133868 0.107157 0.062076
0.168834 0.111455 0.066552
0.205230 0.115783 0.071055
0.242884 0.120139 0.075583
0.281625 0.124524 0.080136
0.321281 0.128937 0.084714
0.361683 0.133377 0.089317
0.402657 0.137845 0.093944
0.444032 0.142340 0.098595
0.485639 0.146860 0.103270
0.527304 0.151408 0.107969
0.568857 0.155980 0.112690
0.610126 0.160579 0.117434
0.650940 0.165202 0.122201
0.691129 0.169849 0.126990
0.730519 0.174521 0.131801
0.114502 0.147098 0.072998
0.148570 0.151647 0.077537
0.184166 0.156221 0.082101
0.221118 0.160820 0.086690
0.259256 0.165445 0.091303
0.298408 0.170094 0.095941
0.338402 0.174767 0.100602
0.379068 0.179464 0.105287
0.420234 0.184184 0.109995
0.461729 0.188928 0.114727
0.503381 0.193694 0.119481
0.545020 0.198482 0.124257
0.586473 0.203293 0.129055
0.627570 0.208124 0.133875
0.668138 0.212977 0.138716
0.708008 0.217851 0.143579
0.747007 0.222745 0.148462
0.128714 0.193628 0.088565
0.163449 0.198416 0.093189
0.199640 0.203226 0.097836
0.237114 0.208057 0.102507
0.275702 0.212910 0.107202
0.315231 0.217784 0.111919
0.355531 0.222677 0.116660
0.396429 0.227591 0.121423
0.437755 0.232525 0.126208
0.479338 0.237478 0.131015
0.521005 0.242449 0.135844
0.562586 0.247440 0.140694
0.603909 0.252448 0.145565
0.644803 0.257474 0.150457
0.685097 0.262517 0.155369
0.724619 0.267578 0.160301
0.763198 0.272655 0.165253
0.143145 0.242136 0.104338
0.178514 0.247125 0.109041
0.215266 0.252132 0.113768
0.253230 0.257157 0.118517
0.292235 0.262199 0.123289
0.332109 0.267259 0.128083
0.372682 0.272335 0.132898
0.413781 0.277427 0.137735
0.455236 0.282535 0.142594
0.496875 0.287659 0.147473
0.538526 0.292797 0.152372
0.580020 0.297951 0.157292
0.621183 0.303118 0.162232
0.661846 0.308300 0.167191
0.701836 0.313496 0.172170
0.740982 0.318704 0.177168
0.779113 0.323925 0.182184
0.157794 0.292273 0.120314
0.193763 0.297425 0.125095
0.231044 0.302591 0.129897
0.269465 0.307771 0.134720
0.308856 0.312965 0.139565
0.349044 0.318173 0.144432
0.389858 0.323393 0.149319
0.431127 0.328625 0.154226
0.472680 0.333870 0.159153
0.514345 0.339126 0.164100
0.555951 0.344394 0.169067
0.597327 0.349673 0.174053
0.638301 0.354962 0.179058
0.678703 0.360262 0.184081
0.718360 0.365571 0.189122
0.757101 0.370890 0.194182
0.794756 0.376218 0.199259
0.172654 0.343686 0.136492
0.209192 0.348964 0.141345
0.246970 0.354252 0.146219
0.285817 0.359550 0.151113
0.325562 0.364858 0.156028
0.366032 0.370175 0.160962
0.407057 0.375502 0.165917
0.448466 0.380838 0.170890
0.490087 0.386182 0.175883
0.531748 0.391533 0.180895
0.573279 0.396893 0.185925
0.614508 0.402260 0.190973
0.655263 0.407633 0.196039
0.695375 0.413013 0.201122
0.734670 0.418399 0.206223
0.772978 0.423791 0.211340
0.810128 0.429188 0.216474
0.187718 0.396025 0.152864
0.224794 0.401390 0.157786
0.263038 0.406763 0.162728
0.302280 0.412142 0.167689
0.342347 0.417527 0.172669
0.383070 0.422918 0.177669
0.424276 0.428314 0.182687
0.465793 0.433716 0.187724
0.507452 0.439122 0.192778
0.549080 0.444532 0.197850
0.590505 0.449946 0.202940
0.631558 0.455364 0.208046
0.672066 0.460784 0.213170
0.711858 0.466208 0.218310
0.750763 0.471634 0.223466
0.788609 0.477062 0.228638
0.825225 0.482491 0.233825
0.202977 0.448939 0.169422
0.240559 0.454356 0.174410
0.279239 0.459776 0.179416
0.318845 0.465199 0.184440
0.359205 0.470625 0.189483
0.400149 0.476052 0.194544
0.441506 0.481481 0.199622
0.483103 0.486912 0.204718
0.524769 0.492343 0.209830
0.566334 0.497775 0.214959
0.607625 0.503207 0.220105
0.648472 0.508639 0.225266
0.688704 0.514070 0.230444
0.728148 0.519500 0.235637
0.766633 0.524929 0.240844
0.803989 0.530356 0.246067
0.840043 0.535782 0.251304
0.218421 0.502081 0.186159
0.256479 0.507513 0.191208
0.295564 0.512944 0.196275
0.335504 0.518375 0.201359
0.376127 0.523804 0.206460
0.417263 0.529232 0.211579
0.458740 0.534657 0.216713
0.500386 0.540080 0.221864
0.542031 0.545500 0.227031
0.583504 0.550918 0.232214
0.624631 0.556331 0.237412
0.665244 0.561741 0.242625
0.705169 0.567146 0.247852
0.744237 0.572547 0.253094
0.782274 0.577942 0.258350
0.819111 0.583332 0.263620
0.854576 0.588716 0.268904
0.234040 0.555105 0.203064
0.272544 0.560516 0.208171
0.312003 0.565922 0.213295
0.352247 0.571324 0.218436
0.393103 0.576721 0.223592
0.434401 0.582112 0.228764
0.475969 0.587497 0.233952
0.517636 0.592877 0.239155
0.559230 0.598250 0.244373
0.600581 0.603616 0.249605
0.641516 0.608975 0.254852
0.681865 0.614326 0.260113
0.721456 0.619669 0.265387
0.760118 0.625003 0.270675
0.797679 0.630329 0.275975
0.833969 0.635646 0.281289
0.868815 0.640953 0.286615
0.249824 0.607668 0.220129
0.288744 0.613021 0.225291
0.328548 0.618366 0.230468
0.369066 0.623703 0.235661
0.410125 0.629031 0.240869
0.451555 0.634350 0.246091
0.493185 0.639660 0.251329
0.534842 0.644960 0.256580
0.576357 0.650249 0.261845
0.617556 0.655528 0.267124
0.658270 0.660796 0.272416
0.698326 0.666053 0.277721
0.737554 0.671297 0.283038
0.775782 0.676530 0.288368
0.812839 0.681750 0.293710
0.848553 0.686958 0.299064
0.882753 0.692152 0.304428
0.265762 0.659428 0.237343
0.305068 0.664688 0.242556
0.345187 0.669936 0.247783
0.385949 0.675172 0.253025
0.427182 0.680395 0.258281
0.468715 0.685606 0.263551
0.510377 0.690804 0.268834
0.551996 0.695988 0.274130
0.593402 0.701158 0.279439
0.634422 0.706314 0.284760
0.674885 0.711455 0.290094
0.714620 0.716582 0.295440
0.753456 0.721692 0.300797
0.791222 0.726787 0.306165
0.827745 0.731866 0.311545
0.862855 0.736928 0.316935
0.896381 0.741974 0.322335
0.281844 0.710046 0.254697
0.321505 0.715176 0.259957
0.361910 0.720291 0.265231
0.402887 0.725391 0.270518
0.444264 0.730474 0.275818
0.485871 0.735541 0.281131
0.527536 0.740591 0.286457
0.569088 0.745623 0.291794
0.610355 0.750639 0.297144
0.651167 0.755636 0.302505
0.691351 0.760615 0.307877
0.730737 0.765575 0.313260
0.769152 0.770516 0.318653
0.806427 0.775437 0.324057
0.842389 0.780339 0.329470
0.876867 0.785220 0.334893
0.909691 0.790081 0.340326
0.298058 0.759182 0.272179
0.338046 0.764148 0.277484
0.378707 0.769094 0.282801
0.419869 0.774022 0.288130
0.461362 0.778929 0.293471
0.503013 0.783816 0.298824
0.544652 0.788683 0.304189
0.586108 0.793529 0.309564
0.627208 0.798353 0.314950
0.667783 0.803156 0.320347
0.707659 0.807937 0.325754
0.746666 0.812695 0.331170
0.784633 0.817431 0.336597
0.821389 0.822143 0.342032
0.856761 0.826832 0.347476
0.890580 0.831497 0.352929
0.922672 0.836138 0.358390
0.314393 0.806502 0.289781
0.354678 0.811267 0.295126
0.395566 0.816009 0.300482
0.436885 0.820729 0.305850
0.478463 0.825425 0.311229
0.520131 0.830097 0.316619
0.561715 0.834745 0.322018
0.603046 0.839368 0.327428
0.643951 0.843967 0.332848
0.684259 0.848540 0.338277
0.723799 0.853087 0.343715
0.762400 0.857608 0.349162
0.799890 0.862103 0.354618
0.836098 0.866571 0.360081
0.870852 0.871012 0.365553
0.903982 0.875425 0.371032
0.935316 0.879810 0.376518
0.330839 0.851668 0.307491
0.371392 0.856198 0.312873
0.412477 0.860701 0.318266
0.453923 0.865177 0.323669
0.495559 0.869627 0.329082
0.537213 0.874048 0.334504
0.578714 0.878442 0.339936
0.619891 0.882808 0.345377
0.660572 0.887145 0.350827
0.700585 0.891453 0.356285
0.739761 0.895731 0.361751
0.777927 0.899980 0.367225
0.814911 0.904199 0.372706
0.850544 0.908387 0.378194
0.884652 0.912544 0.383690
0.917066 0.916670 0.389191
0.947614 0.920764 0.394699
0.088053 0.062660 0.069911
0.120752 0.066619 0.074433
0.155119 0.070612 0.078979
0.190982 0.074637 0.083551
0.228169 0.078695 0.088148
0.266510 0.082785 0.092769
0.305832 0.086907 0.097414
0.345966 0.091060 0.102083
0.386738 0.095244 0.106776
0.427979 0.099458 0.111491
0.469516 0.103703 0.116230
0.511179 0.107978 0.120991
0.552795 0.112282 0.125774
0.594195 0.116615 0.130579
0.635206 0.120977 0.135406
0.675657 0.125367 0.140254
0.715376 0.129785 0.145123
0.101902 0.104364 0.085685
0.135340 0.108643 0.090293
0.170371 0.112951 0.094925
0.206824 0.117289 0.099582
0.244529 0.121655 0.104261
0.283313 0.126050 0.108965
0.323005 0.130472 0.113691
0.363434 0.134922 0.118440
0.404429 0.139399 0.123211
0.445818 0.143903 0.128005
0.487431 0.148433 0.132820
0.529095 0.152989 0.137657
0.570639 0.157571 0.142515
0.611892 0.162177 0.147394
0.652683 0.166809 0.152293
0.692840 0.171465 0.157212
0.732193 0.176145 0.162152
0.115933 0.148671 0.101590
0.150070 0.153229 0.106280
0.185728 0.157812 0.110993
0.222735 0.162420 0.115730
0.260920 0.167053 0.120488
0.300112 0.171710 0.125269
0.340139 0.176391 0.130072
0.380830 0.181097 0.134897
0.422014 0.185825 0.139742
0.463519 0.190576 0.144609
0.505174 0.195350 0.149497
0.546808 0.200146 0.154405
0.588249 0.204964 0.159333
0.629326 0.209803 0.164281
0.669869 0.214664 0.169248
0.709704 0.219545 0.174235
0.748662 0.224446 0.179240
0.130176 0.195284 0.117665
0.164977 0.200080 0.122433
0.201226 0.204897 0.127222
0.238752 0.209736 0.132034
0.277384 0.214596 0.136867
0.316950 0.219477 0.141722
0.357279 0.224378 0.146597
0.398199 0.229298 0.151493
0.439540 0.234239 0.156410
0.481129 0.239198 0.161346
0.522796 0.244176 0.166302
0.564370 0.249173 0.171277
0.605678 0.254187 0.176271
0.646550 0.259219 0.181284
0.686814 0.264269 0.186316
0.726299 0.269335 0.191365
0.764834 0.274418 0.196432
0.144636 0.243862 0.133919
0.180067 0.248858 0.138761
0.216875 0.253871 0.143623
0.254887 0.258902 0.148507
0.293933 0.263950 0.153411
0.333841 0.269016 0.158335
0.374440 0.274097 0.163279
0.415558 0.279195 0.168242
0.457024 0.284308 0.173225
0.498667 0.289437 0.178226
0.540315 0.294581 0.183247
0.581798 0.299740 0.188285
0.622944 0.304912 0.193342
0.663581 0.310099 0.198416
0.703538 0.315299 0.203507
0.742644 0.320512 0.208616
0.780727 0.325737 0.213741
0.159312 0.294056 0.150354
0.195341 0.299213 0.155266
0.232674 0.304384 0.160197
0.271141 0.309569 0.165149
0.310569 0.314768 0.170119
0.350787 0.319980 0.175109
0.391625 0.325204 0.180118
0.432909 0.330441 0.185145
0.474471 0.335690 0.190190
0.516137 0.340950 0.195253
0.557737 0.346222 0.200334
0.599099 0.351504 0.205432
0.640052 0.356797 0.210547
0.680425 0.362100 0.215679
0.720046 0.367413 0.220826
0.758744 0.372735 0.225990
0.796348 0.378066 0.231170
0.174198 0.345513 0.166966
0.210793 0.350794 0.171944
0.248620 0.356086 0.176941
0.287510 0.361388 0.181956
0.327289 0.366699 0.186990
0.367787 0.372020 0.192042
0.408832 0.377350 0.197112
0.450253 0.382688 0.202199
0.491879 0.388035 0.207303
0.533538 0.393389 0.212424
0.575059 0.398751 0.217562
0.616272 0.404121 0.222715
0.657003 0.409496 0.227885
0.697083 0.414879 0.233070
0.736339 0.420267 0.238270
0.774601 0.425660 0.243486
0.811697 0.431059 0.248716
0.189286 0.397883 0.183750
0.226416 0.403251 0.188790
0.264706 0.408626 0.193849
0.303987 0.414007 0.198925
0.344087 0.419394 0.204018
0.384833 0.424787 0.209128
0.426056 0.430185 0.214255
0.467583 0.435588 0.219398
0.509244 0.440996 0.224558
0.550867 0.446407 0.229733
0.592280 0.451823 0.234923
0.633313 0.457241 0.240129
0.673793 0.462663 0.245350
0.713551 0.468088 0.250585
0.752413 0.473514 0.255834
0.790210 0.478943 0.261098
0.826770 0.484372 0.266374
0.204568 0.450815 0.200698
0.242201 0.456234 0.205797
0.280924 0.461655 0.210913
0.320566 0.467079 0.216046
0.360956 0.472505 0.221195
0.401921 0.477933 0.226360
0.443291 0.483363 0.231540
0.484895 0.488793 0.236736
0.526560 0.494225 0.241947
0.568117 0.499657 0.247173
0.609393 0.505089 0.252413
0.650217 0.510521 0.257667
0.690417 0.515952 0.262935
0.729824 0.521381 0.268217
0.768264 0.526810 0.273511
0.805567 0.532236 0.278819
0.841562 0.537660 0.284139
0.220034 0.503963 0.217801
0.258140 0.509395 0.222955
0.297265 0.514826 0.228126
0.337238 0.520256 0.233311
0.377887 0.525685 0.238513
0.419041 0.531112 0.243729
0.460529 0.536536 0.248959
0.502179 0.541958 0.254204
0.543820 0.547378 0.259463
0.585281 0.552794 0.264736
0.626390 0.558206 0.270022
0.666976 0.563614 0.275321
0.706868 0.569018 0.280633
0.745895 0.574416 0.285957
0.783885 0.579810 0.291294
0.820666 0.585198 0.296642
0.856068 0.590580 0.302002
0.235674 0.556980 0.235051
0.274223 0.562389 0.240257
0.313719 0.567794 0.245478
0.353993 0.573194 0.250713
0.394872 0.578589 0.255963
0.436185 0.583978 0.261226
0.477760 0.589362 0.266504
0.519428 0.594739 0.271794
0.561015 0.600110 0.277098
0.602351 0.605473 0.282414
0.643265 0.610829 0.287742
0.683584 0.616178 0.293082
0.723139 0.621518 0.298435
0.761757 0.626850 0.303798
0.799267 0.632172 0.309173
0.835498 0.637486 0.314558
0.870279 0.642790 0.319954
0.251477 0.609524 0.252437
0.290439 0.614874 0.257692
0.330277 0.620216 0.262960
0.370822 0.625550 0.268241
0.411901 0.630875 0.273536
0.453343 0.636191 0.278844
0.494977 0.641497 0.284164
0.536632 0.646793 0.289496
0.578136 0.652079 0.294841
0.619319 0.657354 0.300197
0.660008 0.662618 0.305564
0.700032 0.667871 0.310942
0.739220 0.673112 0.316331
0.777401 0.678340 0.321730
0.814404 0.683556 0.327140
0.850056 0.688759 0.332559
0.884187 0.693948 0.337987
0.267434 0.661252 0.269952
0.306778 0.666508 0.275251
0.346928 0.671751 0.280563
0.387714 0.676983 0.285887
0.428963 0.682202 0.291223
0.470506 0.687409 0.296571
0.512169 0.692602 0.301931
0.553783 0.697781 0.307302
0.595175 0.702946 0.312683
0.636175 0.708097 0.318076
0.676610 0.713233 0.323478
0.716310 0.718354 0.328891
0.755104 0.723459 0.334313
0.792819 0.728549 0.339745
0.829286 0.733622 0.345185
0.864331 0.738678 0.350634
0.897785 0.743718 0.356092
0.283532 0.711825 0.287584
0.323229 0.716950 0.292924
0.363662 0.722060 0.298276
0.404659 0.727154 0.303639
0.446050 0.732231 0.309014
0.487663 0.737292 0.314399
0.529327 0.742336 0.319794
0.570870 0.747363 0.325200
0.612121 0.752372 0.330616
0.652909 0.757363 0.336041
0.693063 0.762335 0.341475
0.732410 0.767289 0.346919
0.770780 0.772223 0.352371
0.808002 0.777138 0.357831
0.843904 0.782032 0.363299
0.878314 0.786907 0.368775
0.911062 0.791760 0.374259
0.299762 0.760905 0.305324
0.339782 0.765864 0.310702
0.380468 0.770804 0.316090
0.421648 0.775724 0.321489
0.463151 0.780624 0.326898
0.504806 0.785505 0.332317
0.546440 0.790364 0.337745
0.587884 0.795203 0.343182
0.628966 0.800020 0.348628
0.669513 0.804815 0.354083
0.709356 0.809588 0.359545
0.748322 0.814339 0.365016
0.786240 0.819066 0.370494
0.822940 0.823771 0.375980
0.858249 0.828451 0.381473
0.891997 0.833108 0.386972
0.924011 0.837740 0.392477
0.316111 0.808155 0.323161
0.356426 0.812912 0.328573
0.397335 0.817647 0.333995
0.438669 0.822358 0.339426
0.480255 0.827046 0.344866
0.521922 0.831710 0.350315
0.563499 0.836349 0.355772
0.604815 0.840964 0.361237
0.645698 0.845554 0.366710
0.685976 0.850118 0.372191
0.725480 0.854657 0.377678
0.764036 0.859169 0.383173
0.801475 0.863654 0.388674
0.837624 0.868113 0.394182
0.872312 0.872544 0.399695
0.905368 0.876947 0.405214
0.936621 0.881323 0.410738
0.332570 0.853241 0.341086
0.373149 0.857761 0.346528
0.414254 0.862255 0.351980
0.455711 0.866722 0.357439
0.497352 0.871162 0.362907
0.539003 0.875574 0.368383
0.580493 0.879958 0.373865
0.621652 0.884314 0.379355
0.662307 0.888641 0.384852
0.702289 0.892939 0.390355
0.741424 0.897207 0.395864
0.779543 0.901445 0.401379
0.816473 0.905653 0.406900
0.852043 0.909831 0.412426
0.886083 0.913977 0.417957
0.918420 0.918092 0.423492
0.948883 0.922175 0.429032
0.089398 0.064003 0.097874
0.122171 0.067973 0.102545
0.156604 0.071977 0.107240
0.192526 0.076014 0.111958
0.229766 0.080083 0.116698
0.268152 0.084183 0.121462
0.307512 0.088316 0.126247
0.347676 0.092480 0.131054
0.388471 0.096674 0.135883
0.429728 0.100899 0.140734
0.471274 0.105154 0.145605
0.512938 0.109439 0.150497
0.554549 0.113753 0.155409
0.595936 0.118096 0.160341
0.636926 0.122467 0.165293
0.677350 0.126867 0.170264
0.717035 0.131294 0.175254
0.103280 0.105816 0.114159
0.136788 0.110105 0.118910
0.171883 0.114424 0.123683
