Fotico/Resources/LUTs/nube.cube
# Nube
LUT_3D_SIZE 5
0.181267 0.181229 0.177828
0.301820 0.189618 0.183062
0.435470 0.198918 0.188866
0.577008 0.208768 0.195012
0.711303 0.218113 0.200843
0.215133 0.327828 0.195438
0.335685 0.336217 0.200672
0.469336 0.345517 0.206476
0.610873 0.355366 0.212622
0.745168 0.364712 0.218453
0.252678 0.490354 0.214961
0.373230 0.498743 0.220196
0.506881 0.508044 0.225999
0.648418 0.517893 0.232145
0.782713 0.527238 0.237977
0.292438 0.662472 0.235636
0.412991 0.670861 0.240871
0.546641 0.680161 0.246675
0.688178 0.690010 0.252821
0.822474 0.699356 0.258652
0.330164 0.825782 0.255254
0.450717 0.834171 0.260489
0.584367 0.843472 0.266292
0.725905 0.853321 0.272438
0.860200 0.862666 0.278270
0.184673 0.184067 0.318570
0.305225 0.192456 0.323805
0.438876 0.201756 0.329608
0.580413 0.211605 0.335754
0.714708 0.220951 0.341586
0.218538 0.330665 0.336180
0.339091 0.339054 0.341415
0.472741 0.348355 0.347218
0.614278 0.358204 0.353364
0.748574 0.367549 0.359196
0.256083 0.493192 0.355703
0.376635 0.501581 0.360938
0.510286 0.510881 0.366741
0.651823 0.520731 0.372887
0.786118 0.530076 0.378719
0.295843 0.665309 0.376379
0.416396 0.673698 0.381613
0.550046 0.682999 0.387417
0.691584 0.692848 0.393563
0.825879 0.702193 0.399394
0.333569 0.828620 0.395996
0.454122 0.837009 0.401231
0.587772 0.846309 0.407034
0.729310 0.856159 0.413180
0.863605 0.865504 0.419012
0.188487 0.187245 0.476218
0.309039 0.195634 0.481453
0.442690 0.204935 0.487256
0.584227 0.214784 0.493402
0.718522 0.224129 0.499234
0.222352 0.333844 0.493828
0.342905 0.342233 0.499063
0.476555 0.351533 0.504866
0.618092 0.361383 0.511012
0.752388 0.370728 0.516844
0.259897 0.496370 0.513352
0.380450 0.504759 0.518586
0.514100 0.514060 0.524390
0.655637 0.523909 0.530536
0.789933 0.533254 0.536367
0.299658 0.668488 0.534027
0.420210 0.676877 0.539262
0.553860 0.686177 0.545065
0.695398 0.696026 0.551211
0.829693 0.705372 0.557043
0.337384 0.831798 0.553645
0.457936 0.840187 0.558879
0.591587 0.849488 0.564683
0.733124 0.859337 0.570829
0.867419 0.868683 0.576660
0.192559 0.190639 0.644548
0.313112 0.199028 0.649783
0.446762 0.208328 0.655586
0.588300 0.218178 0.661732
0.722595 0.227523 0.667564
0.226425 0.337238 0.662158
0.346977 0.345627 0.667393
0.480628 0.354927 0.673196
0.622165 0.364776 0.679342
0.756460 0.374122 0.685174
0.263970 0.499764 0.681681
0.384522 0.508153 0.686916
0.518173 0.517454 0.692720
0.659710 0.527303 0.698866
0.794005 0.536648 0.704697
0.303730 0.671881 0.702357
0.424283 0.680271 0.707592
0.557933 0.689571 0.713395
0.699470 0.699420 0.719541
0.833766 0.708766 0.725373
0.341456 0.835192 0.721974
0.462009 0.843581 0.727209
0.595659 0.852882 0.733013
0.737196 0.862731 0.739159
0.871492 0.872076 0.744990
0.196068 0.193562 0.789558
0.316620 0.201952 0.794793
0.450271 0.211252 0.800596
0.591808 0.221101 0.806742
0.726103 0.230447 0.812574
0.229933 0.340161 0.807168
0.350486 0.348550 0.812403
0.484136 0.357851 0.818206
0.625673 0.367700 0.824352
0.759969 0.377045 0.830184
0.267478 0.502688 0.826691
0.388031 0.511077 0.831926
0.521681 0.520377 0.837730
0.663218 0.530227 0.843876
0.797514 0.539572 0.849707
0.307238 0.674805 0.847367
0.427791 0.683194 0.852601
0.561441 0.692495 0.858405
0.702979 0.702344 0.864551
0.837274 0.711689 0.870382
0.344965 0.838116 0.866984
0.465517 0.846505 0.872219
0.599167 0.855805 0.878023
0.740705 0.865655 0.884168
0.875000 0.875000 0.890000
