Fotico/Resources/LUTs/nube.cube
# Nube
LUT_3D_SIZE 9
0.181267 0.181229 0.177828
0.239263 0.185265 0.180346
0.301820 0.189618 0.183062
0.367461 0.194186 0.185913
0.435470 0.198918 0.188866
0.505416 0.203786 0.191903
0.577008 0.208768 0.195012
0.650035 0.213850 0.198183
0.711303 0.218113 0.200843
0.197559 0.251754 0.186299
0.255555 0.255790 0.188818
0.318112 0.260143 0.191534
0.383753 0.264711 0.194385
0.451762 0.269444 0.197338
0.521708 0.274311 0.200375
0.593300 0.279293 0.203484
0.666327 0.284375 0.206655
0.727595 0.288639 0.209315
0.215133 0.327828 0.195438
0.273128 0.331863 0.197956
0.335685 0.336217 0.200672
0.401327 0.340785 0.203523
0.469336 0.345517 0.206476
0.539281 0.350385 0.209513
0.610873 0.355366 0.212622
0.683901 0.360448 0.215793
0.745168 0.364712 0.218453
0.233573 0.407651 0.205026
0.291568 0.411687 0.207545
0.354125 0.416040 0.210261
0.419767 0.420608 0.213112
0.487776 0.425341 0.216065
0.557721 0.430208 0.219102
0.629313 0.435190 0.222211
0.702341 0.440272 0.225382
0.763608 0.444536 0.228042
0.252678 0.490354 0.214961
0.310673 0.494390 0.217479
0.373230 0.498743 0.220196
0.438872 0.503311 0.223046
0.506881 0.508044 0.225999
0.576826 0.512911 0.229037
0.648418 0.517893 0.232145
0.721446 0.522975 0.235316
0.782713 0.527238 0.237977
0.272327 0.575412 0.225179
0.330322 0.579448 0.227697
0.392879 0.583801 0.230413
0.458521 0.588369 0.233264
0.526530 0.593102 0.236217
0.596475 0.597969 0.239254
0.668067 0.602951 0.242363
0.741095 0.608033 0.245534
0.802362 0.612296 0.248194
0.292438 0.662472 0.235636
0.350433 0.666507 0.238155
0.412991 0.670861 0.240871
0.478632 0.675429 0.243722
0.546641 0.680161 0.246675
0.616587 0.685029 0.249712
0.688178 0.690010 0.252821
0.761206 0.695092 0.255992
0.822474 0.699356 0.258652
0.312953 0.751277 0.246304
0.370948 0.755313 0.248822
0.433506 0.759666 0.251539
0.499147 0.764234 0.254389
0.567156 0.768967 0.257342
0.637102 0.773834 0.260380
0.708693 0.778816 0.263488
0.781721 0.783898 0.266659
0.842989 0.788162 0.269320
0.330164 0.825782 0.255254
0.388159 0.829818 0.257772
0.450717 0.834171 0.260489
0.516358 0.838739 0.263339
0.584367 0.843472 0.266292
0.654313 0.848339 0.269329
0.725905 0.853321 0.272438
0.798932 0.858403 0.275609
0.860200 0.862666 0.278270
0.182901 0.182590 0.245356
0.240896 0.186626 0.247874
0.303454 0.190979 0.250590
0.369095 0.195547 0.253441
0.437104 0.200280 0.256394
0.507050 0.205147 0.259431
0.578641 0.210129 0.262540
0.651669 0.215211 0.265711
0.712937 0.219475 0.268371
0.199193 0.253116 0.253827
0.257188 0.257152 0.256346
0.319746 0.261505 0.259062
0.385387 0.266073 0.261913
0.453396 0.270805 0.264866
0.523342 0.275673 0.267903
0.594933 0.280655 0.271012
0.667961 0.285737 0.274183
0.729229 0.290000 0.276843
0.216767 0.329189 0.262966
0.274762 0.333225 0.265484
0.337319 0.337578 0.268200
0.402961 0.342146 0.271051
0.470970 0.346879 0.274004
0.540915 0.351746 0.277041
0.612507 0.356728 0.280150
0.685535 0.361810 0.283321
0.746802 0.366073 0.285981
0.235207 0.409013 0.272554
0.293202 0.413049 0.275073
0.355759 0.417402 0.277789
0.421400 0.421970 0.280640
0.489410 0.426702 0.283593
0.559355 0.431570 0.286630
0.630947 0.436552 0.289739
0.703974 0.441634 0.292910
0.765242 0.445897 0.295570
0.254312 0.491716 0.282489
0.312307 0.495752 0.285007
0.374864 0.500105 0.287724
0.440505 0.504673 0.290574
0.508515 0.509405 0.293527
0.578460 0.514273 0.296565
0.650052 0.519255 0.299673
0.723080 0.524336 0.302844
0.784347 0.528600 0.305505
0.273961 0.576774 0.292707
0.331956 0.580809 0.295225
0.394513 0.585163 0.297941
0.460155 0.589730 0.300792
0.528164 0.594463 0.303745
0.598109 0.599330 0.306782
0.669701 0.604312 0.309891
0.742729 0.609394 0.313062
0.803996 0.613658 0.315722
0.294072 0.663833 0.303165
0.352067 0.667869 0.305683
0.414625 0.672222 0.308399
0.480266 0.676790 0.311250
0.548275 0.681523 0.314203
0.618221 0.686390 0.317240
0.689812 0.691372 0.320349
0.762840 0.696454 0.323520
0.824108 0.700717 0.326180
0.314587 0.752639 0.313832
0.372582 0.756675 0.316351
0.435139 0.761028 0.319067
0.500781 0.765596 0.321917
0.568790 0.770328 0.324870
0.638735 0.775196 0.327908
0.710327 0.780178 0.331016
0.783355 0.785260 0.334188
0.844622 0.789523 0.336848
0.331798 0.827144 0.322782
0.389793 0.831180 0.325300
0.452351 0.835533 0.328017
0.517992 0.840101 0.330867
0.586001 0.844833 0.333820
0.655947 0.849701 0.336858
0.727538 0.854683 0.339966
0.800566 0.859764 0.343137
0.861834 0.864028 0.345798
0.184673 0.184067 0.318570
0.242668 0.188102 0.321088
0.305225 0.192456 0.323805
0.370867 0.197023 0.326655
0.438876 0.201756 0.329608
0.508821 0.206623 0.332645
0.580413 0.211605 0.335754
0.653441 0.216687 0.338925
0.714708 0.220951 0.341586
0.200965 0.254592 0.327042
0.258960 0.258628 0.329560
0.321517 0.262981 0.332276
0.387158 0.267549 0.335127
0.455167 0.272282 0.338080
0.525113 0.277149 0.341117
0.596705 0.282131 0.344226
0.669732 0.287213 0.347397
0.731000 0.291476 0.350057
0.218538 0.330665 0.336180
0.276533 0.334701 0.338698
0.339091 0.339054 0.341415
0.404732 0.343622 0.344265
0.472741 0.348355 0.347218
0.542687 0.353222 0.350255
0.614278 0.358204 0.353364
0.687306 0.363286 0.356535
0.748574 0.367549 0.359196
0.236978 0.410489 0.345769
0.294973 0.414525 0.348287
0.357530 0.418878 0.351003
0.423172 0.423446 0.353854
0.491181 0.428178 0.356807
0.561126 0.433046 0.359844
0.632718 0.438028 0.362953
0.705746 0.443110 0.366124
0.767013 0.447373 0.368784
0.256083 0.493192 0.355703
0.314078 0.497228 0.358222
0.376635 0.501581 0.360938
0.442277 0.506149 0.363788
0.510286 0.510881 0.366741
0.580231 0.515749 0.369779
0.651823 0.520731 0.372887
0.724851 0.525813 0.376059
0.786118 0.530076 0.378719
0.275732 0.578250 0.365921
0.333727 0.582285 0.368439
0.396284 0.586639 0.371155
0.461926 0.591207 0.374006
0.529935 0.595939 0.376959
0.599881 0.600807 0.379996
0.671472 0.605789 0.383105
0.744500 0.610870 0.386276
0.805767 0.615134 0.388936
0.295843 0.665309 0.376379
0.353839 0.669345 0.378897
0.416396 0.673698 0.381613
0.482037 0.678266 0.384464
0.550046 0.682999 0.387417
0.619992 0.687866 0.390454
0.691584 0.692848 0.393563
0.764611 0.697930 0.396734
0.825879 0.702193 0.399394
0.316358 0.754115 0.387046
0.374353 0.758151 0.389565
0.436911 0.762504 0.392281
0.502552 0.767072 0.395131
0.570561 0.771805 0.398085
0.640507 0.776672 0.401122
0.712098 0.781654 0.404231
0.785126 0.786736 0.407402
0.846394 0.790999 0.410062
0.333569 0.828620 0.395996
0.391565 0.832656 0.398515
0.454122 0.837009 0.401231
0.519763 0.841577 0.404081
0.587772 0.846309 0.407034
0.657718 0.851177 0.410072
0.729310 0.856159 0.413180
0.802337 0.861241 0.416351
0.863605 0.865504 0.419012
0.186541 0.185624 0.395811
0.244537 0.189660 0.398330
0.307094 0.194013 0.401046
0.372735 0.198581 0.403896
0.440744 0.203313 0.406849
0.510690 0.208181 0.409887
0.582282 0.213163 0.412995
0.655309 0.218245 0.416167
0.716577 0.222508 0.418827
0.202833 0.256149 0.404283
0.260828 0.260185 0.406801
0.323386 0.264538 0.409518
0.389027 0.269106 0.412368
0.457036 0.273839 0.415321
0.526982 0.278706 0.418359
0.598574 0.283688 0.421467
0.671601 0.288770 0.424638
0.732869 0.293033 0.427299
0.220407 0.332223 0.413421
0.278402 0.336258 0.415940
0.340959 0.340612 0.418656
0.406601 0.345179 0.421506
0.474610 0.349912 0.424459
0.544555 0.354779 0.427497
0.616147 0.359761 0.430605
0.689175 0.364843 0.433777
0.750442 0.369107 0.436437
0.238847 0.412046 0.423010
0.296842 0.416082 0.425528
0.359399 0.420435 0.428245
0.425041 0.425003 0.431095
0.493050 0.429736 0.434048
0.562995 0.434603 0.437085
0.634587 0.439585 0.440194
0.707615 0.444667 0.443365
0.768882 0.448930 0.446026
0.257952 0.494749 0.432945
0.315947 0.498785 0.435463
0.378504 0.503138 0.438179
0.444146 0.507706 0.441030
0.512155 0.512439 0.443983
0.582100 0.517306 0.447020
0.653692 0.522288 0.450129
0.726720 0.527370 0.453300
0.787987 0.531633 0.455960
0.277601 0.579807 0.443162
0.335596 0.583843 0.445680
0.398153 0.588196 0.448397
0.463795 0.592764 0.451247
0.531804 0.597497 0.454200
0.601749 0.602364 0.457238
0.673341 0.607346 0.460346
0.746369 0.612428 0.463517
0.807636 0.616691 0.466178
0.297712 0.666867 0.453620
0.355707 0.670902 0.456138
0.418265 0.675256 0.458855
0.483906 0.679823 0.461705
0.551915 0.684556 0.464658
0.621861 0.689423 0.467696
0.693452 0.694405 0.470804
0.766480 0.699487 0.473975
0.827748 0.703751 0.476636
0.318227 0.755672 0.464288
0.376222 0.759708 0.466806
0.438779 0.764061 0.469522
0.504421 0.768629 0.472373
0.572430 0.773362 0.475326
0.642376 0.778229 0.478363
0.713967 0.783211 0.481472
0.786995 0.788293 0.484643
0.848262 0.792557 0.487303
0.335438 0.830177 0.473238
0.393433 0.834213 0.475756
0.455991 0.838566 0.478472
0.521632 0.843134 0.481323
0.589641 0.847867 0.484276
0.659587 0.852734 0.487313
0.731178 0.857716 0.490422
0.804206 0.862798 0.493593
0.865474 0.867061 0.496253
0.188487 0.187245 0.476218
0.246482 0.191281 0.478736
0.309039 0.195634 0.481453
0.374681 0.200202 0.484303
0.442690 0.204935 0.487256
0.512635 0.209802 0.490294
0.584227 0.214784 0.493402
0.657255 0.219866 0.496573
0.718522 0.224129 0.499234
0.204779 0.257770 0.484690
0.262774 0.261806 0.487208
0.325331 0.266159 0.489925
0.390973 0.270727 0.492775
0.458982 0.275460 0.495728
0.528927 0.280327 0.498765
0.600519 0.285309 0.501874
0.673547 0.290391 0.505045
0.734814 0.294655 0.507706
0.222352 0.333844 0.493828
0.280347 0.337880 0.496347
0.342905 0.342233 0.499063
0.408546 0.346801 0.501913
0.476555 0.351533 0.504866
0.546501 0.356401 0.507904
0.618092 0.361383 0.511012
0.691120 0.366464 0.514183
0.752388 0.370728 0.516844
0.240792 0.413667 0.503417
0.298787 0.417703 0.505935
0.361345 0.422056 0.508652
0.426986 0.426624 0.511502
0.494995 0.431357 0.514455
0.564941 0.436224 0.517492
0.636532 0.441206 0.520601
0.709560 0.446288 0.523772
0.770828 0.450552 0.526433
0.259897 0.496370 0.513352
0.317892 0.500406 0.515870
0.380450 0.504759 0.518586
0.446091 0.509327 0.521437
0.514100 0.514060 0.524390
0.584046 0.518927 0.527427
0.655637 0.523909 0.530536
0.728665 0.528991 0.533707
0.789933 0.533254 0.536367
0.279546 0.581428 0.523569
0.337541 0.585464 0.526087
0.400099 0.589817 0.528804
0.465740 0.594385 0.531654
0.533749 0.599118 0.534607
0.603695 0.603985 0.537645
0.675286 0.608967 0.540753
0.748314 0.614049 0.543924
0.809582 0.618312 0.546585
0.299658 0.668488 0.534027
0.357653 0.672523 0.536545
0.420210 0.676877 0.539262
0.485851 0.681445 0.542112
0.553860 0.686177 0.545065
0.623806 0.691045 0.548102
0.695398 0.696026 0.551211
0.768425 0.701108 0.554382
0.829693 0.705372 0.557043
0.320172 0.757294 0.544695
0.378168 0.761329 0.547213
0.440725 0.765683 0.549929
0.506366 0.770250 0.552780
0.574375 0.774983 0.555733
0.644321 0.779850 0.558770
0.715913 0.784832 0.561879
0.788940 0.789914 0.565050
0.850208 0.794178 0.567710
0.337384 0.831798 0.553645
0.395379 0.835834 0.556163
0.457936 0.840187 0.558879
0.523577 0.844755 0.561730
0.591587 0.849488 0.564683
0.661532 0.854355 0.567720
0.733124 0.859337 0.570829
0.806151 0.864419 0.574000
0.867419 0.868683 0.576660
0.190496 0.188919 0.559254
0.248491 0.192955 0.561772
0.311048 0.197308 0.564488
0.376690 0.201876 0.567339
0.444699 0.206609 0.570292
0.514644 0.211476 0.573329
0.586236 0.216458 0.576438
0.659264 0.221540 0.579609
0.720531 0.225803 0.582269
0.206788 0.259445 0.567726
0.264783 0.263480 0.570244
0.327340 0.267834 0.572960
0.392982 0.272401 0.575811
0.460991 0.277134 0.578764
0.530936 0.282001 0.581801
0.602528 0.286983 0.584910
0.675556 0.292065 0.588081
0.736823 0.296329 0.590741
0.224361 0.335518 0.576864
0.282356 0.339554 0.579382
0.344914 0.343907 0.582099
0.410555 0.348475 0.584949
0.478564 0.353207 0.587902
0.548510 0.358075 0.590939
0.620101 0.363057 0.594048
0.693129 0.368139 0.597219
0.754397 0.372402 0.599879
0.242801 0.415342 0.586453
0.300796 0.419377 0.588971
0.363354 0.423731 0.591687
0.428995 0.428298 0.594538
0.497004 0.433031 0.597491
0.566950 0.437898 0.600528
0.638541 0.442880 0.603637
0.711569 0.447962 0.606808
0.772837 0.452226 0.609468
0.261906 0.498044 0.596387
0.319901 0.502080 0.598905
0.382459 0.506433 0.601622
0.448100 0.511001 0.604472
0.516109 0.515734 0.607425
0.586055 0.520601 0.610463
0.657646 0.525583 0.613571
0.730674 0.530665 0.616742
0.791942 0.534929 0.619403
0.281555 0.583102 0.606605
0.339550 0.587138 0.609123
0.402108 0.591491 0.611839
0.467749 0.596059 0.614690
0.535758 0.600792 0.617643
0.605704 0.605659 0.620680
0.677295 0.610641 0.623789
0.750323 0.615723 0.626960
0.811591 0.619986 0.629620
0.301666 0.670162 0.617063
0.359662 0.674198 0.619581
0.422219 0.678551 0.622297
0.487860 0.683119 0.625148
0.555869 0.687851 0.628101
0.625815 0.692719 0.631138
0.697407 0.697701 0.634247
0.770434 0.702782 0.637418
0.831702 0.707046 0.640078
0.322181 0.758968 0.627730
0.380177 0.763003 0.630249
0.442734 0.767357 0.632965
0.508375 0.771925 0.635815
0.576384 0.776657 0.638769
0.646330 0.781525 0.641806
0.717922 0.786506 0.644914
0.790949 0.791588 0.648086
0.852217 0.795852 0.650746
0.339393 0.833473 0.636680
0.397388 0.837508 0.639198
0.459945 0.841862 0.641915
0.525586 0.846429 0.644765
0.593595 0.851162 0.647718
0.663541 0.856029 0.650756
0.735133 0.861011 0.653864
0.808160 0.866093 0.657035
0.869428 0.870357 0.659696
0.192559 0.190639 0.644548
0.250554 0.194675 0.647066
0.313112 0.199028 0.649783
0.378753 0.203596 0.652633
0.446762 0.208328 0.655586
0.516708 0.213196 0.658624
0.588300 0.218178 0.661732
0.661327 0.223260 0.664903
0.722595 0.227523 0.667564
0.208851 0.261164 0.653020
0.266846 0.265200 0.655538
0.329404 0.269553 0.658255
0.395045 0.274121 0.661105
0.463054 0.278854 0.664058
0.533000 0.283721 0.667095
0.604591 0.288703 0.670204
0.677619 0.293785 0.673375
0.738887 0.298048 0.676036
0.226425 0.337238 0.662158
0.284420 0.341273 0.664676
0.346977 0.345627 0.667393
0.412619 0.350194 0.670243
0.480628 0.354927 0.673196
0.550573 0.359794 0.676234
0.622165 0.364776 0.679342
0.695193 0.369858 0.682513
0.756460 0.374122 0.685174
0.244865 0.417061 0.671747
0.302860 0.421097 0.674265
0.365417 0.425450 0.676982
0.431059 0.430018 0.679832
0.499068 0.434751 0.682785
0.569013 0.439618 0.685822
0.640605 0.444600 0.688931
0.713633 0.449682 0.692102
0.774900 0.453945 0.694763
0.263970 0.499764 0.681681
0.321965 0.503800 0.684200
0.384522 0.508153 0.686916
0.450164 0.512721 0.689766
0.518173 0.517454 0.692720
0.588118 0.522321 0.695757
0.659710 0.527303 0.698866
0.732738 0.532385 0.702037
0.794005 0.536648 0.704697
0.283619 0.584822 0.691899
0.341614 0.588858 0.694417
0.404171 0.593211 0.697134
0.469813 0.597779 0.699984
0.537822 0.602511 0.702937
0.607767 0.607379 0.705974
0.679359 0.612361 0.709083
0.752387 0.617443 0.712254
0.813654 0.621706 0.714915
0.303730 0.671881 0.702357
0.361725 0.675917 0.704875
0.424283 0.680271 0.707592
0.489924 0.684838 0.710442
0.557933 0.689571 0.713395
0.627879 0.694438 0.716432
0.699470 0.699420 0.719541
0.772498 0.704502 0.722712
0.833766 0.708766 0.725373
0.324245 0.760687 0.713025
0.382240 0.764723 0.715543
0.444797 0.769076 0.718259
0.510439 0.773644 0.721110
0.578448 0.778377 0.724063
0.648393 0.783244 0.727100
0.719985 0.788226 0.730209
0.793013 0.793308 0.733380
0.854280 0.797571 0.736040
0.341456 0.835192 0.721974
0.399451 0.839228 0.724493
0.462009 0.843581 0.727209
0.527650 0.848149 0.730059
0.595659 0.852882 0.733013
0.665605 0.857749 0.736050
0.737196 0.862731 0.739159
0.810224 0.867813 0.742330
0.871492 0.872076 0.744990
0.194671 0.192399 0.731829
0.252666 0.196434 0.734348
0.315223 0.200788 0.737064
0.380865 0.205355 0.739914
0.448874 0.210088 0.742868
0.518820 0.214955 0.745905
0.590411 0.219937 0.749013
0.663439 0.225019 0.752185
0.724706 0.229283 0.754845
0.210963 0.262924 0.740301
0.268958 0.266960 0.742819
0.331515 0.271313 0.745536
0.397157 0.275881 0.748386
0.465166 0.280614 0.751339
0.535111 0.285481 0.754377
0.606703 0.290463 0.757485
0.679731 0.295545 0.760656
0.740998 0.299808 0.763317
0.228536 0.338997 0.749439
0.286532 0.343033 0.751958
0.349089 0.347386 0.754674
0.414730 0.351954 0.757524
0.482739 0.356687 0.760478
0.552685 0.361554 0.763515
0.624277 0.366536 0.766624
0.697304 0.371618 0.769795
0.758572 0.375881 0.772455
0.246976 0.418821 0.759028
0.304972 0.422857 0.761546
0.367529 0.427210 0.764263
0.433170 0.431778 0.767113
0.501179 0.436510 0.770066
0.571125 0.441378 0.773104
0.642717 0.446360 0.776212
0.715744 0.451442 0.779383
0.777012 0.455705 0.782044
0.266081 0.501524 0.768963
0.324077 0.505560 0.771481
0.386634 0.509913 0.774197
0.452275 0.514481 0.777048
0.520284 0.519213 0.780001
0.590230 0.524081 0.783038
0.661822 0.529063 0.786147
0.734849 0.534145 0.789318
0.796117 0.538408 0.791978
0.285730 0.586582 0.779180
0.343726 0.590617 0.781698
0.406283 0.594971 0.784415
0.471924 0.599539 0.787265
0.539933 0.604271 0.790218
0.609879 0.609139 0.793256
0.681471 0.614121 0.796364
0.754498 0.619202 0.799535
0.815766 0.623466 0.802196
0.305842 0.673641 0.789638
0.363837 0.677677 0.792156
0.426394 0.682030 0.794873
0.492036 0.686598 0.797723
0.560045 0.691331 0.800676
0.629990 0.696198 0.803714
0.701582 0.701180 0.806822
0.774610 0.706262 0.809993
0.835877 0.710525 0.812654
0.326357 0.762447 0.800306
0.384352 0.766483 0.802824
0.446909 0.770836 0.805541
0.512551 0.775404 0.808391
0.580560 0.780137 0.811344
0.650505 0.785004 0.814381
0.722097 0.789986 0.817490
0.795125 0.795068 0.820661
0.856392 0.799331 0.823322
0.343568 0.836952 0.809256
0.401563 0.840988 0.811774
0.464120 0.845341 0.814490
0.529762 0.849909 0.817341
0.597771 0.854641 0.820294
0.667716 0.859509 0.823331
0.739308 0.864491 0.826440
0.812336 0.869573 0.829611
0.873603 0.873836 0.832271
0.196068 0.193562 0.789558
0.254063 0.197598 0.792076
0.316620 0.201952 0.794793
0.382262 0.206519 0.797643
0.450271 0.211252 0.800596
0.520216 0.216119 0.803633
0.591808 0.221101 0.806742
0.664836 0.226183 0.809913
0.726103 0.230447 0.812574
0.212360 0.264088 0.798030
0.270355 0.268124 0.800548
0.332912 0.272477 0.803264
0.398554 0.277045 0.806115
0.466563 0.281777 0.809068
0.536508 0.286645 0.812105
0.608100 0.291627 0.815214
0.681128 0.296709 0.818385
0.742395 0.300972 0.821045
0.229933 0.340161 0.807168
0.287928 0.344197 0.809686
0.350486 0.348550 0.812403
0.416127 0.353118 0.815253
0.484136 0.357851 0.818206
0.554082 0.362718 0.821243
0.625673 0.367700 0.824352
0.698701 0.372782 0.827523
0.759969 0.377045 0.830184
0.248373 0.419985 0.816757
0.306368 0.424021 0.819275
0.368926 0.428374 0.821991
0.434567 0.432942 0.824842
0.502576 0.437674 0.827795
0.572522 0.442542 0.830832
0.644113 0.447524 0.833941
0.717141 0.452606 0.837112
0.778409 0.456869 0.839772
0.267478 0.502688 0.826691
0.325473 0.506724 0.829210
0.388031 0.511077 0.831926
0.453672 0.515645 0.834776
0.521681 0.520377 0.837730
0.591627 0.525245 0.840767
0.663218 0.530227 0.843876
0.736246 0.535308 0.847047
0.797514 0.539572 0.849707
0.287127 0.587746 0.836909
0.345122 0.591781 0.839427
0.407680 0.596135 0.842144
0.473321 0.600702 0.844994
0.541330 0.605435 0.847947
0.611276 0.610302 0.850984
0.682867 0.615284 0.854093
0.755895 0.620366 0.857264
0.817163 0.624630 0.859925
0.307238 0.674805 0.847367
0.365234 0.678841 0.849885
0.427791 0.683194 0.852601
0.493432 0.687762 0.855452
0.561441 0.692495 0.858405
0.631387 0.697362 0.861442
0.702979 0.702344 0.864551
0.776006 0.707426 0.867722
0.837274 0.711689 0.870382
0.327753 0.763611 0.858034
0.385748 0.767647 0.860553
0.448306 0.772000 0.863269
0.513947 0.776568 0.866120
0.581956 0.781300 0.869073
0.651902 0.786168 0.872110
0.723494 0.791150 0.875219
0.796521 0.796232 0.878390
0.857789 0.800495 0.881050
0.344965 0.838116 0.866984
0.402960 0.842152 0.869503
0.465517 0.846505 0.872219
0.531158 0.851073 0.875069
0.599167 0.855805 0.878023
0.669113 0.860673 0.881060
0.740705 0.865655 0.884168
0.813732 0.870737 0.887340
0.875000 0.875000 0.890000
