Fotico/Resources/LUTs/nube.cube
# Nube
LUT_3D_SIZE 17
0.181267 0.181229 0.177828
0.209538 0.183196 0.179055
0.239263 0.185265 0.180346
0.270092 0.187410 0.181685
0.301820 0.189618 0.183062
0.334309 0.191879 0.184473
0.367461 0.194186 0.185913
0.401201 0.196534 0.187378
0.435470 0.198918 0.188866
0.470222 0.201337 0.190375
0.505416 0.203786 0.191903
0.541021 0.206264 0.193449
0.577008 0.208768 0.195012
0.613353 0.211297 0.196590
0.650035 0.213850 0.198183
0.687036 0.216424 0.199790
0.711303 0.218113 0.200843
0.189209 0.215608 0.181957
0.217480 0.217575 0.183185
0.247204 0.219644 0.184476
0.278034 0.221789 0.185814
0.309762 0.223997 0.187192
0.342251 0.226258 0.188603
0.375403 0.228565 0.190042
0.409143 0.230913 0.191508
0.443412 0.233298 0.192996
0.478164 0.235716 0.194505
0.513358 0.238165 0.196033
0.548963 0.240643 0.197579
0.584950 0.243147 0.199142
0.621295 0.245676 0.200720
0.657977 0.248229 0.202313
0.694978 0.250804 0.203919
0.719245 0.252492 0.204973
0.197559 0.251754 0.186299
0.225830 0.253722 0.187527
0.255555 0.255790 0.188818
0.286384 0.257936 0.190156
0.318112 0.260143 0.191534
0.350601 0.262404 0.192945
0.383753 0.264711 0.194385
0.417493 0.267059 0.195850
0.451762 0.269444 0.197338
0.486514 0.271862 0.198847
0.521708 0.274311 0.200375
0.557313 0.276789 0.201921
0.593300 0.279293 0.203484
0.629645 0.281822 0.205062
0.666327 0.284375 0.206655
0.703328 0.286950 0.208261
0.727595 0.288639 0.209315
0.206220 0.289245 0.190803
0.234491 0.291212 0.192031
0.264215 0.293280 0.193321
0.295044 0.295426 0.194660
0.326772 0.297634 0.196038
0.359262 0.299894 0.197448
0.392414 0.302201 0.198888
0.426154 0.304549 0.200353
0.460423 0.306934 0.201841
0.495174 0.309352 0.203350
0.530368 0.311801 0.204878
0.565973 0.314279 0.206424
0.601960 0.316783 0.207987
0.638305 0.319313 0.209565
0.674988 0.321865 0.211158
0.711989 0.324440 0.212765
0.736255 0.326129 0.213819
0.215133 0.327828 0.195438
0.243404 0.329795 0.196665
0.273128 0.331863 0.197956
0.303957 0.334009 0.199295
0.335685 0.336217 0.200672
0.368175 0.338478 0.202083
0.401327 0.340785 0.203523
0.435067 0.343132 0.204988
0.469336 0.345517 0.206476
0.504087 0.347935 0.207985
0.539281 0.350385 0.209513
0.574886 0.352862 0.211059
0.610873 0.355366 0.212622
0.647218 0.357896 0.214200
0.683901 0.360448 0.215793
0.720902 0.363023 0.217400
0.745168 0.364712 0.218453
0.224260 0.367337 0.200184
0.252531 0.369304 0.201411
0.282255 0.371372 0.202702
0.313084 0.373518 0.204041
0.344812 0.375726 0.205418
0.377302 0.377987 0.206829
0.410454 0.380294 0.208269
0.444194 0.382641 0.209734
0.478463 0.385026 0.211222
0.513214 0.387444 0.212731
0.548408 0.389894 0.214259
0.584013 0.392371 0.215805
0.620000 0.394875 0.217368
0.656345 0.397405 0.218946
0.693028 0.399957 0.220539
0.730029 0.402532 0.222146
0.754295 0.404221 0.223199
0.233573 0.407651 0.205026
0.261844 0.409619 0.206254
0.291568 0.411687 0.207545
0.322397 0.413832 0.208883
0.354125 0.416040 0.210261
0.386615 0.418301 0.211672
0.419767 0.420608 0.213112
0.453507 0.422956 0.214577
0.487776 0.425341 0.216065
0.522527 0.427759 0.217574
0.557721 0.430208 0.219102
0.593326 0.432686 0.220648
0.629313 0.435190 0.222211
0.665658 0.437719 0.223789
0.702341 0.440272 0.225382
0.739342 0.442847 0.226988
0.763608 0.444536 0.228042
0.243051 0.448681 0.209955
0.271322 0.450648 0.211183
0.301046 0.452717 0.212473
0.331875 0.454862 0.213812
0.363603 0.457070 0.215190
0.396093 0.459331 0.216601
0.429245 0.461638 0.218040
0.462985 0.463986 0.219505
0.497254 0.466370 0.220993
0.532005 0.468789 0.222502
0.567200 0.471238 0.224031
0.602804 0.473716 0.225577
0.638791 0.476220 0.227139
0.675136 0.478749 0.228717
0.711819 0.481302 0.230310
0.748820 0.483876 0.231917
0.773086 0.485565 0.232971
0.252678 0.490354 0.214961
0.280949 0.492322 0.216189
0.310673 0.494390 0.217479
0.341502 0.496535 0.218818
0.373230 0.498743 0.220196
0.405720 0.501004 0.221607
0.438872 0.503311 0.223046
0.472612 0.505659 0.224511
0.506881 0.508044 0.225999
0.541632 0.510462 0.227508
0.576826 0.512911 0.229037
0.612431 0.515389 0.230583
0.648418 0.517893 0.232145
0.684763 0.520422 0.233723
0.721446 0.522975 0.235316
0.758447 0.525550 0.236923
0.782713 0.527238 0.237977
0.262440 0.532614 0.220037
0.290711 0.534581 0.221265
0.320435 0.536650 0.222556
0.351265 0.538795 0.223894
0.382993 0.541003 0.225272
0.415482 0.543264 0.226683
0.448634 0.545571 0.228122
0.482374 0.547919 0.229588
0.516643 0.550303 0.231076
0.551394 0.552722 0.232585
0.586589 0.555171 0.234113
0.622193 0.557648 0.235659
0.658180 0.560153 0.237222
0.694526 0.562682 0.238800
0.731208 0.565234 0.240393
0.768209 0.567809 0.241999
0.792476 0.569498 0.243053
0.272327 0.575412 0.225179
0.300598 0.577379 0.226406
0.330322 0.579448 0.227697
0.361151 0.581593 0.229036
0.392879 0.583801 0.230413
0.425369 0.586062 0.231824
0.458521 0.588369 0.233264
0.492261 0.590717 0.234729
0.526530 0.593102 0.236217
0.561281 0.595520 0.237726
0.596475 0.597969 0.239254
0.632080 0.600447 0.240800
0.668067 0.602951 0.242363
0.704412 0.605480 0.243941
0.741095 0.608033 0.245534
0.778096 0.610608 0.247140
0.802362 0.612296 0.248194
0.282329 0.618709 0.230380
0.310600 0.620677 0.231607
0.340324 0.622745 0.232898
0.371153 0.624890 0.234237
0.402881 0.627098 0.235614
0.435371 0.629359 0.237025
0.468523 0.631666 0.238465
0.502263 0.634014 0.239930
0.536532 0.636399 0.241418
0.571283 0.638817 0.242927
0.606477 0.641266 0.244455
0.642082 0.643744 0.246001
0.678069 0.646248 0.247564
0.714414 0.648777 0.249142
0.751097 0.651330 0.250735
0.788098 0.653905 0.252342
0.812364 0.655594 0.253395
0.292438 0.662472 0.235636
0.320709 0.664439 0.236864
0.350433 0.666507 0.238155
0.381263 0.668653 0.239493
0.412991 0.670861 0.240871
0.445480 0.673122 0.242282
0.478632 0.675429 0.243722
0.512372 0.677776 0.245187
0.546641 0.680161 0.246675
0.581392 0.682579 0.248184
0.616587 0.685029 0.249712
0.652191 0.687506 0.251258
0.688178 0.690010 0.252821
0.724524 0.692540 0.254399
0.761206 0.695092 0.255992
0.798207 0.697667 0.257598
0.822474 0.699356 0.258652
0.302648 0.706670 0.240946
0.330919 0.708637 0.242173
0.360643 0.710705 0.243464
0.391473 0.712851 0.244803
0.423201 0.715059 0.246180
0.455690 0.717319 0.247591
0.488842 0.719626 0.249031
0.522582 0.721974 0.250496
0.556851 0.724359 0.251984
0.591603 0.726777 0.253493
0.626797 0.729226 0.255021
0.662402 0.731704 0.256567
0.698389 0.734208 0.258130
0.734734 0.736738 0.259708
0.771416 0.739290 0.261301
0.808417 0.741865 0.262908
0.832684 0.743554 0.263961
0.312953 0.751277 0.246304
0.341224 0.753245 0.247532
0.370948 0.755313 0.248822
0.401778 0.757459 0.250161
0.433506 0.759666 0.251539
0.465995 0.761927 0.252950
0.499147 0.764234 0.254389
0.532887 0.766582 0.255854
0.567156 0.768967 0.257342
0.601907 0.771385 0.258851
0.637102 0.773834 0.260380
0.672706 0.776312 0.261926
0.708693 0.778816 0.263488
0.745039 0.781345 0.265067
0.781721 0.783898 0.266659
0.818722 0.786473 0.268266
0.842989 0.788162 0.269320
0.323347 0.796273 0.251709
0.351618 0.798240 0.252937
0.381343 0.800309 0.254228
0.412172 0.802454 0.255566
0.443900 0.804662 0.256944
0.476389 0.806923 0.258355
0.509541 0.809230 0.259794
0.543281 0.811578 0.261259
0.577550 0.813962 0.262747
0.612302 0.816381 0.264256
0.647496 0.818830 0.265785
0.683101 0.821307 0.267331
0.719088 0.823812 0.268893
0.755433 0.826341 0.270472
0.792115 0.828894 0.272064
0.829116 0.831468 0.273671
0.853383 0.833157 0.274725
0.330164 0.825782 0.255254
0.358435 0.827750 0.256482
0.388159 0.829818 0.257772
0.418989 0.831963 0.259111
0.450717 0.834171 0.260489
0.483206 0.836432 0.261900
0.516358 0.838739 0.263339
0.550098 0.841087 0.264804
0.584367 0.843472 0.266292
0.619119 0.845890 0.267801
0.654313 0.848339 0.269329
0.689918 0.850817 0.270876
0.725905 0.853321 0.272438
0.762250 0.855850 0.274016
0.798932 0.858403 0.275609
0.835933 0.860978 0.277216
0.860200 0.862666 0.278270
0.182063 0.181892 0.210715
0.210334 0.183859 0.211942
0.240058 0.185928 0.213233
0.270888 0.188073 0.214572
0.302616 0.190281 0.215949
0.335105 0.192542 0.217360
0.368257 0.194849 0.218800
0.401997 0.197197 0.220265
0.436266 0.199582 0.221753
0.471017 0.202000 0.223262
0.506212 0.204449 0.224790
0.541816 0.206927 0.226336
0.577803 0.209431 0.227899
0.614149 0.211960 0.229477
0.650831 0.214513 0.231070
0.687832 0.217088 0.232677
0.712099 0.218776 0.233730
0.190005 0.216271 0.214844
0.218276 0.218238 0.216072
0.248000 0.220307 0.217363
0.278829 0.222452 0.218701
0.310557 0.224660 0.220079
0.343047 0.226921 0.221490
0.376199 0.229228 0.222929
0.409939 0.231576 0.224394
0.444208 0.233961 0.225883
0.478959 0.236379 0.227392
0.514154 0.238828 0.228920
0.549758 0.241306 0.230466
0.585745 0.243810 0.232029
0.622090 0.246339 0.233607
0.658773 0.248892 0.235200
0.695774 0.251467 0.236806
0.720040 0.253155 0.237860
0.198355 0.252417 0.219186
0.226626 0.254385 0.220414
0.256350 0.256453 0.221705
0.287179 0.258599 0.223043
0.318908 0.260806 0.224421
0.351397 0.263067 0.225832
0.384549 0.265374 0.227271
0.418289 0.267722 0.228737
0.452558 0.270107 0.230225
0.487309 0.272525 0.231734
0.522504 0.274974 0.233262
0.558108 0.277452 0.234808
0.594095 0.279956 0.236371
0.630441 0.282485 0.237949
0.667123 0.285038 0.239542
0.704124 0.287613 0.241148
0.728391 0.289302 0.242202
0.207016 0.289908 0.223690
0.235286 0.291875 0.224917
0.265011 0.293943 0.226208
0.295840 0.296089 0.227547
0.327568 0.298297 0.228925
0.360057 0.300557 0.230335
0.393209 0.302864 0.231775
0.426949 0.305212 0.233240
0.461219 0.307597 0.234728
0.495970 0.310015 0.236237
0.531164 0.312464 0.237765
0.566769 0.314942 0.239311
0.602756 0.317446 0.240874
0.639101 0.319976 0.242452
0.675783 0.322528 0.244045
0.712785 0.325103 0.245652
0.737051 0.326792 0.246706
0.215929 0.328491 0.228325
0.244199 0.330458 0.229552
0.273924 0.332527 0.230843
0.304753 0.334672 0.232182
0.336481 0.336880 0.233559
0.368971 0.339141 0.234970
0.402122 0.341448 0.236410
0.435862 0.343796 0.237875
0.470132 0.346180 0.239363
0.504883 0.348599 0.240872
0.540077 0.351048 0.242400
0.575682 0.353525 0.243946
0.611669 0.356030 0.245509
0.648014 0.358559 0.247087
0.684696 0.361111 0.248680
0.721698 0.363686 0.250287
0.745964 0.365375 0.251340
0.225055 0.368000 0.233071
0.253326 0.369967 0.234298
0.283051 0.372036 0.235589
0.313880 0.374181 0.236928
0.345608 0.376389 0.238305
0.378097 0.378650 0.239716
0.411249 0.380957 0.241156
0.444989 0.383305 0.242621
0.479258 0.385689 0.244109
0.514010 0.388108 0.245618
0.549204 0.390557 0.247146
0.584809 0.393034 0.248692
0.620796 0.395539 0.250255
0.657141 0.398068 0.251833
0.693823 0.400620 0.253426
0.730824 0.403195 0.255033
0.755091 0.404884 0.256086
0.234368 0.408314 0.237913
0.262639 0.410282 0.239141
0.292364 0.412350 0.240432
0.323193 0.414496 0.241770
0.354921 0.416703 0.243148
0.387410 0.418964 0.244559
0.420562 0.421271 0.245998
0.454302 0.423619 0.247464
0.488571 0.426004 0.248952
0.523323 0.428422 0.250461
0.558517 0.430871 0.251989
0.594122 0.433349 0.253535
0.630109 0.435853 0.255098
0.666454 0.438382 0.256676
0.703136 0.440935 0.258269
0.740137 0.443510 0.259875
0.764404 0.445199 0.260929
0.243847 0.449344 0.242842
0.272118 0.451311 0.244070
0.301842 0.453380 0.245360
0.332671 0.455525 0.246699
0.364399 0.457733 0.248077
0.396889 0.459994 0.249488
0.430041 0.462301 0.250927
0.463780 0.464649 0.252392
0.498050 0.467034 0.253880
0.532801 0.469452 0.255389
0.567995 0.471901 0.256917
0.603600 0.474379 0.258464
0.639587 0.476883 0.260026
0.675932 0.479412 0.261604
0.712615 0.481965 0.263197
0.749616 0.484540 0.264804
0.773882 0.486228 0.265858
0.253473 0.491017 0.247848
0.281744 0.492985 0.249076
0.311469 0.495053 0.250366
0.342298 0.497198 0.251705
0.374026 0.499406 0.253083
0.406515 0.501667 0.254493
0.439667 0.503974 0.255933
0.473407 0.506322 0.257398
0.507676 0.508707 0.258886
0.542428 0.511125 0.260395
0.577622 0.513574 0.261923
0.613227 0.516052 0.263469
0.649214 0.518556 0.265032
0.685559 0.521085 0.266610
0.722241 0.523638 0.268203
0.759242 0.526213 0.269810
0.783509 0.527901 0.270864
0.263236 0.533277 0.252924
0.291507 0.535244 0.254152
0.321231 0.537313 0.255443
0.352060 0.539458 0.256781
0.383788 0.541666 0.258159
0.416278 0.543927 0.259570
0.449430 0.546234 0.261009
0.483170 0.548582 0.262475
0.517439 0.550966 0.263963
0.552190 0.553385 0.265472
0.587384 0.555834 0.267000
0.622989 0.558311 0.268546
0.658976 0.560816 0.270109
0.695321 0.563345 0.271687
0.732004 0.565898 0.273280
0.769005 0.568472 0.274886
0.793271 0.570161 0.275940
0.273123 0.576075 0.258065
0.301393 0.578042 0.259293
0.331118 0.580111 0.260584
0.361947 0.582256 0.261922
0.393675 0.584464 0.263300
0.426164 0.586725 0.264711
0.459316 0.589032 0.266151
0.493056 0.591380 0.267616
0.527325 0.593765 0.269104
0.562077 0.596183 0.270613
0.597271 0.598632 0.272141
0.632876 0.601110 0.273687
0.668863 0.603614 0.275250
0.705208 0.606143 0.276828
0.741890 0.608696 0.278421
0.778891 0.611271 0.280027
0.803158 0.612959 0.281081
0.283125 0.619372 0.263266
0.311395 0.621340 0.264494
0.341120 0.623408 0.265785
0.371949 0.625554 0.267123
0.403677 0.627761 0.268501
0.436166 0.630022 0.269912
0.469318 0.632329 0.271352
0.503058 0.634677 0.272817
0.537327 0.637062 0.274305
0.572079 0.639480 0.275814
0.607273 0.641929 0.277342
0.642878 0.644407 0.278888
0.678865 0.646911 0.280451
0.715210 0.649440 0.282029
0.751892 0.651993 0.283622
0.788893 0.654568 0.285228
0.813160 0.656257 0.286282
0.293234 0.663135 0.268523
0.321505 0.665102 0.269751
0.351229 0.667170 0.271042
0.382058 0.669316 0.272380
0.413786 0.671524 0.273758
0.446276 0.673785 0.275169
0.479428 0.676092 0.276608
0.513168 0.678439 0.278074
0.547437 0.680824 0.279562
0.582188 0.683242 0.281071
0.617382 0.685692 0.282599
0.652987 0.688169 0.284145
0.688974 0.690674 0.285708
0.725319 0.693203 0.287286
0.762002 0.695755 0.288879
0.799003 0.698330 0.290485
0.823269 0.700019 0.291539
0.303444 0.707333 0.273833
0.331715 0.709300 0.275060
0.361439 0.711368 0.276351
0.392268 0.713514 0.277690
0.423996 0.715722 0.279067
0.456486 0.717982 0.280478
0.489638 0.720289 0.281918
0.523378 0.722637 0.283383
0.557647 0.725022 0.284871
0.592398 0.727440 0.286380
0.627593 0.729889 0.287908
0.663197 0.732367 0.289454
0.699184 0.734871 0.291017
0.735529 0.737401 0.292595
0.772212 0.739953 0.294188
0.809213 0.742528 0.295795
0.833479 0.744217 0.296848
0.313749 0.751941 0.279191
0.342020 0.753908 0.280419
0.371744 0.755976 0.281709
0.402573 0.758122 0.283048
0.434301 0.760330 0.284426
0.466791 0.762590 0.285837
0.499943 0.764897 0.287276
0.533683 0.767245 0.288741
0.567952 0.769630 0.290229
0.602703 0.772048 0.291738
0.637897 0.774497 0.293267
0.673502 0.776975 0.294813
0.709489 0.779479 0.296375
0.745834 0.782009 0.297954
0.782517 0.784561 0.299546
0.819518 0.787136 0.301153
0.843784 0.788825 0.302207
0.324143 0.796936 0.284596
0.352414 0.798903 0.285824
0.382138 0.800972 0.287114
0.412967 0.803117 0.288453
0.444696 0.805325 0.289831
0.477185 0.807586 0.291242
0.510337 0.809893 0.292681
0.544077 0.812241 0.294146
0.578346 0.814625 0.295634
0.613097 0.817044 0.297143
0.648292 0.819493 0.298672
0.683896 0.821970 0.300218
0.719883 0.824475 0.301780
0.756229 0.827004 0.303359
0.792911 0.829557 0.304951
0.829912 0.832131 0.306558
0.854179 0.833820 0.307612
0.330960 0.826445 0.288141
0.359231 0.828413 0.289369
0.388955 0.830481 0.290659
0.419784 0.832627 0.291998
0.451512 0.834834 0.293376
0.484002 0.837095 0.294786
0.517154 0.839402 0.296226
0.550894 0.841750 0.297691
0.585163 0.844135 0.299179
0.619914 0.846553 0.300688
0.655109 0.849002 0.302216
0.690713 0.851480 0.303762
0.726700 0.853984 0.305325
0.763045 0.856513 0.306903
0.799728 0.859066 0.308496
0.836729 0.861641 0.310103
0.860995 0.863330 0.311157
0.182901 0.182590 0.245356
0.211172 0.184558 0.246583
0.240896 0.186626 0.247874
0.271726 0.188772 0.249213
0.303454 0.190979 0.250590
0.335943 0.193240 0.252001
0.369095 0.195547 0.253441
0.402835 0.197895 0.254906
0.437104 0.200280 0.256394
0.471855 0.202698 0.257903
0.507050 0.205147 0.259431
0.542654 0.207625 0.260977
0.578641 0.210129 0.262540
0.614987 0.212658 0.264118
0.651669 0.215211 0.265711
0.688670 0.217786 0.267318
0.712937 0.219475 0.268371
0.190843 0.216969 0.249485
0.219114 0.218937 0.250713
0.248838 0.221005 0.252004
0.279667 0.223151 0.253342
0.311396 0.225359 0.254720
0.343885 0.227619 0.256131
0.377037 0.229926 0.257571
0.410777 0.232274 0.259036
0.445046 0.234659 0.260524
0.479797 0.237077 0.262033
0.514992 0.239526 0.263561
0.550596 0.242004 0.265107
0.586583 0.244508 0.266670
0.622929 0.247037 0.268248
0.659611 0.249590 0.269841
0.696612 0.252165 0.271447
0.720879 0.253854 0.272501
0.199193 0.253116 0.253827
0.227464 0.255083 0.255055
0.257188 0.257152 0.256346
0.288018 0.259297 0.257685
0.319746 0.261505 0.259062
0.352235 0.263766 0.260473
0.385387 0.266073 0.261913
0.419127 0.268421 0.263378
0.453396 0.270805 0.264866
0.488147 0.273224 0.266375
0.523342 0.275673 0.267903
0.558946 0.278150 0.269449
0.594933 0.280655 0.271012
0.631279 0.283184 0.272590
0.667961 0.285737 0.274183
0.704962 0.288311 0.275789
0.729229 0.290000 0.276843
0.207854 0.290606 0.258331
0.236125 0.292573 0.259559
0.265849 0.294642 0.260849
0.296678 0.296787 0.262188
0.328406 0.298995 0.263566
0.360896 0.301256 0.264976
0.394048 0.303563 0.266416
0.427787 0.305911 0.267881
0.462057 0.308296 0.269369
0.496808 0.310714 0.270878
0.532002 0.313163 0.272406
0.567607 0.315641 0.273953
0.603594 0.318145 0.275515
0.639939 0.320674 0.277093
0.676622 0.323227 0.278686
0.713623 0.325802 0.280293
0.737889 0.327490 0.281347
0.216767 0.329189 0.262966
0.245038 0.331156 0.264193
0.274762 0.333225 0.265484
0.305591 0.335370 0.266823
0.337319 0.337578 0.268200
0.369809 0.339839 0.269611
0.402961 0.342146 0.271051
0.436700 0.344494 0.272516
0.470970 0.346879 0.274004
0.505721 0.349297 0.275513
0.540915 0.351746 0.277041
0.576520 0.354224 0.278587
0.612507 0.356728 0.280150
0.648852 0.359257 0.281728
0.685535 0.361810 0.283321
0.722536 0.364385 0.284928
0.746802 0.366073 0.285981
0.225894 0.368698 0.267712
0.254164 0.370665 0.268939
0.283889 0.372734 0.270230
0.314718 0.374879 0.271569
0.346446 0.377087 0.272946
0.378935 0.379348 0.274357
0.412087 0.381655 0.275797
0.445827 0.384003 0.277262
0.480097 0.386388 0.278750
0.514848 0.388806 0.280259
0.550042 0.391255 0.281787
0.585647 0.393733 0.283333
0.621634 0.396237 0.284896
0.657979 0.398766 0.286474
0.694661 0.401319 0.288067
0.731663 0.403894 0.289674
0.755929 0.405582 0.290727
0.235207 0.409013 0.272554
0.263477 0.410980 0.273782
0.293202 0.413049 0.275073
0.324031 0.415194 0.276411
0.355759 0.417402 0.277789
0.388249 0.419663 0.279200
0.421400 0.421970 0.280640
0.455140 0.424318 0.282105
0.489410 0.426702 0.283593
0.524161 0.429121 0.285102
0.559355 0.431570 0.286630
0.594960 0.434047 0.288176
0.630947 0.436552 0.289739
0.667292 0.439081 0.291317
0.703974 0.441634 0.292910
0.740976 0.444208 0.294516
0.765242 0.445897 0.295570
0.244685 0.450042 0.277483
0.272956 0.452010 0.278711
0.302680 0.454078 0.280001
0.333509 0.456224 0.281340
0.365237 0.458431 0.282718
0.397727 0.460692 0.284129
0.430879 0.462999 0.285568
0.464619 0.465347 0.287033
0.498888 0.467732 0.288521
0.533639 0.470150 0.290030
0.568833 0.472599 0.291559
0.604438 0.475077 0.293105
0.640425 0.477581 0.294667
0.676770 0.480110 0.296246
0.713453 0.482663 0.297838
0.750454 0.485238 0.299445
0.774720 0.486927 0.300499
0.254312 0.491716 0.282489
0.282583 0.493683 0.283717
0.312307 0.495752 0.285007
0.343136 0.497897 0.286346
0.374864 0.500105 0.287724
0.407354 0.502366 0.289135
0.440505 0.504673 0.290574
0.474245 0.507021 0.292039
0.508515 0.509405 0.293527
0.543266 0.511824 0.295036
0.578460 0.514273 0.296565
0.614065 0.516750 0.298111
0.650052 0.519255 0.299673
0.686397 0.521784 0.301252
0.723080 0.524336 0.302844
0.760081 0.526911 0.304451
0.784347 0.528600 0.305505
0.264074 0.533975 0.287565
0.292345 0.535943 0.288793
0.322069 0.538011 0.290084
0.352898 0.540156 0.291422
0.384626 0.542364 0.292800
0.417116 0.544625 0.294211
0.450268 0.546932 0.295651
0.484008 0.549280 0.297116
0.518277 0.551665 0.298604
0.553028 0.554083 0.300113
0.588222 0.556532 0.301641
0.623827 0.559010 0.303187
0.659814 0.561514 0.304750
0.696159 0.564043 0.306328
0.732842 0.566596 0.307921
0.769843 0.569171 0.309527
0.794109 0.570859 0.310581
0.273961 0.576774 0.292707
0.302232 0.578741 0.293934
0.331956 0.580809 0.295225
0.362785 0.582955 0.296564
0.394513 0.585163 0.297941
0.427003 0.587423 0.299352
0.460155 0.589730 0.300792
0.493894 0.592078 0.302257
0.528164 0.594463 0.303745
0.562915 0.596881 0.305254
0.598109 0.599330 0.306782
0.633714 0.601808 0.308328
0.669701 0.604312 0.309891
0.706046 0.606842 0.311469
0.742729 0.609394 0.313062
0.779730 0.611969 0.314669
0.803996 0.613658 0.315722
0.283963 0.620071 0.297908
0.312234 0.622038 0.299135
0.341958 0.624107 0.300426
0.372787 0.626252 0.301765
0.404515 0.628460 0.303142
0.437005 0.630721 0.304553
0.470157 0.633028 0.305993
0.503896 0.635376 0.307458
0.538166 0.637760 0.308946
0.572917 0.640179 0.310455
0.608111 0.642628 0.311983
0.643716 0.645105 0.313529
0.679703 0.647610 0.315092
0.716048 0.650139 0.316670
0.752731 0.652692 0.318263
0.789732 0.655266 0.319870
0.813998 0.656955 0.320923
0.294072 0.663833 0.303165
0.322343 0.665800 0.304392
0.352067 0.667869 0.305683
0.382896 0.670014 0.307022
0.414625 0.672222 0.308399
0.447114 0.674483 0.309810
0.480266 0.676790 0.311250
0.514006 0.679138 0.312715
0.548275 0.681523 0.314203
0.583026 0.683941 0.315712
0.618221 0.686390 0.317240
0.653825 0.688868 0.318786
0.689812 0.691372 0.320349
0.726158 0.693901 0.321927
0.762840 0.696454 0.323520
0.799841 0.699029 0.325126
0.824108 0.700717 0.326180
0.304282 0.708031 0.308474
0.332553 0.709998 0.309701
0.362277 0.712067 0.310992
0.393107 0.714212 0.312331
0.424835 0.716420 0.313708
0.457324 0.718681 0.315119
0.490476 0.720988 0.316559
0.524216 0.723336 0.318024
0.558485 0.725721 0.319512
0.593236 0.728139 0.321021
0.628431 0.730588 0.322549
0.664035 0.733066 0.324095
0.700022 0.735570 0.325658
0.736368 0.738099 0.327236
0.773050 0.740652 0.328829
0.810051 0.743227 0.330436
0.834318 0.744915 0.331489
0.314587 0.752639 0.313832
0.342858 0.754606 0.315060
0.372582 0.756675 0.316351
0.403411 0.758820 0.317689
0.435139 0.761028 0.319067
0.467629 0.763289 0.320478
0.500781 0.765596 0.321917
0.534521 0.767944 0.323382
0.568790 0.770328 0.324870
0.603541 0.772747 0.326379
0.638735 0.775196 0.327908
0.674340 0.777673 0.329454
0.710327 0.780178 0.331016
0.746672 0.782707 0.332595
0.783355 0.785260 0.334188
0.820356 0.787834 0.335794
0.844622 0.789523 0.336848
0.324981 0.797634 0.319237
0.353252 0.799602 0.320465
0.382976 0.801670 0.321756
0.413806 0.803815 0.323094
0.445534 0.806023 0.324472
0.478023 0.808284 0.325883
0.511175 0.810591 0.327322
0.544915 0.812939 0.328787
0.579184 0.815324 0.330275
0.613935 0.817742 0.331784
0.649130 0.820191 0.333313
0.684734 0.822669 0.334859
0.720721 0.825173 0.336421
0.757067 0.827702 0.338000
0.793749 0.830255 0.339593
0.830750 0.832830 0.341199
0.855017 0.834518 0.342253
0.331798 0.827144 0.322782
0.360069 0.829111 0.324010
0.389793 0.831180 0.325300
0.420622 0.833325 0.326639
0.452351 0.835533 0.328017
0.484840 0.837794 0.329428
0.517992 0.840101 0.330867
0.551732 0.842449 0.332332
0.586001 0.844833 0.333820
0.620752 0.847252 0.335329
0.655947 0.849701 0.336858
0.691551 0.852178 0.338404
0.727538 0.854683 0.339966
0.763884 0.857212 0.341544
0.800566 0.859764 0.343137
0.837567 0.862339 0.344744
0.861834 0.864028 0.345798
0.183773 0.183317 0.281384
0.212044 0.185284 0.282612
0.241768 0.187353 0.283903
0.272597 0.189498 0.285241
0.304325 0.191706 0.286619
0.336815 0.193967 0.288030
0.369967 0.196274 0.289470
0.403707 0.198622 0.290935
0.437976 0.201006 0.292423
0.472727 0.203425 0.293932
0.507921 0.205874 0.295460
0.543526 0.208351 0.297006
0.579513 0.210856 0.298569
0.615858 0.213385 0.300147
0.652541 0.215938 0.301740
0.689542 0.218512 0.303346
0.713808 0.220201 0.304400
0.191715 0.217696 0.285514
0.219986 0.219663 0.286742
0.249710 0.221732 0.288033
0.280539 0.223877 0.289371
