Fotico/Resources/LUTs/oceano.cube
# Oceano
LUT_3D_SIZE 9
0.000000 0.060000 0.106963
0.110236 0.056811 0.102711
0.220473 0.053622 0.098459
0.330709 0.050433 0.094207
0.440945 0.047244 0.089955
0.551181 0.044055 0.085703
0.661417 0.040866 0.081451
0.771654 0.037677 0.077199
0.881890 0.034488 0.072947
0.013410 0.174272 0.092659
0.123646 0.171083 0.088407
0.233882 0.167894 0.084155
0.344119 0.164705 0.079903
0.454355 0.161516 0.075651
0.564591 0.158327 0.071399
0.674828 0.155138 0.067147
0.785064 0.151949 0.062895
0.895300 0.148760 0.058643
0.026820 0.288544 0.078355
0.137056 0.285355 0.074103
0.247292 0.282166 0.069851
0.357529 0.278977 0.065599
0.467765 0.275788 0.061347
0.578001 0.272599 0.057095
0.688238 0.269410 0.052843
0.798474 0.266221 0.048591
0.908710 0.263032 0.044339
0.040230 0.402816 0.064051
0.150466 0.399627 0.059799
0.260703 0.396438 0.055547
0.370939 0.393249 0.051295
0.481175 0.390060 0.047043
0.591411 0.386871 0.042791
0.701647 0.383682 0.038539
0.811884 0.380493 0.034287
0.922120 0.377304 0.030035
0.053640 0.517088 0.049747
0.163876 0.513899 0.045495
0.274112 0.510710 0.041243
0.384349 0.507521 0.036991
0.494585 0.504332 0.032739
0.604821 0.501143 0.028487
0.714188 0.500000 0.028668
0.823069 0.500000 0.031325
0.931950 0.500000 0.033983
0.067050 0.631360 0.035443
0.177286 0.628171 0.031191
0.287515 0.625000 0.026978
0.396396 0.625000 0.029635
0.505277 0.625000 0.032293
0.614158 0.625000 0.034950
0.723039 0.625000 0.037608
0.831919 0.625000 0.040265
0.940800 0.625000 0.042923
0.078604 0.750000 0.030603
0.187485 0.750000 0.033260
0.296365 0.750000 0.035918
0.405246 0.750000 0.038575
0.514127 0.750000 0.041233
0.623008 0.750000 0.043890
0.731889 0.750000 0.046548
0.840770 0.750000 0.049205
0.949651 0.750000 0.051863
0.087454 0.875000 0.039543
0.196335 0.875000 0.042200
0.305216 0.875000 0.044858
0.414097 0.875000 0.047515
0.522978 0.875000 0.050173
0.631859 0.875000 0.052830
0.740740 0.875000 0.055488
0.849621 0.875000 0.058145
0.958502 0.875000 0.060803
0.096305 1.000000 0.048483
0.205186 1.000000 0.051140
0.314067 1.000000 0.053798
0.422948 1.000000 0.056455
0.531829 1.000000 0.059113
0.640709 1.000000 0.061770
0.749590 1.000000 0.064428
0.858471 1.000000 0.067085
0.967352 1.000000 0.069743
0.001354 0.058917 0.235026
0.111590 0.055728 0.230774
0.221826 0.052539 0.226522
0.332062 0.049350 0.222270
0.442299 0.046161 0.218018
0.552535 0.042972 0.213766
0.662771 0.039783 0.209514
0.773007 0.036594 0.205262
0.883244 0.033405 0.201010
0.014764 0.173189 0.220722
0.125000 0.170000 0.216470
0.235236 0.166811 0.212218
0.345473 0.163622 0.207966
0.455709 0.160433 0.203714
0.565945 0.157244 0.199462
0.676181 0.154055 0.195210
0.786417 0.150866 0.190958
0.896654 0.147677 0.186706
0.028174 0.287461 0.206418
0.138410 0.284272 0.202166
0.248646 0.281083 0.197914
0.358882 0.277894 0.193662
0.469119 0.274705 0.189410
0.579355 0.271516 0.185158
0.689591 0.268327 0.180906
0.799828 0.265138 0.176654
0.910064 0.261949 0.172402
0.041584 0.401733 0.192114
0.151820 0.398544 0.187862
0.262056 0.395355 0.183610
0.372293 0.392166 0.179358
0.482529 0.388977 0.175106
0.592765 0.385788 0.170854
0.703001 0.382599 0.166602
0.813238 0.379410 0.162350
0.923474 0.376221 0.158098
0.054994 0.516005 0.177810
0.165230 0.512816 0.173558
0.275466 0.509627 0.169306
0.385703 0.506438 0.165054
0.495939 0.503249 0.160802
0.606175 0.500060 0.156550
0.715081 0.500000 0.159078
0.823962 0.500000 0.161735
0.932843 0.500000 0.164393
0.068404 0.630277 0.163506
0.178640 0.627088 0.159254
0.288408 0.625000 0.157388
0.397289 0.625000 0.160045
0.506170 0.625000 0.162703
0.615051 0.625000 0.165360
0.723932 0.625000 0.168018
0.832813 0.625000 0.170675
0.941694 0.625000 0.173333
0.079497 0.750000 0.161013
0.188378 0.750000 0.163670
0.297259 0.750000 0.166328
0.406140 0.750000 0.168985
0.515021 0.750000 0.171643
0.623902 0.750000 0.174300
0.732783 0.750000 0.176958
0.841664 0.750000 0.179615
0.950544 0.750000 0.182273
0.088348 0.875000 0.169953
0.197229 0.875000 0.172610
0.306110 0.875000 0.175268
0.414990 0.875000 0.177925
0.523871 0.875000 0.180583
0.632752 0.875000 0.183240
0.741633 0.875000 0.185898
0.850514 0.875000 0.188555
0.959395 0.875000 0.191213
0.097198 1.000000 0.178893
0.206079 1.000000 0.181550
0.314960 1.000000 0.184208
0.423841 1.000000 0.186865
0.532722 1.000000 0.189523
0.641603 1.000000 0.192180
0.750484 1.000000 0.194838
0.859365 1.000000 0.197495
0.968246 1.000000 0.200153
0.002707 0.057834 0.373824
0.112944 0.054645 0.369572
0.223180 0.051456 0.365320
0.333416 0.048267 0.361068
0.443653 0.045078 0.356816
0.553889 0.041889 0.352564
0.664125 0.038700 0.348312
0.774361 0.035511 0.344060
0.884598 0.032322 0.339808
0.016117 0.172106 0.359520
0.126354 0.168917 0.355268
0.236590 0.165728 0.351016
0.346826 0.162539 0.346764
0.457062 0.159350 0.342512
0.567299 0.156161 0.338260
0.677535 0.152972 0.334008
0.787771 0.149783 0.329756
0.898007 0.146594 0.325504
0.029527 0.286378 0.345216
0.139764 0.283189 0.340964
0.250000 0.280000 0.336712
0.360236 0.276811 0.332460
0.470473 0.273622 0.328208
0.580709 0.270433 0.323956
0.690945 0.267244 0.319704
0.801181 0.264055 0.315452
0.911417 0.260866 0.311200
0.042937 0.400650 0.330912
0.153174 0.397461 0.326660
0.263410 0.394272 0.322408
0.373646 0.391083 0.318156
0.483882 0.387894 0.313904
0.594119 0.384705 0.309652
0.704355 0.381516 0.305400
0.814591 0.378327 0.301148
0.924828 0.375138 0.296896
0.056347 0.514922 0.316608
0.166584 0.511733 0.312356
0.276820 0.508544 0.308104
0.387056 0.505355 0.303852
0.497293 0.502166 0.299600
0.607094 0.500000 0.297564
0.715975 0.500000 0.300222
0.824856 0.500000 0.302879
0.933737 0.500000 0.305537
0.069757 0.629194 0.302304
0.179994 0.626005 0.298052
0.289302 0.625000 0.298532
0.398183 0.625000 0.301189
0.507064 0.625000 0.303847
0.615945 0.625000 0.306504
0.724826 0.625000 0.309162
0.833706 0.625000 0.311819
0.942587 0.625000 0.314477
0.080391 0.750000 0.302157
0.189271 0.750000 0.304814
0.298152 0.750000 0.307472
0.407033 0.750000 0.310129
0.515914 0.750000 0.312787
0.624795 0.750000 0.315444
0.733676 0.750000 0.318102
0.842557 0.750000 0.320759
0.951438 0.750000 0.323417
0.089241 0.875000 0.311097
0.198122 0.875000 0.313754
0.307003 0.875000 0.316412
0.415884 0.875000 0.319069
0.524765 0.875000 0.321727
0.633646 0.875000 0.324384
0.742527 0.875000 0.327042
0.851408 0.875000 0.329699
0.960289 0.875000 0.332357
0.098092 1.000000 0.320037
0.206973 1.000000 0.322694
0.315854 1.000000 0.325352
0.424735 1.000000 0.328009
0.533615 1.000000 0.330667
0.642496 1.000000 0.333324
0.751377 1.000000 0.335982
0.860258 1.000000 0.338639
0.969139 1.000000 0.341297
0.004061 0.056751 0.518347
0.114297 0.053562 0.514095
0.224534 0.050373 0.509843
0.334770 0.047184 0.505591
0.445006 0.043995 0.501339
0.555242 0.040806 0.497087
0.665479 0.037617 0.492835
0.775715 0.034428 0.488583
0.885951 0.031239 0.484331
0.017471 0.171023 0.504043
0.127708 0.167834 0.499791
0.237944 0.164645 0.495539
0.348180 0.161456 0.491287
0.458416 0.158267 0.487035
0.568653 0.155078 0.482783
0.678889 0.151889 0.478531
0.789125 0.148700 0.474279
0.899361 0.145511 0.470027
0.030881 0.285295 0.489739
0.141118 0.282106 0.485487
0.251354 0.278917 0.481235
0.361590 0.275728 0.476983
0.471826 0.272539 0.472731
0.582063 0.269350 0.468479
0.692299 0.266161 0.464227
0.802535 0.262972 0.459975
0.912771 0.259783 0.455723
0.044291 0.399567 0.475435
0.154528 0.396378 0.471183
0.264764 0.393189 0.466931
0.375000 0.390000 0.462679
0.485236 0.386811 0.458427
0.595472 0.383622 0.454175
0.705709 0.380433 0.449923
0.815945 0.377244 0.445671
0.925780 0.375000 0.443467
0.057701 0.513839 0.461131
0.167937 0.510650 0.456879
0.278174 0.507461 0.452627
0.388410 0.504272 0.448375
0.498646 0.501083 0.444123
0.607987 0.500000 0.444434
0.716868 0.500000 0.447092
0.825749 0.500000 0.449749
0.934630 0.500000 0.452407
0.071111 0.628111 0.446827
0.181314 0.625000 0.442744
0.290195 0.625000 0.445402
0.399076 0.625000 0.448059
0.507957 0.625000 0.450717
0.616838 0.625000 0.453374
0.725719 0.625000 0.456032
0.834600 0.625000 0.458689
0.943481 0.625000 0.461347
0.081284 0.750000 0.449027
0.190165 0.750000 0.451684
0.299046 0.750000 0.454342
0.407927 0.750000 0.456999
0.516808 0.750000 0.459657
0.625689 0.750000 0.462314
0.734570 0.750000 0.464972
0.843450 0.750000 0.467629
0.952331 0.750000 0.470287
0.090135 0.875000 0.457967
0.199016 0.875000 0.460624
0.307896 0.875000 0.463282
0.416777 0.875000 0.465939
0.525658 0.875000 0.468597
0.634539 0.875000 0.471254
0.743420 0.875000 0.473912
0.852301 0.875000 0.476569
0.961182 0.875000 0.479227
0.098985 1.000000 0.466907
0.207866 1.000000 0.469564
0.316747 1.000000 0.472222
0.425628 1.000000 0.474879
0.534509 1.000000 0.477537
0.643390 1.000000 0.480194
0.752271 1.000000 0.482852
0.861152 1.000000 0.485509
0.970033 1.000000 0.488167
0.005415 0.055668 0.666895
0.115651 0.052479 0.662643
0.225887 0.049290 0.658391
0.336124 0.046101 0.654139
0.446360 0.042912 0.649887
0.556596 0.039723 0.645635
0.666833 0.036534 0.641383
0.777069 0.033345 0.637131
0.887305 0.030156 0.632879
0.018825 0.169940 0.652591
0.129061 0.166751 0.648339
0.239297 0.163562 0.644087
0.349534 0.160373 0.639835
0.459770 0.157184 0.635583
0.570006 0.153995 0.631331
0.680242 0.150806 0.627079
0.790479 0.147617 0.622827
0.900715 0.144428 0.618575
0.032235 0.284212 0.638287
0.142471 0.281023 0.634035
0.252707 0.277834 0.629783
0.362944 0.274645 0.625531
0.473180 0.271456 0.621279
0.583416 0.268267 0.617027
0.693653 0.265078 0.612775
0.803889 0.261889 0.608523
0.914125 0.258700 0.604271
0.045645 0.398484 0.623983
0.155881 0.395295 0.619731
0.266118 0.392106 0.615479
0.376354 0.388917 0.611227
0.486590 0.385728 0.606975
0.596826 0.382539 0.602723
0.707063 0.379350 0.598471
0.817299 0.376161 0.594219
0.926673 0.375000 0.594361
0.059055 0.512756 0.609679
0.169291 0.509567 0.605427
0.279527 0.506378 0.601175
0.389764 0.503189 0.596923
0.500000 0.500000 0.592671
0.608881 0.500000 0.595328
0.717762 0.500000 0.597986
0.826643 0.500000 0.600643
0.935524 0.500000 0.603301
0.072465 0.627028 0.595375
0.182208 0.625000 0.593638
0.291089 0.625000 0.596296
0.399970 0.625000 0.598953
0.508851 0.625000 0.601611
0.617732 0.625000 0.604268
0.726612 0.625000 0.606926
0.835493 0.625000 0.609583
0.944374 0.625000 0.612241
0.082177 0.750000 0.599921
0.191058 0.750000 0.602578
0.299939 0.750000 0.605236
0.408820 0.750000 0.607893
0.517701 0.750000 0.610551
0.626582 0.750000 0.613208
0.735463 0.750000 0.615866
0.844344 0.750000 0.618523
0.953225 0.750000 0.621181
0.091028 0.875000 0.608861
0.199909 0.875000 0.611518
0.308790 0.875000 0.614176
0.417671 0.875000 0.616833
0.526552 0.875000 0.619491
0.635433 0.875000 0.622148
0.744314 0.875000 0.624806
0.853195 0.875000 0.627463
0.962075 0.875000 0.630121
0.099879 1.000000 0.617801
0.208760 1.000000 0.620458
0.317641 1.000000 0.623116
0.426521 1.000000 0.625773
0.535402 1.000000 0.628431
0.644283 1.000000 0.631088
0.753164 1.000000 0.633746
0.862045 1.000000 0.636403
0.970926 1.000000 0.639061
0.006769 0.054585 0.818573
0.117005 0.051396 0.814321
0.227241 0.048207 0.810069
0.337477 0.045018 0.805817
0.447714 0.041829 0.801565
0.557950 0.038640 0.797313
0.668186 0.035451 0.793061
0.778423 0.032262 0.788809
0.888659 0.029073 0.784557
0.020179 0.168857 0.804269
0.130415 0.165668 0.800017
0.240651 0.162479 0.795765
0.350888 0.159290 0.791513
0.461124 0.156101 0.787261
0.571360 0.152912 0.783009
0.681596 0.149723 0.778757
0.791833 0.146534 0.774505
0.902069 0.143345 0.770253
0.033589 0.283129 0.789965
0.143825 0.279940 0.785713
0.254061 0.276751 0.781461
0.364297 0.273562 0.777209
0.474534 0.270373 0.772957
0.584770 0.267184 0.768705
0.695006 0.263995 0.764453
0.805242 0.260806 0.760201
0.915479 0.257617 0.755949
0.046999 0.397401 0.775661
0.157235 0.394212 0.771409
0.267471 0.391023 0.767157
0.377707 0.387834 0.762905
0.487944 0.384645 0.758653
0.598180 0.381456 0.754401
0.708416 0.378267 0.750149
0.818653 0.375078 0.745897
0.927567 0.375000 0.748386
0.060409 0.511673 0.761357
0.170645 0.508484 0.757105
0.280881 0.505295 0.752853
0.391118 0.502106 0.748601
0.500893 0.500000 0.746696
0.609774 0.500000 0.749353
0.718655 0.500000 0.752011
0.827536 0.500000 0.754668
0.936417 0.500000 0.757326
0.073819 0.625945 0.747053
0.183101 0.625000 0.747663
0.291982 0.625000 0.750321
0.400863 0.625000 0.752978
0.509744 0.625000 0.755636
0.618625 0.625000 0.758293
0.727506 0.625000 0.760951
0.836387 0.625000 0.763608
0.945268 0.625000 0.766266
0.083071 0.750000 0.753946
0.191952 0.750000 0.756603
0.300833 0.750000 0.759261
0.409714 0.750000 0.761918
0.518595 0.750000 0.764576
0.627476 0.750000 0.767233
0.736357 0.750000 0.769891
0.845237 0.750000 0.772548
0.954118 0.750000 0.775206
0.091922 0.875000 0.762886
0.200802 0.875000 0.765543
0.309683 0.875000 0.768201
0.418564 0.875000 0.770858
0.527445 0.875000 0.773516
0.636326 0.875000 0.776173
0.745207 0.875000 0.778831
0.854088 0.875000 0.781488
0.962969 0.875000 0.784146
0.100772 1.000000 0.771826
0.209653 1.000000 0.774483
0.318534 1.000000 0.777141
0.427415 1.000000 0.779798
0.536296 1.000000 0.782456
0.645177 1.000000 0.785113
0.754058 1.000000 0.787771
0.862939 1.000000 0.790428
0.971820 1.000000 0.793086
0.008122 0.053502 0.972826
0.118359 0.050313 0.968574
0.228595 0.047124 0.964322
0.338831 0.043935 0.960070
0.449068 0.040746 0.955818
0.559304 0.037557 0.951566
0.669540 0.034368 0.947314
0.779776 0.031179 0.943062
0.890012 0.027990 0.938810
0.021532 0.167774 0.958522
0.131769 0.164585 0.954270
0.242005 0.161396 0.950018
0.352241 0.158207 0.945766
0.462477 0.155018 0.941514
0.572714 0.151829 0.937262
0.682950 0.148640 0.933010
0.793186 0.145451 0.928758
0.903423 0.142262 0.924506
0.034942 0.282046 0.944218
0.145179 0.278857 0.939966
0.255415 0.275668 0.935714
0.365651 0.272479 0.931462
0.475888 0.269290 0.927210
0.586124 0.266101 0.922958
0.696360 0.262912 0.918706
0.806596 0.259723 0.914454
0.916833 0.256534 0.910202
0.048352 0.396318 0.929914
0.158589 0.393129 0.925662
0.268825 0.389940 0.921410
0.379061 0.386751 0.917158
0.489297 0.383562 0.912906
0.599534 0.380373 0.908654
0.709770 0.377184 0.904402
0.819579 0.375000 0.902327
0.928460 0.375000 0.904985
0.061762 0.510590 0.915610
0.171999 0.507401 0.911358
0.282235 0.504212 0.907106
0.392471 0.501023 0.902854
0.501787 0.500000 0.903295
0.610668 0.500000 0.905952
0.719549 0.500000 0.908610
0.828430 0.500000 0.911267
0.937311 0.500000 0.913925
0.075114 0.625000 0.901605
0.183995 0.625000 0.904262
0.292876 0.625000 0.906920
0.401757 0.625000 0.909577
0.510638 0.625000 0.912235
0.619518 0.625000 0.914892
0.728399 0.625000 0.917550
0.837280 0.625000 0.920207
0.946161 0.625000 0.922865
0.083964 0.750000 0.910545
0.192845 0.750000 0.913202
0.301726 0.750000 0.915860
0.410607 0.750000 0.918517
0.519488 0.750000 0.921175
0.628369 0.750000 0.923832
0.737250 0.750000 0.926490
0.846131 0.750000 0.929147
0.955012 0.750000 0.931805
0.092815 0.875000 0.919485
0.201696 0.875000 0.922142
0.310577 0.875000 0.924800
0.419458 0.875000 0.927457
0.528339 0.875000 0.930115
0.637220 0.875000 0.932772
0.746101 0.875000 0.935430
0.854982 0.875000 0.938087
0.963862 0.875000 0.940745
0.101666 1.000000 0.928425
0.210547 1.000000 0.931082
0.319427 1.000000 0.933740
0.428308 1.000000 0.936397
0.537189 1.000000 0.939055
0.646070 1.000000 0.941712
0.754951 1.000000 0.944370
0.863832 1.000000 0.947027
0.972713 1.000000 0.949685
0.009476 0.052419 1.000000
0.119712 0.049230 1.000000
0.229949 0.046041 1.000000
0.340185 0.042852 1.000000
0.450421 0.039663 1.000000
0.560658 0.036474 1.000000
0.670894 0.033285 1.000000
0.781130 0.030096 1.000000
0.891366 0.026907 1.000000
0.022886 0.166691 1.000000
0.133123 0.163502 1.000000
0.243359 0.160313 1.000000
0.353595 0.157124 1.000000
0.463831 0.153935 1.000000
0.574067 0.150746 1.000000
0.684304 0.147557 1.000000
0.794540 0.144368 1.000000
0.904776 0.141179 1.000000
0.036296 0.280963 1.000000
0.146532 0.277774 1.000000
0.256769 0.274585 1.000000
0.367005 0.271396 1.000000
0.477241 0.268207 1.000000
0.587477 0.265018 1.000000
0.697714 0.261829 1.000000
0.807950 0.258640 1.000000
0.918186 0.255451 1.000000
0.049706 0.395235 1.000000
0.159942 0.392046 1.000000
0.270179 0.388857 1.000000
0.380415 0.385668 1.000000
0.490651 0.382479 1.000000
0.600888 0.379290 1.000000
0.711124 0.376101 1.000000
0.820473 0.375000 1.000000
0.929354 0.375000 1.000000
0.063116 0.509507 1.000000
0.173352 0.506318 1.000000
0.283589 0.503129 1.000000
0.393800 0.500000 1.000000
0.502680 0.500000 1.000000
0.611561 0.500000 1.000000
0.720442 0.500000 1.000000
0.829323 0.500000 1.000000
0.938204 0.500000 1.000000
0.076007 0.625000 1.000000
0.184888 0.625000 1.000000
0.293769 0.625000 1.000000
0.402650 0.625000 1.000000
0.511531 0.625000 1.000000
0.620412 0.625000 1.000000
0.729293 0.625000 1.000000
0.838174 0.625000 1.000000
0.947055 0.625000 1.000000
0.084858 0.750000 1.000000
0.193739 0.750000 1.000000
0.302620 0.750000 1.000000
0.411501 0.750000 1.000000
0.520382 0.750000 1.000000
0.629263 0.750000 1.000000
0.738143 0.750000 1.000000
0.847024 0.750000 1.000000
0.955905 0.750000 1.000000
0.093709 0.875000 1.000000
0.202589 0.875000 1.000000
0.311470 0.875000 1.000000
0.420351 0.875000 1.000000
0.529232 0.875000 1.000000
0.638113 0.875000 1.000000
0.746994 0.875000 1.000000
0.855875 0.875000 1.000000
0.964756 0.875000 1.000000
0.102559 1.000000 1.000000
0.211440 1.000000 1.000000
0.320321 1.000000 1.000000
0.429202 1.000000 1.000000
0.538083 1.000000 1.000000
0.646964 1.000000 1.000000
0.755845 1.000000 1.000000
0.864726 1.000000 1.000000
0.973607 1.000000 1.000000
0.010830 0.051336 1.000000
0.121066 0.048147 1.000000
0.231302 0.044958 1.000000
0.341539 0.041769 1.000000
0.451775 0.038580 1.000000
0.562011 0.035391 1.000000
0.672247 0.032202 1.000000
0.782484 0.029013 1.000000
0.892720 0.025824 1.000000
0.024240 0.165608 1.000000
0.134476 0.162419 1.000000
0.244712 0.159230 1.000000
0.354949 0.156041 1.000000
0.465185 0.152852 1.000000
0.575421 0.149663 1.000000
0.685658 0.146474 1.000000
0.795894 0.143285 1.000000
0.906130 0.140096 1.000000
0.037650 0.279880 1.000000
0.147886 0.276691 1.000000
0.258122 0.273502 1.000000
0.368359 0.270313 1.000000
0.478595 0.267124 1.000000
0.588831 0.263935 1.000000
0.699067 0.260746 1.000000
0.809304 0.257557 1.000000
0.919540 0.254368 1.000000
0.051060 0.394152 1.000000
0.161296 0.390963 1.000000
0.271533 0.387774 1.000000
0.381769 0.384585 1.000000
0.492005 0.381396 1.000000
0.602241 0.378207 1.000000
0.712477 0.375018 1.000000
0.821366 0.375000 1.000000
0.930247 0.375000 1.000000
0.064470 0.508424 1.000000
0.174706 0.505235 1.000000
0.284942 0.502046 1.000000
0.394693 0.500000 1.000000
0.503574 0.500000 1.000000
0.612455 0.500000 1.000000
0.721336 0.500000 1.000000
0.830217 0.500000 1.000000
0.939098 0.500000 1.000000
0.076901 0.625000 1.000000
0.185782 0.625000 1.000000
0.294663 0.625000 1.000000
0.403544 0.625000 1.000000
0.512425 0.625000 1.000000
0.621305 0.625000 1.000000
0.730186 0.625000 1.000000
0.839067 0.625000 1.000000
0.947948 0.625000 1.000000
0.085751 0.750000 1.000000
0.194632 0.750000 1.000000
0.303513 0.750000 1.000000
0.412394 0.750000 1.000000
0.521275 0.750000 1.000000
0.630156 0.750000 1.000000
0.739037 0.750000 1.000000
0.847918 0.750000 1.000000
0.956799 0.750000 1.000000
0.094602 0.875000 1.000000
0.203483 0.875000 1.000000
0.312364 0.875000 1.000000
0.421245 0.875000 1.000000
0.530126 0.875000 1.000000
0.639007 0.875000 1.000000
0.747888 0.875000 1.000000
0.856768 0.875000 1.000000
0.965649 0.875000 1.000000
0.103453 1.000000 1.000000
0.212334 1.000000 1.000000
0.321214 1.000000 1.000000
0.430095 1.000000 1.000000
0.538976 1.000000 1.000000
0.647857 1.000000 1.000000
0.756738 1.000000 1.000000
0.865619 1.000000 1.000000
0.974500 1.000000 1.000000
