Fotico/Resources/LUTs/oceano.cube
# Oceano
LUT_3D_SIZE 17
0.000000 0.060000 0.106963
0.055118 0.058405 0.104837
0.110236 0.056811 0.102711
0.165354 0.055216 0.100585
0.220473 0.053622 0.098459
0.275591 0.052027 0.096333
0.330709 0.050433 0.094207
0.385827 0.048838 0.092081
0.440945 0.047244 0.089955
0.496063 0.045649 0.087829
0.551181 0.044055 0.085703
0.606299 0.042460 0.083577
0.661417 0.040866 0.081451
0.716536 0.039272 0.079325
0.771654 0.037677 0.077199
0.826772 0.036082 0.075073
0.881890 0.034488 0.072947
0.006705 0.117136 0.099811
0.061823 0.115541 0.097685
0.116941 0.113947 0.095559
0.172059 0.112352 0.093433
0.227178 0.110758 0.091307
0.282296 0.109163 0.089181
0.337414 0.107569 0.087055
0.392532 0.105974 0.084929
0.447650 0.104380 0.082803
0.502768 0.102786 0.080677
0.557886 0.101191 0.078551
0.613004 0.099597 0.076425
0.668122 0.098002 0.074299
0.723241 0.096408 0.072173
0.778359 0.094813 0.070047
0.833477 0.093219 0.067921
0.888595 0.091624 0.065795
0.013410 0.174272 0.092659
0.068528 0.172677 0.090533
0.123646 0.171083 0.088407
0.178764 0.169488 0.086281
0.233882 0.167894 0.084155
0.289001 0.166299 0.082029
0.344119 0.164705 0.079903
0.399237 0.163110 0.077777
0.454355 0.161516 0.075651
0.509473 0.159921 0.073525
0.564591 0.158327 0.071399
0.619709 0.156732 0.069273
0.674828 0.155138 0.067147
0.729946 0.153543 0.065021
0.785064 0.151949 0.062895
0.840182 0.150355 0.060769
0.895300 0.148760 0.058643
0.020115 0.231408 0.085507
0.075233 0.229814 0.083381
0.130351 0.228219 0.081255
0.185469 0.226625 0.079129
0.240588 0.225030 0.077003
0.295706 0.223436 0.074877
0.350824 0.221841 0.072751
0.405942 0.220247 0.070625
0.461060 0.218652 0.068499
0.516178 0.217057 0.066373
0.571296 0.215463 0.064247
0.626414 0.213869 0.062121
0.681532 0.212274 0.059995
0.736651 0.210679 0.057869
0.791769 0.209085 0.055743
0.846887 0.207490 0.053617
0.902005 0.205896 0.051491
0.026820 0.288544 0.078355
0.081938 0.286950 0.076229
0.137056 0.285355 0.074103
0.192174 0.283760 0.071977
0.247292 0.282166 0.069851
0.302411 0.280571 0.067725
0.357529 0.278977 0.065599
0.412647 0.277382 0.063473
0.467765 0.275788 0.061347
0.522883 0.274193 0.059221
0.578001 0.272599 0.057095
0.633119 0.271004 0.054969
0.688238 0.269410 0.052843
0.743356 0.267815 0.050717
0.798474 0.266221 0.048591
0.853592 0.264626 0.046465
0.908710 0.263032 0.044339
0.033525 0.345680 0.071203
0.088643 0.344085 0.069077
0.143761 0.342491 0.066951
0.198879 0.340896 0.064825
0.253997 0.339302 0.062699
0.309116 0.337707 0.060573
0.364234 0.336113 0.058447
0.419352 0.334518 0.056321
0.474470 0.332924 0.054195
0.529588 0.331329 0.052069
0.584706 0.329735 0.049943
0.639824 0.328141 0.047817
0.694943 0.326546 0.045691
0.750061 0.324952 0.043565
0.805179 0.323357 0.041439
0.860297 0.321763 0.039313
0.915415 0.320168 0.037187
0.040230 0.402816 0.064051
0.095348 0.401222 0.061925
0.150466 0.399627 0.059799
0.205584 0.398033 0.057673
0.260703 0.396438 0.055547
0.315821 0.394844 0.053421
0.370939 0.393249 0.051295
0.426057 0.391655 0.049169
0.481175 0.390060 0.047043
0.536293 0.388466 0.044917
0.591411 0.386871 0.042791
0.646529 0.385277 0.040665
0.701647 0.383682 0.038539
0.756766 0.382088 0.036413
0.811884 0.380493 0.034287
0.867002 0.378899 0.032161
0.922120 0.377304 0.030035
0.046935 0.459952 0.056899
0.102053 0.458358 0.054773
0.157171 0.456763 0.052647
0.212289 0.455168 0.050521
0.267408 0.453574 0.048395
0.322526 0.451979 0.046269
0.377644 0.450385 0.044143
0.432762 0.448790 0.042017
0.487880 0.447196 0.039891
0.542998 0.445601 0.037765
0.598116 0.444007 0.035639
0.653234 0.442412 0.033513
0.708352 0.440818 0.031387
0.763471 0.439223 0.029261
0.818589 0.437629 0.027135
0.873084 0.437500 0.028184
0.927524 0.437500 0.029513
0.053640 0.517088 0.049747
0.108758 0.515494 0.047621
0.163876 0.513899 0.045495
0.218994 0.512305 0.043369
0.274112 0.510710 0.041243
0.329231 0.509116 0.039117
0.384349 0.507521 0.036991
0.439467 0.505927 0.034865
0.494585 0.504332 0.032739
0.549703 0.502737 0.030613
0.604821 0.501143 0.028487
0.659747 0.500000 0.027339
0.714188 0.500000 0.028668
0.768628 0.500000 0.029996
0.823069 0.500000 0.031325
0.877509 0.500000 0.032654
0.931950 0.500000 0.033983
0.060345 0.574224 0.042595
0.115463 0.572630 0.040469
0.170581 0.571035 0.038343
0.225699 0.569441 0.036217
0.280817 0.567846 0.034091
0.335936 0.566252 0.031965
0.391054 0.564657 0.029839
0.446172 0.563063 0.027713
0.500851 0.562500 0.027823
0.555292 0.562500 0.029151
0.609732 0.562500 0.030480
0.664173 0.562500 0.031809
0.718613 0.562500 0.033138
0.773054 0.562500 0.034466
0.827494 0.562500 0.035795
0.881935 0.562500 0.037124
0.936375 0.562500 0.038453
0.067050 0.631360 0.035443
0.122168 0.629765 0.033317
0.177286 0.628171 0.031191
0.232404 0.626576 0.029065
0.287515 0.625000 0.026978
0.341955 0.625000 0.028306
0.396396 0.625000 0.029635
0.450836 0.625000 0.030964
0.505277 0.625000 0.032293
0.559717 0.625000 0.033621
0.614158 0.625000 0.034950
0.668598 0.625000 0.036279
0.723039 0.625000 0.037608
0.777479 0.625000 0.038936
0.831919 0.625000 0.040265
0.886360 0.625000 0.041594
0.940800 0.625000 0.042923
0.073755 0.688496 0.028291
0.128619 0.687500 0.027461
0.183059 0.687500 0.028790
0.237500 0.687500 0.030119
0.291940 0.687500 0.031448
0.346381 0.687500 0.032776
0.400821 0.687500 0.034105
0.455262 0.687500 0.035434
0.509702 0.687500 0.036763
0.564142 0.687500 0.038091
0.618583 0.687500 0.039420
0.673023 0.687500 0.040749
0.727464 0.687500 0.042078
0.781904 0.687500 0.043406
0.836345 0.687500 0.044735
0.890785 0.687500 0.046064
0.945226 0.687500 0.047393
0.078604 0.750000 0.030603
0.133044 0.750000 0.031931
0.187485 0.750000 0.033260
0.241925 0.750000 0.034589
0.296365 0.750000 0.035918
0.350806 0.750000 0.037246
0.405246 0.750000 0.038575
0.459687 0.750000 0.039904
0.514127 0.750000 0.041233
0.568568 0.750000 0.042561
0.623008 0.750000 0.043890
0.677449 0.750000 0.045219
0.731889 0.750000 0.046548
0.786330 0.750000 0.047876
0.840770 0.750000 0.049205
0.895211 0.750000 0.050534
0.949651 0.750000 0.051863
0.083029 0.812500 0.035073
0.137469 0.812500 0.036401
0.191910 0.812500 0.037730
0.246350 0.812500 0.039059
0.300791 0.812500 0.040388
0.355231 0.812500 0.041716
0.409672 0.812500 0.043045
0.464112 0.812500 0.044374
0.518553 0.812500 0.045703
0.572993 0.812500 0.047031
0.627434 0.812500 0.048360
0.681874 0.812500 0.049689
0.736314 0.812500 0.051018
0.790755 0.812500 0.052346
0.845195 0.812500 0.053675
0.899636 0.812500 0.055004
0.954076 0.812500 0.056333
0.087454 0.875000 0.039543
0.141895 0.875000 0.040871
0.196335 0.875000 0.042200
0.250776 0.875000 0.043529
0.305216 0.875000 0.044858
0.359657 0.875000 0.046186
0.414097 0.875000 0.047515
0.468537 0.875000 0.048844
0.522978 0.875000 0.050173
0.577418 0.875000 0.051501
0.631859 0.875000 0.052830
0.686299 0.875000 0.054159
0.740740 0.875000 0.055488
0.795180 0.875000 0.056816
0.849621 0.875000 0.058145
0.904061 0.875000 0.059474
0.958502 0.875000 0.060803
0.091879 0.937500 0.044013
0.146320 0.937500 0.045341
0.200760 0.937500 0.046670
0.255201 0.937500 0.047999
0.309641 0.937500 0.049328
0.364082 0.937500 0.050656
0.418522 0.937500 0.051985
0.472963 0.937500 0.053314
0.527403 0.937500 0.054643
0.581844 0.937500 0.055971
0.636284 0.937500 0.057300
0.690725 0.937500 0.058629
0.745165 0.937500 0.059958
0.799606 0.937500 0.061286
0.854046 0.937500 0.062615
0.908486 0.937500 0.063944
0.962927 0.937500 0.065273
0.096305 1.000000 0.048483
0.150745 1.000000 0.049811
0.205186 1.000000 0.051140
0.259626 1.000000 0.052469
0.314067 1.000000 0.053798
0.368507 1.000000 0.055126
0.422948 1.000000 0.056455
0.477388 1.000000 0.057784
0.531829 1.000000 0.059113
0.586269 1.000000 0.060441
0.640709 1.000000 0.061770
0.695150 1.000000 0.063099
0.749590 1.000000 0.064428
0.804031 1.000000 0.065756
0.858471 1.000000 0.067085
0.912912 1.000000 0.068414
0.967352 1.000000 0.069743
0.000677 0.059458 0.168947
0.055795 0.057864 0.166821
0.110913 0.056270 0.164695
0.166031 0.054675 0.162569
0.221149 0.053080 0.160443
0.276267 0.051486 0.158317
0.331386 0.049891 0.156191
0.386504 0.048297 0.154065
0.441622 0.046703 0.151939
0.496740 0.045108 0.149813
0.551858 0.043513 0.147687
0.606976 0.041919 0.145561
0.662094 0.040324 0.143435
0.717213 0.038730 0.141309
0.772331 0.037135 0.139183
0.827449 0.035541 0.137057
0.882567 0.033946 0.134931
0.007382 0.116594 0.161795
0.062500 0.115000 0.159669
0.117618 0.113405 0.157543
0.172736 0.111811 0.155417
0.227854 0.110216 0.153291
0.282973 0.108622 0.151165
0.338091 0.107027 0.149039
0.393209 0.105433 0.146913
0.448327 0.103839 0.144787
0.503445 0.102244 0.142661
0.558563 0.100650 0.140535
0.613681 0.099055 0.138409
0.668799 0.097461 0.136283
0.723917 0.095866 0.134157
0.779036 0.094272 0.132031
0.834154 0.092677 0.129905
0.889272 0.091082 0.127779
0.014087 0.173731 0.154643
0.069205 0.172136 0.152517
0.124323 0.170542 0.150391
0.179441 0.168947 0.148265
0.234559 0.167353 0.146139
0.289678 0.165758 0.144013
0.344796 0.164163 0.141887
0.399914 0.162569 0.139761
0.455032 0.160974 0.137635
0.510150 0.159380 0.135509
0.565268 0.157785 0.133383
0.620386 0.156191 0.131257
0.675504 0.154596 0.129131
0.730622 0.153002 0.127005
0.785741 0.151408 0.124879
0.840859 0.149813 0.122753
0.895977 0.148219 0.120627
0.020792 0.230867 0.147491
0.075910 0.229272 0.145365
0.131028 0.227677 0.143239
0.186146 0.226083 0.141113
0.241264 0.224489 0.138987
0.296382 0.222894 0.136861
0.351501 0.221300 0.134735
0.406619 0.219705 0.132609
0.461737 0.218111 0.130483
0.516855 0.216516 0.128357
0.571973 0.214921 0.126231
0.627091 0.213327 0.124105
0.682209 0.211732 0.121979
0.737328 0.210138 0.119853
0.792446 0.208543 0.117727
0.847564 0.206949 0.115601
0.902682 0.205354 0.113475
0.027497 0.288002 0.140339
0.082615 0.286408 0.138213
0.137733 0.284813 0.136087
0.192851 0.283219 0.133961
0.247969 0.281624 0.131835
0.303088 0.280030 0.129709
0.358206 0.278436 0.127583
0.413324 0.276841 0.125457
0.468442 0.275247 0.123331
0.523560 0.273652 0.121205
0.578678 0.272058 0.119079
0.633796 0.270463 0.116953
0.688914 0.268869 0.114827
0.744032 0.267274 0.112701
0.799151 0.265680 0.110575
0.854269 0.264085 0.108449
0.909387 0.262491 0.106323
0.034202 0.345139 0.133187
0.089320 0.343544 0.131061
0.144438 0.341950 0.128935
0.199556 0.340355 0.126809
0.254674 0.338761 0.124683
0.309792 0.337166 0.122557
0.364911 0.335572 0.120431
0.420029 0.333977 0.118305
0.475147 0.332383 0.116179
0.530265 0.330788 0.114053
0.585383 0.329194 0.111927
0.640501 0.327599 0.109801
0.695619 0.326004 0.107675
0.750738 0.324410 0.105549
0.805856 0.322816 0.103423
0.860974 0.321221 0.101297
0.916092 0.319626 0.099171
0.040907 0.402274 0.126035
0.096025 0.400680 0.123909
0.151143 0.399085 0.121783
0.206261 0.397491 0.119657
0.261379 0.395896 0.117531
0.316497 0.394302 0.115405
0.371616 0.392707 0.113279
0.426734 0.391113 0.111153
0.481852 0.389518 0.109027
0.536970 0.387924 0.106901
0.592088 0.386329 0.104775
0.647206 0.384735 0.102649
0.702324 0.383140 0.100523
0.757443 0.381546 0.098397
0.812561 0.379951 0.096271
0.867679 0.378357 0.094145
0.922797 0.376763 0.092019
0.047612 0.459410 0.118883
0.102730 0.457816 0.116757
0.157848 0.456222 0.114631
0.212966 0.454627 0.112505
0.268084 0.453033 0.110379
0.323203 0.451438 0.108253
0.378321 0.449844 0.106127
0.433439 0.448249 0.104001
0.488557 0.446655 0.101875
0.543675 0.445060 0.099749
0.598793 0.443466 0.097623
0.653911 0.441871 0.095497
0.709029 0.440277 0.093371
0.764147 0.438682 0.091245
0.819090 0.437500 0.090012
0.873531 0.437500 0.091341
0.927971 0.437500 0.092670
0.054317 0.516547 0.111731
0.109435 0.514952 0.109605
0.164553 0.513358 0.107479
0.219671 0.511763 0.105353
0.274789 0.510169 0.103227
0.329907 0.508574 0.101101
0.385026 0.506980 0.098975
0.440144 0.505385 0.096849
0.495262 0.503791 0.094723
0.550380 0.502196 0.092597
0.605498 0.500602 0.090471
0.660194 0.500000 0.090496
0.714635 0.500000 0.091825
0.769075 0.500000 0.093154
0.823516 0.500000 0.094482
0.877956 0.500000 0.095811
0.932397 0.500000 0.097140
0.061022 0.573682 0.104579
0.116140 0.572088 0.102453
0.171258 0.570493 0.100327
0.226376 0.568899 0.098201
0.281494 0.567304 0.096075
0.336612 0.565710 0.093949
0.391731 0.564115 0.091823
0.446849 0.562521 0.089697
0.501298 0.562500 0.090980
0.555739 0.562500 0.092309
0.610179 0.562500 0.093637
0.664620 0.562500 0.094966
0.719060 0.562500 0.096295
0.773500 0.562500 0.097624
0.827941 0.562500 0.098952
0.882381 0.562500 0.100281
0.936822 0.562500 0.101610
0.067727 0.630819 0.097427
0.122845 0.629224 0.095301
0.177963 0.627630 0.093175
0.233081 0.626035 0.091049
0.287962 0.625000 0.090135
0.342402 0.625000 0.091464
0.396843 0.625000 0.092792
0.451283 0.625000 0.094121
0.505723 0.625000 0.095450
0.560164 0.625000 0.096779
0.614604 0.625000 0.098107
0.669045 0.625000 0.099436
0.723485 0.625000 0.100765
0.777926 0.625000 0.102094
0.832366 0.625000 0.103422
0.886807 0.625000 0.104751
0.941247 0.625000 0.106080
0.074432 0.687955 0.090275
0.129065 0.687500 0.090619
0.183506 0.687500 0.091947
0.237946 0.687500 0.093276
0.292387 0.687500 0.094605
0.346827 0.687500 0.095934
0.401268 0.687500 0.097262
0.455708 0.687500 0.098591
0.510149 0.687500 0.099920
0.564589 0.687500 0.101249
0.619030 0.687500 0.102577
0.673470 0.687500 0.103906
0.727911 0.687500 0.105235
0.782351 0.687500 0.106564
0.836792 0.687500 0.107892
0.891232 0.687500 0.109221
0.945672 0.687500 0.110550
0.079050 0.750000 0.093760
0.133491 0.750000 0.095089
0.187931 0.750000 0.096417
0.242372 0.750000 0.097746
0.296812 0.750000 0.099075
0.351253 0.750000 0.100404
0.405693 0.750000 0.101732
0.460134 0.750000 0.103061
0.514574 0.750000 0.104390
0.569014 0.750000 0.105719
0.623455 0.750000 0.107047
0.677895 0.750000 0.108376
0.732336 0.750000 0.109705
0.786776 0.750000 0.111034
0.841217 0.750000 0.112362
0.895657 0.750000 0.113691
0.950098 0.750000 0.115020
0.083476 0.812500 0.098230
0.137916 0.812500 0.099559
0.192357 0.812500 0.100887
0.246797 0.812500 0.102216
0.301237 0.812500 0.103545
0.355678 0.812500 0.104874
0.410118 0.812500 0.106202
0.464559 0.812500 0.107531
0.518999 0.812500 0.108860
0.573440 0.812500 0.110189
0.627880 0.812500 0.111517
0.682321 0.812500 0.112846
0.736761 0.812500 0.114175
0.791202 0.812500 0.115504
0.845642 0.812500 0.116832
0.900083 0.812500 0.118161
0.954523 0.812500 0.119490
0.087901 0.875000 0.102700
0.142341 0.875000 0.104029
0.196782 0.875000 0.105357
0.251222 0.875000 0.106686
0.305663 0.875000 0.108015
0.360103 0.875000 0.109344
0.414544 0.875000 0.110672
0.468984 0.875000 0.112001
0.523425 0.875000 0.113330
0.577865 0.875000 0.114659
0.632306 0.875000 0.115987
0.686746 0.875000 0.117316
0.741186 0.875000 0.118645
0.795627 0.875000 0.119974
0.850067 0.875000 0.121302
0.904508 0.875000 0.122631
0.958948 0.875000 0.123960
0.092326 0.937500 0.107170
0.146767 0.937500 0.108499
0.201207 0.937500 0.109827
0.255648 0.937500 0.111156
0.310088 0.937500 0.112485
0.364529 0.937500 0.113814
0.418969 0.937500 0.115142
0.473409 0.937500 0.116471
0.527850 0.937500 0.117800
0.582290 0.937500 0.119129
0.636731 0.937500 0.120457
0.691171 0.937500 0.121786
0.745612 0.937500 0.123115
0.800052 0.937500 0.124444
0.854493 0.937500 0.125772
0.908933 0.937500 0.127101
0.963374 0.937500 0.128430
0.096752 1.000000 0.111640
0.151192 1.000000 0.112969
0.205632 1.000000 0.114297
0.260073 1.000000 0.115626
0.314513 1.000000 0.116955
0.368954 1.000000 0.118284
0.423394 1.000000 0.119612
0.477835 1.000000 0.120941
0.532275 1.000000 0.122270
0.586716 1.000000 0.123599
0.641156 1.000000 0.124927
0.695597 1.000000 0.126256
0.750037 1.000000 0.127585
0.804478 1.000000 0.128914
0.858918 1.000000 0.130242
0.913358 1.000000 0.131571
0.967799 1.000000 0.132900
0.001354 0.058917 0.235026
0.056472 0.057322 0.232900
0.111590 0.055728 0.230774
0.166708 0.054134 0.228648
0.221826 0.052539 0.226522
0.276944 0.050944 0.224396
0.332062 0.049350 0.222270
0.387181 0.047755 0.220144
0.442299 0.046161 0.218018
0.497417 0.044566 0.215892
0.552535 0.042972 0.213766
0.607653 0.041377 0.211640
0.662771 0.039783 0.209514
0.717889 0.038188 0.207388
0.773007 0.036594 0.205262
0.828126 0.034999 0.203136
0.883244 0.033405 0.201010
0.008059 0.116053 0.227874
0.063177 0.114458 0.225748
0.118295 0.112864 0.223622
0.173413 0.111269 0.221496
0.228531 0.109675 0.219370
0.283649 0.108080 0.217244
0.338767 0.106486 0.215118
0.393886 0.104891 0.212992
0.449004 0.103297 0.210866
0.504122 0.101703 0.208740
0.559240 0.100108 0.206614
0.614358 0.098514 0.204488
0.669476 0.096919 0.202362
0.724594 0.095325 0.200236
0.779713 0.093730 0.198110
0.834831 0.092136 0.195984
0.889949 0.090541 0.193858
0.014764 0.173189 0.220722
0.069882 0.171594 0.218596
0.125000 0.170000 0.216470
0.180118 0.168405 0.214344
0.235236 0.166811 0.212218
0.290354 0.165216 0.210092
0.345473 0.163622 0.207966
0.400591 0.162027 0.205840
0.455709 0.160433 0.203714
0.510827 0.158838 0.201588
0.565945 0.157244 0.199462
0.621063 0.155649 0.197336
0.676181 0.154055 0.195210
0.731299 0.152460 0.193084
0.786417 0.150866 0.190958
0.841536 0.149272 0.188832
0.896654 0.147677 0.186706
0.021469 0.230325 0.213570
0.076587 0.228731 0.211444
0.131705 0.227136 0.209318
0.186823 0.225542 0.207192
0.241941 0.223947 0.205066
0.297059 0.222353 0.202940
0.352177 0.220758 0.200814
0.407296 0.219164 0.198688
0.462414 0.217569 0.196562
0.517532 0.215974 0.194436
0.572650 0.214380 0.192310
0.627768 0.212786 0.190184
0.682886 0.211191 0.188058
0.738004 0.209596 0.185932
0.793122 0.208002 0.183806
0.848241 0.206407 0.181680
0.903359 0.204813 0.179554
0.028174 0.287461 0.206418
0.083292 0.285867 0.204292
0.138410 0.284272 0.202166
0.193528 0.282678 0.200040
0.248646 0.281083 0.197914
0.303764 0.279488 0.195788
0.358882 0.277894 0.193662
0.414001 0.276299 0.191536
0.469119 0.274705 0.189410
0.524237 0.273110 0.187284
0.579355 0.271516 0.185158
0.634473 0.269921 0.183032
0.689591 0.268327 0.180906
0.744709 0.266732 0.178780
0.799828 0.265138 0.176654
0.854946 0.263543 0.174528
0.910064 0.261949 0.172402
0.034879 0.344597 0.199266
0.089997 0.343002 0.197140
0.145115 0.341408 0.195014
0.200233 0.339813 0.192888
0.255351 0.338219 0.190762
0.310469 0.336624 0.188636
0.365588 0.335030 0.186510
0.420706 0.333435 0.184384
0.475824 0.331841 0.182258
0.530942 0.330246 0.180132
0.586060 0.328652 0.178006
0.641178 0.327058 0.175880
0.696296 0.325463 0.173754
0.751414 0.323869 0.171628
0.806532 0.322274 0.169502
0.861651 0.320680 0.167376
0.916769 0.319085 0.165250
0.041584 0.401733 0.192114
0.096702 0.400139 0.189988
0.151820 0.398544 0.187862
0.206938 0.396950 0.185736
0.262056 0.395355 0.183610
0.317174 0.393761 0.181484
0.372293 0.392166 0.179358
0.427411 0.390572 0.177232
0.482529 0.388977 0.175106
0.537647 0.387383 0.172980
0.592765 0.385788 0.170854
0.647883 0.384194 0.168728
0.703001 0.382599 0.166602
0.758119 0.381005 0.164476
0.813238 0.379410 0.162350
0.868356 0.377816 0.160224
0.923474 0.376221 0.158098
0.048289 0.458869 0.184962
0.103407 0.457275 0.182836
0.158525 0.455680 0.180710
0.213643 0.454086 0.178584
0.268761 0.452491 0.176458
0.323879 0.450896 0.174332
0.378997 0.449302 0.172206
0.434116 0.447707 0.170080
0.489234 0.446113 0.167954
0.544352 0.444518 0.165828
0.599470 0.442924 0.163702
0.654588 0.441329 0.161576
0.709706 0.439735 0.159450
0.764824 0.438140 0.157324
0.819537 0.437500 0.157265
0.873978 0.437500 0.158594
0.928418 0.437500 0.159923
0.054994 0.516005 0.177810
0.110112 0.514410 0.175684
0.165230 0.512816 0.173558
0.220348 0.511221 0.171432
0.275466 0.509627 0.169306
0.330584 0.508032 0.167180
0.385703 0.506438 0.165054
0.440821 0.504844 0.162928
0.495939 0.503249 0.160802
0.551057 0.501655 0.158676
0.606175 0.500060 0.156550
0.660641 0.500000 0.157749
0.715081 0.500000 0.159078
0.769522 0.500000 0.160406
0.823962 0.500000 0.161735
0.878403 0.500000 0.163064
0.932843 0.500000 0.164393
0.061699 0.573141 0.170658
0.116817 0.571546 0.168532
0.171935 0.569952 0.166406
0.227053 0.568357 0.164280
0.282171 0.566763 0.162154
0.337289 0.565168 0.160028
0.392408 0.563574 0.157902
0.447304 0.562500 0.156904
0.501745 0.562500 0.158233
0.556185 0.562500 0.159561
0.610626 0.562500 0.160890
0.665066 0.562500 0.162219
0.719507 0.562500 0.163548
0.773947 0.562500 0.164876
0.828388 0.562500 0.166205
0.882828 0.562500 0.167534
0.937269 0.562500 0.168863
0.068404 0.630277 0.163506
0.123522 0.628683 0.161380
0.178640 0.627088 0.159254
0.233758 0.625494 0.157128
0.288408 0.625000 0.157388
0.342849 0.625000 0.158716
0.397289 0.625000 0.160045
0.451730 0.625000 0.161374
0.506170 0.625000 0.162703
0.560611 0.625000 0.164031
0.615051 0.625000 0.165360
0.669492 0.625000 0.166689
0.723932 0.625000 0.168018
0.778372 0.625000 0.169346
0.832813 0.625000 0.170675
0.887253 0.625000 0.172004
0.941694 0.625000 0.173333
0.075072 0.687500 0.156543
0.129512 0.687500 0.157871
0.183953 0.687500 0.159200
0.238393 0.687500 0.160529
0.292834 0.687500 0.161858
0.347274 0.687500 0.163186
0.401715 0.687500 0.164515
0.456155 0.687500 0.165844
0.510595 0.687500 0.167173
0.565036 0.687500 0.168501
0.619476 0.687500 0.169830
0.673917 0.687500 0.171159
0.728357 0.687500 0.172488
0.782798 0.687500 0.173816
0.837238 0.687500 0.175145
0.891679 0.687500 0.176474
0.946119 0.687500 0.177803
0.079497 0.750000 0.161013
0.133938 0.750000 0.162341
0.188378 0.750000 0.163670
0.242818 0.750000 0.164999
0.297259 0.750000 0.166328
0.351699 0.750000 0.167656
0.406140 0.750000 0.168985
0.460580 0.750000 0.170314
0.515021 0.750000 0.171643
0.569461 0.750000 0.172971
0.623902 0.750000 0.174300
0.678342 0.750000 0.175629
0.732783 0.750000 0.176958
0.787223 0.750000 0.178286
0.841664 0.750000 0.179615
0.896104 0.750000 0.180944
0.950544 0.750000 0.182273
0.083922 0.812500 0.165483
0.138363 0.812500 0.166811
0.192803 0.812500 0.168140
0.247244 0.812500 0.169469
0.301684 0.812500 0.170798
0.356125 0.812500 0.172126
0.410565 0.812500 0.173455
0.465006 0.812500 0.174784
0.519446 0.812500 0.176113
0.573887 0.812500 0.177441
0.628327 0.812500 0.178770
0.682767 0.812500 0.180099
0.737208 0.812500 0.181428
0.791648 0.812500 0.182756
0.846089 0.812500 0.184085
0.900529 0.812500 0.185414
0.954970 0.812500 0.186743
0.088348 0.875000 0.169953
0.142788 0.875000 0.171281
0.197229 0.875000 0.172610
0.251669 0.875000 0.173939
0.306110 0.875000 0.175268
0.360550 0.875000 0.176596
0.414990 0.875000 0.177925
0.469431 0.875000 0.179254
0.523871 0.875000 0.180583
0.578312 0.875000 0.181911
0.632752 0.875000 0.183240
0.687193 0.875000 0.184569
0.741633 0.875000 0.185898
0.796074 0.875000 0.187226
0.850514 0.875000 0.188555
0.904955 0.875000 0.189884
0.959395 0.875000 0.191213
0.092773 0.937500 0.174423
0.147213 0.937500 0.175751
0.201654 0.937500 0.177080
0.256094 0.937500 0.178409
0.310535 0.937500 0.179738
0.364975 0.937500 0.181066
0.419416 0.937500 0.182395
0.473856 0.937500 0.183724
0.528297 0.937500 0.185053
0.582737 0.937500 0.186381
0.637178 0.937500 0.187710
0.691618 0.937500 0.189039
0.746059 0.937500 0.190368
0.800499 0.937500 0.191696
0.854939 0.937500 0.193025
0.909380 0.937500 0.194354
0.963820 0.937500 0.195683
0.097198 1.000000 0.178893
0.151639 1.000000 0.180221
0.206079 1.000000 0.181550
0.260520 1.000000 0.182879
0.314960 1.000000 0.184208
0.369401 1.000000 0.185536
0.423841 1.000000 0.186865
0.478282 1.000000 0.188194
0.532722 1.000000 0.189523
0.587162 1.000000 0.190851
0.641603 1.000000 0.192180
0.696043 1.000000 0.193509
0.750484 1.000000 0.194838
0.804924 1.000000 0.196166
0.859365 1.000000 0.197495
0.913805 1.000000 0.198824
0.968246 1.000000 0.200153
0.002031 0.058375 0.303541
0.057149 0.056781 0.301415
0.112267 0.055186 0.299289
0.167385 0.053592 0.297163
0.222503 0.051997 0.295037
0.277621 0.050403 0.292911
0.332739 0.048808 0.290785
0.387858 0.047214 0.288659
0.442976 0.045619 0.286533
0.498094 0.044025 0.284407
0.553212 0.042430 0.282281
0.608330 0.040836 0.280155
0.663448 0.039241 0.278029
0.718566 0.037647 0.275903
0.773684 0.036053 0.273777
0.828802 0.034458 0.271651
0.883921 0.032863 0.269525
0.008736 0.115511 0.296389
0.063854 0.113917 0.294263
0.118972 0.112322 0.292137
0.174090 0.110728 0.290011
