Fotico/Resources/LUTs/oceano.cube
# Oceano
LUT_3D_SIZE 5
0.000000 0.060000 0.106963
0.220473 0.053622 0.098459
0.440945 0.047244 0.089955
0.661417 0.040866 0.081451
0.881890 0.034488 0.072947
0.026820 0.288544 0.078355
0.247292 0.282166 0.069851
0.467765 0.275788 0.061347
0.688238 0.269410 0.052843
0.908710 0.263032 0.044339
0.053640 0.517088 0.049747
0.274112 0.510710 0.041243
0.494585 0.504332 0.032739
0.714188 0.500000 0.028668
0.931950 0.500000 0.033983
0.078604 0.750000 0.030603
0.296365 0.750000 0.035918
0.514127 0.750000 0.041233
0.731889 0.750000 0.046548
0.949651 0.750000 0.051863
0.096305 1.000000 0.048483
0.314067 1.000000 0.053798
0.531829 1.000000 0.059113
0.749590 1.000000 0.064428
0.967352 1.000000 0.069743
0.002707 0.057834 0.373824
0.223180 0.051456 0.365320
0.443653 0.045078 0.356816
0.664125 0.038700 0.348312
0.884598 0.032322 0.339808
0.029527 0.286378 0.345216
0.250000 0.280000 0.336712
0.470473 0.273622 0.328208
0.690945 0.267244 0.319704
0.911417 0.260866 0.311200
0.056347 0.514922 0.316608
0.276820 0.508544 0.308104
0.497293 0.502166 0.299600
0.715975 0.500000 0.300222
0.933737 0.500000 0.305537
0.080391 0.750000 0.302157
0.298152 0.750000 0.307472
0.515914 0.750000 0.312787
0.733676 0.750000 0.318102
0.951438 0.750000 0.323417
0.098092 1.000000 0.320037
0.315854 1.000000 0.325352
0.533615 1.000000 0.330667
0.751377 1.000000 0.335982
0.969139 1.000000 0.341297
0.005415 0.055668 0.666895
0.225887 0.049290 0.658391
0.446360 0.042912 0.649887
0.666833 0.036534 0.641383
0.887305 0.030156 0.632879
0.032235 0.284212 0.638287
0.252707 0.277834 0.629783
0.473180 0.271456 0.621279
0.693653 0.265078 0.612775
0.914125 0.258700 0.604271
0.059055 0.512756 0.609679
0.279527 0.506378 0.601175
0.500000 0.500000 0.592671
0.717762 0.500000 0.597986
0.935524 0.500000 0.603301
0.082177 0.750000 0.599921
0.299939 0.750000 0.605236
0.517701 0.750000 0.610551
0.735463 0.750000 0.615866
0.953225 0.750000 0.621181
0.099879 1.000000 0.617801
0.317641 1.000000 0.623116
0.535402 1.000000 0.628431
0.753164 1.000000 0.633746
0.970926 1.000000 0.639061
0.008122 0.053502 0.972826
0.228595 0.047124 0.964322
0.449068 0.040746 0.955818
0.669540 0.034368 0.947314
0.890012 0.027990 0.938810
0.034942 0.282046 0.944218
0.255415 0.275668 0.935714
0.475888 0.269290 0.927210
0.696360 0.262912 0.918706
0.916833 0.256534 0.910202
0.061762 0.510590 0.915610
0.282235 0.504212 0.907106
0.501787 0.500000 0.903295
0.719549 0.500000 0.908610
0.937311 0.500000 0.913925
0.083964 0.750000 0.910545
0.301726 0.750000 0.915860
0.519488 0.750000 0.921175
0.737250 0.750000 0.926490
0.955012 0.750000 0.931805
0.101666 1.000000 0.928425
0.319427 1.000000 0.933740
0.537189 1.000000 0.939055
0.754951 1.000000 0.944370
0.972713 1.000000 0.949685
0.010830 0.051336 1.000000
0.231302 0.044958 1.000000
0.451775 0.038580 1.000000
0.672247 0.032202 1.000000
0.892720 0.025824 1.000000
0.037650 0.279880 1.000000
0.258122 0.273502 1.000000
0.478595 0.267124 1.000000
0.699067 0.260746 1.000000
0.919540 0.254368 1.000000
0.064470 0.508424 1.000000
0.284942 0.502046 1.000000
0.503574 0.500000 1.000000
0.721336 0.500000 1.000000
0.939098 0.500000 1.000000
0.085751 0.750000 1.000000
0.303513 0.750000 1.000000
0.521275 0.750000 1.000000
0.739037 0.750000 1.000000
0.956799 0.750000 1.000000
0.103453 1.000000 1.000000
0.321214 1.000000 1.000000
0.538976 1.000000 1.000000
0.756738 1.000000 1.000000
0.974500 1.000000 1.000000
