Fotico/Resources/LUTs/peach.cube
TITLE "Peach"
LUT_3D_SIZE 33
0.107989 0.072986 0.081767
0.125200 0.072801 0.081669
0.142941 0.071446 0.080899
0.161537 0.070044 0.079752
0.182663 0.068472 0.078298
0.208063 0.066610 0.076471
0.238711 0.064400 0.074227
0.273215 0.061958 0.071699
0.309701 0.059425 0.069046
0.346224 0.056940 0.066422
0.381104 0.054609 0.063951
0.415918 0.052325 0.061520
0.450970 0.050065 0.059109
0.485919 0.047851 0.056742
0.520418 0.045703 0.054442
0.554114 0.043640 0.052229
0.586652 0.041681 0.050125
0.617717 0.039839 0.048144
0.647491 0.038100 0.046273
0.676365 0.036438 0.044482
0.704739 0.034827 0.042745
0.733018 0.033245 0.041037
0.761615 0.031666 0.039332
0.791089 0.030063 0.037598
0.821727 0.028421 0.035821
0.852355 0.026805 0.034070
0.881677 0.025281 0.032418
0.908381 0.023912 0.030933
0.931335 0.022750 0.029671
0.951054 0.021763 0.028598
0.965743 0.021016 0.027774
0.965752 0.020919 0.027602
0.965762 0.020825 0.027429
0.108030 0.086827 0.080813
0.127081 0.085115 0.078777
0.144840 0.083761 0.077365
0.163459 0.082382 0.075903
0.184615 0.080844 0.074264
0.210052 0.079025 0.072322
0.240750 0.076870 0.070016
0.275313 0.074491 0.067468
0.311864 0.072025 0.064825
0.348453 0.069606 0.062229
0.383398 0.067339 0.059795
0.418278 0.065117 0.057408
0.453398 0.062921 0.055045
0.488416 0.060770 0.052730
0.522982 0.058684 0.050483
0.556745 0.056681 0.048325
0.589348 0.054780 0.046273
0.620475 0.052993 0.044344
0.650309 0.051307 0.042523
0.679242 0.049696 0.040781
0.707673 0.048136 0.039092
0.736010 0.046603 0.037432
0.764665 0.045076 0.035777
0.794200 0.043525 0.034094
0.824901 0.041937 0.032370
0.855592 0.040375 0.030673
0.884975 0.038902 0.029071
0.911734 0.037580 0.027632
0.934736 0.036459 0.026411
0.954495 0.035507 0.025372
0.969816 0.034765 0.024553
0.969832 0.034700 0.024413
0.969849 0.034641 0.024274
0.108206 0.099212 0.081313
0.124856 0.100272 0.080328
0.143817 0.099995 0.077780
0.163698 0.098336 0.075128
0.186289 0.095976 0.072137
0.213095 0.093127 0.068922
0.243830 0.090775 0.066667
0.278436 0.088277 0.064176
0.315036 0.085746 0.061591
0.351677 0.083296 0.059053
0.386673 0.081020 0.056674
0.421604 0.078803 0.054341
0.456777 0.076619 0.052033
0.491847 0.074487 0.049772
0.526467 0.072425 0.047578
0.560283 0.070449 0.045470
0.592937 0.068576 0.043467
0.624114 0.066818 0.041585
0.653996 0.065162 0.039808
0.682975 0.063581 0.038108
0.711452 0.062050 0.036462
0.739835 0.060548 0.034843
0.768537 0.059053 0.033229
0.798120 0.057535 0.031590
0.828871 0.055983 0.029910
0.859613 0.054456 0.028257
0.889045 0.053019 0.026697
0.915848 0.051729 0.025296
0.938888 0.050636 0.024107
0.958680 0.049708 0.023097
0.974496 0.048968 0.022283
0.974513 0.048929 0.022168
0.974531 0.048897 0.022056
0.109426 0.111755 0.082167
0.124837 0.114202 0.079893
0.141181 0.114340 0.079957
0.160805 0.114815 0.077606
0.183419 0.113815 0.074652
0.210615 0.111675 0.071128
0.243440 0.108516 0.066913
0.280401 0.104624 0.062216
0.318442 0.101020 0.058330
0.355137 0.098405 0.055852
0.390186 0.096025 0.053530
0.425171 0.093737 0.051253
0.460399 0.091507 0.049001
0.495526 0.089347 0.046795
0.530202 0.087270 0.044654
0.564073 0.085289 0.042599
0.596781 0.083419 0.040647
0.628010 0.081669 0.038813
0.657941 0.080023 0.037081
0.686969 0.078456 0.035426
0.715495 0.076942 0.033822
0.743925 0.075459 0.032247
0.772676 0.073984 0.030676
0.802309 0.072489 0.029080
0.833113 0.070962 0.027446
0.863908 0.069463 0.025838
0.893390 0.068053 0.024322
0.920240 0.066789 0.022961
0.943320 0.065719 0.021806
0.963146 0.064811 0.020824
0.979372 0.064074 0.020019
0.979390 0.064063 0.019931
0.979409 0.064059 0.019847
0.111018 0.125942 0.083245
0.125084 0.128862 0.080567
0.141387 0.130161 0.079536
0.158551 0.130355 0.079655
0.180323 0.131196 0.077592
0.207553 0.130750 0.074117
0.240423 0.128830 0.069961
0.277438 0.125831 0.065327
0.316590 0.122187 0.060479
0.355785 0.118285 0.055675
0.393222 0.114429 0.051133
0.429304 0.111344 0.047904
0.464595 0.108991 0.045714
0.499785 0.106741 0.043570
0.534524 0.104599 0.041490
0.568458 0.102573 0.039493
0.601227 0.100671 0.037598
0.632514 0.098902 0.035816
0.662502 0.097246 0.034136
0.691584 0.095674 0.032529
0.720164 0.094160 0.030974
0.748649 0.092681 0.029446
0.777455 0.091214 0.027923
0.807145 0.089731 0.026376
0.838008 0.088219 0.024794
0.868863 0.086738 0.023236
0.898402 0.085347 0.021768
0.925303 0.084103 0.020451
0.948428 0.083051 0.019333
0.968293 0.082159 0.018384
0.984854 0.081426 0.017595
0.984873 0.081446 0.017537
0.984894 0.081475 0.017484
0.113098 0.142903 0.084682
0.126339 0.145860 0.082051
0.141733 0.148716 0.079540
0.158985 0.149293 0.079358
0.178531 0.149577 0.079559
0.204094 0.150669 0.077817
0.237019 0.150828 0.073729
0.274099 0.149321 0.069172
0.313322 0.146749 0.064402
0.352592 0.143625 0.059676
0.390103 0.140341 0.055207
0.427545 0.136882 0.050789
0.465248 0.133283 0.046382
0.502841 0.129620 0.042028
0.539821 0.126040 0.037895
0.573829 0.123906 0.035967
0.606671 0.121923 0.034138
0.638028 0.120093 0.032419
0.668083 0.118391 0.030798
0.697231 0.116785 0.029250
0.725875 0.115247 0.027751
0.754425 0.113750 0.026278
0.783296 0.112272 0.024812
0.813054 0.110783 0.023323
0.843988 0.109271 0.021800
0.874913 0.107794 0.020303
0.904520 0.106411 0.018892
0.931484 0.105178 0.017626
0.954662 0.104136 0.016553
0.974573 0.103255 0.015641
0.991361 0.102526 0.014879
0.991383 0.102583 0.014855
0.991405 0.102651 0.014838
0.115806 0.163249 0.086608
0.128548 0.166250 0.084030
0.142778 0.169149 0.081571
0.159728 0.171987 0.079225
0.179314 0.172325 0.079482
0.202883 0.172756 0.079815
0.233211 0.174076 0.078419
0.270370 0.174933 0.073951
0.309680 0.174053 0.069275
0.349040 0.172153 0.064641
0.386638 0.169764 0.060260
0.424170 0.167022 0.055927
0.461963 0.164018 0.051606
0.499647 0.160856 0.047337
0.536849 0.157621 0.043160
0.573186 0.154384 0.039117
0.608275 0.151207 0.035246
0.641777 0.148142 0.031579
0.673887 0.145183 0.028092
0.704180 0.142840 0.025566
0.732901 0.141237 0.024133
0.761528 0.139688 0.022727
0.790478 0.138166 0.021327
0.820317 0.136642 0.019907
0.851335 0.135103 0.018454
0.882344 0.133607 0.017027
0.912032 0.132212 0.015683
0.939069 0.130973 0.014478
0.961528 0.130508 0.014225
0.980610 0.130289 0.014225
0.996699 0.130123 0.014225
0.996741 0.130211 0.014225
0.996792 0.130305 0.014225
0.119106 0.186169 0.089026
0.131544 0.189220 0.086508
0.145044 0.192168 0.084105
0.160829 0.195275 0.081599
0.180472 0.197922 0.079670
0.204102 0.198426 0.080076
0.232642 0.199065 0.080598
0.266512 0.200592 0.079543
0.305921 0.202119 0.074970
0.345382 0.201953 0.070439
0.383079 0.200831 0.066153
0.420711 0.199097 0.061916
0.458606 0.196927 0.057690
0.496394 0.194464 0.053515
0.533698 0.191820 0.049431
0.570136 0.189089 0.045477
0.605323 0.186346 0.041692
0.638919 0.183654 0.038107
0.671118 0.181022 0.034698
0.702346 0.178433 0.031416
0.733032 0.175862 0.028215
0.763616 0.173279 0.025047
0.794543 0.170652 0.021866
0.826420 0.167933 0.018612
0.859554 0.165099 0.015254
0.890332 0.163763 0.014225
0.918815 0.163180 0.014225
0.944775 0.162699 0.014225
0.967106 0.162321 0.014225
0.986299 0.162019 0.014225
1.000000 0.161795 0.014225
1.000000 0.161901 0.014225
1.000000 0.162016 0.014225
0.122890 0.210577 0.091875
0.135143 0.213682 0.089420
0.148177 0.216682 0.087074
0.163169 0.219844 0.084628
0.181843 0.223454 0.081865
0.205706 0.225729 0.080655
0.234330 0.226460 0.081269
0.266583 0.227322 0.081998
0.302298 0.229023 0.081260
0.341868 0.231095 0.076836
0.379670 0.231602 0.072652
0.417409 0.231163 0.068514
0.455413 0.230061 0.064388
0.493310 0.228490 0.060311
0.530722 0.226599 0.056324
0.567267 0.224508 0.052464
0.602558 0.222312 0.048768
0.636253 0.220089 0.045269
0.668548 0.217867 0.041941
0.699868 0.215643 0.038738
0.730646 0.213404 0.035614
0.761321 0.211130 0.032522
0.792341 0.208795 0.029419
0.824313 0.206359 0.026243
0.857547 0.203802 0.022968
0.890770 0.201226 0.019719
0.922576 0.198747 0.016632
0.951149 0.196712 0.014225
0.973616 0.196224 0.014225
0.992927 0.195835 0.014225
1.000000 0.195560 0.014226
1.000000 0.195780 0.014364
1.000000 0.196019 0.014518
0.126991 0.235311 0.095034
0.139134 0.238471 0.092641
0.151867 0.241524 0.090353
0.166336 0.244741 0.087967
0.184160 0.248416 0.085270
0.207530 0.252856 0.082048
0.236346 0.254188 0.082247
0.268700 0.255155 0.083078
0.302942 0.256217 0.083999
0.338687 0.258031 0.083542
0.376597 0.260466 0.079458
0.414444 0.261559 0.075420
0.452558 0.261718 0.071392
0.490565 0.261198 0.067414
0.528087 0.260192 0.063523
0.564740 0.258850 0.059756
0.600135 0.257294 0.056150
0.633930 0.255619 0.052736
0.666322 0.253872 0.049489
0.697735 0.252072 0.046365
0.728605 0.250217 0.043317
0.759372 0.248299 0.040302
0.790485 0.246300 0.037275
0.822553 0.244189 0.034179
0.855887 0.241948 0.030985
0.889211 0.239670 0.027817
0.921112 0.237459 0.024808
0.950165 0.235426 0.022087
0.975138 0.233667 0.019763
0.996591 0.232147 0.017778
1.000000 0.233409 0.020545
1.000000 0.233681 0.020734
1.000000 0.233973 0.020940
0.131216 0.259329 0.098352
0.143296 0.262542 0.096017
0.155832 0.265647 0.093784
0.169950 0.268919 0.091454
0.187197 0.272655 0.088820
0.209621 0.277170 0.085672
0.238584 0.281082 0.083469
0.271038 0.282149 0.084398
0.305386 0.283318 0.085421
0.339792 0.284527 0.086485
0.373961 0.286369 0.086268
0.411914 0.289147 0.082325
0.450135 0.290692 0.078393
0.488249 0.291325 0.074508
0.525878 0.291289 0.070709
0.562635 0.290769 0.067031
0.598131 0.289912 0.063511
0.632023 0.288833 0.060178
0.664508 0.287605 0.057009
0.696011 0.286264 0.053960
0.726970 0.284826 0.050986
0.757826 0.283293 0.048043
0.789029 0.281657 0.045090
0.821189 0.279895 0.042069
0.854619 0.277994 0.038953
0.888039 0.276035 0.035863
0.920034 0.274113 0.032928
0.949170 0.272329 0.030275
0.974216 0.270774 0.028009
0.995731 0.269425 0.026073
1.000000 0.269607 0.026910
1.000000 0.269927 0.027147
1.000000 0.270271 0.027404
0.135698 0.283508 0.101927
0.147743 0.286775 0.099650
0.160141 0.289932 0.097471
0.174007 0.293259 0.095196
0.190829 0.297057 0.092624
0.212552 0.301647 0.089550
0.240927 0.307214 0.085868
0.273658 0.309293 0.085983
0.308115 0.310567 0.087108
0.342630 0.311882 0.088272
0.375612 0.313173 0.089419
0.409699 0.315086 0.089466
0.448028 0.318178 0.085627
0.486250 0.320099 0.081836
0.523986 0.321144 0.078128
0.560848 0.321538 0.074538
0.596446 0.321458 0.071103
0.630435 0.321041 0.067851
0.663012 0.320387 0.064759
0.694606 0.319555 0.061784
0.725654 0.318577 0.058883
0.756599 0.317470 0.056013
0.787891 0.316234 0.053132
0.820144 0.314856 0.050186
0.853671 0.313329 0.047148
0.887188 0.311720 0.044135
0.919274 0.310113 0.041274
0.948495 0.308602 0.038688
0.973613 0.307271 0.036479
0.995190 0.306107 0.034593
1.000000 0.305516 0.033551
1.000000 0.305888 0.033847
1.000000 0.306287 0.034165
0.140476 0.308072 0.105791
0.152506 0.311395 0.103571
0.164807 0.314606 0.101445
0.178484 0.317988 0.099226
0.194985 0.321850 0.096716
0.216167 0.326515 0.093715
0.243671 0.332173 0.090120
0.276584 0.336840 0.087846
0.311152 0.338221 0.089072
0.345779 0.339641 0.090337
0.378868 0.341033 0.091580
0.411909 0.342454 0.092853
0.446214 0.344452 0.093162
0.484547 0.347802 0.089463
0.522391 0.350047 0.085846
0.559359 0.351455 0.082346
0.595060 0.352235 0.078996
0.629147 0.352551 0.075824
0.661819 0.352532 0.072810
0.693505 0.352262 0.069909
0.724642 0.351793 0.067081
0.755677 0.351154 0.064283
0.787060 0.350358 0.061476
0.819407 0.349404 0.058604
0.853031 0.348286 0.055644
0.886644 0.347061 0.052709
0.918824 0.345799 0.049922
0.948130 0.344586 0.047403
0.973320 0.343499 0.045252
0.994960 0.342537 0.043414
1.000000 0.342214 0.042621
1.000000 0.342633 0.042966
1.000000 0.343081 0.043336
0.145520 0.332878 0.109919
0.157550 0.336257 0.107755
0.169785 0.339521 0.105682
0.183322 0.342960 0.103517
0.199575 0.346885 0.101068
0.220338 0.351627 0.098141
0.247156 0.357377 0.094632
0.279639 0.363884 0.090715
0.314477 0.366114 0.091300
0.349218 0.367640 0.092666
0.382416 0.369132 0.094004
0.415566 0.370654 0.095371
0.448956 0.372218 0.096780
0.483147 0.374277 0.097344
0.521101 0.377832 0.093818
0.558176 0.380346 0.090406
0.593981 0.382065 0.087140
0.628167 0.383180 0.084050
0.660934 0.383853 0.081112
0.692711 0.384194 0.078286
0.723939 0.384277 0.075530
0.755064 0.384147 0.072804
0.786539 0.383829 0.070070
0.818979 0.383332 0.067273
0.852701 0.382659 0.064390
0.886412 0.381848 0.061533
0.918686 0.380960 0.058819
0.948076 0.380067 0.056367
0.973340 0.379244 0.054273
0.995043 0.378500 0.052486
1.000000 0.378443 0.051973
1.000000 0.378907 0.052366
1.000000 0.379402 0.052787
0.150794 0.357771 0.114280
0.162836 0.361207 0.112171
0.175027 0.364526 0.110151
0.188461 0.368021 0.108039
0.204525 0.372010 0.105651
0.224958 0.376828 0.102794
0.251231 0.382669 0.099371
0.282910 0.389280 0.095549
0.318065 0.394076 0.093773
0.352921 0.395708 0.095239
0.386229 0.397300 0.096671
0.419488 0.398920 0.098132
0.452989 0.400584 0.099635
0.486401 0.402274 0.101163
0.520118 0.404358 0.101990
0.557301 0.408062 0.098665
0.593209 0.410789 0.095484
0.627494 0.412763 0.092473
0.660356 0.414177 0.089611
0.692226 0.415175 0.086858
0.723544 0.415850 0.084174
0.754759 0.416265 0.081520
0.786325 0.416458 0.078858
0.818859 0.416451 0.076136
0.852679 0.416252 0.073330
0.886487 0.415884 0.070548
0.918854 0.415393 0.067908
0.948329 0.414843 0.065522
0.973703 0.414314 0.063500
0.995837 0.413926 0.061901
1.000000 0.414250 0.061881
1.000000 0.414848 0.062443
1.000000 0.415464 0.063021
0.156257 0.382593 0.118838
0.168319 0.386086 0.116783
0.180485 0.389459 0.114813
0.193844 0.393011 0.112754
0.209762 0.397063 0.110425
0.229937 0.401957 0.107638
0.255774 0.407890 0.104299
0.286803 0.414601 0.100570
0.321838 0.421734 0.096662
0.356855 0.423665 0.098030
0.390272 0.425355 0.099555
0.423641 0.427074 0.101109
0.457252 0.428836 0.102703
0.490774 0.430623 0.104324
0.523874 0.432418 0.105952
0.556727 0.434476 0.107064
0.592738 0.438271 0.103965
0.627122 0.441154 0.101033
0.660078 0.443354 0.098246
0.692040 0.445046 0.095566
0.723448 0.446347 0.092953
0.754752 0.447338 0.090370
0.786408 0.448071 0.087778
0.819036 0.448581 0.085129
0.852952 0.448883 0.082399
0.887303 0.449142 0.079863
0.920263 0.449221 0.077463
0.950233 0.449123 0.075257
0.975959 0.448921 0.073345
0.998032 0.448667 0.071691
0.999645 0.449165 0.072058
0.999631 0.449704 0.072566
0.999617 0.450259 0.073089
0.161859 0.407177 0.123550
0.173950 0.410727 0.121547
0.186105 0.414154 0.119626
0.199411 0.417762 0.117619
0.215219 0.421877 0.115346
0.235188 0.426846 0.112628
0.260676 0.432868 0.109370
0.291177 0.439680 0.105732
0.325500 0.446918 0.101919
0.360981 0.451326 0.101009
0.394507 0.453113 0.102625
0.427985 0.454928 0.104269
0.461704 0.456787 0.105954
0.495336 0.458670 0.107663
0.528542 0.460558 0.109380
0.560984 0.462430 0.111083
0.592556 0.464393 0.112520
0.627037 0.468226 0.109664
0.660086 0.471247 0.106951
0.692138 0.473663 0.104341
0.723635 0.475619 0.101798
0.755068 0.477227 0.099300
0.787342 0.478725 0.096978
0.820554 0.479927 0.094560
0.855018 0.480849 0.092021
0.889413 0.481474 0.089456
0.922285 0.481824 0.086976
0.952174 0.481952 0.084696
0.977830 0.481929 0.082722
0.997571 0.481892 0.081246
0.997558 0.482399 0.081726
0.997545 0.482882 0.082181
0.997531 0.483377 0.082648
0.167509 0.431185 0.128334
0.179634 0.434791 0.126381
0.191788 0.438270 0.124507
0.205058 0.441933 0.122549
0.220784 0.446110 0.120332
0.240594 0.451151 0.117679
0.265803 0.457261 0.114500
0.295876 0.464170 0.110948
0.329616 0.471510 0.107227
0.365222 0.478311 0.104115
0.398855 0.480193 0.105820
0.432439 0.482101 0.107551
0.466266 0.484053 0.109323
0.500003 0.486028 0.111120
0.533314 0.488007 0.112921
0.565857 0.489968 0.114707
0.597289 0.491887 0.116457
0.627302 0.493742 0.118150
0.660544 0.497641 0.115667
0.693205 0.501010 0.113318
0.725249 0.503782 0.110986
0.757136 0.506083 0.108637
0.789329 0.507996 0.106239
0.822455 0.509584 0.103742
0.856831 0.510868 0.101121
0.891136 0.511821 0.098474
0.923922 0.512456 0.095916
0.953732 0.512820 0.093566
0.979321 0.512985 0.091531
0.995558 0.513155 0.090355
0.995545 0.513606 0.090782
0.995533 0.514034 0.091187
0.995521 0.514470 0.091598
0.173190 0.454630 0.133174
0.185353 0.458290 0.131268
0.197515 0.461821 0.129440
0.210764 0.465537 0.127529
0.226428 0.469773 0.125365
0.246113 0.474886 0.122775
0.271097 0.481081 0.119671
0.300820 0.488085 0.116204
0.334079 0.495524 0.112571
0.369242 0.503002 0.108968
0.403298 0.506611 0.109121
0.436986 0.508610 0.110937
0.470916 0.510652 0.112793
0.504757 0.512717 0.114674
0.538170 0.514785 0.116557
0.570907 0.516874 0.118474
0.602976 0.519108 0.120575
0.633535 0.521204 0.122547
0.662770 0.523180 0.124406
0.695070 0.526982 0.122259
0.727036 0.530276 0.119852
0.758844 0.533045 0.117430
0.790957 0.535386 0.114957
0.824001 0.537373 0.112383
0.858290 0.539033 0.109683
0.892508 0.540324 0.106957
0.925211 0.541254 0.104324
0.954944 0.541864 0.101906
0.980467 0.542225 0.099812
0.993616 0.542534 0.098895
0.993604 0.542932 0.099271
0.993594 0.543308 0.099627
0.993583 0.543683 0.099981
0.178981 0.477884 0.138133
0.191186 0.481598 0.136274
0.203362 0.485180 0.134490
0.216600 0.488948 0.132624
0.232219 0.493244 0.130512
0.251805 0.498428 0.127985
0.276604 0.504706 0.124954
0.306033 0.511803 0.121570
0.338885 0.519340 0.118022
0.373542 0.526915 0.114506
0.407889 0.532790 0.112567
0.441681 0.534878 0.114465
0.475715 0.537009 0.116406
0.510060 0.539344 0.118580
0.544109 0.541707 0.120800
0.577297 0.543971 0.122927
0.609280 0.546116 0.124944
0.639757 0.548128 0.126835
0.668912 0.550023 0.128617
0.697134 0.551830 0.130317
0.728514 0.555381 0.128336
0.760245 0.558637 0.125841
0.792279 0.561424 0.123295
0.825241 0.563827 0.120647
0.859444 0.565878 0.117868
0.893577 0.567524 0.115065
0.926196 0.568763 0.112358
0.955854 0.569631 0.109872
0.981311 0.570197 0.107721
0.991713 0.570588 0.107030
0.991703 0.570933 0.107356
0.991693 0.571259 0.107663
0.991683 0.571579 0.107965
0.184973 0.501335 0.143289
0.197224 0.505104 0.141475
0.209421 0.508738 0.139736
0.222656 0.512560 0.137916
0.238244 0.516915 0.135855
0.257750 0.522169 0.133389
0.282394 0.528532 0.130432
0.311574 0.535723 0.127130
0.344074 0.543358 0.123669
0.378288 0.551031 0.120238
0.412584 0.558417 0.117018
0.447238 0.561628 0.118524
0.481886 0.564029 0.120778
0.516360 0.566374 0.122979
0.550318 0.568642 0.125109
0.583418 0.570814 0.127149
0.615314 0.572870 0.129081
0.645707 0.574798 0.130892
0.674781 0.576612 0.132597
0.702925 0.578341 0.134222
0.730531 0.580012 0.135793
0.761371 0.583323 0.134022
0.793325 0.586580 0.131402
0.826205 0.589422 0.128679
0.860322 0.591887 0.125823
0.894368 0.593909 0.122942
0.926904 0.595474 0.120161
0.956486 0.596616 0.117608
0.981877 0.597400 0.115399
0.989817 0.597823 0.114904
0.989808 0.598117 0.115181
0.989799 0.598394 0.115439
0.989791 0.598662 0.115692
0.191274 0.525392 0.148734
0.203575 0.529217 0.146967
0.215799 0.532904 0.145271
0.229040 0.536780 0.143498
0.244606 0.541197 0.141489
0.264050 0.546523 0.139086
0.288563 0.552972 0.136203
0.317526 0.560259 0.132984
0.349991 0.568152 0.129743
0.384392 0.576217 0.126636
0.418679 0.583862 0.123622
0.453556 0.589059 0.122950
0.488113 0.591360 0.125109
0.522495 0.593607 0.127218
0.556360 0.595778 0.129256
0.589368 0.597856 0.131206
0.621176 0.599822 0.133052
0.651482 0.601664 0.134781
0.680473 0.603396 0.136408
0.708536 0.605046 0.137957
0.736062 0.606639 0.139453
0.763447 0.608199 0.140918
0.794109 0.611269 0.139413
0.826904 0.614582 0.136613
0.860933 0.617490 0.133678
0.894890 0.619914 0.130718
0.927341 0.621830 0.127862
0.956845 0.623266 0.125241
0.982170 0.624285 0.122973
0.987895 0.624695 0.122649
0.987887 0.624938 0.122874
0.987880 0.625165 0.123084
0.987872 0.625386 0.123289
0.198006 0.550477 0.154576
0.210363 0.554361 0.152856
0.222619 0.558103 0.151206
0.235873 0.562036 0.149480
0.251428 0.566516 0.147525
0.270823 0.571918 0.145185
0.295705 0.578743 0.142621
0.324969 0.586377 0.139686
0.357342 0.594389 0.136528
0.391207 0.602347 0.133316
0.424907 0.609891 0.130202
0.459802 0.617142 0.127276
0.494264 0.619341 0.129338
0.528549 0.621486 0.131349
0.562318 0.623558 0.133292
0.595230 0.625538 0.135150
0.626944 0.627410 0.136907
0.657161 0.629163 0.138551
0.686066 0.630810 0.140097
0.714044 0.632377 0.141568
0.741487 0.633890 0.142988
0.768788 0.635369 0.144377
0.796346 0.636838 0.145755
0.827330 0.639670 0.144566
0.861267 0.643060 0.141549
0.895132 0.645922 0.138508
0.927495 0.648221 0.135574
0.956918 0.649977 0.132883
0.982173 0.651252 0.130555
0.985916 0.651608 0.130375
0.985909 0.651800 0.130548
0.985903 0.651977 0.130707
0.985896 0.652151 0.130867
0.205391 0.577332 0.161008
0.217874 0.581322 0.159376
0.230438 0.585298 0.157924
0.243977 0.589449 0.156380
0.259809 0.594144 0.154600
0.279472 0.599760 0.152430
0.304106 0.606494 0.149770
0.333017 0.614022 0.146726
0.364941 0.621921 0.143454
0.398278 0.629766 0.140129
0.431403 0.637203 0.136909
0.465710 0.644572 0.133654
0.500473 0.648725 0.133548
0.534654 0.650762 0.135457
0.568319 0.652727 0.137299
0.601129 0.654604 0.139058
0.632743 0.656377 0.140721
0.662864 0.658034 0.142275
0.691676 0.659591 0.143735
0.719564 0.661071 0.145123
0.746918 0.662498 0.146461
0.774130 0.663892 0.147769
0.801597 0.665275 0.149066
0.829854 0.666672 0.150376
0.861294 0.669198 0.149626
0.895061 0.672548 0.146499
0.927329 0.675275 0.143482
0.956666 0.677389 0.140716
0.981846 0.678951 0.138324
0.983824 0.679213 0.138264
0.983818 0.679352 0.138381
0.983813 0.679477 0.138486
0.983808 0.679608 0.138602
0.214661 0.607340 0.168777
0.227350 0.611438 0.167218
0.239864 0.615357 0.165699
0.253326 0.619447 0.164086
0.269044 0.624072 0.162231
0.288534 0.629603 0.159970
0.312908 0.636234 0.157203
0.341461 0.643645 0.154041
0.372930 0.651421 0.150646
0.405738 0.659144 0.147200
0.438285 0.666463 0.143865
0.471950 0.673715 0.140496
0.506839 0.680235 0.137794
0.540906 0.682154 0.139591
0.574457 0.684003 0.141323
0.607155 0.685768 0.142976
0.638659 0.687433 0.144536
0.668675 0.688987 0.145993
0.697385 0.690446 0.147359
0.725175 0.691831 0.148658
0.752431 0.693164 0.149907
0.779546 0.694466 0.151128
0.806914 0.695756 0.152336
0.835068 0.697057 0.153556
0.864277 0.698379 0.154795
0.894603 0.700302 0.154845
0.926768 0.703516 0.151739
0.956011 0.706040 0.148893
0.981110 0.707930 0.146431
0.981565 0.708062 0.146460
0.981560 0.708144 0.146517
0.981556 0.708216 0.146564
0.981552 0.708304 0.146636
0.224042 0.637864 0.176536
0.236697 0.641902 0.174905
0.249156 0.645760 0.173318
0.262541 0.649787 0.171635
0.278145 0.654339 0.169701
0.297465 0.659782 0.167348
0.321586 0.666308 0.164472
0.349793 0.673599 0.161190
0.380828 0.681248 0.157670
0.413131 0.688844 0.154099
0.445131 0.696042 0.150647
0.478187 0.703174 0.147162
0.512590 0.710301 0.143615
0.546912 0.713918 0.143480
0.580345 0.715649 0.145100
0.612926 0.717298 0.146644
0.644318 0.718852 0.148099
0.674225 0.720301 0.149456
0.702830 0.721659 0.150727
0.730517 0.722946 0.151933
0.757673 0.724184 0.153093
0.784688 0.725391 0.154224
0.811954 0.726585 0.155342
0.840003 0.727788 0.156468
0.869102 0.729008 0.157612
0.898134 0.730198 0.158726
0.925872 0.731309 0.159767
0.954931 0.734226 0.156923
0.979265 0.736414 0.154461
0.979262 0.736454 0.154468
0.979259 0.736481 0.154465
0.979256 0.736499 0.154451
0.979253 0.736550 0.154484
0.232749 0.666932 0.183688
0.245367 0.670910 0.181986
0.257771 0.674710 0.180333
0.271080 0.678674 0.178583
0.286577 0.683156 0.176575
0.305738 0.688514 0.174134
0.329626 0.694935 0.171154
0.357518 0.702110 0.167755
0.388159 0.709636 0.164114
0.420006 0.717109 0.160425
0.451515 0.724190 0.156860
0.484024 0.731205 0.153264
0.517824 0.738216 0.149605
0.552326 0.744175 0.146902
0.585643 0.745791 0.148414
0.618111 0.747329 0.149853
0.649392 0.748776 0.151207
0.679193 0.750123 0.152468
0.707697 0.751383 0.153647
0.735285 0.752577 0.154765
0.762343 0.753723 0.155837
0.789260 0.754838 0.156882
0.816427 0.755940 0.157913
0.844374 0.757047 0.158950
0.873367 0.758169 0.160000
0.902292 0.759261 0.161023
0.929928 0.760278 0.161975
0.955050 0.761181 0.162821
0.977054 0.762766 0.161881
