Fotico/Resources/LUTs/peach.cube
TITLE "Peach"
LUT_3D_SIZE 5
0.107989 0.072986 0.081767
0.309701 0.059425 0.069046
0.586652 0.041681 0.050125
0.821727 0.028421 0.035821
0.965762 0.020825 0.027429
0.122890 0.210577 0.091875
0.302298 0.229023 0.081260
0.602558 0.222312 0.048768
0.857547 0.203802 0.022968
1.000000 0.196019 0.014518
0.161859 0.407177 0.123550
0.325500 0.446918 0.101919
0.592556 0.464393 0.112520
0.855018 0.480849 0.092021
0.997531 0.483377 0.082648
0.214661 0.607340 0.168777
0.372930 0.651421 0.150646
0.638659 0.687433 0.144536
0.864277 0.698379 0.154795
0.981552 0.708304 0.146636
0.264355 0.780020 0.209153
0.414627 0.819935 0.186783
0.666029 0.865238 0.160481
0.886698 0.871565 0.166405
0.988027 0.873101 0.167719
0.110407 0.074022 0.218870
0.297471 0.075689 0.219490
0.561461 0.071745 0.219810
0.797068 0.058859 0.212307
0.938737 0.051671 0.206536
0.114908 0.225666 0.216561
0.311200 0.225848 0.214526
0.593711 0.212985 0.200551
0.833693 0.203911 0.190410
0.977892 0.199703 0.185374
0.149162 0.431324 0.232981
0.335709 0.442590 0.249372
0.605520 0.471149 0.245817
0.869368 0.476174 0.225948
1.000000 0.473814 0.216892
0.206185 0.632289 0.275865
0.393288 0.647764 0.298863
0.645007 0.691412 0.284087
0.873560 0.703533 0.290613
0.989629 0.711431 0.279311
0.257968 0.802349 0.315610
0.437446 0.814968 0.333752
0.670544 0.865882 0.300653
0.891140 0.873740 0.304023
0.989798 0.874928 0.304937
0.113884 0.075634 0.406388
0.301616 0.077816 0.407471
0.557834 0.082968 0.411292
0.775423 0.088962 0.416268
0.902766 0.093062 0.419642
0.119837 0.228720 0.405299
0.310528 0.234372 0.410056
0.571641 0.244076 0.418628
0.801098 0.246454 0.425277
0.940193 0.242834 0.425934
0.143583 0.448522 0.419988
0.339326 0.459048 0.429582
0.623605 0.465961 0.428870
0.874161 0.460443 0.423427
0.994569 0.459450 0.422105
0.183880 0.669641 0.449928
0.397908 0.668977 0.466392
0.653345 0.696583 0.475034
0.890478 0.709187 0.471928
1.000000 0.709665 0.460773
0.233996 0.837966 0.475015
0.444445 0.832907 0.497943
0.679822 0.858011 0.501077
0.896911 0.876488 0.492489
0.992204 0.877237 0.492949
0.117474 0.077410 0.589759
0.305866 0.080091 0.591326
0.562900 0.085878 0.595778
0.781157 0.092389 0.601281
0.905300 0.096775 0.604970
0.124837 0.231900 0.589975
0.316316 0.238075 0.595247
0.578312 0.248447 0.604488
0.800914 0.258783 0.613922
0.924584 0.265894 0.620389
0.150438 0.453614 0.606469
0.347129 0.464682 0.616619
0.617692 0.481917 0.632833
0.847306 0.496474 0.646817
0.955992 0.499777 0.652748
0.191936 0.676319 0.637686
0.392528 0.688087 0.648868
0.662311 0.700254 0.661466
0.906686 0.698151 0.648906
1.000000 0.691700 0.642186
0.223705 0.859359 0.658529
0.420523 0.866761 0.665411
0.701222 0.856869 0.686284
0.902252 0.878928 0.676498
0.998317 0.880888 0.672848
0.120837 0.079157 0.753439
0.309826 0.082280 0.755449
0.567589 0.088630 0.760476
0.786442 0.095600 0.766456
0.907577 0.100226 0.770418
0.129454 0.234899 0.754858
0.321641 0.241538 0.760595
0.584425 0.252500 0.770437
0.807654 0.263320 0.780368
0.927013 0.270571 0.787006
0.156709 0.458311 0.772989
0.354242 0.469859 0.783633
0.626368 0.487727 0.800641
0.855491 0.501731 0.814098
0.954275 0.508482 0.820472
0.199396 0.681585 0.804905
0.399818 0.692829 0.815585
0.667915 0.705425 0.827487
0.891339 0.714029 0.835544
0.978014 0.716821 0.837979
0.229711 0.863130 0.824259
0.426232 0.869999 0.830616
0.688444 0.876943 0.836944
0.906780 0.880904 0.840436
1.000000 0.876859 0.828982
