Fotico/Resources/LUTs/peach.cube
TITLE "Peach"
LUT_3D_SIZE 9
0.107989 0.072986 0.081767
0.182663 0.068472 0.078298
0.309701 0.059425 0.069046
0.450970 0.050065 0.059109
0.586652 0.041681 0.050125
0.704739 0.034827 0.042745
0.821727 0.028421 0.035821
0.931335 0.022750 0.029671
0.965762 0.020825 0.027429
0.111018 0.125942 0.083245
0.180323 0.131196 0.077592
0.316590 0.122187 0.060479
0.464595 0.108991 0.045714
0.601227 0.100671 0.037598
0.720164 0.094160 0.030974
0.838008 0.088219 0.024794
0.948428 0.083051 0.019333
0.984894 0.081475 0.017484
0.122890 0.210577 0.091875
0.181843 0.223454 0.081865
0.302298 0.229023 0.081260
0.455413 0.230061 0.064388
0.602558 0.222312 0.048768
0.730646 0.213404 0.035614
0.857547 0.203802 0.022968
0.973616 0.196224 0.014225
1.000000 0.196019 0.014518
0.140476 0.308072 0.105791
0.194985 0.321850 0.096716
0.311152 0.338221 0.089072
0.446214 0.344452 0.093162
0.595060 0.352235 0.078996
0.724642 0.351793 0.067081
0.853031 0.348286 0.055644
0.973320 0.343499 0.045252
1.000000 0.343081 0.043336
0.161859 0.407177 0.123550
0.215219 0.421877 0.115346
0.325500 0.446918 0.101919
0.461704 0.456787 0.105954
0.592556 0.464393 0.112520
0.723635 0.475619 0.101798
0.855018 0.480849 0.092021
0.977830 0.481929 0.082722
0.997531 0.483377 0.082648
0.184973 0.501335 0.143289
0.238244 0.516915 0.135855
0.344074 0.543358 0.123669
0.481886 0.564029 0.120778
0.615314 0.572870 0.129081
0.730531 0.580012 0.135793
0.860322 0.591887 0.125823
0.981877 0.597400 0.115399
0.989791 0.598662 0.115692
0.214661 0.607340 0.168777
0.269044 0.624072 0.162231
0.372930 0.651421 0.150646
0.506839 0.680235 0.137794
0.638659 0.687433 0.144536
0.752431 0.693164 0.149907
0.864277 0.698379 0.154795
0.981110 0.707930 0.146431
0.981552 0.708304 0.146636
0.246439 0.714292 0.194822
0.299800 0.730092 0.187254
0.399665 0.755857 0.174086
0.526138 0.783648 0.158828
0.656977 0.797539 0.155651
0.769251 0.801847 0.159681
0.879599 0.805668 0.163257
0.980745 0.808807 0.166193
0.980697 0.808430 0.165701
0.264355 0.780020 0.209153
0.317028 0.795201 0.200949
0.414627 0.819935 0.186783
0.537044 0.846596 0.170465
0.666029 0.865238 0.160481
0.777325 0.868635 0.163660
0.886698 0.871565 0.166405
0.988130 0.873921 0.168616
0.988027 0.873101 0.167719
0.108891 0.073362 0.133596
0.178752 0.073697 0.133547
0.299922 0.070604 0.132516
0.441322 0.061329 0.125840
0.577125 0.053026 0.118270
0.695316 0.046242 0.111633
0.812406 0.039905 0.105226
0.922108 0.034298 0.099445
0.955557 0.032461 0.097373
0.109063 0.130361 0.131230
0.180725 0.129689 0.130697
0.308574 0.121536 0.122160
0.450864 0.113136 0.113112
0.587575 0.105658 0.105011
0.706578 0.099586 0.098404
0.824486 0.093950 0.092244
0.934963 0.088998 0.086808
0.970244 0.087541 0.085030
0.118618 0.218566 0.132983
0.185418 0.221143 0.137015
0.306315 0.230356 0.130890
0.459566 0.225633 0.114094
0.606836 0.214733 0.098553
0.735030 0.204114 0.085471
0.855742 0.197597 0.079074
0.967508 0.192962 0.074721
1.000000 0.192119 0.073722
0.137627 0.316027 0.145813
0.202999 0.319829 0.151997
0.312982 0.339437 0.141300
0.450670 0.346746 0.143057
0.599648 0.351236 0.128991
0.729342 0.348499 0.117169
0.857839 0.343250 0.105827
0.978229 0.337190 0.095528
1.000000 0.337028 0.094679
0.160361 0.415119 0.163948
0.225250 0.420137 0.170816
0.327966 0.445282 0.157495
0.463971 0.458384 0.158531
0.597447 0.467285 0.162782
0.728643 0.476524 0.152171
0.860473 0.479964 0.142577
0.983210 0.479415 0.133236
1.000000 0.480683 0.133351
0.184695 0.509279 0.184448
0.249430 0.515429 0.191560
0.348737 0.541978 0.179503
0.484728 0.565964 0.173765
0.618074 0.574697 0.182022
0.734937 0.582640 0.186991
0.865461 0.593260 0.176166
0.986938 0.597207 0.165683
0.992834 0.598332 0.166132
0.216194 0.615220 0.211346
0.281160 0.622820 0.218217
0.379226 0.650070 0.206577
0.508919 0.679500 0.192926
0.641089 0.688959 0.197225
0.754776 0.694597 0.202526
0.866536 0.699719 0.207339
0.984617 0.709457 0.196534
0.984601 0.709764 0.196744
0.249723 0.721057 0.238985
0.311946 0.728537 0.243005
0.406707 0.754200 0.229754
0.528971 0.781878 0.214399
0.659075 0.798761 0.208023
0.771261 0.802975 0.211963
0.881518 0.806703 0.215445
0.981441 0.809716 0.218249
0.981390 0.809312 0.217727
0.268743 0.786072 0.254346
0.329142 0.793453 0.256511
0.422013 0.818085 0.242246
0.540384 0.844631 0.225815
0.667915 0.866264 0.212616
0.779121 0.869567 0.215693
0.888402 0.872404 0.218330
0.988802 0.874640 0.220402
0.988697 0.873805 0.219477
0.110407 0.074022 0.218870
0.180387 0.074448 0.218890
0.297471 0.075689 0.219490
0.427717 0.077701 0.220829
0.561461 0.071745 0.219810
0.679817 0.065080 0.216464
0.797068 0.058859 0.212307
0.906919 0.053360 0.208096
0.938737 0.051671 0.206536
0.110840 0.131271 0.216666
0.181113 0.132184 0.217224
0.298920 0.134220 0.218693
0.435317 0.131960 0.219202
0.572224 0.124624 0.215032
0.691396 0.118675 0.210328
0.809467 0.113159 0.205432
0.920096 0.108320 0.200870
0.953447 0.107025 0.199458
0.114908 0.225666 0.216561
0.185749 0.227403 0.217966
0.311200 0.225848 0.214526
0.455256 0.218934 0.207108
0.593711 0.212985 0.200551
0.714252 0.208240 0.195270
0.833693 0.203911 0.190410
0.945612 0.200177 0.186180
0.977892 0.199703 0.185374
0.125987 0.331795 0.220825
0.202503 0.329679 0.225690
0.315881 0.340323 0.228743
0.458035 0.348767 0.225498
0.607227 0.346090 0.211588
0.737102 0.339186 0.199903
0.865775 0.331062 0.188701
0.986327 0.323031 0.178533
1.000000 0.326117 0.182997
0.149162 0.431324 0.232981
0.226647 0.430127 0.243343
0.335709 0.442590 0.249372
0.467714 0.461037 0.245421
0.605520 0.471149 0.245817
0.737650 0.476511 0.235646
0.869368 0.476174 0.225948
0.991982 0.472747 0.216502
1.000000 0.473814 0.216892
0.173899 0.525892 0.250661
0.252446 0.525533 0.264415
0.360413 0.539702 0.271789
0.489321 0.569082 0.261208
0.622530 0.577639 0.269337
0.743448 0.587027 0.270085
0.873839 0.594278 0.259137
0.995187 0.595312 0.248537
0.997853 0.596311 0.249225
0.206185 0.632289 0.275865
0.286561 0.632521 0.292445
0.393288 0.647764 0.298863
0.513293 0.677013 0.285054
0.645007 0.691412 0.284087
0.758557 0.696897 0.289255
0.873560 0.703533 0.290613
0.989643 0.711182 0.279169
0.989629 0.711431 0.279311
0.239249 0.737646 0.301378
0.319044 0.736844 0.318482
0.421741 0.751399 0.321580
0.535213 0.778893 0.306048
0.662454 0.800720 0.294382
0.774496 0.804779 0.298173
0.884607 0.808357 0.301505
0.982585 0.811166 0.304102
0.982528 0.810724 0.303541
0.257968 0.802349 0.315610
0.337278 0.800890 0.332830
0.437446 0.814968 0.333752
0.547567 0.841329 0.317131
0.670544 0.865882 0.300653
0.782009 0.871055 0.301546
0.891140 0.873740 0.304023
0.989906 0.875783 0.305889
0.989798 0.874928 0.304937
0.112136 0.074808 0.313447
0.182248 0.075335 0.313553
0.299536 0.076736 0.314294
0.430000 0.078920 0.315787
0.555341 0.081564 0.317804
0.664460 0.084267 0.319987
0.780094 0.079934 0.320545
0.890109 0.074555 0.319444
0.920076 0.073031 0.318726
0.112856 0.132334 0.311467
0.183275 0.133350 0.312114
0.301297 0.135549 0.313731
0.432678 0.138605 0.316171
0.558943 0.142078 0.319077
0.674589 0.139903 0.320517
0.792839 0.134522 0.319460
0.903633 0.129807 0.317488
0.934807 0.128695 0.316834
0.117372 0.227181 0.311730
0.188382 0.229024 0.313233
0.307664 0.232566 0.316230
0.440563 0.237079 0.320160
0.576600 0.233820 0.321051
0.697288 0.229186 0.318656
0.816871 0.224962 0.315518
0.928921 0.221323 0.312397
0.958486 0.221028 0.312007
0.126776 0.335932 0.316528
0.198607 0.338711 0.318967
0.319416 0.343766 0.323471
0.466204 0.342278 0.317126
0.606608 0.337377 0.312236
0.728849 0.333921 0.308382
0.849974 0.330933 0.304918
0.963470 0.328474 0.301983
0.986495 0.329266 0.302443
0.140175 0.446009 0.325526
0.214465 0.448271 0.328739
0.345112 0.446770 0.340798
0.471896 0.464016 0.341956
0.614508 0.472753 0.338061
0.747550 0.471963 0.328261
0.879128 0.466874 0.318425
1.000000 0.460177 0.308849
1.000000 0.462735 0.312312
0.161934 0.544383 0.337423
0.240722 0.544127 0.343770
0.373664 0.544249 0.364300
0.494298 0.568315 0.362372
0.627370 0.580822 0.366194
0.752786 0.590274 0.362246
0.883030 0.592730 0.351150
1.000000 0.590039 0.340491
1.000000 0.591028 0.341358
0.194977 0.651163 0.358119
0.275384 0.651272 0.367833
0.409058 0.650812 0.392835
0.521474 0.674169 0.387255
0.649257 0.694056 0.380426
0.762655 0.699374 0.385440
0.882138 0.707257 0.382096
0.995222 0.711584 0.370795
0.995209 0.711775 0.370869
0.227530 0.755988 0.379600
0.307321 0.755062 0.390523
0.439599 0.752953 0.417115
0.545808 0.775502 0.407716
0.665756 0.800933 0.392059
0.777995 0.806712 0.393798
0.887943 0.810124 0.396965
0.987083 0.814312 0.396163
0.987086 0.813862 0.395505
0.245917 0.820347 0.391768
0.325207 0.818763 0.403195
0.456506 0.815604 0.430273
0.559246 0.837589 0.418443
0.673887 0.861947 0.401765
0.785126 0.872639 0.396797
0.894091 0.875159 0.399103
0.991124 0.876992 0.400751
0.991015 0.876120 0.399781
0.113884 0.075634 0.406388
0.184127 0.076258 0.406584
0.301616 0.077816 0.407471
0.432292 0.080167 0.409124
0.557834 0.082968 0.411292
0.667124 0.085805 0.413606
0.775423 0.088962 0.416268
0.876913 0.092218 0.419082
0.902766 0.093062 0.419642
0.114884 0.133430 0.404647
0.185448 0.134546 0.405388
0.303682 0.136906 0.407155
0.435284 0.140134 0.409759
0.561755 0.143768 0.412822
0.671869 0.147327 0.415902
0.780993 0.151198 0.419315
0.887501 0.150969 0.421920
0.916490 0.150039 0.422292
0.119837 0.228720 0.405299
0.191015 0.230666 0.406900
0.310528 0.234372 0.410056
0.443660 0.239061 0.414158
0.571641 0.244076 0.418628
0.683087 0.248826 0.422913
0.801098 0.246454 0.425277
0.913313 0.242941 0.425512
0.940193 0.242834 0.425934
0.129719 0.337963 0.410541
0.201742 0.340848 0.413083
0.322802 0.346069 0.417754
0.457705 0.352398 0.423489
0.589451 0.356950 0.428975
0.711838 0.353766 0.429282
0.833104 0.350960 0.427886
0.946730 0.348639 0.426157
0.966501 0.349771 0.427174
0.143583 0.448522 0.419988
0.216614 0.452335 0.423445
0.339326 0.459048 0.429582
0.476433 0.465774 0.438106
0.623605 0.465961 0.428870
0.750614 0.462701 0.425665
0.874161 0.460443 0.423427
0.989128 0.458101 0.420949
0.994569 0.459450 0.422105
0.159830 0.553166 0.432260
0.233937 0.557836 0.436552
0.363069 0.562930 0.444729
0.506527 0.565974 0.463247
0.632036 0.583874 0.461317
0.761869 0.590094 0.452749
0.891969 0.586444 0.441504
1.000000 0.580196 0.431659
1.000000 0.581111 0.432409
0.183880 0.669641 0.449928
0.264313 0.669628 0.454564
0.397908 0.668977 0.466392
0.537309 0.671297 0.487631
0.653345 0.696583 0.475034
0.766593 0.701736 0.479893
0.890478 0.709187 0.471928
1.000000 0.709525 0.460759
1.000000 0.709665 0.460773
0.215933 0.773942 0.465719
0.295717 0.772895 0.471734
0.427893 0.770594 0.486634
0.563285 0.772096 0.507569
0.669952 0.797339 0.491721
0.781349 0.808543 0.487706
0.891138 0.811794 0.490713
0.992576 0.817139 0.485515
0.992580 0.816649 0.484828
0.233996 0.837966 0.475015
0.313262 0.836260 0.481708
0.444445 0.832907 0.497943
0.577308 0.833842 0.517951
0.679822 0.858011 0.501077
0.788108 0.874130 0.490348
0.896911 0.876488 0.492489
0.992314 0.878119 0.493929
0.992204 0.877237 0.492949
0.115586 0.076463 0.494514
0.185954 0.077180 0.494799
0.303634 0.078885 0.495827
0.434513 0.081395 0.497635
0.560244 0.084344 0.499950
0.669697 0.087307 0.502390
0.778154 0.090586 0.505178
0.879792 0.093957 0.508109
0.903981 0.094824 0.508699
0.116850 0.134516 0.493010
0.187552 0.135727 0.493841
0.305989 0.138238 0.495755
0.437801 0.141628 0.498517
0.564465 0.145414 0.501731
0.674746 0.149103 0.504941
0.784033 0.153101 0.508482
0.886452 0.157145 0.512112
0.911222 0.158459 0.513167
0.122218 0.230224 0.494045
0.193555 0.232268 0.495740
0.313287 0.236128 0.499048
0.446640 0.240983 0.503315
0.574824 0.246154 0.507940
0.686441 0.251036 0.512360
0.797060 0.256208 0.517085
0.900732 0.261346 0.521811
0.923177 0.263228 0.523443
0.132550 0.339933 0.499717
0.204756 0.342918 0.502359
0.326053 0.348296 0.507188
0.461190 0.354793 0.513094
0.591099 0.361511 0.519258
0.704222 0.367722 0.524995
0.818724 0.371852 0.530502
0.932509 0.369651 0.532929
0.949178 0.371194 0.534847
0.146855 0.450947 0.509596
0.220088 0.454861 0.513156
0.343055 0.461734 0.519458
0.480019 0.469842 0.526948
0.612532 0.478439 0.535048
0.734505 0.480212 0.539905
0.857889 0.478158 0.539918
0.972700 0.475846 0.538440
0.974734 0.477216 0.539655
0.163512 0.556008 0.522274
0.237833 0.560780 0.526673
0.364125 0.569614 0.535110
0.503617 0.578706 0.543804
0.638273 0.587102 0.549581
0.770400 0.581717 0.538487
0.893871 0.576560 0.533464
1.000000 0.572983 0.529977
1.000000 0.573763 0.530575
0.187503 0.673159 0.540246
0.262970 0.677920 0.544770
0.388182 0.685234 0.551714
0.534312 0.684458 0.561445
0.657510 0.695248 0.568329
0.770253 0.703914 0.569371
0.898307 0.707926 0.557028
1.000000 0.703643 0.545975
1.000000 0.703740 0.545937
0.208865 0.786988 0.554940
0.284646 0.789739 0.558327
0.416723 0.787256 0.564756
0.562023 0.783807 0.579938
0.678458 0.793869 0.586143
0.784456 0.810219 0.576673
0.894095 0.813318 0.579527
0.997785 0.818459 0.570158
0.997789 0.817933 0.569448
0.222630 0.854608 0.561668
0.301869 0.852786 0.564766
0.432941 0.849250 0.572778
0.577070 0.844672 0.590273
0.690217 0.854218 0.595171
0.790668 0.874524 0.579943
0.899514 0.877691 0.580965
0.993436 0.879133 0.582213
0.993325 0.878247 0.581230
0.117474 0.077410 0.589759
0.187979 0.078227 0.590141
0.305866 0.080091 0.591326
0.436964 0.082770 0.593303
0.562900 0.085878 0.595778
0.672528 0.088977 0.598357
0.781157 0.092389 0.601281
0.882954 0.095883 0.604340
0.905300 0.096775 0.604970
0.119024 0.135740 0.588518
0.189876 0.137054 0.589449
0.308532 0.139727 0.591522
0.440570 0.143291 0.594458
0.567445 0.147241 0.597835
0.677905 0.151069 0.601187
0.787367 0.155204 0.604868
0.889949 0.159375 0.608628
0.912575 0.160691 0.609697
0.124837 0.231900 0.589975
0.196347 0.234048 0.591774
0.316316 0.238075 0.595247
0.449909 0.243109 0.599693
0.578312 0.248447 0.604488
0.690115 0.253471 0.609054
0.800914 0.258783 0.613922
0.904752 0.264050 0.618783
0.924584 0.265894 0.620389
0.135656 0.342111 0.596121
0.208059 0.345202 0.598869
0.329613 0.350750 0.603870
0.465003 0.357428 0.609961
0.595140 0.364316 0.616300
0.708454 0.370672 0.622188
0.820749 0.377290 0.628348
0.926729 0.384078 0.634788
0.938399 0.386488 0.637063
0.150438 0.453614 0.606469
0.223888 0.457637 0.610140
0.347129 0.464682 0.616619
0.484357 0.472974 0.624300
0.617692 0.481917 0.632833
0.733464 0.489472 0.640097
0.847306 0.496474 0.646817
0.955905 0.498433 0.651591
0.955992 0.499777 0.652748
0.167536 0.559124 0.619586
0.242608 0.564252 0.624399
0.369031 0.572998 0.632783
0.508389 0.581886 0.641288
0.640997 0.589689 0.648738
0.755436 0.595940 0.654693
0.875434 0.594306 0.656718
0.979059 0.591089 0.655168
0.979117 0.591763 0.655694
0.191936 0.676319 0.637686
0.267408 0.680963 0.642102
0.392528 0.688087 0.648868
0.530234 0.695219 0.655624
0.662311 0.700254 0.661466
0.778373 0.706230 0.661818
0.906686 0.698151 0.648906
1.000000 0.691672 0.642317
1.000000 0.691700 0.642186
0.212785 0.789615 0.651857
0.287530 0.793243 0.655268
0.411175 0.798724 0.660413
0.549716 0.801534 0.665287
0.687693 0.797407 0.676999
0.787595 0.811119 0.673578
0.898811 0.815649 0.673854
1.000000 0.816944 0.661539
1.000000 0.816376 0.660813
0.223705 0.859359 0.658529
0.297896 0.862333 0.661299
0.420523 0.866761 0.665411
0.564396 0.862055 0.670663
0.701222 0.856869 0.686284
0.794893 0.870194 0.681374
0.902252 0.878928 0.676498
0.998304 0.881734 0.673948
0.998317 0.880888 0.672848
0.119435 0.078420 0.686085
0.190080 0.079337 0.686566
0.308178 0.081361 0.687911
0.439497 0.084212 0.690062
0.565640 0.087480 0.692701
0.675445 0.090715 0.695422
0.784248 0.094262 0.698484
0.886207 0.097879 0.701673
0.906638 0.098791 0.702336
0.121273 0.137031 0.685115
0.192279 0.138447 0.686148
0.311156 0.141285 0.688384
0.443425 0.145025 0.691497
0.570513 0.149139 0.695041
0.681154 0.153108 0.698537
0.790793 0.157380 0.702359
0.893539 0.161679 0.706251
0.913948 0.162990 0.707328
0.127536 0.233647 0.687006
0.199222 0.235901 0.688910
0.319432 0.240095 0.692551
0.453267 0.245308 0.697178
0.581891 0.250815 0.702145
0.693881 0.255984 0.706859
0.804862 0.261436 0.711872
0.908869 0.266833 0.716868
0.926011 0.268632 0.718442
0.138848 0.344363 0.693635
0.211450 0.347562 0.696492
0.333264 0.353281 0.701666
0.468908 0.360142 0.707944
0.599276 0.367201 0.714460
0.712784 0.373704 0.720499
0.825267 0.380464 0.726809
0.932053 0.387586 0.733669
0.939891 0.389731 0.735688
0.154111 0.456361 0.704461
0.227780 0.460494 0.708245
0.351298 0.467711 0.714902
0.488886 0.476231 0.722827
0.622827 0.485361 0.731626
0.738457 0.492751 0.738734
0.852152 0.499592 0.745300
0.953135 0.505417 0.750872
0.953280 0.506593 0.751915
0.171656 0.562324 0.718022
0.247561 0.567791 0.723256
0.373913 0.576348 0.731463
0.513132 0.585030 0.739774
0.645583 0.592639 0.747040
0.759873 0.598724 0.752835
0.872215 0.604285 0.758116
0.964931 0.608674 0.762250
0.965002 0.609254 0.762701
0.196350 0.679443 0.736131
0.271822 0.683970 0.740436
0.396845 0.690902 0.747019
0.534397 0.697826 0.753576
0.665169 0.703780 0.759194
0.777967 0.708444 0.763578
0.889011 0.712422 0.767446
0.984812 0.708047 0.766586
0.984835 0.708007 0.766433
0.216680 0.792202 0.749771
0.291397 0.795711 0.753067
0.414924 0.800999 0.758024
0.550699 0.806147 0.762826
0.679720 0.810431 0.766798
0.793857 0.810841 0.771059
0.906587 0.815811 0.766120
1.000000 0.807890 0.754637
1.000000 0.807288 0.753907
0.227263 0.861602 0.756099
0.301412 0.864456 0.758751
0.423909 0.868690 0.762672
0.558501 0.872702 0.766359
0.688150 0.874177 0.769171
0.805996 0.869050 0.778774
0.904943 0.880114 0.773013
1.000000 0.882258 0.765857
1.000000 0.881363 0.764769
0.120837 0.079157 0.753439
0.191580 0.080144 0.753991
0.309826 0.082280 0.755449
0.441301 0.085250 0.757721
0.567589 0.088630 0.760476
0.677518 0.091961 0.763296
0.786442 0.095600 0.766456
0.888513 0.099304 0.769735
0.907577 0.100226 0.770418
0.122875 0.137964 0.752661
0.193989 0.139453 0.753766
0.313023 0.142404 0.756117
0.445452 0.146267 0.759354
0.572689 0.150496 0.763015
0.683457 0.154563 0.766612
0.793220 0.158932 0.770533
0.896081 0.163319 0.774517
0.914912 0.164622 0.775596
0.129454 0.234899 0.754858
0.201263 0.237226 0.756836
0.321641 0.241538 0.760595
0.455646 0.246877 0.765350
0.584425 0.252500 0.770437
0.696546 0.257770 0.775254
0.807654 0.263320 0.780368
0.911778 0.268809 0.785459
0.927013 0.270571 0.787006
0.141109 0.345968 0.761827
0.213850 0.349243 0.764761
0.335846 0.355081 0.770056
0.471670 0.362069 0.776465
0.602199 0.369248 0.783104
0.715842 0.375852 0.789249
0.828696 0.382819 0.795793
0.935726 0.389996 0.802745
0.940929 0.391961 0.804590
0.156709 0.458311 0.772989
0.230530 0.462520 0.776851
0.354242 0.469859 0.783633
0.492531 0.478731 0.791970
0.626368 0.487727 0.800641
0.741900 0.495003 0.807640
0.855491 0.501731 0.814098
0.954138 0.507372 0.819489
0.954275 0.508482 0.820472
0.174935 0.564774 0.787086
0.250980 0.570223 0.792319
0.377280 0.578648 0.800400
0.516402 0.587186 0.808574
0.648741 0.594660 0.815710
0.762928 0.600629 0.821393
0.875162 0.606076 0.826564
0.965893 0.610293 0.830527
0.965958 0.610826 0.830937
0.199396 0.681585 0.804905
0.274865 0.686030 0.809131
0.399818 0.692829 0.815585
0.537261 0.699607 0.822002
0.667915 0.705425 0.827487
0.780604 0.709973 0.831756
0.891339 0.714029 0.835544
0.978021 0.716861 0.838133
0.978014 0.716821 0.837979
0.219363 0.793970 0.818172
0.294058 0.797395 0.821388
0.417500 0.802548 0.826212
0.553156 0.807550 0.830871
0.682053 0.811697 0.834706
0.793197 0.814814 0.837563
0.902393 0.817469 0.839972
0.996046 0.812755 0.837491
0.996040 0.812130 0.836772
0.229711 0.863130 0.824259
0.303829 0.865900 0.826829
0.426232 0.869999 0.830616
0.560700 0.873864 0.834157
0.688444 0.876943 0.836944
0.798581 0.879144 0.838905
0.906780 0.880904 0.840436
1.000000 0.877803 0.830057
1.000000 0.876859 0.828982
