Fotico/Resources/LUTs/petalo.cube
# Petalo
LUT_3D_SIZE 9
0.142392 0.115506 0.120742
0.235100 0.115506 0.120742
0.335804 0.115506 0.120742
0.438541 0.115506 0.120742
0.542770 0.115506 0.120742
0.648183 0.115506 0.120742
0.754579 0.115506 0.120742
0.861818 0.115506 0.120742
0.925000 0.115506 0.120742
0.142392 0.209062 0.120742
0.235100 0.209062 0.120742
0.335804 0.209062 0.120742
0.438541 0.209062 0.120742
0.542770 0.209062 0.120742
0.648183 0.209062 0.120742
0.754579 0.209062 0.120742
0.861818 0.209062 0.120742
0.925000 0.209062 0.120742
0.142392 0.307048 0.120742
0.235100 0.307048 0.120742
0.335804 0.307048 0.120742
0.438541 0.307048 0.120742
0.542770 0.307048 0.120742
0.648183 0.307048 0.120742
0.754579 0.307048 0.120742
0.861818 0.307048 0.120742
0.925000 0.307048 0.120742
0.142392 0.404187 0.120742
0.235100 0.404187 0.120742
0.335804 0.404187 0.120742
0.438541 0.404187 0.120742
0.542770 0.404187 0.120742
0.648183 0.404187 0.120742
0.754579 0.404187 0.120742
0.861818 0.404187 0.120742
0.925000 0.404187 0.120742
0.142392 0.500747 0.120742
0.235100 0.500747 0.120742
0.335804 0.500747 0.120742
0.438541 0.500747 0.120742
0.542770 0.500747 0.120742
0.648183 0.500747 0.120742
0.754579 0.500747 0.120742
0.861818 0.500747 0.120742
0.925000 0.500747 0.120742
0.142392 0.596867 0.120742
0.235100 0.596867 0.120742
0.335804 0.596867 0.120742
0.438541 0.596867 0.120742
0.542770 0.596867 0.120742
0.648183 0.596867 0.120742
0.754579 0.596867 0.120742
0.861818 0.596867 0.120742
0.925000 0.596867 0.120742
0.142392 0.692632 0.120742
0.235100 0.692632 0.120742
0.335804 0.692632 0.120742
0.438541 0.692632 0.120742
0.542770 0.692632 0.120742
0.648183 0.692632 0.120742
0.754579 0.692632 0.120742
0.861818 0.692632 0.120742
0.925000 0.692632 0.120742
0.142392 0.788100 0.120742
0.235100 0.788100 0.120742
0.335804 0.788100 0.120742
0.438541 0.788100 0.120742
0.542770 0.788100 0.120742
0.648183 0.788100 0.120742
0.754579 0.788100 0.120742
0.861818 0.788100 0.120742
0.925000 0.788100 0.120742
0.142392 0.883313 0.120742
0.235100 0.883313 0.120742
0.335804 0.883313 0.120742
0.438541 0.883313 0.120742
0.542770 0.883313 0.120742
0.648183 0.883313 0.120742
0.754579 0.883313 0.120742
0.861818 0.883313 0.120742
0.925000 0.883313 0.120742
0.142392 0.115506 0.217115
0.235100 0.115506 0.217115
0.335804 0.115506 0.217115
0.438541 0.115506 0.217115
0.542770 0.115506 0.217115
0.648183 0.115506 0.217115
0.754579 0.115506 0.217115
0.861818 0.115506 0.217115
0.925000 0.115506 0.217115
0.142392 0.209062 0.217115
0.235100 0.209062 0.217115
0.335804 0.209062 0.217115
0.438541 0.209062 0.217115
0.542770 0.209062 0.217115
0.648183 0.209062 0.217115
0.754579 0.209062 0.217115
0.861818 0.209062 0.217115
0.925000 0.209062 0.217115
0.142392 0.307048 0.217115
0.235100 0.307048 0.217115
0.335804 0.307048 0.217115
0.438541 0.307048 0.217115
0.542770 0.307048 0.217115
0.648183 0.307048 0.217115
0.754579 0.307048 0.217115
0.861818 0.307048 0.217115
0.925000 0.307048 0.217115
0.142392 0.404187 0.217115
0.235100 0.404187 0.217115
0.335804 0.404187 0.217115
0.438541 0.404187 0.217115
0.542770 0.404187 0.217115
0.648183 0.404187 0.217115
0.754579 0.404187 0.217115
0.861818 0.404187 0.217115
0.925000 0.404187 0.217115
0.142392 0.500747 0.217115
0.235100 0.500747 0.217115
0.335804 0.500747 0.217115
0.438541 0.500747 0.217115
0.542770 0.500747 0.217115
0.648183 0.500747 0.217115
0.754579 0.500747 0.217115
0.861818 0.500747 0.217115
0.925000 0.500747 0.217115
0.142392 0.596867 0.217115
0.235100 0.596867 0.217115
0.335804 0.596867 0.217115
0.438541 0.596867 0.217115
0.542770 0.596867 0.217115
0.648183 0.596867 0.217115
0.754579 0.596867 0.217115
0.861818 0.596867 0.217115
0.925000 0.596867 0.217115
0.142392 0.692632 0.217115
0.235100 0.692632 0.217115
0.335804 0.692632 0.217115
0.438541 0.692632 0.217115
0.542770 0.692632 0.217115
0.648183 0.692632 0.217115
0.754579 0.692632 0.217115
0.861818 0.692632 0.217115
0.925000 0.692632 0.217115
0.142392 0.788100 0.217115
0.235100 0.788100 0.217115
0.335804 0.788100 0.217115
0.438541 0.788100 0.217115
0.542770 0.788100 0.217115
0.648183 0.788100 0.217115
0.754579 0.788100 0.217115
0.861818 0.788100 0.217115
0.925000 0.788100 0.217115
0.142392 0.883313 0.217115
0.235100 0.883313 0.217115
0.335804 0.883313 0.217115
0.438541 0.883313 0.217115
0.542770 0.883313 0.217115
0.648183 0.883313 0.217115
0.754579 0.883313 0.217115
0.861818 0.883313 0.217115
0.925000 0.883313 0.217115
0.142392 0.115506 0.320445
0.235100 0.115506 0.320445
0.335804 0.115506 0.320445
0.438541 0.115506 0.320445
0.542770 0.115506 0.320445
0.648183 0.115506 0.320445
0.754579 0.115506 0.320445
0.861818 0.115506 0.320445
0.925000 0.115506 0.320445
0.142392 0.209062 0.320445
0.235100 0.209062 0.320445
0.335804 0.209062 0.320445
0.438541 0.209062 0.320445
0.542770 0.209062 0.320445
0.648183 0.209062 0.320445
0.754579 0.209062 0.320445
0.861818 0.209062 0.320445
0.925000 0.209062 0.320445
0.142392 0.307048 0.320445
0.235100 0.307048 0.320445
0.335804 0.307048 0.320445
0.438541 0.307048 0.320445
0.542770 0.307048 0.320445
0.648183 0.307048 0.320445
0.754579 0.307048 0.320445
0.861818 0.307048 0.320445
0.925000 0.307048 0.320445
0.142392 0.404187 0.320445
0.235100 0.404187 0.320445
0.335804 0.404187 0.320445
0.438541 0.404187 0.320445
0.542770 0.404187 0.320445
0.648183 0.404187 0.320445
0.754579 0.404187 0.320445
0.861818 0.404187 0.320445
0.925000 0.404187 0.320445
0.142392 0.500747 0.320445
0.235100 0.500747 0.320445
0.335804 0.500747 0.320445
0.438541 0.500747 0.320445
0.542770 0.500747 0.320445
0.648183 0.500747 0.320445
0.754579 0.500747 0.320445
0.861818 0.500747 0.320445
0.925000 0.500747 0.320445
0.142392 0.596867 0.320445
0.235100 0.596867 0.320445
0.335804 0.596867 0.320445
0.438541 0.596867 0.320445
0.542770 0.596867 0.320445
0.648183 0.596867 0.320445
0.754579 0.596867 0.320445
0.861818 0.596867 0.320445
0.925000 0.596867 0.320445
0.142392 0.692632 0.320445
0.235100 0.692632 0.320445
0.335804 0.692632 0.320445
0.438541 0.692632 0.320445
0.542770 0.692632 0.320445
0.648183 0.692632 0.320445
0.754579 0.692632 0.320445
0.861818 0.692632 0.320445
0.925000 0.692632 0.320445
0.142392 0.788100 0.320445
0.235100 0.788100 0.320445
0.335804 0.788100 0.320445
0.438541 0.788100 0.320445
0.542770 0.788100 0.320445
0.648183 0.788100 0.320445
0.754579 0.788100 0.320445
0.861818 0.788100 0.320445
0.925000 0.788100 0.320445
0.142392 0.883313 0.320445
0.235100 0.883313 0.320445
0.335804 0.883313 0.320445
0.438541 0.883313 0.320445
0.542770 0.883313 0.320445
0.648183 0.883313 0.320445
0.754579 0.883313 0.320445
0.861818 0.883313 0.320445
0.925000 0.883313 0.320445
0.142392 0.115506 0.424642
0.235100 0.115506 0.424642
0.335804 0.115506 0.424642
0.438541 0.115506 0.424642
0.542770 0.115506 0.424642
0.648183 0.115506 0.424642
0.754579 0.115506 0.424642
0.861818 0.115506 0.424642
0.925000 0.115506 0.424642
0.142392 0.209062 0.424642
0.235100 0.209062 0.424642
0.335804 0.209062 0.424642
0.438541 0.209062 0.424642
0.542770 0.209062 0.424642
0.648183 0.209062 0.424642
0.754579 0.209062 0.424642
0.861818 0.209062 0.424642
0.925000 0.209062 0.424642
0.142392 0.307048 0.424642
0.235100 0.307048 0.424642
0.335804 0.307048 0.424642
0.438541 0.307048 0.424642
0.542770 0.307048 0.424642
0.648183 0.307048 0.424642
0.754579 0.307048 0.424642
0.861818 0.307048 0.424642
0.925000 0.307048 0.424642
0.142392 0.404187 0.424642
0.235100 0.404187 0.424642
0.335804 0.404187 0.424642
0.438541 0.404187 0.424642
0.542770 0.404187 0.424642
0.648183 0.404187 0.424642
0.754579 0.404187 0.424642
0.861818 0.404187 0.424642
0.925000 0.404187 0.424642
0.142392 0.500747 0.424642
0.235100 0.500747 0.424642
0.335804 0.500747 0.424642
0.438541 0.500747 0.424642
0.542770 0.500747 0.424642
0.648183 0.500747 0.424642
0.754579 0.500747 0.424642
0.861818 0.500747 0.424642
0.925000 0.500747 0.424642
0.142392 0.596867 0.424642
0.235100 0.596867 0.424642
0.335804 0.596867 0.424642
0.438541 0.596867 0.424642
0.542770 0.596867 0.424642
0.648183 0.596867 0.424642
0.754579 0.596867 0.424642
0.861818 0.596867 0.424642
0.925000 0.596867 0.424642
0.142392 0.692632 0.424642
0.235100 0.692632 0.424642
0.335804 0.692632 0.424642
0.438541 0.692632 0.424642
0.542770 0.692632 0.424642
0.648183 0.692632 0.424642
0.754579 0.692632 0.424642
0.861818 0.692632 0.424642
0.925000 0.692632 0.424642
0.142392 0.788100 0.424642
0.235100 0.788100 0.424642
0.335804 0.788100 0.424642
0.438541 0.788100 0.424642
0.542770 0.788100 0.424642
0.648183 0.788100 0.424642
0.754579 0.788100 0.424642
0.861818 0.788100 0.424642
0.925000 0.788100 0.424642
0.142392 0.883313 0.424642
0.235100 0.883313 0.424642
0.335804 0.883313 0.424642
0.438541 0.883313 0.424642
0.542770 0.883313 0.424642
0.648183 0.883313 0.424642
0.754579 0.883313 0.424642
0.861818 0.883313 0.424642
0.925000 0.883313 0.424642
0.142392 0.115506 0.529455
0.235100 0.115506 0.529455
0.335804 0.115506 0.529455
0.438541 0.115506 0.529455
0.542770 0.115506 0.529455
0.648183 0.115506 0.529455
0.754579 0.115506 0.529455
0.861818 0.115506 0.529455
0.925000 0.115506 0.529455
0.142392 0.209062 0.529455
0.235100 0.209062 0.529455
0.335804 0.209062 0.529455
0.438541 0.209062 0.529455
0.542770 0.209062 0.529455
0.648183 0.209062 0.529455
0.754579 0.209062 0.529455
0.861818 0.209062 0.529455
0.925000 0.209062 0.529455
0.142392 0.307048 0.529455
0.235100 0.307048 0.529455
0.335804 0.307048 0.529455
0.438541 0.307048 0.529455
0.542770 0.307048 0.529455
0.648183 0.307048 0.529455
0.754579 0.307048 0.529455
0.861818 0.307048 0.529455
0.925000 0.307048 0.529455
0.142392 0.404187 0.529455
0.235100 0.404187 0.529455
0.335804 0.404187 0.529455
0.438541 0.404187 0.529455
0.542770 0.404187 0.529455
0.648183 0.404187 0.529455
0.754579 0.404187 0.529455
0.861818 0.404187 0.529455
0.925000 0.404187 0.529455
0.142392 0.500747 0.529455
0.235100 0.500747 0.529455
0.335804 0.500747 0.529455
0.438541 0.500747 0.529455
0.542770 0.500747 0.529455
0.648183 0.500747 0.529455
0.754579 0.500747 0.529455
0.861818 0.500747 0.529455
0.925000 0.500747 0.529455
0.142392 0.596867 0.529455
0.235100 0.596867 0.529455
0.335804 0.596867 0.529455
0.438541 0.596867 0.529455
0.542770 0.596867 0.529455
0.648183 0.596867 0.529455
0.754579 0.596867 0.529455
0.861818 0.596867 0.529455
0.925000 0.596867 0.529455
0.142392 0.692632 0.529455
0.235100 0.692632 0.529455
0.335804 0.692632 0.529455
0.438541 0.692632 0.529455
0.542770 0.692632 0.529455
0.648183 0.692632 0.529455
0.754579 0.692632 0.529455
0.861818 0.692632 0.529455
0.925000 0.692632 0.529455
0.142392 0.788100 0.529455
0.235100 0.788100 0.529455
0.335804 0.788100 0.529455
0.438541 0.788100 0.529455
0.542770 0.788100 0.529455
0.648183 0.788100 0.529455
0.754579 0.788100 0.529455
0.861818 0.788100 0.529455
0.925000 0.788100 0.529455
0.142392 0.883313 0.529455
0.235100 0.883313 0.529455
0.335804 0.883313 0.529455
0.438541 0.883313 0.529455
0.542770 0.883313 0.529455
0.648183 0.883313 0.529455
0.754579 0.883313 0.529455
0.861818 0.883313 0.529455
0.925000 0.883313 0.529455
0.142392 0.115506 0.634748
0.235100 0.115506 0.634748
0.335804 0.115506 0.634748
0.438541 0.115506 0.634748
0.542770 0.115506 0.634748
0.648183 0.115506 0.634748
0.754579 0.115506 0.634748
0.861818 0.115506 0.634748
0.925000 0.115506 0.634748
0.142392 0.209062 0.634748
0.235100 0.209062 0.634748
0.335804 0.209062 0.634748
0.438541 0.209062 0.634748
0.542770 0.209062 0.634748
0.648183 0.209062 0.634748
0.754579 0.209062 0.634748
0.861818 0.209062 0.634748
0.925000 0.209062 0.634748
0.142392 0.307048 0.634748
0.235100 0.307048 0.634748
0.335804 0.307048 0.634748
0.438541 0.307048 0.634748
0.542770 0.307048 0.634748
0.648183 0.307048 0.634748
0.754579 0.307048 0.634748
0.861818 0.307048 0.634748
0.925000 0.307048 0.634748
0.142392 0.404187 0.634748
0.235100 0.404187 0.634748
0.335804 0.404187 0.634748
0.438541 0.404187 0.634748
0.542770 0.404187 0.634748
0.648183 0.404187 0.634748
0.754579 0.404187 0.634748
0.861818 0.404187 0.634748
0.925000 0.404187 0.634748
0.142392 0.500747 0.634748
0.235100 0.500747 0.634748
0.335804 0.500747 0.634748
0.438541 0.500747 0.634748
0.542770 0.500747 0.634748
0.648183 0.500747 0.634748
0.754579 0.500747 0.634748
0.861818 0.500747 0.634748
0.925000 0.500747 0.634748
0.142392 0.596867 0.634748
0.235100 0.596867 0.634748
0.335804 0.596867 0.634748
0.438541 0.596867 0.634748
0.542770 0.596867 0.634748
0.648183 0.596867 0.634748
0.754579 0.596867 0.634748
0.861818 0.596867 0.634748
0.925000 0.596867 0.634748
0.142392 0.692632 0.634748
0.235100 0.692632 0.634748
0.335804 0.692632 0.634748
0.438541 0.692632 0.634748
0.542770 0.692632 0.634748
0.648183 0.692632 0.634748
0.754579 0.692632 0.634748
0.861818 0.692632 0.634748
0.925000 0.692632 0.634748
0.142392 0.788100 0.634748
0.235100 0.788100 0.634748
0.335804 0.788100 0.634748
0.438541 0.788100 0.634748
0.542770 0.788100 0.634748
0.648183 0.788100 0.634748
0.754579 0.788100 0.634748
0.861818 0.788100 0.634748
0.925000 0.788100 0.634748
0.142392 0.883313 0.634748
0.235100 0.883313 0.634748
0.335804 0.883313 0.634748
0.438541 0.883313 0.634748
0.542770 0.883313 0.634748
0.648183 0.883313 0.634748
0.754579 0.883313 0.634748
0.861818 0.883313 0.634748
0.925000 0.883313 0.634748
0.142392 0.115506 0.740433
0.235100 0.115506 0.740433
0.335804 0.115506 0.740433
0.438541 0.115506 0.740433
0.542770 0.115506 0.740433
0.648183 0.115506 0.740433
0.754579 0.115506 0.740433
0.861818 0.115506 0.740433
0.925000 0.115506 0.740433
0.142392 0.209062 0.740433
0.235100 0.209062 0.740433
0.335804 0.209062 0.740433
0.438541 0.209062 0.740433
0.542770 0.209062 0.740433
0.648183 0.209062 0.740433
0.754579 0.209062 0.740433
0.861818 0.209062 0.740433
0.925000 0.209062 0.740433
0.142392 0.307048 0.740433
0.235100 0.307048 0.740433
0.335804 0.307048 0.740433
0.438541 0.307048 0.740433
0.542770 0.307048 0.740433
0.648183 0.307048 0.740433
0.754579 0.307048 0.740433
0.861818 0.307048 0.740433
0.925000 0.307048 0.740433
0.142392 0.404187 0.740433
0.235100 0.404187 0.740433
0.335804 0.404187 0.740433
0.438541 0.404187 0.740433
0.542770 0.404187 0.740433
0.648183 0.404187 0.740433
0.754579 0.404187 0.740433
0.861818 0.404187 0.740433
0.925000 0.404187 0.740433
0.142392 0.500747 0.740433
0.235100 0.500747 0.740433
0.335804 0.500747 0.740433
0.438541 0.500747 0.740433
0.542770 0.500747 0.740433
0.648183 0.500747 0.740433
0.754579 0.500747 0.740433
0.861818 0.500747 0.740433
0.925000 0.500747 0.740433
0.142392 0.596867 0.740433
0.235100 0.596867 0.740433
0.335804 0.596867 0.740433
0.438541 0.596867 0.740433
0.542770 0.596867 0.740433
0.648183 0.596867 0.740433
0.754579 0.596867 0.740433
0.861818 0.596867 0.740433
0.925000 0.596867 0.740433
0.142392 0.692632 0.740433
0.235100 0.692632 0.740433
0.335804 0.692632 0.740433
0.438541 0.692632 0.740433
0.542770 0.692632 0.740433
0.648183 0.692632 0.740433
0.754579 0.692632 0.740433
0.861818 0.692632 0.740433
0.925000 0.692632 0.740433
0.142392 0.788100 0.740433
0.235100 0.788100 0.740433
0.335804 0.788100 0.740433
0.438541 0.788100 0.740433
0.542770 0.788100 0.740433
0.648183 0.788100 0.740433
0.754579 0.788100 0.740433
0.861818 0.788100 0.740433
0.925000 0.788100 0.740433
0.142392 0.883313 0.740433
0.235100 0.883313 0.740433
0.335804 0.883313 0.740433
0.438541 0.883313 0.740433
0.542770 0.883313 0.740433
0.648183 0.883313 0.740433
0.754579 0.883313 0.740433
0.861818 0.883313 0.740433
0.925000 0.883313 0.740433
0.142392 0.115506 0.846451
0.235100 0.115506 0.846451
0.335804 0.115506 0.846451
0.438541 0.115506 0.846451
0.542770 0.115506 0.846451
0.648183 0.115506 0.846451
0.754579 0.115506 0.846451
0.861818 0.115506 0.846451
0.925000 0.115506 0.846451
0.142392 0.209062 0.846451
0.235100 0.209062 0.846451
0.335804 0.209062 0.846451
0.438541 0.209062 0.846451
0.542770 0.209062 0.846451
0.648183 0.209062 0.846451
0.754579 0.209062 0.846451
0.861818 0.209062 0.846451
0.925000 0.209062 0.846451
0.142392 0.307048 0.846451
0.235100 0.307048 0.846451
0.335804 0.307048 0.846451
0.438541 0.307048 0.846451
0.542770 0.307048 0.846451
0.648183 0.307048 0.846451
0.754579 0.307048 0.846451
0.861818 0.307048 0.846451
0.925000 0.307048 0.846451
0.142392 0.404187 0.846451
0.235100 0.404187 0.846451
0.335804 0.404187 0.846451
0.438541 0.404187 0.846451
0.542770 0.404187 0.846451
0.648183 0.404187 0.846451
0.754579 0.404187 0.846451
0.861818 0.404187 0.846451
0.925000 0.404187 0.846451
0.142392 0.500747 0.846451
0.235100 0.500747 0.846451
0.335804 0.500747 0.846451
0.438541 0.500747 0.846451
0.542770 0.500747 0.846451
0.648183 0.500747 0.846451
0.754579 0.500747 0.846451
0.861818 0.500747 0.846451
0.925000 0.500747 0.846451
0.142392 0.596867 0.846451
0.235100 0.596867 0.846451
0.335804 0.596867 0.846451
0.438541 0.596867 0.846451
0.542770 0.596867 0.846451
0.648183 0.596867 0.846451
0.754579 0.596867 0.846451
0.861818 0.596867 0.846451
0.925000 0.596867 0.846451
0.142392 0.692632 0.846451
0.235100 0.692632 0.846451
0.335804 0.692632 0.846451
0.438541 0.692632 0.846451
0.542770 0.692632 0.846451
0.648183 0.692632 0.846451
0.754579 0.692632 0.846451
0.861818 0.692632 0.846451
0.925000 0.692632 0.846451
0.142392 0.788100 0.846451
0.235100 0.788100 0.846451
0.335804 0.788100 0.846451
0.438541 0.788100 0.846451
0.542770 0.788100 0.846451
0.648183 0.788100 0.846451
0.754579 0.788100 0.846451
0.861818 0.788100 0.846451
0.925000 0.788100 0.846451
0.142392 0.883313 0.846451
0.235100 0.883313 0.846451
0.335804 0.883313 0.846451
0.438541 0.883313 0.846451
0.542770 0.883313 0.846451
0.648183 0.883313 0.846451
0.754579 0.883313 0.846451
0.861818 0.883313 0.846451
0.925000 0.883313 0.846451
0.142392 0.115506 0.935000
0.235100 0.115506 0.935000
0.335804 0.115506 0.935000
0.438541 0.115506 0.935000
0.542770 0.115506 0.935000
0.648183 0.115506 0.935000
0.754579 0.115506 0.935000
0.861818 0.115506 0.935000
0.925000 0.115506 0.935000
0.142392 0.209062 0.935000
0.235100 0.209062 0.935000
0.335804 0.209062 0.935000
0.438541 0.209062 0.935000
0.542770 0.209062 0.935000
0.648183 0.209062 0.935000
0.754579 0.209062 0.935000
0.861818 0.209062 0.935000
0.925000 0.209062 0.935000
0.142392 0.307048 0.935000
0.235100 0.307048 0.935000
0.335804 0.307048 0.935000
0.438541 0.307048 0.935000
0.542770 0.307048 0.935000
0.648183 0.307048 0.935000
0.754579 0.307048 0.935000
0.861818 0.307048 0.935000
0.925000 0.307048 0.935000
0.142392 0.404187 0.935000
0.235100 0.404187 0.935000
0.335804 0.404187 0.935000
0.438541 0.404187 0.935000
0.542770 0.404187 0.935000
0.648183 0.404187 0.935000
0.754579 0.404187 0.935000
0.861818 0.404187 0.935000
0.925000 0.404187 0.935000
0.142392 0.500747 0.935000
0.235100 0.500747 0.935000
0.335804 0.500747 0.935000
0.438541 0.500747 0.935000
0.542770 0.500747 0.935000
0.648183 0.500747 0.935000
0.754579 0.500747 0.935000
0.861818 0.500747 0.935000
0.925000 0.500747 0.935000
0.142392 0.596867 0.935000
0.235100 0.596867 0.935000
0.335804 0.596867 0.935000
0.438541 0.596867 0.935000
0.542770 0.596867 0.935000
0.648183 0.596867 0.935000
0.754579 0.596867 0.935000
0.861818 0.596867 0.935000
0.925000 0.596867 0.935000
0.142392 0.692632 0.935000
0.235100 0.692632 0.935000
0.335804 0.692632 0.935000
0.438541 0.692632 0.935000
0.542770 0.692632 0.935000
0.648183 0.692632 0.935000
0.754579 0.692632 0.935000
0.861818 0.692632 0.935000
0.925000 0.692632 0.935000
0.142392 0.788100 0.935000
0.235100 0.788100 0.935000
0.335804 0.788100 0.935000
0.438541 0.788100 0.935000
0.542770 0.788100 0.935000
0.648183 0.788100 0.935000
0.754579 0.788100 0.935000
0.861818 0.788100 0.935000
0.925000 0.788100 0.935000
0.142392 0.883313 0.935000
0.235100 0.883313 0.935000
0.335804 0.883313 0.935000
0.438541 0.883313 0.935000
0.542770 0.883313 0.935000
0.648183 0.883313 0.935000
0.754579 0.883313 0.935000
0.861818 0.883313 0.935000
0.925000 0.883313 0.935000
