Fotico/Resources/LUTs/petalo.cube
# Petalo
LUT_3D_SIZE 17
0.142392 0.115506 0.120742
0.185834 0.115506 0.120742
0.235100 0.115506 0.120742
0.285148 0.115506 0.120742
0.335804 0.115506 0.120742
0.386960 0.115506 0.120742
0.438541 0.115506 0.120742
0.490492 0.115506 0.120742
0.542770 0.115506 0.120742
0.595343 0.115506 0.120742
0.648183 0.115506 0.120742
0.701268 0.115506 0.120742
0.754579 0.115506 0.120742
0.808100 0.115506 0.120742
0.861818 0.115506 0.120742
0.915720 0.115506 0.120742
0.925000 0.115506 0.120742
0.142392 0.159617 0.120742
0.185834 0.159617 0.120742
0.235100 0.159617 0.120742
0.285148 0.159617 0.120742
0.335804 0.159617 0.120742
0.386960 0.159617 0.120742
0.438541 0.159617 0.120742
0.490492 0.159617 0.120742
0.542770 0.159617 0.120742
0.595343 0.159617 0.120742
0.648183 0.159617 0.120742
0.701268 0.159617 0.120742
0.754579 0.159617 0.120742
0.808100 0.159617 0.120742
0.861818 0.159617 0.120742
0.915720 0.159617 0.120742
0.925000 0.159617 0.120742
0.142392 0.209062 0.120742
0.185834 0.209062 0.120742
0.235100 0.209062 0.120742
0.285148 0.209062 0.120742
0.335804 0.209062 0.120742
0.386960 0.209062 0.120742
0.438541 0.209062 0.120742
0.490492 0.209062 0.120742
0.542770 0.209062 0.120742
0.595343 0.209062 0.120742
0.648183 0.209062 0.120742
0.701268 0.209062 0.120742
0.754579 0.209062 0.120742
0.808100 0.209062 0.120742
0.861818 0.209062 0.120742
0.915720 0.209062 0.120742
0.925000 0.209062 0.120742
0.142392 0.258187 0.120742
0.185834 0.258187 0.120742
0.235100 0.258187 0.120742
0.285148 0.258187 0.120742
0.335804 0.258187 0.120742
0.386960 0.258187 0.120742
0.438541 0.258187 0.120742
0.490492 0.258187 0.120742
0.542770 0.258187 0.120742
0.595343 0.258187 0.120742
0.648183 0.258187 0.120742
0.701268 0.258187 0.120742
0.754579 0.258187 0.120742
0.808100 0.258187 0.120742
0.861818 0.258187 0.120742
0.915720 0.258187 0.120742
0.925000 0.258187 0.120742
0.142392 0.307048 0.120742
0.185834 0.307048 0.120742
0.235100 0.307048 0.120742
0.285148 0.307048 0.120742
0.335804 0.307048 0.120742
0.386960 0.307048 0.120742
0.438541 0.307048 0.120742
0.490492 0.307048 0.120742
0.542770 0.307048 0.120742
0.595343 0.307048 0.120742
0.648183 0.307048 0.120742
0.701268 0.307048 0.120742
0.754579 0.307048 0.120742
0.808100 0.307048 0.120742
0.861818 0.307048 0.120742
0.915720 0.307048 0.120742
0.925000 0.307048 0.120742
0.142392 0.355702 0.120742
0.185834 0.355702 0.120742
0.235100 0.355702 0.120742
0.285148 0.355702 0.120742
0.335804 0.355702 0.120742
0.386960 0.355702 0.120742
0.438541 0.355702 0.120742
0.490492 0.355702 0.120742
0.542770 0.355702 0.120742
0.595343 0.355702 0.120742
0.648183 0.355702 0.120742
0.701268 0.355702 0.120742
0.754579 0.355702 0.120742
0.808100 0.355702 0.120742
0.861818 0.355702 0.120742
0.915720 0.355702 0.120742
0.925000 0.355702 0.120742
0.142392 0.404187 0.120742
0.185834 0.404187 0.120742
0.235100 0.404187 0.120742
0.285148 0.404187 0.120742
0.335804 0.404187 0.120742
0.386960 0.404187 0.120742
0.438541 0.404187 0.120742
0.490492 0.404187 0.120742
0.542770 0.404187 0.120742
0.595343 0.404187 0.120742
0.648183 0.404187 0.120742
0.701268 0.404187 0.120742
0.754579 0.404187 0.120742
0.808100 0.404187 0.120742
0.861818 0.404187 0.120742
0.915720 0.404187 0.120742
0.925000 0.404187 0.120742
0.142392 0.452529 0.120742
0.185834 0.452529 0.120742
0.235100 0.452529 0.120742
0.285148 0.452529 0.120742
0.335804 0.452529 0.120742
0.386960 0.452529 0.120742
0.438541 0.452529 0.120742
0.490492 0.452529 0.120742
0.542770 0.452529 0.120742
0.595343 0.452529 0.120742
0.648183 0.452529 0.120742
0.701268 0.452529 0.120742
0.754579 0.452529 0.120742
0.808100 0.452529 0.120742
0.861818 0.452529 0.120742
0.915720 0.452529 0.120742
0.925000 0.452529 0.120742
0.142392 0.500747 0.120742
0.185834 0.500747 0.120742
0.235100 0.500747 0.120742
0.285148 0.500747 0.120742
0.335804 0.500747 0.120742
0.386960 0.500747 0.120742
0.438541 0.500747 0.120742
0.490492 0.500747 0.120742
0.542770 0.500747 0.120742
0.595343 0.500747 0.120742
0.648183 0.500747 0.120742
0.701268 0.500747 0.120742
0.754579 0.500747 0.120742
0.808100 0.500747 0.120742
0.861818 0.500747 0.120742
0.915720 0.500747 0.120742
0.925000 0.500747 0.120742
0.142392 0.548856 0.120742
0.185834 0.548856 0.120742
0.235100 0.548856 0.120742
0.285148 0.548856 0.120742
0.335804 0.548856 0.120742
0.386960 0.548856 0.120742
0.438541 0.548856 0.120742
0.490492 0.548856 0.120742
0.542770 0.548856 0.120742
0.595343 0.548856 0.120742
0.648183 0.548856 0.120742
0.701268 0.548856 0.120742
0.754579 0.548856 0.120742
0.808100 0.548856 0.120742
0.861818 0.548856 0.120742
0.915720 0.548856 0.120742
0.925000 0.548856 0.120742
0.142392 0.596867 0.120742
0.185834 0.596867 0.120742
0.235100 0.596867 0.120742
0.285148 0.596867 0.120742
0.335804 0.596867 0.120742
0.386960 0.596867 0.120742
0.438541 0.596867 0.120742
0.490492 0.596867 0.120742
0.542770 0.596867 0.120742
0.595343 0.596867 0.120742
0.648183 0.596867 0.120742
0.701268 0.596867 0.120742
0.754579 0.596867 0.120742
0.808100 0.596867 0.120742
0.861818 0.596867 0.120742
0.915720 0.596867 0.120742
0.925000 0.596867 0.120742
0.142392 0.644790 0.120742
0.185834 0.644790 0.120742
0.235100 0.644790 0.120742
0.285148 0.644790 0.120742
0.335804 0.644790 0.120742
0.386960 0.644790 0.120742
0.438541 0.644790 0.120742
0.490492 0.644790 0.120742
0.542770 0.644790 0.120742
0.595343 0.644790 0.120742
0.648183 0.644790 0.120742
0.701268 0.644790 0.120742
0.754579 0.644790 0.120742
0.808100 0.644790 0.120742
0.861818 0.644790 0.120742
0.915720 0.644790 0.120742
0.925000 0.644790 0.120742
0.142392 0.692632 0.120742
0.185834 0.692632 0.120742
0.235100 0.692632 0.120742
0.285148 0.692632 0.120742
0.335804 0.692632 0.120742
0.386960 0.692632 0.120742
0.438541 0.692632 0.120742
0.490492 0.692632 0.120742
0.542770 0.692632 0.120742
0.595343 0.692632 0.120742
0.648183 0.692632 0.120742
0.701268 0.692632 0.120742
0.754579 0.692632 0.120742
0.808100 0.692632 0.120742
0.861818 0.692632 0.120742
0.915720 0.692632 0.120742
0.925000 0.692632 0.120742
0.142392 0.740400 0.120742
0.185834 0.740400 0.120742
0.235100 0.740400 0.120742
0.285148 0.740400 0.120742
0.335804 0.740400 0.120742
0.386960 0.740400 0.120742
0.438541 0.740400 0.120742
0.490492 0.740400 0.120742
0.542770 0.740400 0.120742
0.595343 0.740400 0.120742
0.648183 0.740400 0.120742
0.701268 0.740400 0.120742
0.754579 0.740400 0.120742
0.808100 0.740400 0.120742
0.861818 0.740400 0.120742
0.915720 0.740400 0.120742
0.925000 0.740400 0.120742
0.142392 0.788100 0.120742
0.185834 0.788100 0.120742
0.235100 0.788100 0.120742
0.285148 0.788100 0.120742
0.335804 0.788100 0.120742
0.386960 0.788100 0.120742
0.438541 0.788100 0.120742
0.490492 0.788100 0.120742
0.542770 0.788100 0.120742
0.595343 0.788100 0.120742
0.648183 0.788100 0.120742
0.701268 0.788100 0.120742
0.754579 0.788100 0.120742
0.808100 0.788100 0.120742
0.861818 0.788100 0.120742
0.915720 0.788100 0.120742
0.925000 0.788100 0.120742
0.142392 0.835736 0.120742
0.185834 0.835736 0.120742
0.235100 0.835736 0.120742
0.285148 0.835736 0.120742
0.335804 0.835736 0.120742
0.386960 0.835736 0.120742
0.438541 0.835736 0.120742
0.490492 0.835736 0.120742
0.542770 0.835736 0.120742
0.595343 0.835736 0.120742
0.648183 0.835736 0.120742
0.701268 0.835736 0.120742
0.754579 0.835736 0.120742
0.808100 0.835736 0.120742
0.861818 0.835736 0.120742
0.915720 0.835736 0.120742
0.925000 0.835736 0.120742
0.142392 0.883313 0.120742
0.185834 0.883313 0.120742
0.235100 0.883313 0.120742
0.285148 0.883313 0.120742
0.335804 0.883313 0.120742
0.386960 0.883313 0.120742
0.438541 0.883313 0.120742
0.490492 0.883313 0.120742
0.542770 0.883313 0.120742
0.595343 0.883313 0.120742
0.648183 0.883313 0.120742
0.701268 0.883313 0.120742
0.754579 0.883313 0.120742
0.808100 0.883313 0.120742
0.861818 0.883313 0.120742
0.915720 0.883313 0.120742
0.925000 0.883313 0.120742
0.142392 0.115506 0.165935
0.185834 0.115506 0.165935
0.235100 0.115506 0.165935
0.285148 0.115506 0.165935
0.335804 0.115506 0.165935
0.386960 0.115506 0.165935
0.438541 0.115506 0.165935
0.490492 0.115506 0.165935
0.542770 0.115506 0.165935
0.595343 0.115506 0.165935
0.648183 0.115506 0.165935
0.701268 0.115506 0.165935
0.754579 0.115506 0.165935
0.808100 0.115506 0.165935
0.861818 0.115506 0.165935
0.915720 0.115506 0.165935
0.925000 0.115506 0.165935
0.142392 0.159617 0.165935
0.185834 0.159617 0.165935
0.235100 0.159617 0.165935
0.285148 0.159617 0.165935
0.335804 0.159617 0.165935
0.386960 0.159617 0.165935
0.438541 0.159617 0.165935
0.490492 0.159617 0.165935
0.542770 0.159617 0.165935
0.595343 0.159617 0.165935
0.648183 0.159617 0.165935
0.701268 0.159617 0.165935
0.754579 0.159617 0.165935
0.808100 0.159617 0.165935
0.861818 0.159617 0.165935
0.915720 0.159617 0.165935
0.925000 0.159617 0.165935
0.142392 0.209062 0.165935
0.185834 0.209062 0.165935
0.235100 0.209062 0.165935
0.285148 0.209062 0.165935
0.335804 0.209062 0.165935
0.386960 0.209062 0.165935
0.438541 0.209062 0.165935
0.490492 0.209062 0.165935
0.542770 0.209062 0.165935
0.595343 0.209062 0.165935
0.648183 0.209062 0.165935
0.701268 0.209062 0.165935
0.754579 0.209062 0.165935
0.808100 0.209062 0.165935
0.861818 0.209062 0.165935
0.915720 0.209062 0.165935
0.925000 0.209062 0.165935
0.142392 0.258187 0.165935
0.185834 0.258187 0.165935
0.235100 0.258187 0.165935
0.285148 0.258187 0.165935
0.335804 0.258187 0.165935
0.386960 0.258187 0.165935
0.438541 0.258187 0.165935
0.490492 0.258187 0.165935
0.542770 0.258187 0.165935
0.595343 0.258187 0.165935
0.648183 0.258187 0.165935
0.701268 0.258187 0.165935
0.754579 0.258187 0.165935
0.808100 0.258187 0.165935
0.861818 0.258187 0.165935
0.915720 0.258187 0.165935
0.925000 0.258187 0.165935
0.142392 0.307048 0.165935
0.185834 0.307048 0.165935
0.235100 0.307048 0.165935
0.285148 0.307048 0.165935
0.335804 0.307048 0.165935
0.386960 0.307048 0.165935
0.438541 0.307048 0.165935
0.490492 0.307048 0.165935
0.542770 0.307048 0.165935
0.595343 0.307048 0.165935
0.648183 0.307048 0.165935
0.701268 0.307048 0.165935
0.754579 0.307048 0.165935
0.808100 0.307048 0.165935
0.861818 0.307048 0.165935
0.915720 0.307048 0.165935
0.925000 0.307048 0.165935
0.142392 0.355702 0.165935
0.185834 0.355702 0.165935
0.235100 0.355702 0.165935
0.285148 0.355702 0.165935
0.335804 0.355702 0.165935
0.386960 0.355702 0.165935
0.438541 0.355702 0.165935
0.490492 0.355702 0.165935
0.542770 0.355702 0.165935
0.595343 0.355702 0.165935
0.648183 0.355702 0.165935
0.701268 0.355702 0.165935
0.754579 0.355702 0.165935
0.808100 0.355702 0.165935
0.861818 0.355702 0.165935
0.915720 0.355702 0.165935
0.925000 0.355702 0.165935
0.142392 0.404187 0.165935
0.185834 0.404187 0.165935
0.235100 0.404187 0.165935
0.285148 0.404187 0.165935
0.335804 0.404187 0.165935
0.386960 0.404187 0.165935
0.438541 0.404187 0.165935
0.490492 0.404187 0.165935
0.542770 0.404187 0.165935
0.595343 0.404187 0.165935
0.648183 0.404187 0.165935
0.701268 0.404187 0.165935
0.754579 0.404187 0.165935
0.808100 0.404187 0.165935
0.861818 0.404187 0.165935
0.915720 0.404187 0.165935
0.925000 0.404187 0.165935
0.142392 0.452529 0.165935
0.185834 0.452529 0.165935
0.235100 0.452529 0.165935
0.285148 0.452529 0.165935
0.335804 0.452529 0.165935
0.386960 0.452529 0.165935
0.438541 0.452529 0.165935
0.490492 0.452529 0.165935
0.542770 0.452529 0.165935
0.595343 0.452529 0.165935
0.648183 0.452529 0.165935
0.701268 0.452529 0.165935
0.754579 0.452529 0.165935
0.808100 0.452529 0.165935
0.861818 0.452529 0.165935
0.915720 0.452529 0.165935
0.925000 0.452529 0.165935
0.142392 0.500747 0.165935
0.185834 0.500747 0.165935
0.235100 0.500747 0.165935
0.285148 0.500747 0.165935
0.335804 0.500747 0.165935
0.386960 0.500747 0.165935
0.438541 0.500747 0.165935
0.490492 0.500747 0.165935
0.542770 0.500747 0.165935
0.595343 0.500747 0.165935
0.648183 0.500747 0.165935
0.701268 0.500747 0.165935
0.754579 0.500747 0.165935
0.808100 0.500747 0.165935
0.861818 0.500747 0.165935
0.915720 0.500747 0.165935
0.925000 0.500747 0.165935
0.142392 0.548856 0.165935
0.185834 0.548856 0.165935
0.235100 0.548856 0.165935
0.285148 0.548856 0.165935
0.335804 0.548856 0.165935
0.386960 0.548856 0.165935
0.438541 0.548856 0.165935
0.490492 0.548856 0.165935
0.542770 0.548856 0.165935
0.595343 0.548856 0.165935
0.648183 0.548856 0.165935
0.701268 0.548856 0.165935
0.754579 0.548856 0.165935
0.808100 0.548856 0.165935
0.861818 0.548856 0.165935
0.915720 0.548856 0.165935
0.925000 0.548856 0.165935
0.142392 0.596867 0.165935
0.185834 0.596867 0.165935
0.235100 0.596867 0.165935
0.285148 0.596867 0.165935
0.335804 0.596867 0.165935
0.386960 0.596867 0.165935
0.438541 0.596867 0.165935
0.490492 0.596867 0.165935
0.542770 0.596867 0.165935
0.595343 0.596867 0.165935
0.648183 0.596867 0.165935
0.701268 0.596867 0.165935
0.754579 0.596867 0.165935
0.808100 0.596867 0.165935
0.861818 0.596867 0.165935
0.915720 0.596867 0.165935
0.925000 0.596867 0.165935
0.142392 0.644790 0.165935
0.185834 0.644790 0.165935
0.235100 0.644790 0.165935
0.285148 0.644790 0.165935
0.335804 0.644790 0.165935
0.386960 0.644790 0.165935
0.438541 0.644790 0.165935
0.490492 0.644790 0.165935
0.542770 0.644790 0.165935
0.595343 0.644790 0.165935
0.648183 0.644790 0.165935
0.701268 0.644790 0.165935
0.754579 0.644790 0.165935
0.808100 0.644790 0.165935
0.861818 0.644790 0.165935
0.915720 0.644790 0.165935
0.925000 0.644790 0.165935
0.142392 0.692632 0.165935
0.185834 0.692632 0.165935
0.235100 0.692632 0.165935
0.285148 0.692632 0.165935
0.335804 0.692632 0.165935
0.386960 0.692632 0.165935
0.438541 0.692632 0.165935
0.490492 0.692632 0.165935
0.542770 0.692632 0.165935
0.595343 0.692632 0.165935
0.648183 0.692632 0.165935
0.701268 0.692632 0.165935
0.754579 0.692632 0.165935
0.808100 0.692632 0.165935
0.861818 0.692632 0.165935
0.915720 0.692632 0.165935
0.925000 0.692632 0.165935
0.142392 0.740400 0.165935
0.185834 0.740400 0.165935
0.235100 0.740400 0.165935
0.285148 0.740400 0.165935
0.335804 0.740400 0.165935
0.386960 0.740400 0.165935
0.438541 0.740400 0.165935
0.490492 0.740400 0.165935
0.542770 0.740400 0.165935
0.595343 0.740400 0.165935
0.648183 0.740400 0.165935
0.701268 0.740400 0.165935
0.754579 0.740400 0.165935
0.808100 0.740400 0.165935
0.861818 0.740400 0.165935
0.915720 0.740400 0.165935
0.925000 0.740400 0.165935
0.142392 0.788100 0.165935
0.185834 0.788100 0.165935
0.235100 0.788100 0.165935
0.285148 0.788100 0.165935
0.335804 0.788100 0.165935
0.386960 0.788100 0.165935
0.438541 0.788100 0.165935
0.490492 0.788100 0.165935
0.542770 0.788100 0.165935
0.595343 0.788100 0.165935
0.648183 0.788100 0.165935
0.701268 0.788100 0.165935
0.754579 0.788100 0.165935
0.808100 0.788100 0.165935
0.861818 0.788100 0.165935
0.915720 0.788100 0.165935
0.925000 0.788100 0.165935
0.142392 0.835736 0.165935
0.185834 0.835736 0.165935
0.235100 0.835736 0.165935
0.285148 0.835736 0.165935
0.335804 0.835736 0.165935
0.386960 0.835736 0.165935
0.438541 0.835736 0.165935
0.490492 0.835736 0.165935
0.542770 0.835736 0.165935
0.595343 0.835736 0.165935
0.648183 0.835736 0.165935
0.701268 0.835736 0.165935
0.754579 0.835736 0.165935
0.808100 0.835736 0.165935
0.861818 0.835736 0.165935
0.915720 0.835736 0.165935
0.925000 0.835736 0.165935
0.142392 0.883313 0.165935
0.185834 0.883313 0.165935
0.235100 0.883313 0.165935
0.285148 0.883313 0.165935
0.335804 0.883313 0.165935
0.386960 0.883313 0.165935
0.438541 0.883313 0.165935
0.490492 0.883313 0.165935
0.542770 0.883313 0.165935
0.595343 0.883313 0.165935
0.648183 0.883313 0.165935
0.701268 0.883313 0.165935
0.754579 0.883313 0.165935
0.808100 0.883313 0.165935
0.861818 0.883313 0.165935
0.915720 0.883313 0.165935
0.925000 0.883313 0.165935
0.142392 0.115506 0.217115
0.185834 0.115506 0.217115
0.235100 0.115506 0.217115
0.285148 0.115506 0.217115
0.335804 0.115506 0.217115
0.386960 0.115506 0.217115
0.438541 0.115506 0.217115
0.490492 0.115506 0.217115
0.542770 0.115506 0.217115
0.595343 0.115506 0.217115
0.648183 0.115506 0.217115
0.701268 0.115506 0.217115
0.754579 0.115506 0.217115
0.808100 0.115506 0.217115
0.861818 0.115506 0.217115
0.915720 0.115506 0.217115
0.925000 0.115506 0.217115
0.142392 0.159617 0.217115
0.185834 0.159617 0.217115
0.235100 0.159617 0.217115
0.285148 0.159617 0.217115
0.335804 0.159617 0.217115
0.386960 0.159617 0.217115
0.438541 0.159617 0.217115
0.490492 0.159617 0.217115
0.542770 0.159617 0.217115
0.595343 0.159617 0.217115
0.648183 0.159617 0.217115
0.701268 0.159617 0.217115
0.754579 0.159617 0.217115
0.808100 0.159617 0.217115
0.861818 0.159617 0.217115
0.915720 0.159617 0.217115
0.925000 0.159617 0.217115
0.142392 0.209062 0.217115
0.185834 0.209062 0.217115
0.235100 0.209062 0.217115
0.285148 0.209062 0.217115
0.335804 0.209062 0.217115
0.386960 0.209062 0.217115
0.438541 0.209062 0.217115
0.490492 0.209062 0.217115
0.542770 0.209062 0.217115
0.595343 0.209062 0.217115
0.648183 0.209062 0.217115
0.701268 0.209062 0.217115
0.754579 0.209062 0.217115
0.808100 0.209062 0.217115
0.861818 0.209062 0.217115
0.915720 0.209062 0.217115
0.925000 0.209062 0.217115
0.142392 0.258187 0.217115
0.185834 0.258187 0.217115
0.235100 0.258187 0.217115
0.285148 0.258187 0.217115
0.335804 0.258187 0.217115
0.386960 0.258187 0.217115
0.438541 0.258187 0.217115
0.490492 0.258187 0.217115
0.542770 0.258187 0.217115
0.595343 0.258187 0.217115
0.648183 0.258187 0.217115
0.701268 0.258187 0.217115
0.754579 0.258187 0.217115
0.808100 0.258187 0.217115
0.861818 0.258187 0.217115
0.915720 0.258187 0.217115
0.925000 0.258187 0.217115
0.142392 0.307048 0.217115
0.185834 0.307048 0.217115
0.235100 0.307048 0.217115
0.285148 0.307048 0.217115
0.335804 0.307048 0.217115
0.386960 0.307048 0.217115
0.438541 0.307048 0.217115
0.490492 0.307048 0.217115
0.542770 0.307048 0.217115
0.595343 0.307048 0.217115
0.648183 0.307048 0.217115
0.701268 0.307048 0.217115
0.754579 0.307048 0.217115
0.808100 0.307048 0.217115
0.861818 0.307048 0.217115
0.915720 0.307048 0.217115
0.925000 0.307048 0.217115
0.142392 0.355702 0.217115
0.185834 0.355702 0.217115
0.235100 0.355702 0.217115
0.285148 0.355702 0.217115
0.335804 0.355702 0.217115
0.386960 0.355702 0.217115
0.438541 0.355702 0.217115
0.490492 0.355702 0.217115
0.542770 0.355702 0.217115
0.595343 0.355702 0.217115
0.648183 0.355702 0.217115
0.701268 0.355702 0.217115
0.754579 0.355702 0.217115
0.808100 0.355702 0.217115
0.861818 0.355702 0.217115
0.915720 0.355702 0.217115
0.925000 0.355702 0.217115
0.142392 0.404187 0.217115
0.185834 0.404187 0.217115
0.235100 0.404187 0.217115
0.285148 0.404187 0.217115
0.335804 0.404187 0.217115
0.386960 0.404187 0.217115
0.438541 0.404187 0.217115
0.490492 0.404187 0.217115
0.542770 0.404187 0.217115
0.595343 0.404187 0.217115
0.648183 0.404187 0.217115
0.701268 0.404187 0.217115
0.754579 0.404187 0.217115
0.808100 0.404187 0.217115
0.861818 0.404187 0.217115
0.915720 0.404187 0.217115
0.925000 0.404187 0.217115
0.142392 0.452529 0.217115
0.185834 0.452529 0.217115
0.235100 0.452529 0.217115
0.285148 0.452529 0.217115
0.335804 0.452529 0.217115
0.386960 0.452529 0.217115
0.438541 0.452529 0.217115
0.490492 0.452529 0.217115
0.542770 0.452529 0.217115
0.595343 0.452529 0.217115
0.648183 0.452529 0.217115
0.701268 0.452529 0.217115
0.754579 0.452529 0.217115
0.808100 0.452529 0.217115
0.861818 0.452529 0.217115
0.915720 0.452529 0.217115
0.925000 0.452529 0.217115
0.142392 0.500747 0.217115
0.185834 0.500747 0.217115
0.235100 0.500747 0.217115
0.285148 0.500747 0.217115
0.335804 0.500747 0.217115
0.386960 0.500747 0.217115
0.438541 0.500747 0.217115
0.490492 0.500747 0.217115
0.542770 0.500747 0.217115
0.595343 0.500747 0.217115
0.648183 0.500747 0.217115
0.701268 0.500747 0.217115
0.754579 0.500747 0.217115
0.808100 0.500747 0.217115
0.861818 0.500747 0.217115
0.915720 0.500747 0.217115
0.925000 0.500747 0.217115
0.142392 0.548856 0.217115
0.185834 0.548856 0.217115
0.235100 0.548856 0.217115
0.285148 0.548856 0.217115
0.335804 0.548856 0.217115
0.386960 0.548856 0.217115
0.438541 0.548856 0.217115
0.490492 0.548856 0.217115
0.542770 0.548856 0.217115
0.595343 0.548856 0.217115
0.648183 0.548856 0.217115
0.701268 0.548856 0.217115
0.754579 0.548856 0.217115
0.808100 0.548856 0.217115
0.861818 0.548856 0.217115
0.915720 0.548856 0.217115
0.925000 0.548856 0.217115
0.142392 0.596867 0.217115
0.185834 0.596867 0.217115
0.235100 0.596867 0.217115
0.285148 0.596867 0.217115
0.335804 0.596867 0.217115
0.386960 0.596867 0.217115
0.438541 0.596867 0.217115
0.490492 0.596867 0.217115
0.542770 0.596867 0.217115
0.595343 0.596867 0.217115
0.648183 0.596867 0.217115
0.701268 0.596867 0.217115
0.754579 0.596867 0.217115
0.808100 0.596867 0.217115
0.861818 0.596867 0.217115
0.915720 0.596867 0.217115
0.925000 0.596867 0.217115
0.142392 0.644790 0.217115
0.185834 0.644790 0.217115
0.235100 0.644790 0.217115
0.285148 0.644790 0.217115
0.335804 0.644790 0.217115
0.386960 0.644790 0.217115
0.438541 0.644790 0.217115
0.490492 0.644790 0.217115
0.542770 0.644790 0.217115
0.595343 0.644790 0.217115
0.648183 0.644790 0.217115
0.701268 0.644790 0.217115
0.754579 0.644790 0.217115
0.808100 0.644790 0.217115
0.861818 0.644790 0.217115
0.915720 0.644790 0.217115
0.925000 0.644790 0.217115
0.142392 0.692632 0.217115
0.185834 0.692632 0.217115
0.235100 0.692632 0.217115
0.285148 0.692632 0.217115
0.335804 0.692632 0.217115
0.386960 0.692632 0.217115
0.438541 0.692632 0.217115
0.490492 0.692632 0.217115
0.542770 0.692632 0.217115
0.595343 0.692632 0.217115
0.648183 0.692632 0.217115
0.701268 0.692632 0.217115
0.754579 0.692632 0.217115
0.808100 0.692632 0.217115
0.861818 0.692632 0.217115
0.915720 0.692632 0.217115
0.925000 0.692632 0.217115
0.142392 0.740400 0.217115
0.185834 0.740400 0.217115
0.235100 0.740400 0.217115
0.285148 0.740400 0.217115
0.335804 0.740400 0.217115
0.386960 0.740400 0.217115
0.438541 0.740400 0.217115
0.490492 0.740400 0.217115
0.542770 0.740400 0.217115
0.595343 0.740400 0.217115
0.648183 0.740400 0.217115
0.701268 0.740400 0.217115
0.754579 0.740400 0.217115
0.808100 0.740400 0.217115
0.861818 0.740400 0.217115
0.915720 0.740400 0.217115
0.925000 0.740400 0.217115
0.142392 0.788100 0.217115
0.185834 0.788100 0.217115
0.235100 0.788100 0.217115
0.285148 0.788100 0.217115
0.335804 0.788100 0.217115
0.386960 0.788100 0.217115
0.438541 0.788100 0.217115
0.490492 0.788100 0.217115
0.542770 0.788100 0.217115
0.595343 0.788100 0.217115
0.648183 0.788100 0.217115
0.701268 0.788100 0.217115
0.754579 0.788100 0.217115
0.808100 0.788100 0.217115
0.861818 0.788100 0.217115
0.915720 0.788100 0.217115
0.925000 0.788100 0.217115
0.142392 0.835736 0.217115
0.185834 0.835736 0.217115
0.235100 0.835736 0.217115
0.285148 0.835736 0.217115
0.335804 0.835736 0.217115
0.386960 0.835736 0.217115
0.438541 0.835736 0.217115
0.490492 0.835736 0.217115
0.542770 0.835736 0.217115
0.595343 0.835736 0.217115
0.648183 0.835736 0.217115
0.701268 0.835736 0.217115
0.754579 0.835736 0.217115
0.808100 0.835736 0.217115
0.861818 0.835736 0.217115
0.915720 0.835736 0.217115
0.925000 0.835736 0.217115
0.142392 0.883313 0.217115
0.185834 0.883313 0.217115
0.235100 0.883313 0.217115
0.285148 0.883313 0.217115
0.335804 0.883313 0.217115
0.386960 0.883313 0.217115
0.438541 0.883313 0.217115
0.490492 0.883313 0.217115
0.542770 0.883313 0.217115
0.595343 0.883313 0.217115
0.648183 0.883313 0.217115
0.701268 0.883313 0.217115
0.754579 0.883313 0.217115
0.808100 0.883313 0.217115
0.861818 0.883313 0.217115
0.915720 0.883313 0.217115
0.925000 0.883313 0.217115
0.142392 0.115506 0.268647
0.185834 0.115506 0.268647
0.235100 0.115506 0.268647
0.285148 0.115506 0.268647
0.335804 0.115506 0.268647
0.386960 0.115506 0.268647
0.438541 0.115506 0.268647
0.490492 0.115506 0.268647
0.542770 0.115506 0.268647
0.595343 0.115506 0.268647
0.648183 0.115506 0.268647
0.701268 0.115506 0.268647
0.754579 0.115506 0.268647
0.808100 0.115506 0.268647
0.861818 0.115506 0.268647
0.915720 0.115506 0.268647
0.925000 0.115506 0.268647
0.142392 0.159617 0.268647
0.185834 0.159617 0.268647
0.235100 0.159617 0.268647
0.285148 0.159617 0.268647
