Fotico/Resources/LUTs/petalo.cube
# Petalo
LUT_3D_SIZE 5
0.142392 0.115506 0.120742
0.335804 0.115506 0.120742
0.542770 0.115506 0.120742
0.754579 0.115506 0.120742
0.925000 0.115506 0.120742
0.142392 0.307048 0.120742
0.335804 0.307048 0.120742
0.542770 0.307048 0.120742
0.754579 0.307048 0.120742
0.925000 0.307048 0.120742
0.142392 0.500747 0.120742
0.335804 0.500747 0.120742
0.542770 0.500747 0.120742
0.754579 0.500747 0.120742
0.925000 0.500747 0.120742
0.142392 0.692632 0.120742
0.335804 0.692632 0.120742
0.542770 0.692632 0.120742
0.754579 0.692632 0.120742
0.925000 0.692632 0.120742
0.142392 0.883313 0.120742
0.335804 0.883313 0.120742
0.542770 0.883313 0.120742
0.754579 0.883313 0.120742
0.925000 0.883313 0.120742
0.142392 0.115506 0.320445
0.335804 0.115506 0.320445
0.542770 0.115506 0.320445
0.754579 0.115506 0.320445
0.925000 0.115506 0.320445
0.142392 0.307048 0.320445
0.335804 0.307048 0.320445
0.542770 0.307048 0.320445
0.754579 0.307048 0.320445
0.925000 0.307048 0.320445
0.142392 0.500747 0.320445
0.335804 0.500747 0.320445
0.542770 0.500747 0.320445
0.754579 0.500747 0.320445
0.925000 0.500747 0.320445
0.142392 0.692632 0.320445
0.335804 0.692632 0.320445
0.542770 0.692632 0.320445
0.754579 0.692632 0.320445
0.925000 0.692632 0.320445
0.142392 0.883313 0.320445
0.335804 0.883313 0.320445
0.542770 0.883313 0.320445
0.754579 0.883313 0.320445
0.925000 0.883313 0.320445
0.142392 0.115506 0.529455
0.335804 0.115506 0.529455
0.542770 0.115506 0.529455
0.754579 0.115506 0.529455
0.925000 0.115506 0.529455
0.142392 0.307048 0.529455
0.335804 0.307048 0.529455
0.542770 0.307048 0.529455
0.754579 0.307048 0.529455
0.925000 0.307048 0.529455
0.142392 0.500747 0.529455
0.335804 0.500747 0.529455
0.542770 0.500747 0.529455
0.754579 0.500747 0.529455
0.925000 0.500747 0.529455
0.142392 0.692632 0.529455
0.335804 0.692632 0.529455
0.542770 0.692632 0.529455
0.754579 0.692632 0.529455
0.925000 0.692632 0.529455
0.142392 0.883313 0.529455
0.335804 0.883313 0.529455
0.542770 0.883313 0.529455
0.754579 0.883313 0.529455
0.925000 0.883313 0.529455
0.142392 0.115506 0.740433
0.335804 0.115506 0.740433
0.542770 0.115506 0.740433
0.754579 0.115506 0.740433
0.925000 0.115506 0.740433
0.142392 0.307048 0.740433
0.335804 0.307048 0.740433
0.542770 0.307048 0.740433
0.754579 0.307048 0.740433
0.925000 0.307048 0.740433
0.142392 0.500747 0.740433
0.335804 0.500747 0.740433
0.542770 0.500747 0.740433
0.754579 0.500747 0.740433
0.925000 0.500747 0.740433
0.142392 0.692632 0.740433
0.335804 0.692632 0.740433
0.542770 0.692632 0.740433
0.754579 0.692632 0.740433
0.925000 0.692632 0.740433
0.142392 0.883313 0.740433
0.335804 0.883313 0.740433
0.542770 0.883313 0.740433
0.754579 0.883313 0.740433
0.925000 0.883313 0.740433
0.142392 0.115506 0.935000
0.335804 0.115506 0.935000
0.542770 0.115506 0.935000
0.754579 0.115506 0.935000
0.925000 0.115506 0.935000
0.142392 0.307048 0.935000
0.335804 0.307048 0.935000
0.542770 0.307048 0.935000
0.754579 0.307048 0.935000
0.925000 0.307048 0.935000
0.142392 0.500747 0.935000
0.335804 0.500747 0.935000
0.542770 0.500747 0.935000
0.754579 0.500747 0.935000
0.925000 0.500747 0.935000
0.142392 0.692632 0.935000
0.335804 0.692632 0.935000
0.542770 0.692632 0.935000
0.754579 0.692632 0.935000
0.925000 0.692632 0.935000
0.142392 0.883313 0.935000
0.335804 0.883313 0.935000
0.542770 0.883313 0.935000
0.754579 0.883313 0.935000
0.925000 0.883313 0.935000
