Fotico/Resources/LUTs/polaroid.cube
# Polaroid
LUT_3D_SIZE 9
0.147400 0.110172 0.025474
0.231922 0.113443 0.030625
0.319368 0.116861 0.035961
0.408628 0.120371 0.041412
0.499218 0.123948 0.046946
0.590864 0.127579 0.052547
0.683388 0.131253 0.058203
0.776664 0.134966 0.063907
0.870597 0.138712 0.069652
0.154267 0.204726 0.042998
0.238790 0.207997 0.048150
0.326236 0.211416 0.053486
0.415495 0.214926 0.058936
0.506086 0.218503 0.064470
0.597732 0.222133 0.070071
0.690256 0.225808 0.075728
0.783531 0.229520 0.081431
0.877465 0.233266 0.087177
0.161448 0.301345 0.060914
0.245970 0.304616 0.066065
0.333416 0.308034 0.071401
0.422676 0.311544 0.076852
0.513266 0.315121 0.082386
0.604913 0.318752 0.087987
0.697436 0.322426 0.093643
0.790712 0.326139 0.099347
0.884646 0.329885 0.105093
0.168815 0.399195 0.079063
0.253338 0.402466 0.084215
0.340784 0.405884 0.089551
0.430043 0.409394 0.095001
0.520634 0.412971 0.100535
0.612280 0.416602 0.106136
0.704804 0.420276 0.111793
0.798079 0.423989 0.117496
0.892013 0.427735 0.123242
0.176317 0.497932 0.097380
0.260840 0.501203 0.102532
0.348286 0.504622 0.107868
0.437545 0.508132 0.113318
0.528136 0.511709 0.118853
0.619782 0.515339 0.124454
0.713840 0.519729 0.130323
0.809506 0.524557 0.136358
0.905831 0.529419 0.142434
0.183925 0.597366 0.115830
0.268447 0.600637 0.120982
0.355907 0.604062 0.126319
0.447557 0.608687 0.132101
0.540539 0.613380 0.137967
0.634576 0.618126 0.143899
0.729491 0.622916 0.149887
0.825158 0.627744 0.155922
0.921482 0.632605 0.161999
0.194895 0.698902 0.134842
0.281808 0.703289 0.140325
0.371645 0.707823 0.145992
0.463296 0.712448 0.151774
0.556277 0.717141 0.157640
0.650315 0.721886 0.163572
0.745229 0.726676 0.169560
0.840896 0.731505 0.175595
0.937221 0.736366 0.181672
0.210707 0.803152 0.154608
0.297621 0.807538 0.160091
0.387458 0.812072 0.165758
0.479108 0.816698 0.171540
0.572090 0.821390 0.177406
0.666127 0.826136 0.183338
0.761042 0.830926 0.189326
0.856708 0.835754 0.195361
0.953033 0.840616 0.201437
0.226584 0.907828 0.174454
0.313498 0.912214 0.179937
0.403335 0.916748 0.185605
0.494986 0.921374 0.191386
0.587967 0.926066 0.197252
0.682004 0.930812 0.203184
0.776919 0.935602 0.209172
0.872586 0.940430 0.215207
0.968911 0.945292 0.221284
0.148138 0.111344 0.107834
0.232661 0.114615 0.112985
0.320107 0.118033 0.118321
0.409366 0.121543 0.123772
0.499957 0.125120 0.129306
0.591603 0.128750 0.134907
0.684127 0.132425 0.140563
0.777402 0.136138 0.146267
0.871336 0.139884 0.152013
0.155006 0.205898 0.125358
0.239528 0.209169 0.130510
0.326974 0.212587 0.135846
0.416234 0.216097 0.141296
0.506824 0.219674 0.146831
0.598470 0.223305 0.152432
0.690994 0.226980 0.158088
0.784270 0.230692 0.163792
0.878204 0.234438 0.169537
0.162186 0.302517 0.143274
0.246709 0.305788 0.148425
0.334155 0.309206 0.153761
0.423414 0.312716 0.159212
0.514005 0.316293 0.164746
0.605651 0.319924 0.170347
0.698175 0.323598 0.176004
0.791450 0.327311 0.181707
0.885384 0.331057 0.187453
0.169554 0.400367 0.161423
0.254076 0.403638 0.166575
0.341522 0.407056 0.171911
0.430782 0.410566 0.177361
0.521372 0.414143 0.182895
0.613018 0.417773 0.188496
0.705542 0.421448 0.194153
0.798818 0.425161 0.199857
0.892752 0.428907 0.205602
0.177056 0.499104 0.179741
0.261578 0.502375 0.184892
0.349024 0.505793 0.190228
0.438284 0.509303 0.195679
0.528874 0.512880 0.201213
0.620520 0.516511 0.206814
0.715390 0.521280 0.212795
0.811057 0.526108 0.218830
0.907382 0.530969 0.224907
0.184663 0.598538 0.198190
0.269186 0.601809 0.203342
0.357457 0.605612 0.208792
0.449108 0.610238 0.214574
0.542089 0.614930 0.220440
0.636127 0.619676 0.226372
0.731042 0.624466 0.232359
0.826708 0.629294 0.238395
0.923033 0.634156 0.244471
0.196445 0.700453 0.217315
0.283359 0.704839 0.222798
0.373196 0.709373 0.228465
0.464846 0.713999 0.234247
0.557828 0.718691 0.240113
0.651865 0.723437 0.246045
0.746780 0.728227 0.252032
0.842446 0.733055 0.258068
0.938771 0.737916 0.264144
0.212258 0.804703 0.237081
0.299171 0.809089 0.242563
0.389008 0.813623 0.248231
0.480659 0.818248 0.254013
0.573640 0.822941 0.259878
0.667678 0.827687 0.265811
0.762592 0.832477 0.271798
0.858259 0.837305 0.277833
0.954584 0.842166 0.283910
0.228135 0.909379 0.256927
0.315048 0.913765 0.262410
0.404885 0.918299 0.268077
0.496536 0.922924 0.273859
0.589518 0.927617 0.279725
0.683555 0.932363 0.285657
0.778470 0.937153 0.291645
0.874136 0.941981 0.297680
0.970461 0.946842 0.303756
0.148853 0.112492 0.188944
0.233376 0.115763 0.194096
0.320822 0.119181 0.199432
0.410081 0.122691 0.204882
0.500672 0.126268 0.210417
0.592318 0.129899 0.216018
0.684842 0.133573 0.221674
0.778117 0.137286 0.227378
0.872051 0.141032 0.233123
0.155721 0.207046 0.206469
0.240243 0.210317 0.211620
0.327689 0.213736 0.216956
0.416949 0.217246 0.222407
0.507539 0.220823 0.227941
0.599186 0.224453 0.233542
0.691709 0.228128 0.239198
0.784985 0.231840 0.244902
0.878919 0.235586 0.250647
0.162901 0.303665 0.224384
0.247424 0.306936 0.229536
0.334870 0.310354 0.234872
0.424129 0.313864 0.240322
0.514720 0.317441 0.245857
0.606366 0.321072 0.251458
0.698890 0.324746 0.257114
0.792165 0.328459 0.262818
0.886099 0.332205 0.268563
0.170269 0.401515 0.242534
0.254791 0.404786 0.247685
0.342237 0.408204 0.253021
0.431497 0.411714 0.258472
0.522087 0.415291 0.264006
0.613733 0.418922 0.269607
0.706257 0.422596 0.275263
0.799533 0.426309 0.280967
0.893467 0.430055 0.286712
0.177771 0.500252 0.260851
0.262293 0.503523 0.266003
0.349739 0.506942 0.271339
0.438999 0.510452 0.276789
0.529589 0.514029 0.282323
0.622002 0.518017 0.288031
0.716917 0.522807 0.294018
0.812584 0.527635 0.300054
0.908909 0.532496 0.306130
0.185378 0.599686 0.279301
0.269901 0.602957 0.284452
0.358984 0.607139 0.290015
0.450635 0.611765 0.295797
0.543616 0.616457 0.301663
0.637654 0.621203 0.307595
0.732569 0.625993 0.313583
0.828235 0.630821 0.319618
0.924560 0.635683 0.325694
0.197972 0.701980 0.298538
0.284886 0.706366 0.304021
0.374723 0.710900 0.309688
0.466373 0.715526 0.315470
0.559355 0.720218 0.321336
0.653392 0.724964 0.327268
0.748307 0.729754 0.333256
0.843974 0.734582 0.339291
0.940298 0.739443 0.345367
0.213785 0.806230 0.318304
0.300698 0.810616 0.323786
0.390535 0.815150 0.329454
0.482186 0.819775 0.335236
0.575167 0.824468 0.341101
0.669205 0.829214 0.347034
0.764120 0.834004 0.353021
0.859786 0.838832 0.359056
0.956111 0.843693 0.365133
0.229662 0.910906 0.338150
0.316575 0.915292 0.343633
0.406413 0.919826 0.349300
0.498063 0.924451 0.355082
0.591045 0.929144 0.360948
0.685082 0.933890 0.366880
0.779997 0.938680 0.372868
0.875663 0.943508 0.378903
0.971988 0.948369 0.384979
0.149556 0.113627 0.269379
0.234078 0.116898 0.274531
0.321524 0.120317 0.279867
0.410784 0.123827 0.285317
0.501374 0.127404 0.290852
0.593020 0.131034 0.296453
0.685544 0.134709 0.302109
0.778820 0.138422 0.307813
0.872753 0.142167 0.313558
0.156423 0.208182 0.286904
0.240946 0.211453 0.292055
0.328392 0.214871 0.297391
0.417651 0.218381 0.302842
0.508242 0.221958 0.308376
0.599888 0.225589 0.313977
0.692412 0.229263 0.319634
0.785687 0.232976 0.325337
0.879621 0.236722 0.331083
0.163604 0.304801 0.304820
0.248126 0.308071 0.309971
0.335572 0.311490 0.315307
0.424832 0.315000 0.320758
0.515422 0.318577 0.326292
0.607068 0.322207 0.331893
0.699592 0.325882 0.337549
0.792868 0.329595 0.343253
0.886802 0.333340 0.348998
0.170971 0.402650 0.322969
0.255494 0.405921 0.328120
0.342940 0.409340 0.333456
0.432199 0.412850 0.338907
0.522790 0.416427 0.344441
0.614436 0.420057 0.350042
0.706960 0.423732 0.355699
0.800235 0.427444 0.361402
0.894877 0.431521 0.367246
0.178473 0.501388 0.341286
0.262996 0.504659 0.346438
0.350442 0.508077 0.351774
0.439701 0.511587 0.357224
0.530292 0.515164 0.362759
0.623517 0.519531 0.368578
0.718432 0.524321 0.374566
0.814098 0.529149 0.380601
0.910423 0.534011 0.386678
0.186081 0.600822 0.359736
0.270662 0.604120 0.364896
0.360499 0.608654 0.370563
0.452149 0.613279 0.376345
0.545131 0.617972 0.382210
0.639168 0.622718 0.388143
0.734083 0.627508 0.394130
0.829750 0.632336 0.400165
0.926074 0.637197 0.406242
0.199487 0.703494 0.379086
0.286400 0.707881 0.384568
0.376237 0.712415 0.390236
0.467888 0.717040 0.396018
0.560869 0.721732 0.401883
0.654907 0.726478 0.407816
0.749821 0.731268 0.413803
0.845488 0.736097 0.419838
0.941813 0.740958 0.425915
0.215299 0.807744 0.398851
0.302213 0.812130 0.404334
0.392050 0.816664 0.410002
0.483700 0.821290 0.415783
0.576682 0.825982 0.421649
0.670719 0.830728 0.427581
0.765634 0.835518 0.433569
0.861300 0.840346 0.439604
0.957625 0.845208 0.445681
0.231176 0.912420 0.418698
0.318090 0.916806 0.424181
0.407927 0.921340 0.429848
0.499578 0.925966 0.435630
0.592559 0.930658 0.441495
0.686596 0.935404 0.447428
0.781511 0.940194 0.453415
0.877178 0.945022 0.459451
0.973503 0.949884 0.465527
0.150249 0.114754 0.349347
0.234772 0.118025 0.354499
0.322218 0.121444 0.359835
0.411477 0.124953 0.365285
0.502068 0.128531 0.370820
0.593714 0.132161 0.376421
0.686238 0.135836 0.382077
0.779513 0.139548 0.387781
0.873447 0.143294 0.393526
0.157117 0.209309 0.366872
0.241639 0.212580 0.372023
0.329085 0.215998 0.377359
0.418345 0.219508 0.382810
0.508935 0.223085 0.388344
0.600581 0.226715 0.393945
0.693105 0.230390 0.399602
0.786381 0.234103 0.405305
0.880315 0.237849 0.411051
0.164297 0.305927 0.384788
0.248820 0.309198 0.389939
0.336266 0.312617 0.395275
0.425525 0.316127 0.400726
0.516116 0.319704 0.406260
0.607762 0.323334 0.411861
0.700286 0.327009 0.417517
0.793561 0.330721 0.423221
0.887495 0.334467 0.428966
0.171665 0.403777 0.402937
0.256187 0.407048 0.408088
0.343633 0.410466 0.413424
0.432893 0.413976 0.418875
0.523483 0.417554 0.424409
0.615129 0.421184 0.430010
0.707653 0.424859 0.435667
0.800929 0.428571 0.441370
0.896383 0.433026 0.447326
0.179167 0.502515 0.421254
0.263689 0.505786 0.426406
0.351135 0.509204 0.431742
0.440395 0.512714 0.437192
0.530985 0.516291 0.442727
0.625022 0.521037 0.448659
0.719937 0.525827 0.454647
0.815604 0.530655 0.460682
0.911929 0.535516 0.466758
0.186774 0.601949 0.439704
0.272167 0.605626 0.444976
0.362004 0.610159 0.450643
0.453655 0.614785 0.456425
0.546636 0.619477 0.462291
0.640674 0.624223 0.468223
0.735589 0.629013 0.474211
0.831255 0.633841 0.480246
0.927580 0.638703 0.486322
0.200992 0.705000 0.459166
0.287906 0.709386 0.464649
0.377743 0.713920 0.470316
0.469393 0.718546 0.476098
0.562375 0.723238 0.481964
0.656412 0.727984 0.487896
0.751327 0.732774 0.493884
0.846993 0.737602 0.499919
0.943318 0.742463 0.505995
0.216805 0.809250 0.478932
0.303718 0.813636 0.484415
0.393555 0.818170 0.490082
0.485206 0.822795 0.495864
0.578187 0.827488 0.501729
0.672225 0.832234 0.507662
0.767139 0.837024 0.513649
0.862806 0.841852 0.519685
0.959131 0.846713 0.525761
0.232682 0.913926 0.498778
0.319595 0.918312 0.504261
0.409433 0.922846 0.509929
0.501083 0.927471 0.515710
0.594065 0.932164 0.521576
0.688102 0.936910 0.527508
0.783017 0.941700 0.533496
0.878683 0.946528 0.539531
0.975008 0.951389 0.545608
0.150936 0.115874 0.428958
0.235458 0.119145 0.434110
0.322905 0.122564 0.439446
0.412164 0.126074 0.444896
0.502754 0.129651 0.450430
0.594401 0.133281 0.456031
0.686925 0.136956 0.461688
0.780200 0.140668 0.467391
0.874134 0.144414 0.473137
0.157804 0.210429 0.446482
0.242326 0.213700 0.451634
0.329772 0.217118 0.456970
0.419032 0.220628 0.462420
0.509622 0.224205 0.467955
0.601268 0.227836 0.473556
0.693792 0.231510 0.479212
0.787068 0.235223 0.484916
0.881001 0.238969 0.490661
0.164984 0.307047 0.464398
0.249507 0.310318 0.469550
0.336953 0.313737 0.474886
0.426212 0.317247 0.480336
0.516803 0.320824 0.485871
0.608449 0.324454 0.491472
0.700973 0.328129 0.497128
0.794248 0.331841 0.502832
0.888182 0.335587 0.508577
0.172352 0.404897 0.482547
0.256874 0.408168 0.487699
0.344320 0.411587 0.493035
0.433580 0.415096 0.498485
0.524170 0.418674 0.504020
0.615816 0.422304 0.509621
0.708340 0.425979 0.515277
0.801616 0.429691 0.520981
0.897882 0.434525 0.527049
0.179854 0.503635 0.500865
0.264376 0.506906 0.506016
0.351822 0.510324 0.511352
0.441082 0.513834 0.516803
0.532484 0.517790 0.522450
0.626521 0.522536 0.528382
0.721436 0.527326 0.534370
0.817103 0.532154 0.540405
0.913428 0.537015 0.546481
0.187461 0.603069 0.519314
0.273666 0.607124 0.524699
0.363503 0.611658 0.530366
0.455154 0.616284 0.536148
0.548135 0.620976 0.542014
0.642173 0.625722 0.547946
0.737087 0.630512 0.553934
0.832754 0.635340 0.559969
0.929079 0.640202 0.566045
0.202491 0.706499 0.538889
0.289405 0.710885 0.544372
0.379242 0.715419 0.550039
0.470892 0.720044 0.555821
0.563874 0.724737 0.561687
0.657911 0.729483 0.567619
0.752826 0.734273 0.573607
0.848492 0.739101 0.579642
0.944817 0.743962 0.585718
0.218304 0.810749 0.558655
0.305217 0.815135 0.564138
0.395054 0.819669 0.569805
0.486705 0.824294 0.575587
0.579686 0.828987 0.581453
0.673724 0.833733 0.587385
0.768638 0.838523 0.593372
0.864305 0.843351 0.599408
0.960630 0.848212 0.605484
0.234181 0.915425 0.578501
0.321094 0.919811 0.583984
0.410931 0.924345 0.589652
0.502582 0.928970 0.595433
0.595563 0.933663 0.601299
0.689601 0.938408 0.607231
0.784516 0.943199 0.613219
0.880182 0.948027 0.619254
0.976507 0.952888 0.625331
0.151618 0.116989 0.508279
0.236140 0.120260 0.513431
0.323586 0.123678 0.518767
0.412846 0.127188 0.524217
0.503436 0.130765 0.529751
0.595082 0.134396 0.535352
0.687606 0.138070 0.541009
0.780881 0.141783 0.546712
0.874815 0.145529 0.552458
0.158485 0.211543 0.525803
0.243007 0.214814 0.530955
0.330453 0.218233 0.536291
0.419713 0.221743 0.541741
0.510303 0.225320 0.547276
0.601950 0.228950 0.552877
0.694473 0.232625 0.558533
0.787749 0.236337 0.564237
0.881683 0.240083 0.569982
0.165666 0.308162 0.543719
0.250188 0.311433 0.548871
0.337634 0.314851 0.554207
0.426894 0.318361 0.559657
0.517484 0.321938 0.565192
0.609130 0.325569 0.570793
0.701654 0.329243 0.576449
0.794930 0.332956 0.582153
0.888863 0.336702 0.587898
0.173033 0.406012 0.561868
0.257555 0.409283 0.567020
0.345001 0.412701 0.572356
0.434261 0.416211 0.577806
0.524851 0.419788 0.583341
0.616498 0.423419 0.588942
0.709021 0.427093 0.594598
0.803050 0.431157 0.600406
0.899375 0.436019 0.606483
0.180535 0.504749 0.580186
0.265057 0.508020 0.585337
0.352503 0.511439 0.590673
0.441763 0.514949 0.596124
0.533977 0.519283 0.601883
0.628015 0.524029 0.607816
0.722930 0.528819 0.613803
0.818596 0.533647 0.619838
0.914921 0.538509 0.625915
0.188246 0.604232 0.598650
0.275160 0.608618 0.604133
0.364997 0.613152 0.609800
0.456647 0.617777 0.615582
0.549629 0.622470 0.621447
0.643666 0.627216 0.627380
0.738581 0.632006 0.633367
0.834247 0.636834 0.639402
0.930572 0.641695 0.645479
0.203984 0.707992 0.618323
0.290898 0.712379 0.623806
0.380735 0.716912 0.629473
0.472386 0.721538 0.635255
0.565367 0.726230 0.641120
0.659404 0.730976 0.647053
0.754319 0.735766 0.653040
0.849986 0.740594 0.659075
0.946311 0.745456 0.665152
0.219797 0.812242 0.638088
0.306710 0.816628 0.643571
0.396548 0.821162 0.649239
0.488198 0.825788 0.655020
0.581180 0.830480 0.660886
0.675217 0.835226 0.666818
0.770132 0.840016 0.672806
0.865798 0.844844 0.678841
0.962123 0.849705 0.684918
0.235674 0.916918 0.657935
0.322588 0.921304 0.663418
0.412425 0.925838 0.669085
0.504075 0.930464 0.674867
0.597057 0.935156 0.680733
0.691094 0.939902 0.686665
0.786009 0.944692 0.692653
0.881676 0.949520 0.698688
0.978000 0.954381 0.704764
0.152294 0.118099 0.587357
0.236817 0.121370 0.592508
0.324263 0.124788 0.597844
0.413522 0.128298 0.603295
0.504113 0.131875 0.608829
0.595759 0.135506 0.614430
0.688283 0.139180 0.620087
0.781558 0.142893 0.625790
0.875492 0.146639 0.631536
0.159162 0.212653 0.604881
0.243684 0.215924 0.610033
0.331130 0.219343 0.615369
0.420390 0.222853 0.620819
0.510980 0.226430 0.626354
0.602627 0.230060 0.631955
0.695150 0.233735 0.637611
0.788426 0.237447 0.643315
0.882360 0.241193 0.649060
0.166342 0.309272 0.622797
0.250865 0.312543 0.627949
0.338311 0.315961 0.633285
0.427570 0.319471 0.638735
0.518161 0.323048 0.644269
0.609807 0.326679 0.649870
0.702331 0.330353 0.655527
0.795606 0.334066 0.661230
0.889540 0.337812 0.666976
0.173710 0.407122 0.640946
0.258232 0.410393 0.646098
0.345678 0.413811 0.651434
0.434938 0.417321 0.656884
0.525528 0.420898 0.662419
0.617174 0.424529 0.668020
0.709698 0.428203 0.673676
0.804539 0.432646 0.679597
0.900864 0.437508 0.685673
0.181212 0.505859 0.659264
0.265734 0.509130 0.664415
0.353180 0.512549 0.669751
0.442485 0.516080 0.675208
0.535466 0.520772 0.681074
0.629504 0.525518 0.687006
0.724418 0.530308 0.692994
0.820085 0.535136 0.699029
0.916410 0.539997 0.705105
0.189735 0.605720 0.677840
0.276648 0.610107 0.683323
0.366485 0.614641 0.688990
0.458136 0.619266 0.694772
0.551117 0.623959 0.700638
0.645155 0.628704 0.706570
0.740070 0.633494 0.712558
0.835736 0.638323 0.718593
0.932061 0.643184 0.724669
0.205473 0.709481 0.697513
0.292387 0.713867 0.702996
0.382224 0.718401 0.708663
0.473874 0.723027 0.714445
0.566856 0.727719 0.720311
0.660893 0.732465 0.726243
0.755808 0.737255 0.732231
0.851475 0.742083 0.738266
0.947799 0.746945 0.744342
0.221286 0.813731 0.717279
0.308199 0.818117 0.722762
0.398036 0.822651 0.728429
0.489687 0.827276 0.734211
0.582668 0.831969 0.740076
0.676706 0.836715 0.746009
0.771621 0.841505 0.751996
0.867287 0.846333 0.758031
0.963612 0.851194 0.764108
0.237163 0.918407 0.737125
0.324077 0.922793 0.742608
0.413914 0.927327 0.748275
0.505564 0.931952 0.754057
0.598546 0.936645 0.759923
0.692583 0.941391 0.765855
0.787498 0.946181 0.771843
0.883164 0.951009 0.777878
0.979489 0.955870 0.783955
0.152967 0.119205 0.666225
0.237490 0.122476 0.671377
0.324936 0.125894 0.676713
0.414195 0.129404 0.682163
0.504786 0.132981 0.687697
0.596432 0.136612 0.693298
0.688956 0.140286 0.698955
0.782231 0.143999 0.704659
0.876165 0.147745 0.710404
0.159835 0.213760 0.683749
0.244357 0.217030 0.688901
0.331803 0.220449 0.694237
0.421063 0.223959 0.699687
0.511653 0.227536 0.705222
0.603299 0.231166 0.710823
0.695823 0.234841 0.716479
0.789099 0.238554 0.722183
0.883033 0.242299 0.727928
0.167015 0.310378 0.701665
0.251538 0.313649 0.706817
0.338984 0.317067 0.712153
0.428243 0.320577 0.717603
0.518834 0.324154 0.723138
0.610480 0.327785 0.728739
0.703004 0.331460 0.734395
0.796279 0.335172 0.740099
0.890213 0.338918 0.745844
0.174383 0.408228 0.719814
0.258905 0.411499 0.724966
0.346351 0.414917 0.730302
0.435611 0.418427 0.735752
0.526201 0.422004 0.741287
0.617847 0.425635 0.746888
0.710371 0.429309 0.752544
0.806024 0.434131 0.758577
0.902349 0.438992 0.764654
0.181885 0.506965 0.738132
0.266407 0.510236 0.743283
0.353853 0.513655 0.748619
0.443970 0.517564 0.754189
0.536951 0.522257 0.760054
0.630988 0.527003 0.765987
0.725903 0.531793 0.771974
0.821570 0.536621 0.778009
0.917895 0.541482 0.784086
0.191220 0.607205 0.756821
0.278133 0.611592 0.762304
0.367970 0.616125 0.767971
0.459621 0.620751 0.773753
0.552602 0.625443 0.779618
0.646640 0.630189 0.785551
0.741555 0.634979 0.791538
0.837221 0.639807 0.797573
0.933546 0.644669 0.803650
0.206958 0.710966 0.776494
0.293872 0.715352 0.781977
0.383709 0.719886 0.787644
0.475359 0.724512 0.793426
0.568341 0.729204 0.799291
0.662378 0.733950 0.805224
0.757293 0.738740 0.811211
0.852960 0.743568 0.817246
0.949284 0.748429 0.823323
0.222771 0.815216 0.796259
0.309684 0.819602 0.801742
0.399521 0.824136 0.807410
0.491172 0.828761 0.813191
0.584153 0.833454 0.819057
0.678191 0.838200 0.824989
0.773106 0.842990 0.830977
0.868772 0.847818 0.837012
0.965097 0.852679 0.843089
0.238648 0.919892 0.816106
0.325561 0.924278 0.821589
0.415399 0.928812 0.827256
0.507049 0.933437 0.833038
0.600031 0.938130 0.838904
0.694068 0.942876 0.844836
0.788983 0.947666 0.850824
0.884649 0.952494 0.856859
0.980974 0.957355 0.862935
