Fotico/Resources/LUTs/polaroid.cube
# Polaroid
LUT_3D_SIZE 17
0.147400 0.110172 0.025474
0.189168 0.111783 0.028018
0.231922 0.113443 0.030625
0.275374 0.115138 0.033276
0.319368 0.116861 0.035961
0.363808 0.118607 0.038674
0.408628 0.120371 0.041412
0.453777 0.122152 0.044170
0.499218 0.123948 0.046946
0.544922 0.125757 0.049739
0.590864 0.127579 0.052547
0.637025 0.129411 0.055369
0.683388 0.131253 0.058203
0.729938 0.133105 0.061050
0.776664 0.134966 0.063907
0.823553 0.136835 0.066775
0.870597 0.138712 0.069652
0.150779 0.157092 0.034168
0.192548 0.158702 0.036713
0.235302 0.160363 0.039320
0.278753 0.162058 0.041970
0.322748 0.163781 0.044656
0.367188 0.165526 0.047369
0.412007 0.167291 0.050106
0.457156 0.169072 0.052864
0.502598 0.170868 0.055640
0.548302 0.172677 0.058433
0.594244 0.174498 0.061241
0.640405 0.176331 0.064063
0.686768 0.178173 0.066898
0.733318 0.180025 0.069744
0.780043 0.181886 0.072601
0.826933 0.183755 0.075469
0.873977 0.185632 0.078347
0.154267 0.204726 0.042998
0.196036 0.206337 0.045543
0.238790 0.207997 0.048150
0.282241 0.209693 0.050800
0.326236 0.211416 0.053486
0.370676 0.213161 0.056199
0.415495 0.214926 0.058936
0.460644 0.216707 0.061694
0.506086 0.218503 0.064470
0.551790 0.220312 0.067263
0.597732 0.222133 0.070071
0.643893 0.223965 0.072893
0.690256 0.225808 0.075728
0.736806 0.227660 0.078574
0.783531 0.229520 0.081431
0.830421 0.231389 0.084299
0.877465 0.233266 0.087177
0.157829 0.252849 0.051921
0.199598 0.254460 0.054465
0.242352 0.256120 0.057072
0.285803 0.257816 0.059723
0.329798 0.259539 0.062408
0.374238 0.261284 0.065121
0.419057 0.263049 0.067859
0.464206 0.264830 0.070617
0.509648 0.266626 0.073393
0.555352 0.268435 0.076186
0.601294 0.270256 0.078994
0.647455 0.272088 0.081816
0.693818 0.273931 0.084650
0.740368 0.275783 0.087497
0.787093 0.277643 0.090354
0.833983 0.279512 0.093222
0.881027 0.281389 0.096099
0.161448 0.301345 0.060914
0.203216 0.302956 0.063458
0.245970 0.304616 0.066065
0.289422 0.306311 0.068716
0.333416 0.308034 0.071401
0.377857 0.309780 0.074115
0.422676 0.311544 0.076852
0.467825 0.313325 0.079610
0.513266 0.315121 0.082386
0.558970 0.316931 0.085179
0.604913 0.318752 0.087987
0.651074 0.320584 0.090809
0.697436 0.322426 0.093643
0.743986 0.324278 0.096490
0.790712 0.326139 0.099347
0.837601 0.328008 0.102215
0.884646 0.329885 0.105093
0.165112 0.350143 0.069964
0.206881 0.351753 0.072509
0.249635 0.353414 0.075116
0.293086 0.355109 0.077767
0.337081 0.356832 0.080452
0.381521 0.358578 0.083165
0.426340 0.360342 0.085902
0.471489 0.362123 0.088660
0.516931 0.363919 0.091437
0.562635 0.365728 0.094230
0.608577 0.367550 0.097038
0.654738 0.369382 0.099859
0.701101 0.371224 0.102694
0.747651 0.373076 0.105540
0.794376 0.374937 0.108398
0.841266 0.376806 0.111266
0.888310 0.378683 0.114143
0.168815 0.399195 0.079063
0.210584 0.400805 0.081608
0.253338 0.402466 0.084215
0.296789 0.404161 0.086865
0.340784 0.405884 0.089551
0.385224 0.407630 0.092264
0.430043 0.409394 0.095001
0.475192 0.411175 0.097759
0.520634 0.412971 0.100535
0.566337 0.414780 0.103328
0.612280 0.416602 0.106136
0.658441 0.418434 0.108958
0.704804 0.420276 0.111793
0.751354 0.422128 0.114639
0.798079 0.423989 0.117496
0.844969 0.425858 0.120364
0.892013 0.427735 0.123242
0.172552 0.448467 0.088203
0.214320 0.450077 0.090748
0.257074 0.451738 0.093355
0.300525 0.453433 0.096006
0.344520 0.455156 0.098691
0.388960 0.456901 0.101404
0.433780 0.458666 0.104141
0.478929 0.460447 0.106899
0.524370 0.462243 0.109676
0.570074 0.464052 0.112469
0.616016 0.465874 0.115277
0.662177 0.467706 0.118099
0.708540 0.469548 0.120933
0.755090 0.471400 0.123779
0.801815 0.473261 0.126637
0.849804 0.475642 0.129657
0.898044 0.478077 0.132700
0.176317 0.497932 0.097380
0.218086 0.499543 0.099925
0.260840 0.501203 0.102532
0.304291 0.502899 0.105183
0.348286 0.504622 0.107868
0.392726 0.506367 0.110581
0.437545 0.508132 0.113318
0.482694 0.509913 0.116076
0.528136 0.511709 0.118853
0.573839 0.513518 0.121646
0.619782 0.515339 0.124454
0.666281 0.517329 0.127323
0.713840 0.519729 0.130323
0.761585 0.522139 0.133335
0.809506 0.524557 0.136358
0.857591 0.526984 0.139391
0.905831 0.529419 0.142434
0.180109 0.547571 0.106590
0.221878 0.549182 0.109135
0.264632 0.550842 0.111742
0.308083 0.552537 0.114393
0.352078 0.554260 0.117078
0.396518 0.556006 0.119791
0.441337 0.557770 0.122528
0.486486 0.559551 0.125286
0.532701 0.561708 0.128170
0.579601 0.564075 0.131129
0.626739 0.566454 0.134102
0.674095 0.568844 0.137090
0.721653 0.571244 0.140090
0.769399 0.573654 0.143102
0.817320 0.576072 0.146125
0.865405 0.578499 0.149158
0.913645 0.580934 0.152202
0.183925 0.597366 0.115830
0.225693 0.598977 0.118375
0.268447 0.600637 0.120982
0.311899 0.602333 0.123632
0.355907 0.604062 0.126319
0.401543 0.606365 0.129198
0.447557 0.608687 0.132101
0.493902 0.611026 0.135025
0.540539 0.613380 0.137967
0.587438 0.615747 0.140925
0.634576 0.618126 0.143899
0.681933 0.620516 0.146887
0.729491 0.622916 0.149887
0.777237 0.625325 0.152899
0.825158 0.627744 0.155922
0.873243 0.630171 0.158955
0.921482 0.632605 0.161999
0.187762 0.647305 0.125097
0.229979 0.649125 0.127704
0.273929 0.651343 0.130476
0.318576 0.653596 0.133293
0.363766 0.655876 0.136143
0.409402 0.658180 0.139022
0.455417 0.660502 0.141925
0.501761 0.662841 0.144849
0.548398 0.665194 0.147791
0.595297 0.667561 0.150750
0.642435 0.669940 0.153723
0.689792 0.672330 0.156711
0.737350 0.674730 0.159711
0.785096 0.677140 0.162723
0.833017 0.679558 0.165746
0.881102 0.681985 0.168779
0.929342 0.684420 0.171823
0.194895 0.698902 0.134842
0.237859 0.701071 0.137553
0.281808 0.703289 0.140325
0.326455 0.705542 0.143142
0.371645 0.707823 0.145992
0.417281 0.710126 0.148871
0.463296 0.712448 0.151774
0.509640 0.714787 0.154698
0.556277 0.717141 0.157640
0.603177 0.719507 0.160598
0.650315 0.721886 0.163572
0.697671 0.724276 0.166560
0.745229 0.726676 0.169560
0.792975 0.729086 0.172572
0.840896 0.731505 0.175595
0.888981 0.733931 0.178628
0.937221 0.736366 0.181672
0.202792 0.750970 0.144714
0.245756 0.753139 0.147425
0.289706 0.755357 0.150197
0.334353 0.757610 0.153014
0.379543 0.759891 0.155865
0.425179 0.762194 0.158743
0.471193 0.764516 0.161646
0.517538 0.766855 0.164570
0.564175 0.769209 0.167512
0.611074 0.771575 0.170471
0.658212 0.773954 0.173444
0.705569 0.776344 0.176432
0.753127 0.778745 0.179432
0.800873 0.781154 0.182444
0.848794 0.783573 0.185467
0.896879 0.785999 0.188500
0.945118 0.788434 0.191544
0.210707 0.803152 0.154608
0.253671 0.805320 0.157318
0.297621 0.807538 0.160091
0.342268 0.809792 0.162907
0.387458 0.812072 0.165758
0.433094 0.814375 0.168637
0.479108 0.816698 0.171540
0.525453 0.819037 0.174464
0.572090 0.821390 0.177406
0.618989 0.823757 0.180364
0.666127 0.826136 0.183338
0.713484 0.828526 0.186325
0.761042 0.830926 0.189326
0.808788 0.833336 0.192338
0.856708 0.835754 0.195361
0.904794 0.838181 0.198394
0.953033 0.840616 0.201437
0.218638 0.855440 0.164522
0.261602 0.857608 0.167232
0.305552 0.859826 0.170005
0.350199 0.862080 0.172821
0.395389 0.864360 0.175672
0.441025 0.866663 0.178551
0.487039 0.868986 0.181454
0.533384 0.871325 0.184377
0.580021 0.873678 0.187319
0.626920 0.876045 0.190278
0.674058 0.878424 0.193252
0.721415 0.880814 0.196239
0.768973 0.883214 0.199239
0.816719 0.885624 0.202251
0.864639 0.888042 0.205274
0.912725 0.890469 0.208308
0.960964 0.892904 0.211351
0.226584 0.907828 0.174454
0.269548 0.909996 0.177165
0.313498 0.912214 0.179937
0.358145 0.914468 0.182754
0.403335 0.916748 0.185605
0.448971 0.919051 0.188484
0.494986 0.921374 0.191386
0.541330 0.923713 0.194310
0.587967 0.926066 0.197252
0.634866 0.928433 0.200211
0.682004 0.930812 0.203184
0.729361 0.933202 0.206172
0.776919 0.935602 0.209172
0.824665 0.938012 0.212184
0.872586 0.940430 0.215207
0.920671 0.942857 0.218241
0.968911 0.945292 0.221284
0.147773 0.110762 0.066886
0.189542 0.112373 0.069430
0.232296 0.114033 0.072037
0.275747 0.115729 0.074688
0.319742 0.117451 0.077373
0.364182 0.119197 0.080086
0.409001 0.120961 0.082824
0.454150 0.122743 0.085582
0.499592 0.124539 0.088358
0.545296 0.126348 0.091151
0.591238 0.128169 0.093959
0.637399 0.130001 0.096781
0.683762 0.131844 0.099615
0.730312 0.133695 0.102462
0.777037 0.135556 0.105319
0.823927 0.137425 0.108187
0.870971 0.139302 0.111064
0.151153 0.157682 0.075580
0.192921 0.159292 0.078125
0.235675 0.160953 0.080732
0.279127 0.162648 0.083382
0.323121 0.164371 0.086068
0.367562 0.166117 0.088781
0.412381 0.167881 0.091518
0.457530 0.169662 0.094276
0.502971 0.171458 0.097052
0.548675 0.173267 0.099845
0.594618 0.175089 0.102653
0.640779 0.176921 0.105475
0.687141 0.178763 0.108310
0.733692 0.180615 0.111156
0.780417 0.182476 0.114013
0.827306 0.184345 0.116881
0.874351 0.186222 0.119759
0.154641 0.205317 0.084410
0.196409 0.206927 0.086955
0.239163 0.208588 0.089562
0.282615 0.210283 0.092212
0.326609 0.212006 0.094898
0.371050 0.213751 0.097611
0.415869 0.215516 0.100348
0.461018 0.217297 0.103106
0.506459 0.219093 0.105882
0.552163 0.220902 0.108675
0.598106 0.222723 0.111483
0.644267 0.224556 0.114305
0.690629 0.226398 0.117140
0.737180 0.228250 0.119986
0.783905 0.230111 0.122843
0.830794 0.231980 0.125711
0.877839 0.233857 0.128589
0.158203 0.253440 0.093332
0.199971 0.255050 0.095877
0.242725 0.256710 0.098484
0.286177 0.258406 0.101135
0.330171 0.260129 0.103820
0.374612 0.261874 0.106533
0.419431 0.263639 0.109271
0.464580 0.265420 0.112028
0.510021 0.267216 0.114805
0.555725 0.269025 0.117598
0.601668 0.270846 0.120406
0.647829 0.272679 0.123228
0.694191 0.274521 0.126062
0.740742 0.276373 0.128909
0.787467 0.278234 0.131766
0.834356 0.280103 0.134634
0.881401 0.281979 0.137511
0.161821 0.301935 0.102326
0.203590 0.303546 0.104870
0.246344 0.305206 0.107477
0.289795 0.306902 0.110128
0.333790 0.308625 0.112813
0.378230 0.310370 0.115527
0.423049 0.312135 0.118264
0.468199 0.313916 0.121022
0.513640 0.315712 0.123798
0.559344 0.317521 0.126591
0.605286 0.319342 0.129399
0.651447 0.321174 0.132221
0.697810 0.323017 0.135055
0.744360 0.324869 0.137902
0.791085 0.326729 0.140759
0.837975 0.328598 0.143627
0.885019 0.330475 0.146505
0.165486 0.350733 0.111376
0.207254 0.352344 0.113921
0.250008 0.354004 0.116528
0.293460 0.355699 0.119179
0.337454 0.357422 0.121864
0.381895 0.359168 0.124577
0.426714 0.360932 0.127314
0.471863 0.362713 0.130072
0.517304 0.364509 0.132849
0.563008 0.366319 0.135642
0.608951 0.368140 0.138450
0.655112 0.369972 0.141271
0.701474 0.371814 0.144106
0.748025 0.373666 0.146952
0.794750 0.375527 0.149810
0.841639 0.377396 0.152677
0.888684 0.379273 0.155555
0.169189 0.399785 0.120475
0.210957 0.401396 0.123020
0.253711 0.403056 0.125626
0.297163 0.404751 0.128277
0.341157 0.406474 0.130963
0.385598 0.408220 0.133676
0.430417 0.409984 0.136413
0.475566 0.411766 0.139171
0.521007 0.413561 0.141947
0.566711 0.415371 0.144740
0.612654 0.417192 0.147548
0.658814 0.419024 0.150370
0.705177 0.420867 0.153205
0.751727 0.422718 0.156051
0.798453 0.424579 0.158908
0.845342 0.426448 0.161776
0.892387 0.428325 0.164654
0.172925 0.449057 0.129615
0.214694 0.450668 0.132160
0.257448 0.452328 0.134767
0.300899 0.454023 0.137418
0.344894 0.455746 0.140103
0.389334 0.457492 0.142816
0.434153 0.459256 0.145553
0.479302 0.461037 0.148311
0.524744 0.462833 0.151088
0.570447 0.464643 0.153881
0.616390 0.466464 0.156689
0.662551 0.468296 0.159510
0.708914 0.470138 0.162345
0.755464 0.471990 0.165191
0.802498 0.473995 0.168092
0.850583 0.476422 0.171125
0.898823 0.478857 0.174168
0.176691 0.498523 0.138792
0.218459 0.500133 0.141337
0.261213 0.501793 0.143944
0.304665 0.503489 0.146595
0.348659 0.505212 0.149280
0.393100 0.506957 0.151993
0.437919 0.508722 0.154730
0.483068 0.510503 0.157488
0.528509 0.512299 0.160265
0.574213 0.514108 0.163058
0.620156 0.515929 0.165866
0.667061 0.518109 0.168791
0.714619 0.520509 0.171791
0.762365 0.522919 0.174803
0.810286 0.525337 0.177826
0.858371 0.527764 0.180859
0.906611 0.530198 0.183903
0.180483 0.548161 0.148002
0.222251 0.549772 0.150547
0.265005 0.551432 0.153154
0.308457 0.553128 0.155805
0.352451 0.554851 0.158490
0.396892 0.556596 0.161203
0.441711 0.558360 0.163940
0.486860 0.560142 0.166698
0.533481 0.562488 0.169638
0.580380 0.564855 0.172597
0.627518 0.567234 0.175571
0.674875 0.569624 0.178558
0.722433 0.572024 0.181558
0.770179 0.574434 0.184570
0.818100 0.576852 0.187593
0.866185 0.579279 0.190627
0.914425 0.581713 0.193670
0.184298 0.597957 0.157242
0.226067 0.599567 0.159787
0.268821 0.601227 0.162394
0.312272 0.602923 0.165044
0.356686 0.604842 0.167788
0.402322 0.607145 0.170667
0.448337 0.609467 0.173569
0.494682 0.611806 0.176493
0.541318 0.614159 0.179435
0.588218 0.616526 0.182394
0.635356 0.618905 0.185367
0.682712 0.621295 0.188355
0.730271 0.623695 0.191355
0.778016 0.626105 0.194367
0.825937 0.628523 0.197390
0.874022 0.630950 0.200424
0.922262 0.633385 0.203467
0.188136 0.647895 0.166509
0.230759 0.649904 0.169172
0.274709 0.652122 0.171944
0.319356 0.654375 0.174761
0.364546 0.656656 0.177612
0.410181 0.658959 0.180491
0.456196 0.661281 0.183393
0.502541 0.663620 0.186317
0.549178 0.665974 0.189259
0.596077 0.668341 0.192218
0.643215 0.670720 0.195191
0.690572 0.673110 0.198179
0.738130 0.675510 0.201179
0.785876 0.677920 0.204191
0.833796 0.680338 0.207214
0.881881 0.682765 0.210248
0.930121 0.685199 0.213291
0.195674 0.699682 0.176310
0.238638 0.701850 0.179021
0.282588 0.704068 0.181793
0.327235 0.706322 0.184610
0.372425 0.708602 0.187461
0.418061 0.710905 0.190340
0.464075 0.713228 0.193242
0.510420 0.715566 0.196166
0.557057 0.717920 0.199108
0.603956 0.720287 0.202067
0.651094 0.722666 0.205040
0.698451 0.725056 0.208028
0.746009 0.727456 0.211028
0.793755 0.729866 0.214040
0.841676 0.732284 0.217063
0.889761 0.734711 0.220097
0.938000 0.737145 0.223140
0.203572 0.751750 0.186183
0.246536 0.753918 0.188893
0.290485 0.756136 0.191665
0.335132 0.758390 0.194482
0.380322 0.760670 0.197333
0.425958 0.762973 0.200212
0.471973 0.765296 0.203114
0.518318 0.767635 0.206038
0.564954 0.769988 0.208980
0.611854 0.772355 0.211939
0.658992 0.774734 0.214912
0.706348 0.777124 0.217900
0.753907 0.779524 0.220900
0.801652 0.781934 0.223912
0.849573 0.784352 0.226935
0.897658 0.786779 0.229969
0.945898 0.789214 0.233012
0.211487 0.803932 0.196076
0.254451 0.806100 0.198786
0.298400 0.808318 0.201559
0.343047 0.810571 0.204376
0.388237 0.812852 0.207226
0.433873 0.815155 0.210105
0.479888 0.817477 0.213008
0.526233 0.819816 0.215932
0.572869 0.822170 0.218874
0.619769 0.824537 0.221832
0.666907 0.826916 0.224806
0.714263 0.829306 0.227794
0.761822 0.831706 0.230794
0.809567 0.834115 0.233806
0.857488 0.836534 0.236829
0.905573 0.838961 0.239862
0.953813 0.841395 0.242905
0.219418 0.856220 0.205990
0.262382 0.858388 0.208700
0.306331 0.860606 0.211473
0.350978 0.862859 0.214289
0.396168 0.865140 0.217140
0.441804 0.867443 0.220019
0.487819 0.869765 0.222922
0.534164 0.872104 0.225846
0.580800 0.874458 0.228788
0.627700 0.876825 0.231746
0.674838 0.879204 0.234720
0.722194 0.881594 0.237707
0.769753 0.883994 0.240708
0.817498 0.886403 0.243720
0.865419 0.888822 0.246743
0.913504 0.891249 0.249776
0.961744 0.893683 0.252819
0.227364 0.908608 0.215923
0.270328 0.910776 0.218633
0.314277 0.912994 0.221406
0.358925 0.915247 0.224222
0.404115 0.917528 0.227073
0.449750 0.919831 0.229952
0.495765 0.922153 0.232855
0.542110 0.924492 0.235778
0.588747 0.926846 0.238720
0.635646 0.929213 0.241679
0.682784 0.931592 0.244653
0.730140 0.933982 0.247640
0.777699 0.936382 0.250640
0.825445 0.938791 0.253652
0.873365 0.941210 0.256675
0.921450 0.943637 0.259709
0.969690 0.946071 0.262752
0.148138 0.111344 0.107834
0.189907 0.112954 0.110378
0.232661 0.114615 0.112985
0.276112 0.116310 0.115636
0.320107 0.118033 0.118321
0.364547 0.119778 0.121035
0.409366 0.121543 0.123772
0.454515 0.123324 0.126530
0.499957 0.125120 0.129306
0.545661 0.126929 0.132099
0.591603 0.128750 0.134907
0.637764 0.130583 0.137729
0.684127 0.132425 0.140563
0.730677 0.134277 0.143410
0.777402 0.136138 0.146267
0.824292 0.138007 0.149135
0.871336 0.139884 0.152013
0.151518 0.158263 0.116528
0.193286 0.159874 0.119073
0.236040 0.161534 0.121680
0.279492 0.163230 0.124331
0.323486 0.164953 0.127016
0.367927 0.166698 0.129729
0.412746 0.168463 0.132466
0.457895 0.170244 0.135224
0.503336 0.172040 0.138001
0.549040 0.173849 0.140794
0.594982 0.175670 0.143602
0.641143 0.177502 0.146423
0.687506 0.179345 0.149258
0.734056 0.181197 0.152104
0.780782 0.183057 0.154962
0.827671 0.184926 0.157829
0.874716 0.186803 0.160707
0.155006 0.205898 0.125358
0.196774 0.207509 0.127903
0.239528 0.209169 0.130510
0.282980 0.210865 0.133161
0.326974 0.212587 0.135846
0.371415 0.214333 0.138559
0.416234 0.216097 0.141296
0.461383 0.217879 0.144054
0.506824 0.219674 0.146831
0.552528 0.221484 0.149623
0.598470 0.223305 0.152432
0.644631 0.225137 0.155253
0.690994 0.226980 0.158088
0.737544 0.228831 0.160934
0.784270 0.230692 0.163792
0.831159 0.232561 0.166659
0.878204 0.234438 0.169537
0.158568 0.254021 0.134281
0.200336 0.255632 0.136825
0.243090 0.257292 0.139432
0.286542 0.258988 0.142083
0.330536 0.260710 0.144768
0.374977 0.262456 0.147482
0.419796 0.264220 0.150219
0.464945 0.266002 0.152977
0.510386 0.267797 0.155753
0.556090 0.269607 0.158546
0.602033 0.271428 0.161354
0.648193 0.273260 0.164176
0.694556 0.275103 0.167010
0.741106 0.276954 0.169857
0.787832 0.278815 0.172714
0.834721 0.280684 0.175582
0.881766 0.282561 0.178459
0.162186 0.302517 0.143274
0.203955 0.304127 0.145819
0.246709 0.305788 0.148425
0.290160 0.307483 0.151076
0.334155 0.309206 0.153761
0.378595 0.310951 0.156475
0.423414 0.312716 0.159212
0.468563 0.314497 0.161970
0.514005 0.316293 0.164746
0.559709 0.318102 0.167539
0.605651 0.319924 0.170347
0.651812 0.321756 0.173169
0.698175 0.323598 0.176004
0.744725 0.325450 0.178850
0.791450 0.327311 0.181707
0.838340 0.329180 0.184575
0.885384 0.331057 0.187453
0.165851 0.351315 0.152324
0.207619 0.352925 0.154869
0.250373 0.354585 0.157476
0.293825 0.356281 0.160127
0.337819 0.358004 0.162812
0.382260 0.359749 0.165525
0.427079 0.361514 0.168262
0.472228 0.363295 0.171020
0.517669 0.365091 0.173797
0.563373 0.366900 0.176590
0.609315 0.368721 0.179398
0.655476 0.370554 0.182220
0.701839 0.372396 0.185054
0.748389 0.374248 0.187900
0.795115 0.376109 0.190758
0.842004 0.377978 0.193626
0.889049 0.379854 0.196503
0.169554 0.400367 0.161423
0.211322 0.401977 0.163968
0.254076 0.403638 0.166575
0.297528 0.405333 0.169226
0.341522 0.407056 0.171911
0.385963 0.408801 0.174624
0.430782 0.410566 0.177361
0.475931 0.412347 0.180119
0.521372 0.414143 0.182895
0.567076 0.415952 0.185688
0.613018 0.417773 0.188496
0.659179 0.419606 0.191318
0.705542 0.421448 0.194153
0.752092 0.423300 0.196999
0.798818 0.425161 0.199857
0.845707 0.427030 0.202724
0.892752 0.428907 0.205602
0.173290 0.449639 0.170563
0.215058 0.451249 0.173108
0.257812 0.452909 0.175715
0.301264 0.454605 0.178366
0.345258 0.456328 0.181051
0.389699 0.458073 0.183764
0.434518 0.459838 0.186501
0.479667 0.461619 0.189259
0.525108 0.463415 0.192036
0.570812 0.465224 0.194829
0.616755 0.467045 0.197637
0.662916 0.468877 0.200459
0.709278 0.470720 0.203293
0.755829 0.472572 0.206140
0.803269 0.474766 0.209096
0.851354 0.477193 0.212130
0.899594 0.479628 0.215173
0.177056 0.499104 0.179741
0.218824 0.500715 0.182285
0.261578 0.502375 0.184892
0.305030 0.504070 0.187543
0.349024 0.505793 0.190228
0.393465 0.507539 0.192941
0.438284 0.509303 0.195679
0.483433 0.511084 0.198437
0.528874 0.512880 0.201213
0.574578 0.514690 0.204006
0.620520 0.516511 0.206814
0.667832 0.518880 0.209795
0.715390 0.521280 0.212795
0.763136 0.523690 0.215807
0.811057 0.526108 0.218830
0.859142 0.528535 0.221864
0.907382 0.530969 0.224907
0.180848 0.548743 0.188950
0.222616 0.550353 0.191495
0.265370 0.552014 0.194102
0.308822 0.553709 0.196753
0.352816 0.555432 0.199438
0.397256 0.557177 0.202151
0.442076 0.558942 0.204889
0.487615 0.560905 0.207701
0.534252 0.563259 0.210643
0.581151 0.565626 0.213601
0.628289 0.568005 0.216575
0.675646 0.570395 0.219562
0.723204 0.572795 0.222563
0.770950 0.575204 0.225575
0.818871 0.577623 0.228598
0.866956 0.580050 0.231631
0.915195 0.582484 0.234674
0.184663 0.598538 0.198190
0.226432 0.600149 0.200735
0.269186 0.601809 0.203342
0.312637 0.603504 0.205993
0.357457 0.605612 0.208792
0.403093 0.607916 0.211671
0.449108 0.610238 0.214574
0.495453 0.612577 0.217497
0.542089 0.614930 0.220440
0.588989 0.617297 0.223398
0.636127 0.619676 0.226372
0.683483 0.622066 0.229359
0.731042 0.624466 0.232359
0.778787 0.626876 0.235372
0.826708 0.629294 0.238395
0.874793 0.631721 0.241428
0.923033 0.634156 0.244471
0.188566 0.648507 0.207466
0.231530 0.650675 0.210176
0.275479 0.652893 0.212949
0.320127 0.655146 0.215765
0.365317 0.657427 0.218616
0.410952 0.659730 0.221495
0.456967 0.662052 0.224398
0.503312 0.664391 0.227321
0.549949 0.666745 0.230264
0.596848 0.669112 0.233222
0.643986 0.671491 0.236196
0.691342 0.673881 0.239183
0.738901 0.676281 0.242184
0.786646 0.678690 0.245196
0.834567 0.681109 0.248219
0.882652 0.683536 0.251252
0.930892 0.685970 0.254295
0.196445 0.700453 0.217315
0.239409 0.702621 0.220025
0.283359 0.704839 0.222798
0.328006 0.707092 0.225614
0.373196 0.709373 0.228465
0.418832 0.711676 0.231344
0.464846 0.713999 0.234247
0.511191 0.716337 0.237170
0.557828 0.718691 0.240113
0.604727 0.721058 0.243071
0.651865 0.723437 0.246045
0.699222 0.725827 0.249032
0.746780 0.728227 0.252032
0.794526 0.730637 0.255045
0.842446 0.733055 0.258068
0.890532 0.735482 0.261101
0.938771 0.737916 0.264144
0.204343 0.752521 0.227187
0.247307 0.754689 0.229897
0.291256 0.756907 0.232670
0.335903 0.759161 0.235486
0.381093 0.761441 0.238337
0.426729 0.763744 0.241216
0.472744 0.766067 0.244119
0.519089 0.768406 0.247043
0.565725 0.770759 0.249985
0.612625 0.773126 0.252943
0.659763 0.775505 0.255917
0.707119 0.777895 0.258904
0.754678 0.780295 0.261905
0.802423 0.782705 0.264917
0.850344 0.785123 0.267940
0.898429 0.787550 0.270973
0.946669 0.789984 0.274016
0.212258 0.804703 0.237081
0.255222 0.806871 0.239791
0.299171 0.809089 0.242563
0.343818 0.811342 0.245380
0.389008 0.813623 0.248231
0.434644 0.815926 0.251110
0.480659 0.818248 0.254013
0.527003 0.820587 0.256936
0.573640 0.822941 0.259878
0.620540 0.825308 0.262837
0.667678 0.827687 0.265811
0.715034 0.830077 0.268798
0.762592 0.832477 0.271798
0.810338 0.834886 0.274810
0.858259 0.837305 0.277833
0.906344 0.839732 0.280867
0.954584 0.842166 0.283910
0.220189 0.856991 0.246994
0.263153 0.859159 0.249705
0.307102 0.861377 0.252477
0.351749 0.863630 0.255294
0.396939 0.865911 0.258145
0.442575 0.868214 0.261024
0.488590 0.870536 0.263926
0.534935 0.872875 0.266850
0.581571 0.875229 0.269792
0.628471 0.877596 0.272751
0.675609 0.879975 0.275724
0.722965 0.882365 0.278712
0.770523 0.884765 0.281712
0.818269 0.887174 0.284724
0.866190 0.889593 0.287747
0.914275 0.892020 0.290780
0.962515 0.894454 0.293824
0.228135 0.909379 0.256927
0.271099 0.911547 0.259637
0.315048 0.913765 0.262410
0.359695 0.916018 0.265227
0.404885 0.918299 0.268077
0.450521 0.920602 0.270956
0.496536 0.922924 0.273859
0.542881 0.925263 0.276783
0.589518 0.927617 0.279725
0.636417 0.929984 0.282683
0.683555 0.932363 0.285657
0.730911 0.934753 0.288645
0.778470 0.937153 0.291645
0.826215 0.939562 0.294657
0.874136 0.941981 0.297680
0.922221 0.944408 0.300713
0.970461 0.946842 0.303756
0.148498 0.111920 0.148494
0.190266 0.113530 0.151039
0.233020 0.115191 0.153645
0.276472 0.116886 0.156296
0.320466 0.118609 0.158981
0.364907 0.120354 0.161695
0.409726 0.122119 0.164432
0.454875 0.123900 0.167190
0.500316 0.125696 0.169966
0.546020 0.127505 0.172759
0.591962 0.129327 0.175567
0.638123 0.131159 0.178389
0.684486 0.133001 0.181224
0.731036 0.134853 0.184070
0.777762 0.136714 0.186927
0.824651 0.138583 0.189795
0.871696 0.140460 0.192673
0.151877 0.158839 0.157188
0.193646 0.160450 0.159733
0.236400 0.162110 0.162340
