Fotico/Resources/LUTs/polaroid.cube
# Polaroid
LUT_3D_SIZE 5
0.147400 0.110172 0.025474
0.319368 0.116861 0.035961
0.499218 0.123948 0.046946
0.683388 0.131253 0.058203
0.870597 0.138712 0.069652
0.161448 0.301345 0.060914
0.333416 0.308034 0.071401
0.513266 0.315121 0.082386
0.697436 0.322426 0.093643
0.884646 0.329885 0.105093
0.176317 0.497932 0.097380
0.348286 0.504622 0.107868
0.528136 0.511709 0.118853
0.713840 0.519729 0.130323
0.905831 0.529419 0.142434
0.194895 0.698902 0.134842
0.371645 0.707823 0.145992
0.556277 0.717141 0.157640
0.745229 0.726676 0.169560
0.937221 0.736366 0.181672
0.226584 0.907828 0.174454
0.403335 0.916748 0.185605
0.587967 0.926066 0.197252
0.776919 0.935602 0.209172
0.968911 0.945292 0.221284
0.148853 0.112492 0.188944
0.320822 0.119181 0.199432
0.500672 0.126268 0.210417
0.684842 0.133573 0.221674
0.872051 0.141032 0.233123
0.162901 0.303665 0.224384
0.334870 0.310354 0.234872
0.514720 0.317441 0.245857
0.698890 0.324746 0.257114
0.886099 0.332205 0.268563
0.177771 0.500252 0.260851
0.349739 0.506942 0.271339
0.529589 0.514029 0.282323
0.716917 0.522807 0.294018
0.908909 0.532496 0.306130
0.197972 0.701980 0.298538
0.374723 0.710900 0.309688
0.559355 0.720218 0.321336
0.748307 0.729754 0.333256
0.940298 0.739443 0.345367
0.229662 0.910906 0.338150
0.406413 0.919826 0.349300
0.591045 0.929144 0.360948
0.779997 0.938680 0.372868
0.971988 0.948369 0.384979
0.150249 0.114754 0.349347
0.322218 0.121444 0.359835
0.502068 0.128531 0.370820
0.686238 0.135836 0.382077
0.873447 0.143294 0.393526
0.164297 0.305927 0.384788
0.336266 0.312617 0.395275
0.516116 0.319704 0.406260
0.700286 0.327009 0.417517
0.887495 0.334467 0.428966
0.179167 0.502515 0.421254
0.351135 0.509204 0.431742
0.530985 0.516291 0.442727
0.719937 0.525827 0.454647
0.911929 0.535516 0.466758
0.200992 0.705000 0.459166
0.377743 0.713920 0.470316
0.562375 0.723238 0.481964
0.751327 0.732774 0.493884
0.943318 0.742463 0.505995
0.232682 0.913926 0.498778
0.409433 0.922846 0.509929
0.594065 0.932164 0.521576
0.783017 0.941700 0.533496
0.975008 0.951389 0.545608
0.151618 0.116989 0.508279
0.323586 0.123678 0.518767
0.503436 0.130765 0.529751
0.687606 0.138070 0.541009
0.874815 0.145529 0.552458
0.165666 0.308162 0.543719
0.337634 0.314851 0.554207
0.517484 0.321938 0.565192
0.701654 0.329243 0.576449
0.888863 0.336702 0.587898
0.180535 0.504749 0.580186
0.352503 0.511439 0.590673
0.533977 0.519283 0.601883
0.722930 0.528819 0.613803
0.914921 0.538509 0.625915
0.203984 0.707992 0.618323
0.380735 0.716912 0.629473
0.565367 0.726230 0.641120
0.754319 0.735766 0.653040
0.946311 0.745456 0.665152
0.235674 0.916918 0.657935
0.412425 0.925838 0.669085
0.597057 0.935156 0.680733
0.786009 0.944692 0.692653
0.978000 0.954381 0.704764
0.152967 0.119205 0.666225
0.324936 0.125894 0.676713
0.504786 0.132981 0.687697
0.688956 0.140286 0.698955
0.876165 0.147745 0.710404
0.167015 0.310378 0.701665
0.338984 0.317067 0.712153
0.518834 0.324154 0.723138
0.703004 0.331460 0.734395
0.890213 0.338918 0.745844
0.181885 0.506965 0.738132
0.353853 0.513655 0.748619
0.536951 0.522257 0.760054
0.725903 0.531793 0.771974
0.917895 0.541482 0.784086
0.206958 0.710966 0.776494
0.383709 0.719886 0.787644
0.568341 0.729204 0.799291
0.757293 0.738740 0.811211
0.949284 0.748429 0.823323
0.238648 0.919892 0.816106
0.415399 0.928812 0.827256
0.600031 0.938130 0.838904
0.788983 0.947666 0.850824
0.980974 0.957355 0.862935
