Fotico/Resources/LUTs/portra.cube
TITLE "Portra 400"
LUT_3D_SIZE 9
0.016267 0.009713 0.003176
0.117539 0.019162 0.012329
0.227894 0.026497 0.019373
0.347918 0.031700 0.024289
0.478226 0.034760 0.027066
0.615669 0.035668 0.027699
0.752841 0.034423 0.026184
0.869355 0.031028 0.022526
0.923382 0.028709 0.020087
0.033021 0.118039 0.018808
0.137776 0.127235 0.023922
0.251861 0.134228 0.026899
0.375878 0.139004 0.027730
0.510428 0.141550 0.026415
0.649832 0.141861 0.022956
0.783174 0.139936 0.017361
0.900705 0.135780 0.009643
0.955107 0.133080 0.005321
0.042017 0.236497 0.026713
0.149986 0.245409 0.027744
0.267524 0.252026 0.026627
0.395248 0.256334 0.023367
0.533495 0.258324 0.017970
0.675034 0.257990 0.010449
0.806154 0.255335 0.000823
0.914092 0.255036 0.000000
0.962500 0.255036 0.000000
0.043176 0.365775 0.026822
0.154067 0.374368 0.023760
0.274758 0.380570 0.018561
0.405881 0.384368 0.011237
0.547470 0.385753 0.001805
0.685380 0.385749 0.000000
0.806925 0.385749 0.000000
0.914092 0.385749 0.000000
0.962500 0.385749 0.000000
0.036488 0.506580 0.019133
0.149986 0.514767 0.012006
0.273505 0.520456 0.002769
0.408040 0.521536 0.000000
0.548276 0.521536 0.000000
0.685380 0.521536 0.000000
0.806925 0.521536 0.000000
0.914092 0.521536 0.000000
0.962500 0.521536 0.000000
0.022011 0.652995 0.003715
0.142810 0.655819 0.000000
0.272669 0.655819 0.000000
0.408040 0.655819 0.000000
0.548276 0.655819 0.000000
0.685380 0.655819 0.000000
0.806925 0.655819 0.000000
0.914092 0.655819 0.000000
0.962500 0.655819 0.000000
0.018464 0.779665 0.000000
0.142810 0.779665 0.000000
0.272669 0.779665 0.000000
0.408040 0.779665 0.000000
0.548276 0.779665 0.000000
0.685380 0.779665 0.000000
0.806925 0.779665 0.000000
0.914092 0.779665 0.000000
0.962500 0.779665 0.000000
0.018464 0.884962 0.000000
0.142810 0.884962 0.000000
0.272669 0.884962 0.000000
0.408040 0.884962 0.000000
0.548276 0.884962 0.000000
0.685380 0.884962 0.000000
0.806925 0.884962 0.000000
0.914092 0.884962 0.000000
0.962500 0.884962 0.000000
0.018464 0.962500 0.000000
0.142810 0.962500 0.000000
0.272669 0.962500 0.000000
0.408040 0.962500 0.000000
0.548276 0.962500 0.000000
0.685380 0.962500 0.000000
0.806925 0.962500 0.000000
0.914092 0.962500 0.000000
0.962500 0.962500 0.000000
0.019463 0.012818 0.076607
0.121309 0.021624 0.088276
0.232278 0.028311 0.097791
0.352959 0.032861 0.105128
0.483969 0.035265 0.110272
0.621745 0.035517 0.113209
0.758196 0.033615 0.113934
0.874855 0.029565 0.112444
0.928933 0.026942 0.110991
0.034984 0.121076 0.096998
0.140271 0.129602 0.104539
0.254928 0.135920 0.109887
0.379557 0.140017 0.113029
0.514734 0.141882 0.113960
0.654459 0.141511 0.112675
0.787337 0.138905 0.109179
0.905056 0.134070 0.103480
0.959531 0.131054 0.100070
0.042730 0.239458 0.109483
0.151186 0.247671 0.112831
0.269249 0.253585 0.113966
0.397539 0.257187 0.112888
0.536337 0.258468 0.109597
0.678247 0.257426 0.104102
0.806925 0.255036 0.098364
0.914092 0.255036 0.098364
0.962500 0.255036 0.098364
0.042632 0.368649 0.113954
0.153963 0.376514 0.113081
0.275128 0.381983 0.109996
0.406764 0.385046 0.104705
0.548276 0.385749 0.098364
0.685380 0.385749 0.098364
0.806925 0.385749 0.098364
0.914092 0.385749 0.098364
0.962500 0.385749 0.098364
0.034693 0.509343 0.110375
0.148578 0.516767 0.105289
0.272669 0.521536 0.098364
0.408040 0.521536 0.098364
0.548276 0.521536 0.098364
0.685380 0.521536 0.098364
0.806925 0.521536 0.098364
0.914092 0.521536 0.098364
0.962500 0.521536 0.098364
0.018981 0.655439 0.098776
0.142810 0.655819 0.098364
0.272669 0.655819 0.098364
0.408040 0.655819 0.098364
0.548276 0.655819 0.098364
0.685380 0.655819 0.098364
0.806925 0.655819 0.098364
0.914092 0.655819 0.098364
0.962500 0.655819 0.098364
0.018464 0.779665 0.098364
0.142810 0.779665 0.098364
0.272669 0.779665 0.098364
0.408040 0.779665 0.098364
0.548276 0.779665 0.098364
0.685380 0.779665 0.098364
0.806925 0.779665 0.098364
0.914092 0.779665 0.098364
0.962500 0.779665 0.098364
0.018464 0.884962 0.098364
0.142810 0.884962 0.098364
0.272669 0.884962 0.098364
0.408040 0.884962 0.098364
0.548276 0.884962 0.098364
0.685380 0.884962 0.098364
0.806925 0.884962 0.098364
0.914092 0.884962 0.098364
0.962500 0.884962 0.098364
0.018464 0.962500 0.098364
0.142810 0.962500 0.098364
0.272669 0.962500 0.098364
0.408040 0.962500 0.098364
0.548276 0.962500 0.098364
0.685380 0.962500 0.098364
0.806925 0.962500 0.098364
0.914092 0.962500 0.098364
0.962500 0.962500 0.098364
0.022738 0.015995 0.161170
0.125206 0.024095 0.175744
0.236840 0.030069 0.188116
0.358232 0.033903 0.198260
0.490003 0.035589 0.206152
0.628130 0.035121 0.211774
0.763839 0.032501 0.215114
0.880665 0.027735 0.216165
0.934803 0.024780 0.215870
0.036905 0.124169 0.187061
0.142768 0.131959 0.197412
0.258042 0.137537 0.205514
0.383335 0.140888 0.211348
0.519180 0.142007 0.214900
0.659264 0.140889 0.216164
0.791683 0.137537 0.215135
0.909615 0.131960 0.211816
0.962500 0.129525 0.210144
0.043280 0.242456 0.204857
0.152262 0.249904 0.210902
0.270891 0.255046 0.214667
0.399790 0.257874 0.216143
0.539184 0.258379 0.215327
0.681511 0.256561 0.212221
0.806925 0.255036 0.210144
0.914092 0.255036 0.210144
0.962500 0.255036 0.210144
0.041807 0.371542 0.214413
0.153609 0.378608 0.216102
0.275284 0.383275 0.215499
0.407473 0.385532 0.212606
0.548276 0.385749 0.210144
0.685380 0.385749 0.210144
0.806925 0.385749 0.210144
0.914092 0.385749 0.210144
0.962500 0.385749 0.210144
0.032500 0.512101 0.215652
0.146797 0.518690 0.212971
0.272669 0.521536 0.210144
0.408040 0.521536 0.210144
0.548276 0.521536 0.210144
0.685380 0.521536 0.210144
0.806925 0.521536 0.210144
0.914092 0.521536 0.210144
0.962500 0.521536 0.210144
0.018464 0.655819 0.210144
0.142810 0.655819 0.210144
0.272669 0.655819 0.210144
0.408040 0.655819 0.210144
0.548276 0.655819 0.210144
0.685380 0.655819 0.210144
0.806925 0.655819 0.210144
0.914092 0.655819 0.210144
0.962500 0.655819 0.210144
0.018464 0.779665 0.210144
0.142810 0.779665 0.210144
0.272669 0.779665 0.210144
0.408040 0.779665 0.210144
0.548276 0.779665 0.210144
0.685380 0.779665 0.210144
0.806925 0.779665 0.210144
0.914092 0.779665 0.210144
0.962500 0.779665 0.210144
0.018464 0.884962 0.210144
0.142810 0.884962 0.210144
0.272669 0.884962 0.210144
0.408040 0.884962 0.210144
0.548276 0.884962 0.210144
0.685380 0.884962 0.210144
0.806925 0.884962 0.210144
0.914092 0.884962 0.210144
0.962500 0.884962 0.210144
0.018464 0.962500 0.210144
0.142810 0.962500 0.210144
0.272669 0.962500 0.210144
0.408040 0.962500 0.210144
0.548276 0.962500 0.210144
0.685380 0.962500 0.210144
0.806925 0.962500 0.210144
0.914092 0.962500 0.210144
0.962500 0.962500 0.210144
0.025778 0.018936 0.250223
0.128859 0.026328 0.267862
0.241151 0.031589 0.283257
0.363246 0.034706 0.296373
0.495769 0.035672 0.307183
0.634236 0.034485 0.315662
0.769251 0.031147 0.321793
0.886252 0.025667 0.325562
0.940454 0.022379 0.326510
0.038587 0.127016 0.281922
0.145017 0.134069 0.295252
0.260900 0.138904 0.306276
0.386846 0.141511 0.314973
0.523343 0.141882 0.321323
0.663798 0.140017 0.325311
0.795805 0.135921 0.326930
0.913959 0.129603 0.326176
0.962500 0.129525 0.326156
0.043590 0.245200 0.305350
0.153088 0.251879 0.314264
0.272273 0.256249 0.320832
0.401772 0.258301 0.325041
0.541754 0.258030 0.326880
0.684507 0.255436 0.326346
0.806925 0.255036 0.326156
0.914092 0.255036 0.326156
0.962500 0.255036 0.326156
0.040741 0.374168 0.320321
0.153004 0.380435 0.324749
0.275180 0.384297 0.326809
0.407910 0.385748 0.326496
0.548276 0.385749 0.326156
0.685380 0.385749 0.326156
0.806925 0.385749 0.326156
0.914092 0.385749 0.326156
0.962500 0.385749 0.326156
0.030068 0.514580 0.326718
0.144767 0.520336 0.326625
0.272669 0.521536 0.326156
0.408040 0.521536 0.326156
0.548276 0.521536 0.326156
0.685380 0.521536 0.326156
0.806925 0.521536 0.326156
0.914092 0.521536 0.326156
0.962500 0.521536 0.326156
0.018464 0.655819 0.326156
0.142810 0.655819 0.326156
0.272669 0.655819 0.326156
0.408040 0.655819 0.326156
0.548276 0.655819 0.326156
0.685380 0.655819 0.326156
0.806925 0.655819 0.326156
0.914092 0.655819 0.326156
0.962500 0.655819 0.326156
0.018464 0.779665 0.326156
0.142810 0.779665 0.326156
0.272669 0.779665 0.326156
0.408040 0.779665 0.326156
0.548276 0.779665 0.326156
0.685380 0.779665 0.326156
0.806925 0.779665 0.326156
0.914092 0.779665 0.326156
0.962500 0.779665 0.326156
0.018464 0.884962 0.326156
0.142810 0.884962 0.326156
0.272669 0.884962 0.326156
0.408040 0.884962 0.326156
0.548276 0.884962 0.326156
0.685380 0.884962 0.326156
0.806925 0.884962 0.326156
0.914092 0.884962 0.326156
0.962500 0.884962 0.326156
0.018464 0.962500 0.326156
0.142810 0.962500 0.326156
0.272669 0.962500 0.326156
0.408040 0.962500 0.326156
0.548276 0.962500 0.326156
0.685380 0.962500 0.326156
0.806925 0.962500 0.326156
0.914092 0.962500 0.326156
0.962500 0.962500 0.326156
0.028582 0.021641 0.343941
0.132269 0.028323 0.364810
0.245209 0.032869 0.383395
0.368000 0.035268 0.399656
0.501266 0.035515 0.413558
0.640063 0.033608 0.425071
0.774435 0.029554 0.434173
0.891618 0.023360 0.440843
0.945889 0.019742 0.443120
0.040030 0.129618 0.381766
0.147018 0.135932 0.398244
0.263501 0.140023 0.412367
0.390091 0.141883 0.424103
0.527226 0.141507 0.433430
0.668059 0.138897 0.440326
0.799705 0.134057 0.444779
0.914092 0.129525 0.446400
0.962500 0.129525 0.446400
0.043658 0.247687 0.411155
0.153663 0.253596 0.423114
0.273396 0.257193 0.432666
0.403484 0.258469 0.439789
0.544047 0.257421 0.444469
0.685380 0.255036 0.446400
0.806925 0.255036 0.446400
0.914092 0.255036 0.446400
0.962500 0.255036 0.446400
0.039435 0.376528 0.431880
0.152149 0.381993 0.439230
0.274815 0.385050 0.444137
0.408040 0.385749 0.446400
0.548276 0.385749 0.446400
0.685380 0.385749 0.446400
0.806925 0.385749 0.446400
0.914092 0.385749 0.446400
0.962500 0.385749 0.446400
0.027398 0.516780 0.443785
0.142810 0.521536 0.446400
0.272669 0.521536 0.446400
0.408040 0.521536 0.446400
0.548276 0.521536 0.446400
0.685380 0.521536 0.446400
0.806925 0.521536 0.446400
0.914092 0.521536 0.446400
0.962500 0.521536 0.446400
0.018464 0.655819 0.446400
0.142810 0.655819 0.446400
0.272669 0.655819 0.446400
0.408040 0.655819 0.446400
0.548276 0.655819 0.446400
0.685380 0.655819 0.446400
0.806925 0.655819 0.446400
0.914092 0.655819 0.446400
0.962500 0.655819 0.446400
0.018464 0.779665 0.446400
0.142810 0.779665 0.446400
0.272669 0.779665 0.446400
0.408040 0.779665 0.446400
0.548276 0.779665 0.446400
0.685380 0.779665 0.446400
0.806925 0.779665 0.446400
0.914092 0.779665 0.446400
0.962500 0.779665 0.446400
0.018464 0.884962 0.446400
0.142810 0.884962 0.446400
0.272669 0.884962 0.446400
0.408040 0.884962 0.446400
0.548276 0.884962 0.446400
0.685380 0.884962 0.446400
0.806925 0.884962 0.446400
0.914092 0.884962 0.446400
0.962500 0.884962 0.446400
0.018464 0.962500 0.446400
0.142810 0.962500 0.446400
0.272669 0.962500 0.446400
0.408040 0.962500 0.446400
0.548276 0.962500 0.446400
0.685380 0.962500 0.446400
0.806925 0.962500 0.446400
0.914092 0.962500 0.446400
0.962500 0.962500 0.446400
0.031149 0.024110 0.442499
0.135433 0.030080 0.466770
0.249014 0.033909 0.488719
0.372491 0.035590 0.508281
0.506481 0.035117 0.525297
0.645613 0.032493 0.539766
0.779391 0.027722 0.551717
0.896765 0.020817 0.561177
0.951107 0.016869 0.564744
0.041232 0.131974 0.486779
0.148770 0.137546 0.506571
0.265844 0.140893 0.523824
0.393070 0.142007 0.538528
0.530828 0.140884 0.550712
0.672050 0.137527 0.560403
0.803384 0.131945 0.567619
0.914092 0.129525 0.569524
0.962500 0.129525 0.569524
0.043485 0.249917 0.522330
0.153988 0.255055 0.537269
0.274258 0.257877 0.549686
0.404926 0.258377 0.559607
0.546063 0.256554 0.567053
0.685380 0.255036 0.569524
0.806925 0.255036 0.569524
0.914092 0.255036 0.569524
0.962500 0.255036 0.569524
0.037889 0.378621 0.548638
0.151044 0.383282 0.558790
0.274189 0.385534 0.566465
0.408040 0.385749 0.569524
0.548276 0.385749 0.569524
0.685380 0.385749 0.569524
0.806925 0.385749 0.569524
0.914092 0.385749 0.569524
0.962500 0.385749 0.569524
0.024492 0.518702 0.565856
0.142810 0.521536 0.569524
0.272669 0.521536 0.569524
0.408040 0.521536 0.569524
0.548276 0.521536 0.569524
0.685380 0.521536 0.569524
0.806925 0.521536 0.569524
0.914092 0.521536 0.569524
0.962500 0.521536 0.569524
0.018464 0.655819 0.569524
0.142810 0.655819 0.569524
0.272669 0.655819 0.569524
0.408040 0.655819 0.569524
0.548276 0.655819 0.569524
0.685380 0.655819 0.569524
0.806925 0.655819 0.569524
0.914092 0.655819 0.569524
0.962500 0.655819 0.569524
0.018464 0.779665 0.569524
0.142810 0.779665 0.569524
0.272669 0.779665 0.569524
0.408040 0.779665 0.569524
0.548276 0.779665 0.569524
0.685380 0.779665 0.569524
0.806925 0.779665 0.569524
0.914092 0.779665 0.569524
0.962500 0.779665 0.569524
0.018464 0.884962 0.569524
0.142810 0.884962 0.569524
0.272669 0.884962 0.569524
0.408040 0.884962 0.569524
0.548276 0.884962 0.569524
0.685380 0.884962 0.569524
0.806925 0.884962 0.569524
0.914092 0.884962 0.569524
0.962500 0.884962 0.569524
0.018464 0.962500 0.569524
0.142810 0.962500 0.569524
0.272669 0.962500 0.569524
0.408040 0.962500 0.569524
0.548276 0.962500 0.569524
0.685380 0.962500 0.569524
0.806925 0.962500 0.569524
0.914092 0.962500 0.569524
0.962500 0.962500 0.569524
0.033478 0.026342 0.545504
0.138352 0.031598 0.572458
0.252565 0.034710 0.596779
0.376720 0.035672 0.618518
0.511411 0.034480 0.637722
0.650887 0.031137 0.654431
0.784121 0.025652 0.668681
0.901694 0.018038 0.680502
0.956112 0.013760 0.685195
0.042194 0.134082 0.594630
0.150272 0.138913 0.616607
0.267928 0.141514 0.636044
0.395780 0.141880 0.652983
0.534151 0.140011 0.667460
0.675772 0.135910 0.679505
0.806842 0.129587 0.689146
0.914092 0.129525 0.689216
0.962500 0.129525 0.689216
0.043072 0.251891 0.634345
0.154062 0.256256 0.651514
0.274859 0.258303 0.666218
0.406098 0.258027 0.678488
0.547803 0.255428 0.688351
0.685380 0.255036 0.689216
0.806925 0.255036 0.689216
0.914092 0.255036 0.689216
0.962500 0.255036 0.689216
0.036104 0.380446 0.664955
0.149689 0.384303 0.677450
0.273303 0.385748 0.687536
0.408040 0.385749 0.689216
0.548276 0.385749 0.689216
0.685380 0.385749 0.689216
0.806925 0.385749 0.689216
0.914092 0.385749 0.689216
0.962500 0.385749 0.689216
0.021350 0.520346 0.686700
0.142810 0.521536 0.689216
0.272669 0.521536 0.689216
0.408040 0.521536 0.689216
0.548276 0.521536 0.689216
0.685380 0.521536 0.689216
0.806925 0.521536 0.689216
0.914092 0.521536 0.689216
0.962500 0.521536 0.689216
0.018464 0.655819 0.689216
0.142810 0.655819 0.689216
0.272669 0.655819 0.689216
0.408040 0.655819 0.689216
0.548276 0.655819 0.689216
0.685380 0.655819 0.689216
0.806925 0.655819 0.689216
0.914092 0.655819 0.689216
0.962500 0.655819 0.689216
0.018464 0.779665 0.689216
0.142810 0.779665 0.689216
0.272669 0.779665 0.689216
0.408040 0.779665 0.689216
0.548276 0.779665 0.689216
0.685380 0.779665 0.689216
0.806925 0.779665 0.689216
0.914092 0.779665 0.689216
0.962500 0.779665 0.689216
0.018464 0.884962 0.689216
0.142810 0.884962 0.689216
0.272669 0.884962 0.689216
0.408040 0.884962 0.689216
0.548276 0.884962 0.689216
0.685380 0.884962 0.689216
0.806925 0.884962 0.689216
0.914092 0.884962 0.689216
0.962500 0.884962 0.689216
0.018464 0.962500 0.689216
0.142810 0.962500 0.689216
0.272669 0.962500 0.689216
0.408040 0.962500 0.689216
0.548276 0.962500 0.689216
0.685380 0.962500 0.689216
0.806925 0.962500 0.689216
0.914092 0.962500 0.689216
0.962500 0.962500 0.689216
0.035568 0.028335 0.648552
0.141024 0.032876 0.677392
0.255861 0.035271 0.703631
0.380685 0.035513 0.727326
0.516058 0.033602 0.748528
0.655886 0.029543 0.764692
0.788626 0.023345 0.778591
0.906406 0.015022 0.790479
0.960904 0.010417 0.795345
0.042915 0.135943 0.701302
0.151525 0.140030 0.725230
0.269754 0.141885 0.746662
0.398222 0.141504 0.763298
0.537195 0.138889 0.777386
0.679225 0.134044 0.789459
0.806925 0.129525 0.796475
0.914092 0.129525 0.796475
0.962500 0.129525 0.796475
0.042417 0.253606 0.744776
0.153885 0.257198 0.761886
0.275200 0.258469 0.776163
0.406998 0.257417 0.788421
0.548276 0.255036 0.796475
0.685380 0.255036 0.796475
0.806925 0.255036 0.796475
0.914092 0.255036 0.796475
0.962500 0.255036 0.796475
0.034079 0.382002 0.774922
0.148085 0.385054 0.787367
0.272669 0.385749 0.796475
0.408040 0.385749 0.796475
0.548276 0.385749 0.796475
0.685380 0.385749 0.796475
0.806925 0.385749 0.796475
0.914092 0.385749 0.796475
0.962500 0.385749 0.796475
0.018464 0.521536 0.796475
0.142810 0.521536 0.796475
0.272669 0.521536 0.796475
0.408040 0.521536 0.796475
0.548276 0.521536 0.796475
0.685380 0.521536 0.796475
0.806925 0.521536 0.796475
0.914092 0.521536 0.796475
0.962500 0.521536 0.796475
0.018464 0.655819 0.796475
0.142810 0.655819 0.796475
0.272669 0.655819 0.796475
0.408040 0.655819 0.796475
0.548276 0.655819 0.796475
0.685380 0.655819 0.796475
0.806925 0.655819 0.796475
0.914092 0.655819 0.796475
0.962500 0.655819 0.796475
0.018464 0.779665 0.796475
0.142810 0.779665 0.796475
0.272669 0.779665 0.796475
0.408040 0.779665 0.796475
0.548276 0.779665 0.796475
0.685380 0.779665 0.796475
0.806925 0.779665 0.796475
0.914092 0.779665 0.796475
0.962500 0.779665 0.796475
0.018464 0.884962 0.796475
0.142810 0.884962 0.796475
0.272669 0.884962 0.796475
0.408040 0.884962 0.796475
0.548276 0.884962 0.796475
0.685380 0.884962 0.796475
0.806925 0.884962 0.796475
0.914092 0.884962 0.796475
0.962500 0.884962 0.796475
0.018464 0.962500 0.796475
0.142810 0.962500 0.796475
0.272669 0.962500 0.796475
0.408040 0.962500 0.796475
0.548276 0.962500 0.796475
0.685380 0.962500 0.796475
0.806925 0.962500 0.796475
0.914092 0.962500 0.796475
0.962500 0.962500 0.796475
0.037420 0.030091 0.750452
0.143448 0.033915 0.776412
0.258901 0.035591 0.800185
0.384385 0.035114 0.821824
0.520421 0.032484 0.841380
0.660612 0.027709 0.858896
0.792906 0.020800 0.874413
0.910902 0.011772 0.887966
0.962500 0.009216 0.891018
0.043395 0.137556 0.798067
0.152528 0.140898 0.819903
0.271320 0.142006 0.839650
0.400395 0.140879 0.857354
0.539961 0.137518 0.873055
0.682411 0.131931 0.886789
0.806925 0.129525 0.891018
0.914092 0.129525 0.891018
0.962500 0.129525 0.891018
0.041522 0.255064 0.837903
0.153458 0.257881 0.855794
0.275281 0.258376 0.871680
0.407628 0.256548 0.885595
0.548276 0.255036 0.891018
0.685380 0.255036 0.891018
0.806925 0.255036 0.891018
0.914092 0.255036 0.891018
0.962500 0.255036 0.891018
0.031816 0.383290 0.870288
0.146232 0.385536 0.884385
0.272669 0.385749 0.891018
0.408040 0.385749 0.891018
0.548276 0.385749 0.891018
0.685380 0.385749 0.891018
0.806925 0.385749 0.891018
0.914092 0.385749 0.891018
0.962500 0.385749 0.891018
0.018464 0.521536 0.891018
0.142810 0.521536 0.891018
0.272669 0.521536 0.891018
0.408040 0.521536 0.891018
0.548276 0.521536 0.891018
0.685380 0.521536 0.891018
0.806925 0.521536 0.891018
0.914092 0.521536 0.891018
0.962500 0.521536 0.891018
0.018464 0.655819 0.891018
0.142810 0.655819 0.891018
0.272669 0.655819 0.891018
0.408040 0.655819 0.891018
0.548276 0.655819 0.891018
0.685380 0.655819 0.891018
0.806925 0.655819 0.891018
0.914092 0.655819 0.891018
0.962500 0.655819 0.891018
0.018464 0.779665 0.891018
0.142810 0.779665 0.891018
0.272669 0.779665 0.891018
0.408040 0.779665 0.891018
0.548276 0.779665 0.891018
0.685380 0.779665 0.891018
0.806925 0.779665 0.891018
0.914092 0.779665 0.891018
0.962500 0.779665 0.891018
0.018464 0.884962 0.891018
0.142810 0.884962 0.891018
0.272669 0.884962 0.891018
0.408040 0.884962 0.891018
0.548276 0.884962 0.891018
0.685380 0.884962 0.891018
0.806925 0.884962 0.891018
0.914092 0.884962 0.891018
0.962500 0.884962 0.891018
0.018464 0.962500 0.891018
0.142810 0.962500 0.891018
0.272669 0.962500 0.891018
0.408040 0.962500 0.891018
0.548276 0.962500 0.891018
0.685380 0.962500 0.891018
0.806925 0.962500 0.891018
0.914092 0.962500 0.891018
0.962500 0.962500 0.891018
