Fotico/Resources/LUTs/portada.cube
# Portada
LUT_3D_SIZE 5
0.020424 0.009642 0.000000
0.183896 0.009642 0.000000
0.565475 0.009642 0.000000
0.955744 0.009642 0.000000
1.000000 0.009642 0.000000
0.003259 0.172649 0.000000
0.166732 0.172649 0.000000
0.548310 0.172649 0.000000
0.938579 0.172649 0.000000
1.000000 0.172649 0.000000
0.000000 0.506593 0.000000
0.149567 0.506593 0.000000
0.531146 0.506593 0.000000
0.921414 0.506593 0.000000
1.000000 0.506593 0.000000
0.000000 0.842950 0.000000
0.132402 0.842950 0.000000
0.513981 0.842950 0.000000
0.904250 0.842950 0.000000
1.000000 0.842950 0.000000
0.000000 1.000000 0.000000
0.115237 1.000000 0.000000
0.496816 1.000000 0.000000
0.887085 1.000000 0.000000
1.000000 1.000000 0.000000
0.018691 0.009642 0.167630
0.182164 0.009642 0.167630
0.563742 0.009642 0.167630
0.954011 0.009642 0.167630
1.000000 0.009642 0.167630
0.001526 0.172649 0.167630
0.164999 0.172649 0.167630
0.546578 0.172649 0.167630
0.936846 0.172649 0.167630
1.000000 0.172649 0.167630
0.000000 0.506593 0.167630
0.147834 0.506593 0.167630
0.529413 0.506593 0.167630
0.919682 0.506593 0.167630
1.000000 0.506593 0.167630
0.000000 0.842950 0.167630
0.130669 0.842950 0.167630
0.512248 0.842950 0.167630
0.902517 0.842950 0.167630
1.000000 0.842950 0.167630
0.000000 1.000000 0.167630
0.113504 1.000000 0.167630
0.495083 1.000000 0.167630
0.885352 1.000000 0.167630
1.000000 1.000000 0.167630
0.016958 0.009642 0.487107
0.180431 0.009642 0.487107
0.562010 0.009642 0.487107
0.952278 0.009642 0.487107
1.000000 0.009642 0.487107
0.000000 0.172649 0.487107
0.163266 0.172649 0.487107
0.544845 0.172649 0.487107
0.935114 0.172649 0.487107
1.000000 0.172649 0.487107
0.000000 0.506593 0.487107
0.146101 0.506593 0.487107
0.527680 0.506593 0.487107
0.917949 0.506593 0.487107
1.000000 0.506593 0.487107
0.000000 0.842950 0.487107
0.128936 0.842950 0.487107
0.510515 0.842950 0.487107
0.900784 0.842950 0.487107
1.000000 0.842950 0.487107
0.000000 1.000000 0.487107
0.111772 1.000000 0.487107
0.493350 1.000000 0.487107
0.883619 1.000000 0.487107
1.000000 1.000000 0.487107
0.015226 0.009642 0.802083
0.178698 0.009642 0.802083
0.560277 0.009642 0.802083
0.950546 0.009642 0.802083
1.000000 0.009642 0.802083
0.000000 0.172649 0.802083
0.161533 0.172649 0.802083
0.543112 0.172649 0.802083
0.933381 0.172649 0.802083
1.000000 0.172649 0.802083
0.000000 0.506593 0.802083
0.144368 0.506593 0.802083
0.525947 0.506593 0.802083
0.916216 0.506593 0.802083
1.000000 0.506593 0.802083
0.000000 0.842950 0.802083
0.127204 0.842950 0.802083
0.508782 0.842950 0.802083
0.899051 0.842950 0.802083
1.000000 0.842950 0.802083
0.000000 1.000000 0.802083
0.110039 1.000000 0.802083
0.491618 1.000000 0.802083
0.881886 1.000000 0.802083
1.000000 1.000000 0.802083
0.013493 0.009642 0.970579
0.176965 0.009642 0.970579
0.558544 0.009642 0.970579
0.948813 0.009642 0.970579
1.000000 0.009642 0.970579
0.000000 0.172649 0.970579
0.159800 0.172649 0.970579
0.541379 0.172649 0.970579
0.931648 0.172649 0.970579
1.000000 0.172649 0.970579
0.000000 0.506593 0.970579
0.142636 0.506593 0.970579
0.524214 0.506593 0.970579
0.914483 0.506593 0.970579
1.000000 0.506593 0.970579
0.000000 0.842950 0.970579
0.125471 0.842950 0.970579
0.507050 0.842950 0.970579
0.897318 0.842950 0.970579
1.000000 0.842950 0.970579
0.000000 1.000000 0.970579
0.108306 1.000000 0.970579
0.489885 1.000000 0.970579
0.880154 1.000000 0.970579
1.000000 1.000000 0.970579
