Fotico/Resources/LUTs/portra.cube
TITLE "Portra 400"
LUT_3D_SIZE 33
0.016267 0.009713 0.003176
0.040765 0.012272 0.005661
0.065803 0.014701 0.008015
0.091392 0.016997 0.010238
0.117539 0.019162 0.012329
0.144254 0.021195 0.014289
0.171546 0.023095 0.016116
0.199423 0.024862 0.017811
0.227894 0.026497 0.019373
0.256970 0.027998 0.020802
0.286660 0.029366 0.022097
0.316973 0.030600 0.023260
0.347918 0.031700 0.024289
0.379506 0.032666 0.025184
0.411747 0.033499 0.025946
0.444650 0.034196 0.026573
0.478226 0.034760 0.027066
0.512442 0.035189 0.027426
0.546827 0.035483 0.027651
0.581239 0.035643 0.027742
0.615669 0.035668 0.027699
0.650105 0.035559 0.027521
0.684536 0.035315 0.027209
0.718952 0.034936 0.026764
0.752841 0.034423 0.026184
0.782041 0.033776 0.025470
0.811200 0.032994 0.024622
0.840308 0.032078 0.023641
0.869355 0.031028 0.022526
0.898333 0.029844 0.021277
0.923382 0.028709 0.020087
0.923382 0.028709 0.020087
0.923382 0.028709 0.020087
0.021176 0.035881 0.007802
0.045892 0.038427 0.010037
0.071152 0.040841 0.012140
0.096966 0.043122 0.014112
0.123343 0.045269 0.015952
0.150291 0.047283 0.017659
0.177820 0.049164 0.019233
0.205938 0.050910 0.020675
0.234655 0.052522 0.021983
0.263980 0.053999 0.023158
0.293924 0.055342 0.024199
0.324495 0.056549 0.025107
0.355703 0.057622 0.025881
0.387558 0.058559 0.026520
0.420070 0.059360 0.027026
0.453249 0.060026 0.027398
0.487105 0.060557 0.027636
0.521520 0.060951 0.027739
0.556015 0.061210 0.027708
0.590533 0.061333 0.027543
0.625063 0.061320 0.027244
0.659594 0.061171 0.026811
0.694117 0.060886 0.026243
0.728619 0.060466 0.025542
0.761126 0.059910 0.024707
0.790390 0.059218 0.023738
0.819609 0.058390 0.022635
0.848772 0.057427 0.021399
0.877870 0.056329 0.020029
0.906893 0.055096 0.018527
0.931978 0.053918 0.017117
0.931978 0.053918 0.017117
0.931978 0.053918 0.017117
0.025606 0.062651 0.011951
0.050536 0.065184 0.013935
0.076014 0.067582 0.015786
0.102050 0.069847 0.017506
0.128652 0.071977 0.019092
0.155829 0.073972 0.020546
0.183591 0.075832 0.021867
0.211946 0.077556 0.023054
0.240905 0.079145 0.024108
0.270476 0.080598 0.025028
0.300669 0.081915 0.025814
0.331493 0.083095 0.026467
0.362960 0.084139 0.026985
0.395077 0.085047 0.027369
0.427856 0.085817 0.027619
0.461307 0.086451 0.027735
0.495439 0.086947 0.027717
0.530014 0.087307 0.027564
0.564623 0.087529 0.027278
0.599251 0.087615 0.026857
0.633885 0.087563 0.026302
0.668517 0.087374 0.025613
0.703135 0.087048 0.024790
0.737727 0.086584 0.023833
0.768940 0.085984 0.022743
0.798273 0.085247 0.021519
0.827555 0.084373 0.020162
0.856777 0.083363 0.018672
0.885930 0.082215 0.017049
0.915004 0.080932 0.015293
0.940129 0.079709 0.013665
0.940129 0.079709 0.013665
0.940129 0.079709 0.013665
0.029556 0.090034 0.015620
0.054695 0.092552 0.017352
0.080387 0.094936 0.018951
0.106640 0.097183 0.020417
0.133464 0.099295 0.021750
0.160866 0.101271 0.022949
0.188857 0.103110 0.024016
0.217446 0.104812 0.024948
0.246641 0.106377 0.025747
0.276453 0.107805 0.026412
0.306892 0.109096 0.026942
0.337966 0.110248 0.027339
0.369686 0.111263 0.027602
0.402061 0.112140 0.027730
0.435103 0.112879 0.027724
0.468820 0.113479 0.027584
0.503221 0.113942 0.027310
0.537926 0.114266 0.026901
0.572654 0.114451 0.026359
0.607396 0.114498 0.025682
0.642140 0.114406 0.024872
0.676877 0.114177 0.023928
0.711594 0.113808 0.022850
0.746281 0.113301 0.021638
0.776288 0.112656 0.020294
0.805693 0.111873 0.018816
0.835043 0.110952 0.017205
0.864329 0.109893 0.015462
0.893540 0.108696 0.013586
0.922668 0.107361 0.011579
0.947837 0.106093 0.009732
0.947837 0.106093 0.009732
0.947837 0.106093 0.009732
0.033021 0.118039 0.018808
0.058367 0.120543 0.020286
0.084269 0.122911 0.021632
0.110735 0.125141 0.022844
0.137776 0.127235 0.023922
0.165399 0.129190 0.024867
0.193615 0.131008 0.025678
0.222432 0.132687 0.026356
0.251861 0.134228 0.026899
0.281910 0.135630 0.027308
0.312589 0.136894 0.027583
0.343908 0.138018 0.027724
0.375878 0.139004 0.027730
0.408507 0.139849 0.027603
0.441807 0.140556 0.027341
0.475787 0.141123 0.026945
0.510428 0.141550 0.026415
0.545260 0.141837 0.025751
0.580112 0.141985 0.024953
0.614973 0.141993 0.024021
0.649832 0.141861 0.022956
0.684678 0.141589 0.021757
0.719500 0.141178 0.020424
0.753644 0.140627 0.018959
0.783174 0.139936 0.017361
0.812654 0.139106 0.015630
0.842076 0.138137 0.013766
0.871430 0.137028 0.011771
0.900705 0.135780 0.009643
0.929891 0.134394 0.007384
0.955107 0.133080 0.005321
0.955107 0.133080 0.005321
0.955107 0.133080 0.005321
0.036002 0.146677 0.021512
0.061549 0.149167 0.022737
0.087657 0.151518 0.023828
0.114333 0.153731 0.024785
0.141586 0.155805 0.025609
0.169426 0.157740 0.026298
0.197862 0.159536 0.026854
0.226904 0.161192 0.027276
0.256561 0.162708 0.027563
0.286842 0.164084 0.027716
0.317758 0.165320 0.027735
0.349318 0.166415 0.027620
0.381533 0.167370 0.027371
0.414411 0.168185 0.026987
0.447964 0.168858 0.026470
0.482202 0.169390 0.025818
0.517055 0.169782 0.025033
0.552021 0.170032 0.024113
0.587001 0.170141 0.023060
0.621986 0.170109 0.021874
0.656964 0.169936 0.020554
0.691924 0.169622 0.019101
0.726856 0.169167 0.017515
0.759985 0.168571 0.015796
0.789600 0.167834 0.013945
0.819161 0.166956 0.011962
0.848659 0.165938 0.009846
0.878084 0.164779 0.007600
0.907427 0.163479 0.005222
0.936677 0.162040 0.002713
0.961944 0.160679 0.000434
0.961944 0.160679 0.000434
0.961944 0.160679 0.000434
0.038495 0.175959 0.023732
0.064241 0.178434 0.024702
0.090549 0.180768 0.025538
0.117430 0.182963 0.026240
0.144892 0.185017 0.026808
0.172944 0.186931 0.027242
0.201597 0.188704 0.027542
0.230859 0.190336 0.027708
0.260739 0.191827 0.027739
0.291249 0.193177 0.027637
0.322397 0.194384 0.027400
0.354193 0.195450 0.027029
0.386648 0.196374 0.026523
0.419771 0.197156 0.025884
0.453573 0.197795 0.025111
0.488064 0.198293 0.024204
0.523107 0.198648 0.023164
0.558210 0.198860 0.021989
0.593324 0.198930 0.020682
0.628437 0.198858 0.019241
0.663539 0.198643 0.017667
0.698619 0.198285 0.015961
0.733665 0.197785 0.014122
0.765866 0.197143 0.012151
0.795570 0.196359 0.010048
0.825216 0.195433 0.007814
0.854794 0.194364 0.005448
0.884296 0.193154 0.002952
0.913711 0.191802 0.000325
0.940152 0.191630 0.000000
0.962500 0.191630 0.000000
0.962500 0.191630 0.000000
0.962500 0.191630 0.000000
0.040501 0.205896 0.025466
0.066440 0.208354 0.026180
0.092945 0.210671 0.026761
0.120026 0.212847 0.027207
0.147692 0.214882 0.027520
0.175953 0.216774 0.027698
0.204817 0.218524 0.027742
0.234294 0.220131 0.027652
0.264394 0.221596 0.027427
0.295127 0.222918 0.027069
0.326502 0.224097 0.026576
0.358530 0.225133 0.025949
0.391220 0.226025 0.025189
0.424583 0.226774 0.024294
0.458629 0.227379 0.023266
0.493369 0.227840 0.022104
0.528586 0.228158 0.020809
0.563832 0.228332 0.019381
0.599084 0.228362 0.017819
0.634331 0.228248 0.016125
0.669562 0.227990 0.014299
0.704765 0.227589 0.012340
0.739931 0.227044 0.010249
0.771290 0.226355 0.008027
0.801087 0.225523 0.005674
0.830822 0.224547 0.003189
0.860486 0.223428 0.000574
0.887740 0.223171 0.000000
0.914092 0.223171 0.000000
0.940152 0.223171 0.000000
0.962500 0.223171 0.000000
0.962500 0.223171 0.000000
0.962500 0.223171 0.000000
0.042017 0.236497 0.026713
0.068145 0.238939 0.027172
0.094843 0.241239 0.027496
0.122120 0.243396 0.027687
0.149986 0.245409 0.027744
0.178449 0.247279 0.027666
0.207520 0.249005 0.027454
0.237209 0.250588 0.027108
0.267524 0.252026 0.026627
0.298475 0.253320 0.026013
0.330073 0.254470 0.025265
0.362327 0.255474 0.024383
0.395248 0.256334 0.023367
0.428846 0.257049 0.022218
0.463131 0.257619 0.020935
0.498114 0.258044 0.019519
0.533495 0.258324 0.017970
0.568888 0.258458 0.016288
0.604283 0.258448 0.014474
0.639669 0.258292 0.012527
0.675034 0.257990 0.010449
0.710367 0.257544 0.008239
0.745657 0.256953 0.005898
0.776259 0.256216 0.003425
0.806154 0.255335 0.000823
0.834156 0.255036 0.000000
0.861095 0.255036 0.000000
0.887740 0.255036 0.000000
0.914092 0.255036 0.000000
0.940152 0.255036 0.000000
0.962500 0.255036 0.000000
0.962500 0.255036 0.000000
0.962500 0.255036 0.000000
0.043043 0.267775 0.027472
0.069355 0.270200 0.027675
0.096241 0.272481 0.027744
0.123710 0.274618 0.027679
0.151770 0.276610 0.027479
0.180433 0.278458 0.027146
0.209706 0.280160 0.026678
0.239601 0.281716 0.026076
0.270126 0.283127 0.025340
0.301291 0.284393 0.024470
0.333107 0.285512 0.023467
0.365583 0.286485 0.022330
0.398730 0.287312 0.021060
0.432558 0.287993 0.019656
0.467077 0.288527 0.018119
0.502297 0.288914 0.016450
0.537836 0.289155 0.014648
0.573382 0.289250 0.012714
0.608925 0.289197 0.010648
0.644455 0.288998 0.008450
0.679959 0.288653 0.006121
0.715426 0.288161 0.003661
0.750720 0.287522 0.001070
0.779401 0.287227 0.000000
0.806925 0.287227 0.000000
0.834156 0.287227 0.000000
0.861095 0.287227 0.000000
0.887740 0.287227 0.000000
0.914092 0.287227 0.000000
0.940152 0.287227 0.000000
0.962500 0.287227 0.000000
0.962500 0.287227 0.000000
0.962500 0.287227 0.000000
0.043578 0.299740 0.027743
0.070070 0.302147 0.027690
0.097139 0.304410 0.027503
0.124795 0.306526 0.027182
0.153046 0.308496 0.026727
0.181902 0.310320 0.026137
0.211374 0.311997 0.025414
0.241469 0.313528 0.024557
0.272199 0.314911 0.023566
0.303574 0.316147 0.022441
0.335602 0.317236 0.021183
0.368296 0.318176 0.019792
0.401663 0.318970 0.018268
0.435716 0.319615 0.016611
0.470465 0.320112 0.014821
0.505910 0.320462 0.012899
0.541611 0.320663 0.010845
0.577315 0.320717 0.008660
0.613012 0.320622 0.006343
0.648690 0.320379 0.003895
0.684338 0.319989 0.001316
0.718794 0.319742 0.000000
0.751585 0.319742 0.000000
0.779401 0.319742 0.000000
0.806925 0.319742 0.000000
0.834156 0.319742 0.000000
0.861095 0.319742 0.000000
0.887740 0.319742 0.000000
0.914092 0.319742 0.000000
0.940152 0.319742 0.000000
0.962500 0.319742 0.000000
0.962500 0.319742 0.000000
0.962500 0.319742 0.000000
0.043622 0.332403 0.027526
0.070290 0.334793 0.027218
0.097537 0.337035 0.026775
0.125375 0.339131 0.026198
0.153812 0.341079 0.025487
0.182857 0.342878 0.024642
0.212521 0.344530 0.023663
0.242813 0.346033 0.022551
0.273744 0.347388 0.021306
0.305322 0.348594 0.019927
0.337559 0.349651 0.018415
0.370464 0.350559 0.016770
0.404047 0.351318 0.014993
0.438320 0.351927 0.013083
0.473293 0.352387 0.011041
0.508954 0.352698 0.008868
0.544822 0.352859 0.006563
0.580689 0.352871 0.004127
0.616544 0.352733 0.001561
0.651621 0.352583 0.000000
0.685380 0.352583 0.000000
0.718794 0.352583 0.000000
0.751585 0.352583 0.000000
0.779401 0.352583 0.000000
0.806925 0.352583 0.000000
0.834156 0.352583 0.000000
0.861095 0.352583 0.000000
0.887740 0.352583 0.000000
0.914092 0.352583 0.000000
0.940152 0.352583 0.000000
0.962500 0.352583 0.000000
0.962500 0.352583 0.000000
0.962500 0.352583 0.000000
0.043176 0.365775 0.026822
0.070013 0.368147 0.026257
0.097435 0.370369 0.025559
0.125450 0.372443 0.024726
0.154067 0.374368 0.023760
0.183297 0.376143 0.022660
0.213149 0.377769 0.021427
0.243632 0.379244 0.020060
0.274758 0.380570 0.018561
0.306535 0.381745 0.016928
0.338974 0.382770 0.015163
0.372086 0.383644 0.013266
0.405881 0.384368 0.011237
0.440368 0.384940 0.009075
0.475560 0.385362 0.006783
0.511430 0.385633 0.004359
0.547470 0.385753 0.001805
0.583069 0.385749 0.000000
0.617517 0.385749 0.000000
0.651621 0.385749 0.000000
0.685380 0.385749 0.000000
0.718794 0.385749 0.000000
0.751585 0.385749 0.000000
0.779401 0.385749 0.000000
0.806925 0.385749 0.000000
0.834156 0.385749 0.000000
0.861095 0.385749 0.000000
0.887740 0.385749 0.000000
0.914092 0.385749 0.000000
0.940152 0.385749 0.000000
0.962500 0.385749 0.000000
0.962500 0.385749 0.000000
0.962500 0.385749 0.000000
0.042238 0.399869 0.025629
0.069241 0.402221 0.024809
0.096832 0.404423 0.023855
0.125019 0.406475 0.022768
0.153812 0.408376 0.021547
0.183221 0.410126 0.020193
0.213255 0.411725 0.018706
0.243925 0.413172 0.017086
0.275241 0.414467 0.015333
0.307212 0.415611 0.013448
0.339849 0.416603 0.011431
0.373162 0.417443 0.009282
0.407162 0.418131 0.007001
0.441859 0.418666 0.004590
0.477264 0.419049 0.002048
0.513139 0.419240 0.000000
0.548276 0.419240 0.000000
0.583069 0.419240 0.000000
0.617517 0.419240 0.000000
0.651621 0.419240 0.000000
0.685380 0.419240 0.000000
0.718794 0.419240 0.000000
0.751585 0.419240 0.000000
0.779401 0.419240 0.000000
0.806925 0.419240 0.000000
0.834156 0.419240 0.000000
0.861095 0.419240 0.000000
0.887740 0.419240 0.000000
0.914092 0.419240 0.000000
0.940152 0.419240 0.000000
0.962500 0.419240 0.000000
0.962500 0.419240 0.000000
0.962500 0.419240 0.000000
0.040811 0.434695 0.023950
0.067974 0.437028 0.022875
0.095729 0.439209 0.021666
0.124083 0.441238 0.020324
0.153046 0.443114 0.018849
0.182629 0.444838 0.017242
0.212842 0.446409 0.015501
0.243693 0.447827 0.013628
0.275193 0.449093 0.011624
0.307353 0.450204 0.009487
0.340182 0.451162 0.007219
0.373692 0.451967 0.004819
0.407892 0.452618 0.002289
0.442744 0.453056 0.000000
0.477793 0.453056 0.000000
0.513139 0.453056 0.000000
0.548276 0.453056 0.000000
0.583069 0.453056 0.000000
0.617517 0.453056 0.000000
0.651621 0.453056 0.000000
0.685380 0.453056 0.000000
0.718794 0.453056 0.000000
0.751585 0.453056 0.000000
0.779401 0.453056 0.000000
0.806925 0.453056 0.000000
0.834156 0.453056 0.000000
0.861095 0.453056 0.000000
0.887740 0.453056 0.000000
0.914092 0.453056 0.000000
0.940152 0.453056 0.000000
0.962500 0.453056 0.000000
0.962500 0.453056 0.000000
0.962500 0.453056 0.000000
0.038893 0.470266 0.021784
0.066213 0.472578 0.020455
0.094126 0.474737 0.018992
0.122642 0.476742 0.017397
0.151771 0.478594 0.015669
0.181523 0.480291 0.013808
0.211907 0.481834 0.011815
0.242935 0.483223 0.009691
0.274615 0.484457 0.007435
0.306958 0.485535 0.005048
0.339974 0.486459 0.002530
0.373681 0.487198 0.000000
0.408040 0.487198 0.000000
0.442744 0.487198 0.000000
0.477793 0.487198 0.000000
0.513139 0.487198 0.000000
0.548276 0.487198 0.000000
0.583069 0.487198 0.000000
0.617517 0.487198 0.000000
0.651621 0.487198 0.000000
0.685380 0.487198 0.000000
0.718794 0.487198 0.000000
0.751585 0.487198 0.000000
0.779401 0.487198 0.000000
0.806925 0.487198 0.000000
0.834156 0.487198 0.000000
0.861095 0.487198 0.000000
0.887740 0.487198 0.000000
0.914092 0.487198 0.000000
0.940152 0.487198 0.000000
0.962500 0.487198 0.000000
0.962500 0.487198 0.000000
0.962500 0.487198 0.000000
0.036488 0.506580 0.019133
0.063957 0.508862 0.017550
0.092024 0.510987 0.015835
0.120697 0.512955 0.013986
0.149986 0.514767 0.012006
0.179902 0.516423 0.009894
0.210453 0.517923 0.007650
0.241651 0.519267 0.005275
0.273505 0.520456 0.002769
0.306026 0.521489 0.000133
0.339666 0.521536 0.000000
0.373681 0.521536 0.000000
0.408040 0.521536 0.000000
0.442744 0.521536 0.000000
0.477793 0.521536 0.000000
0.513139 0.521536 0.000000
0.548276 0.521536 0.000000
0.583069 0.521536 0.000000
0.617517 0.521536 0.000000
0.651621 0.521536 0.000000
0.685380 0.521536 0.000000
0.718794 0.521536 0.000000
0.751585 0.521536 0.000000
0.779401 0.521536 0.000000
0.806925 0.521536 0.000000
0.834156 0.521536 0.000000
0.861095 0.521536 0.000000
0.887740 0.521536 0.000000
0.914092 0.521536 0.000000
0.940152 0.521536 0.000000
0.962500 0.521536 0.000000
0.962500 0.521536 0.000000
0.962500 0.521536 0.000000
0.033595 0.543170 0.016000
0.061210 0.545385 0.014164
0.089425 0.547445 0.012195
0.118249 0.549350 0.010095
0.147693 0.551100 0.007864
0.177767 0.552696 0.005501
0.208480 0.554137 0.003007
0.239843 0.555424 0.000383
0.272669 0.555594 0.000000
0.305995 0.555594 0.000000
0.339666 0.555594 0.000000
0.373681 0.555594 0.000000
0.408040 0.555594 0.000000
0.442744 0.555594 0.000000
0.477793 0.555594 0.000000
0.513139 0.555594 0.000000
0.548276 0.555594 0.000000
0.583069 0.555594 0.000000
0.617517 0.555594 0.000000
0.651621 0.555594 0.000000
0.685380 0.555594 0.000000
0.718794 0.555594 0.000000
0.751585 0.555594 0.000000
0.779401 0.555594 0.000000
0.806925 0.555594 0.000000
0.834156 0.555594 0.000000
0.861095 0.555594 0.000000
0.887740 0.555594 0.000000
0.914092 0.555594 0.000000
0.940152 0.555594 0.000000
0.962500 0.555594 0.000000
0.962500 0.555594 0.000000
0.962500 0.555594 0.000000
0.030217 0.579777 0.012384
0.057971 0.581926 0.010296
0.086329 0.583922 0.008077
0.115300 0.585764 0.005726
0.144893 0.587453 0.003244
0.175120 0.588989 0.000632
0.207051 0.589328 0.000000
0.239688 0.589328 0.000000
0.272669 0.589328 0.000000
0.305995 0.589328 0.000000
0.339666 0.589328 0.000000
0.373681 0.589328 0.000000
0.408040 0.589328 0.000000
0.442744 0.589328 0.000000
0.477793 0.589328 0.000000
0.513139 0.589328 0.000000
0.548276 0.589328 0.000000
0.583069 0.589328 0.000000
0.617517 0.589328 0.000000
0.651621 0.589328 0.000000
0.685380 0.589328 0.000000
0.718794 0.589328 0.000000
0.751585 0.589328 0.000000
0.779401 0.589328 0.000000
0.806925 0.589328 0.000000
0.834156 0.589328 0.000000
0.861095 0.589328 0.000000
0.887740 0.589328 0.000000
0.914092 0.589328 0.000000
0.940152 0.589328 0.000000
0.962500 0.589328 0.000000
0.962500 0.589328 0.000000
0.962500 0.589328 0.000000
0.026355 0.616389 0.008288
0.054244 0.618473 0.005950
0.082739 0.620405 0.003480
0.111850 0.622185 0.000880
0.142810 0.622736 0.000000
0.174758 0.622736 0.000000
0.207051 0.622736 0.000000
0.239688 0.622736 0.000000
0.272669 0.622736 0.000000
0.305995 0.622736 0.000000
0.339666 0.622736 0.000000
0.373681 0.622736 0.000000
0.408040 0.622736 0.000000
0.442744 0.622736 0.000000
0.477793 0.622736 0.000000
0.513139 0.622736 0.000000
0.548276 0.622736 0.000000
0.583069 0.622736 0.000000
0.617517 0.622736 0.000000
0.651621 0.622736 0.000000
0.685380 0.622736 0.000000
0.718794 0.622736 0.000000
0.751585 0.622736 0.000000
0.779401 0.622736 0.000000
0.806925 0.622736 0.000000
0.834156 0.622736 0.000000
0.861095 0.622736 0.000000
0.887740 0.622736 0.000000
0.914092 0.622736 0.000000
0.940152 0.622736 0.000000
0.962500 0.622736 0.000000
0.962500 0.622736 0.000000
0.962500 0.622736 0.000000
0.022011 0.652995 0.003715
0.050029 0.655015 0.001127
0.079948 0.655819 0.000000
0.111207 0.655819 0.000000
0.142810 0.655819 0.000000
0.174758 0.655819 0.000000
0.207051 0.655819 0.000000
0.239688 0.655819 0.000000
0.272669 0.655819 0.000000
0.305995 0.655819 0.000000
0.339666 0.655819 0.000000
0.373681 0.655819 0.000000
0.408040 0.655819 0.000000
0.442744 0.655819 0.000000
0.477793 0.655819 0.000000
0.513139 0.655819 0.000000
0.548276 0.655819 0.000000
0.583069 0.655819 0.000000
0.617517 0.655819 0.000000
0.651621 0.655819 0.000000
0.685380 0.655819 0.000000
0.718794 0.655819 0.000000
0.751585 0.655819 0.000000
0.779401 0.655819 0.000000
0.806925 0.655819 0.000000
0.834156 0.655819 0.000000
0.861095 0.655819 0.000000
0.887740 0.655819 0.000000
0.914092 0.655819 0.000000
0.940152 0.655819 0.000000
0.962500 0.655819 0.000000
0.962500 0.655819 0.000000
0.962500 0.655819 0.000000
0.018464 0.688577 0.000000
0.049034 0.688577 0.000000
0.079948 0.688577 0.000000
0.111207 0.688577 0.000000
0.142810 0.688577 0.000000
0.174758 0.688577 0.000000
0.207051 0.688577 0.000000
0.239688 0.688577 0.000000
0.272669 0.688577 0.000000
0.305995 0.688577 0.000000
0.339666 0.688577 0.000000
0.373681 0.688577 0.000000
0.408040 0.688577 0.000000
0.442744 0.688577 0.000000
0.477793 0.688577 0.000000
0.513139 0.688577 0.000000
0.548276 0.688577 0.000000
0.583069 0.688577 0.000000
0.617517 0.688577 0.000000
0.651621 0.688577 0.000000
0.685380 0.688577 0.000000
0.718794 0.688577 0.000000
0.751585 0.688577 0.000000
0.779401 0.688577 0.000000
0.806925 0.688577 0.000000
0.834156 0.688577 0.000000
0.861095 0.688577 0.000000
0.887740 0.688577 0.000000
0.914092 0.688577 0.000000
0.940152 0.688577 0.000000
0.962500 0.688577 0.000000
0.962500 0.688577 0.000000
0.962500 0.688577 0.000000
0.018464 0.721010 0.000000
0.049034 0.721010 0.000000
0.079948 0.721010 0.000000
0.111207 0.721010 0.000000
0.142810 0.721010 0.000000
0.174758 0.721010 0.000000
0.207051 0.721010 0.000000
0.239688 0.721010 0.000000
0.272669 0.721010 0.000000
0.305995 0.721010 0.000000
0.339666 0.721010 0.000000
0.373681 0.721010 0.000000
0.408040 0.721010 0.000000
0.442744 0.721010 0.000000
0.477793 0.721010 0.000000
0.513139 0.721010 0.000000
0.548276 0.721010 0.000000
0.583069 0.721010 0.000000
0.617517 0.721010 0.000000
0.651621 0.721010 0.000000
0.685380 0.721010 0.000000
0.718794 0.721010 0.000000
0.751585 0.721010 0.000000
0.779401 0.721010 0.000000
0.806925 0.721010 0.000000
0.834156 0.721010 0.000000
0.861095 0.721010 0.000000
0.887740 0.721010 0.000000
0.914092 0.721010 0.000000
0.940152 0.721010 0.000000
0.962500 0.721010 0.000000
0.962500 0.721010 0.000000
0.962500 0.721010 0.000000
0.018464 0.752650 0.000000
0.049034 0.752650 0.000000
0.079948 0.752650 0.000000
0.111207 0.752650 0.000000
0.142810 0.752650 0.000000
0.174758 0.752650 0.000000
0.207051 0.752650 0.000000
0.239688 0.752650 0.000000
0.272669 0.752650 0.000000
0.305995 0.752650 0.000000
0.339666 0.752650 0.000000
0.373681 0.752650 0.000000
0.408040 0.752650 0.000000
0.442744 0.752650 0.000000
0.477793 0.752650 0.000000
0.513139 0.752650 0.000000
0.548276 0.752650 0.000000
0.583069 0.752650 0.000000
0.617517 0.752650 0.000000
0.651621 0.752650 0.000000
0.685380 0.752650 0.000000
0.718794 0.752650 0.000000
0.751585 0.752650 0.000000
0.779401 0.752650 0.000000
0.806925 0.752650 0.000000
0.834156 0.752650 0.000000
0.861095 0.752650 0.000000
0.887740 0.752650 0.000000
0.914092 0.752650 0.000000
0.940152 0.752650 0.000000
0.962500 0.752650 0.000000
0.962500 0.752650 0.000000
0.962500 0.752650 0.000000
0.018464 0.779665 0.000000
0.049034 0.779665 0.000000
0.079948 0.779665 0.000000
0.111207 0.779665 0.000000
0.142810 0.779665 0.000000
0.174758 0.779665 0.000000
0.207051 0.779665 0.000000
0.239688 0.779665 0.000000
0.272669 0.779665 0.000000
0.305995 0.779665 0.000000
0.339666 0.779665 0.000000
0.373681 0.779665 0.000000
0.408040 0.779665 0.000000
0.442744 0.779665 0.000000
0.477793 0.779665 0.000000
0.513139 0.779665 0.000000
0.548276 0.779665 0.000000
0.583069 0.779665 0.000000
0.617517 0.779665 0.000000
0.651621 0.779665 0.000000
0.685380 0.779665 0.000000
0.718794 0.779665 0.000000
0.751585 0.779665 0.000000
0.779401 0.779665 0.000000
0.806925 0.779665 0.000000
0.834156 0.779665 0.000000
0.861095 0.779665 0.000000
0.887740 0.779665 0.000000
0.914092 0.779665 0.000000
0.940152 0.779665 0.000000
0.962500 0.779665 0.000000
0.962500 0.779665 0.000000
0.962500 0.779665 0.000000
0.018464 0.806404 0.000000
0.049034 0.806404 0.000000
0.079948 0.806404 0.000000
0.111207 0.806404 0.000000
0.142810 0.806404 0.000000
0.174758 0.806404 0.000000
0.207051 0.806404 0.000000
0.239688 0.806404 0.000000
0.272669 0.806404 0.000000
0.305995 0.806404 0.000000
0.339666 0.806404 0.000000
0.373681 0.806404 0.000000
0.408040 0.806404 0.000000
0.442744 0.806404 0.000000
0.477793 0.806404 0.000000
0.513139 0.806404 0.000000
0.548276 0.806404 0.000000
0.583069 0.806404 0.000000
0.617517 0.806404 0.000000
0.651621 0.806404 0.000000
0.685380 0.806404 0.000000
0.718794 0.806404 0.000000
0.751585 0.806404 0.000000
0.779401 0.806404 0.000000
0.806925 0.806404 0.000000
0.834156 0.806404 0.000000
0.861095 0.806404 0.000000
0.887740 0.806404 0.000000
0.914092 0.806404 0.000000
0.940152 0.806404 0.000000
0.962500 0.806404 0.000000
0.962500 0.806404 0.000000
0.962500 0.806404 0.000000
0.018464 0.832866 0.000000
0.049034 0.832866 0.000000
0.079948 0.832866 0.000000
0.111207 0.832866 0.000000
0.142810 0.832866 0.000000
0.174758 0.832866 0.000000
0.207051 0.832866 0.000000
0.239688 0.832866 0.000000
0.272669 0.832866 0.000000
0.305995 0.832866 0.000000
0.339666 0.832866 0.000000
0.373681 0.832866 0.000000
0.408040 0.832866 0.000000
0.442744 0.832866 0.000000
0.477793 0.832866 0.000000
0.513139 0.832866 0.000000
0.548276 0.832866 0.000000
0.583069 0.832866 0.000000
0.617517 0.832866 0.000000
0.651621 0.832866 0.000000
0.685380 0.832866 0.000000
0.718794 0.832866 0.000000
0.751585 0.832866 0.000000
0.779401 0.832866 0.000000
0.806925 0.832866 0.000000
0.834156 0.832866 0.000000
0.861095 0.832866 0.000000
0.887740 0.832866 0.000000
0.914092 0.832866 0.000000
