Fotico/Resources/LUTs/portada.cube
# Portada
LUT_3D_SIZE 17
0.020424 0.009642 0.000000
0.030820 0.009642 0.000000
0.063137 0.009642 0.000000
0.115074 0.009642 0.000000
0.183896 0.009642 0.000000
0.266585 0.009642 0.000000
0.359953 0.009642 0.000000
0.460707 0.009642 0.000000
0.565475 0.009642 0.000000
0.670836 0.009642 0.000000
0.773329 0.009642 0.000000
0.869466 0.009642 0.000000
0.955744 0.009642 0.000000
1.000000 0.009642 0.000000
1.000000 0.009642 0.000000
1.000000 0.009642 0.000000
1.000000 0.009642 0.000000
0.016133 0.025503 0.000000
0.026529 0.025503 0.000000
0.058846 0.025503 0.000000
0.110783 0.025503 0.000000
0.179605 0.025503 0.000000
0.262294 0.025503 0.000000
0.355662 0.025503 0.000000
0.456415 0.025503 0.000000
0.561184 0.025503 0.000000
0.666545 0.025503 0.000000
0.769038 0.025503 0.000000
0.865175 0.025503 0.000000
0.951453 0.025503 0.000000
1.000000 0.025503 0.000000
1.000000 0.025503 0.000000
1.000000 0.025503 0.000000
1.000000 0.025503 0.000000
0.011842 0.059563 0.000000
0.022237 0.059563 0.000000
0.054555 0.059563 0.000000
0.106492 0.059563 0.000000
0.175314 0.059563 0.000000
0.258003 0.059563 0.000000
0.351371 0.059563 0.000000
0.452124 0.059563 0.000000
0.556893 0.059563 0.000000
0.662254 0.059563 0.000000
0.764747 0.059563 0.000000
0.860884 0.059563 0.000000
0.947162 0.059563 0.000000
1.000000 0.059563 0.000000
1.000000 0.059563 0.000000
1.000000 0.059563 0.000000
1.000000 0.059563 0.000000
0.007550 0.109448 0.000000
0.017946 0.109448 0.000000
0.050263 0.109448 0.000000
0.102201 0.109448 0.000000
0.171023 0.109448 0.000000
0.253711 0.109448 0.000000
0.347080 0.109448 0.000000
0.447833 0.109448 0.000000
0.552602 0.109448 0.000000
0.657963 0.109448 0.000000
0.760455 0.109448 0.000000
0.856593 0.109448 0.000000
0.942870 0.109448 0.000000
1.000000 0.109448 0.000000
1.000000 0.109448 0.000000
1.000000 0.109448 0.000000
1.000000 0.109448 0.000000
0.003259 0.172649 0.000000
0.013655 0.172649 0.000000
0.045972 0.172649 0.000000
0.097909 0.172649 0.000000
0.166732 0.172649 0.000000
0.249420 0.172649 0.000000
0.342789 0.172649 0.000000
0.443542 0.172649 0.000000
0.548310 0.172649 0.000000
0.653672 0.172649 0.000000
0.756164 0.172649 0.000000
0.852301 0.172649 0.000000
0.938579 0.172649 0.000000
1.000000 0.172649 0.000000
1.000000 0.172649 0.000000
1.000000 0.172649 0.000000
1.000000 0.172649 0.000000
0.000000 0.246590 0.000000
0.009364 0.246590 0.000000
0.041681 0.246590 0.000000
0.093618 0.246590 0.000000
0.162440 0.246590 0.000000
0.245129 0.246590 0.000000
0.338497 0.246590 0.000000
0.439251 0.246590 0.000000
0.544019 0.246590 0.000000
0.649380 0.246590 0.000000
0.751873 0.246590 0.000000
0.848010 0.246590 0.000000
0.934288 0.246590 0.000000
1.000000 0.246590 0.000000
1.000000 0.246590 0.000000
1.000000 0.246590 0.000000
1.000000 0.246590 0.000000
0.000000 0.328656 0.000000
0.005073 0.328656 0.000000
0.037390 0.328656 0.000000
0.089327 0.328656 0.000000
0.158149 0.328656 0.000000
0.240838 0.328656 0.000000
0.334206 0.328656 0.000000
0.434959 0.328656 0.000000
0.539728 0.328656 0.000000
0.645089 0.328656 0.000000
0.747582 0.328656 0.000000
0.843719 0.328656 0.000000
0.929997 0.328656 0.000000
1.000000 0.328656 0.000000
1.000000 0.328656 0.000000
1.000000 0.328656 0.000000
1.000000 0.328656 0.000000
0.000000 0.416209 0.000000
0.000781 0.416209 0.000000
0.033099 0.416209 0.000000
0.085036 0.416209 0.000000
0.153858 0.416209 0.000000
0.236547 0.416209 0.000000
0.329915 0.416209 0.000000
0.430668 0.416209 0.000000
0.535437 0.416209 0.000000
0.640798 0.416209 0.000000
0.743291 0.416209 0.000000
0.839428 0.416209 0.000000
0.925706 0.416209 0.000000
0.998613 0.416209 0.000000
1.000000 0.416209 0.000000
1.000000 0.416209 0.000000
1.000000 0.416209 0.000000
0.000000 0.506593 0.000000
0.000000 0.506593 0.000000
0.028807 0.506593 0.000000
0.080745 0.506593 0.000000
0.149567 0.506593 0.000000
0.232255 0.506593 0.000000
0.325624 0.506593 0.000000
0.426377 0.506593 0.000000
0.531146 0.506593 0.000000
0.636507 0.506593 0.000000
0.738999 0.506593 0.000000
0.835137 0.506593 0.000000
0.921414 0.506593 0.000000
0.994322 0.506593 0.000000
1.000000 0.506593 0.000000
1.000000 0.506593 0.000000
1.000000 0.506593 0.000000
0.000000 0.597140 0.000000
0.000000 0.597140 0.000000
0.024516 0.597140 0.000000
0.076453 0.597140 0.000000
0.145276 0.597140 0.000000
0.227964 0.597140 0.000000
0.321333 0.597140 0.000000
0.422086 0.597140 0.000000
0.526854 0.597140 0.000000
0.632216 0.597140 0.000000
0.734708 0.597140 0.000000
0.830845 0.597140 0.000000
0.917123 0.597140 0.000000
0.990030 0.597140 0.000000
1.000000 0.597140 0.000000
1.000000 0.597140 0.000000
1.000000 0.597140 0.000000
0.000000 0.685171 0.000000
0.000000 0.685171 0.000000
0.020225 0.685171 0.000000
0.072162 0.685171 0.000000
0.140984 0.685171 0.000000
0.223673 0.685171 0.000000
0.317041 0.685171 0.000000
0.417795 0.685171 0.000000
0.522563 0.685171 0.000000
0.627924 0.685171 0.000000
0.730417 0.685171 0.000000
0.826554 0.685171 0.000000
0.912832 0.685171 0.000000
0.985739 0.685171 0.000000
1.000000 0.685171 0.000000
1.000000 0.685171 0.000000
1.000000 0.685171 0.000000
0.000000 0.768004 0.000000
0.000000 0.768004 0.000000
0.015934 0.768004 0.000000
0.067871 0.768004 0.000000
0.136693 0.768004 0.000000
0.219382 0.768004 0.000000
0.312750 0.768004 0.000000
0.413503 0.768004 0.000000
0.518272 0.768004 0.000000
0.623633 0.768004 0.000000
0.726126 0.768004 0.000000
0.822263 0.768004 0.000000
0.908541 0.768004 0.000000
0.981448 0.768004 0.000000
1.000000 0.768004 0.000000
1.000000 0.768004 0.000000
1.000000 0.768004 0.000000
0.000000 0.842950 0.000000
0.000000 0.842950 0.000000
0.011643 0.842950 0.000000
0.063580 0.842950 0.000000
0.132402 0.842950 0.000000
0.215091 0.842950 0.000000
0.308459 0.842950 0.000000
0.409212 0.842950 0.000000
0.513981 0.842950 0.000000
0.619342 0.842950 0.000000
0.721835 0.842950 0.000000
0.817972 0.842950 0.000000
0.904250 0.842950 0.000000
0.977157 0.842950 0.000000
1.000000 0.842950 0.000000
1.000000 0.842950 0.000000
1.000000 0.842950 0.000000
0.000000 0.907321 0.000000
0.000000 0.907321 0.000000
0.007351 0.907321 0.000000
0.059289 0.907321 0.000000
0.128111 0.907321 0.000000
0.210799 0.907321 0.000000
0.304168 0.907321 0.000000
0.404921 0.907321 0.000000
0.509690 0.907321 0.000000
0.615051 0.907321 0.000000
0.717543 0.907321 0.000000
0.813681 0.907321 0.000000
0.899958 0.907321 0.000000
0.972866 0.907321 0.000000
1.000000 0.907321 0.000000
1.000000 0.907321 0.000000
1.000000 0.907321 0.000000
0.000000 0.958426 0.000000
0.000000 0.958426 0.000000
0.003060 0.958426 0.000000
0.054997 0.958426 0.000000
0.123820 0.958426 0.000000
0.206508 0.958426 0.000000
0.299877 0.958426 0.000000
0.400630 0.958426 0.000000
0.505398 0.958426 0.000000
0.610760 0.958426 0.000000
0.713252 0.958426 0.000000
0.809389 0.958426 0.000000
0.895667 0.958426 0.000000
0.968574 0.958426 0.000000
1.000000 0.958426 0.000000
1.000000 0.958426 0.000000
1.000000 0.958426 0.000000
0.000000 0.993580 0.000000
0.000000 0.993580 0.000000
0.000000 0.993580 0.000000
0.050706 0.993580 0.000000
0.119528 0.993580 0.000000
0.202217 0.993580 0.000000
0.295585 0.993580 0.000000
0.396339 0.993580 0.000000
0.501107 0.993580 0.000000
0.606468 0.993580 0.000000
0.708961 0.993580 0.000000
0.805098 0.993580 0.000000
0.891376 0.993580 0.000000
0.964283 0.993580 0.000000
1.000000 0.993580 0.000000
1.000000 0.993580 0.000000
1.000000 0.993580 0.000000
0.000000 1.000000 0.000000
0.000000 1.000000 0.000000
0.000000 1.000000 0.000000
0.046415 1.000000 0.000000
0.115237 1.000000 0.000000
0.197926 1.000000 0.000000
0.291294 1.000000 0.000000
0.392047 1.000000 0.000000
0.496816 1.000000 0.000000
0.602177 1.000000 0.000000
0.704670 1.000000 0.000000
0.800807 1.000000 0.000000
0.887085 1.000000 0.000000
0.959992 1.000000 0.000000
1.000000 1.000000 0.000000
1.000000 1.000000 0.000000
1.000000 1.000000 0.000000
0.019991 0.009642 0.012390
0.030387 0.009642 0.012390
0.062704 0.009642 0.012390
0.114641 0.009642 0.012390
0.183463 0.009642 0.012390
0.266152 0.009642 0.012390
0.359520 0.009642 0.012390
0.460273 0.009642 0.012390
0.565042 0.009642 0.012390
0.670403 0.009642 0.012390
0.772896 0.009642 0.012390
0.869033 0.009642 0.012390
0.955311 0.009642 0.012390
1.000000 0.009642 0.012390
1.000000 0.009642 0.012390
1.000000 0.009642 0.012390
1.000000 0.009642 0.012390
0.015700 0.025503 0.012390
0.026095 0.025503 0.012390
0.058413 0.025503 0.012390
0.110350 0.025503 0.012390
0.179172 0.025503 0.012390
0.261861 0.025503 0.012390
0.355229 0.025503 0.012390
0.455982 0.025503 0.012390
0.560751 0.025503 0.012390
0.666112 0.025503 0.012390
0.768605 0.025503 0.012390
0.864742 0.025503 0.012390
0.951020 0.025503 0.012390
1.000000 0.025503 0.012390
1.000000 0.025503 0.012390
1.000000 0.025503 0.012390
1.000000 0.025503 0.012390
0.011408 0.059563 0.012390
0.021804 0.059563 0.012390
0.054121 0.059563 0.012390
0.106059 0.059563 0.012390
0.174881 0.059563 0.012390
0.257569 0.059563 0.012390
0.350938 0.059563 0.012390
0.451691 0.059563 0.012390
0.556460 0.059563 0.012390
0.661821 0.059563 0.012390
0.764313 0.059563 0.012390
0.860451 0.059563 0.012390
0.946728 0.059563 0.012390
1.000000 0.059563 0.012390
1.000000 0.059563 0.012390
1.000000 0.059563 0.012390
1.000000 0.059563 0.012390
0.007117 0.109448 0.012390
0.017513 0.109448 0.012390
0.049830 0.109448 0.012390
0.101767 0.109448 0.012390
0.170590 0.109448 0.012390
0.253278 0.109448 0.012390
0.346647 0.109448 0.012390
0.447400 0.109448 0.012390
0.552168 0.109448 0.012390
0.657530 0.109448 0.012390
0.760022 0.109448 0.012390
0.856159 0.109448 0.012390
0.942437 0.109448 0.012390
1.000000 0.109448 0.012390
1.000000 0.109448 0.012390
1.000000 0.109448 0.012390
1.000000 0.109448 0.012390
0.002826 0.172649 0.012390
0.013222 0.172649 0.012390
0.045539 0.172649 0.012390
0.097476 0.172649 0.012390
0.166298 0.172649 0.012390
0.248987 0.172649 0.012390
0.342355 0.172649 0.012390
0.443109 0.172649 0.012390
0.547877 0.172649 0.012390
0.653238 0.172649 0.012390
0.755731 0.172649 0.012390
0.851868 0.172649 0.012390
0.938146 0.172649 0.012390
1.000000 0.172649 0.012390
1.000000 0.172649 0.012390
1.000000 0.172649 0.012390
1.000000 0.172649 0.012390
0.000000 0.246590 0.012390
0.008931 0.246590 0.012390
0.041248 0.246590 0.012390
0.093185 0.246590 0.012390
0.162007 0.246590 0.012390
0.244696 0.246590 0.012390
0.338064 0.246590 0.012390
0.438817 0.246590 0.012390
0.543586 0.246590 0.012390
0.648947 0.246590 0.012390
0.751440 0.246590 0.012390
0.847577 0.246590 0.012390
0.933855 0.246590 0.012390
1.000000 0.246590 0.012390
1.000000 0.246590 0.012390
1.000000 0.246590 0.012390
1.000000 0.246590 0.012390
0.000000 0.328656 0.012390
0.004639 0.328656 0.012390
0.036957 0.328656 0.012390
0.088894 0.328656 0.012390
0.157716 0.328656 0.012390
0.240405 0.328656 0.012390
0.333773 0.328656 0.012390
0.434526 0.328656 0.012390
0.539295 0.328656 0.012390
0.644656 0.328656 0.012390
0.747149 0.328656 0.012390
0.843286 0.328656 0.012390
0.929564 0.328656 0.012390
1.000000 0.328656 0.012390
1.000000 0.328656 0.012390
1.000000 0.328656 0.012390
1.000000 0.328656 0.012390
0.000000 0.416209 0.012390
0.000348 0.416209 0.012390
0.032665 0.416209 0.012390
0.084603 0.416209 0.012390
0.153425 0.416209 0.012390
0.236113 0.416209 0.012390
0.329482 0.416209 0.012390
0.430235 0.416209 0.012390
0.535004 0.416209 0.012390
0.640365 0.416209 0.012390
0.742857 0.416209 0.012390
0.838995 0.416209 0.012390
0.925272 0.416209 0.012390
0.998180 0.416209 0.012390
1.000000 0.416209 0.012390
1.000000 0.416209 0.012390
1.000000 0.416209 0.012390
0.000000 0.506593 0.012390
0.000000 0.506593 0.012390
0.028374 0.506593 0.012390
0.080311 0.506593 0.012390
0.149134 0.506593 0.012390
0.231822 0.506593 0.012390
0.325191 0.506593 0.012390
0.425944 0.506593 0.012390
0.530712 0.506593 0.012390
0.636074 0.506593 0.012390
0.738566 0.506593 0.012390
0.834703 0.506593 0.012390
0.920981 0.506593 0.012390
0.993888 0.506593 0.012390
1.000000 0.506593 0.012390
1.000000 0.506593 0.012390
1.000000 0.506593 0.012390
0.000000 0.597140 0.012390
0.000000 0.597140 0.012390
0.024083 0.597140 0.012390
0.076020 0.597140 0.012390
0.144842 0.597140 0.012390
0.227531 0.597140 0.012390
0.320899 0.597140 0.012390
0.421653 0.597140 0.012390
0.526421 0.597140 0.012390
0.631782 0.597140 0.012390
0.734275 0.597140 0.012390
0.830412 0.597140 0.012390
0.916690 0.597140 0.012390
0.989597 0.597140 0.012390
1.000000 0.597140 0.012390
1.000000 0.597140 0.012390
1.000000 0.597140 0.012390
0.000000 0.685171 0.012390
0.000000 0.685171 0.012390
0.019792 0.685171 0.012390
0.071729 0.685171 0.012390
0.140551 0.685171 0.012390
0.223240 0.685171 0.012390
0.316608 0.685171 0.012390
0.417361 0.685171 0.012390
0.522130 0.685171 0.012390
0.627491 0.685171 0.012390
0.729984 0.685171 0.012390
0.826121 0.685171 0.012390
0.912399 0.685171 0.012390
0.985306 0.685171 0.012390
1.000000 0.685171 0.012390
1.000000 0.685171 0.012390
1.000000 0.685171 0.012390
0.000000 0.768004 0.012390
0.000000 0.768004 0.012390
0.015501 0.768004 0.012390
0.067438 0.768004 0.012390
0.136260 0.768004 0.012390
0.218949 0.768004 0.012390
0.312317 0.768004 0.012390
0.413070 0.768004 0.012390
0.517839 0.768004 0.012390
0.623200 0.768004 0.012390
0.725693 0.768004 0.012390
0.821830 0.768004 0.012390
0.908108 0.768004 0.012390
0.981015 0.768004 0.012390
1.000000 0.768004 0.012390
1.000000 0.768004 0.012390
1.000000 0.768004 0.012390
0.000000 0.842950 0.012390
0.000000 0.842950 0.012390
0.011209 0.842950 0.012390
0.063147 0.842950 0.012390
0.131969 0.842950 0.012390
0.214657 0.842950 0.012390
0.308026 0.842950 0.012390
0.408779 0.842950 0.012390
0.513548 0.842950 0.012390
0.618909 0.842950 0.012390
0.721401 0.842950 0.012390
0.817539 0.842950 0.012390
0.903816 0.842950 0.012390
0.976724 0.842950 0.012390
1.000000 0.842950 0.012390
1.000000 0.842950 0.012390
1.000000 0.842950 0.012390
0.000000 0.907321 0.012390
0.000000 0.907321 0.012390
0.006918 0.907321 0.012390
0.058855 0.907321 0.012390
0.127678 0.907321 0.012390
0.210366 0.907321 0.012390
0.303735 0.907321 0.012390
0.404488 0.907321 0.012390
0.509256 0.907321 0.012390
0.614618 0.907321 0.012390
0.717110 0.907321 0.012390
0.813247 0.907321 0.012390
0.899525 0.907321 0.012390
0.972432 0.907321 0.012390
1.000000 0.907321 0.012390
1.000000 0.907321 0.012390
1.000000 0.907321 0.012390
0.000000 0.958426 0.012390
0.000000 0.958426 0.012390
0.002627 0.958426 0.012390
0.054564 0.958426 0.012390
0.123386 0.958426 0.012390
0.206075 0.958426 0.012390
0.299443 0.958426 0.012390
0.400197 0.958426 0.012390
0.504965 0.958426 0.012390
0.610326 0.958426 0.012390
0.712819 0.958426 0.012390
0.808956 0.958426 0.012390
0.895234 0.958426 0.012390
0.968141 0.958426 0.012390
1.000000 0.958426 0.012390
1.000000 0.958426 0.012390
1.000000 0.958426 0.012390
0.000000 0.993580 0.012390
0.000000 0.993580 0.012390
0.000000 0.993580 0.012390
0.050273 0.993580 0.012390
0.119095 0.993580 0.012390
0.201784 0.993580 0.012390
0.295152 0.993580 0.012390
0.395905 0.993580 0.012390
0.500674 0.993580 0.012390
0.606035 0.993580 0.012390
0.708528 0.993580 0.012390
0.804665 0.993580 0.012390
0.890943 0.993580 0.012390
0.963850 0.993580 0.012390
1.000000 0.993580 0.012390
1.000000 0.993580 0.012390
1.000000 0.993580 0.012390
0.000000 1.000000 0.012390
0.000000 1.000000 0.012390
0.000000 1.000000 0.012390
0.045982 1.000000 0.012390
0.114804 1.000000 0.012390
0.197493 1.000000 0.012390
0.290861 1.000000 0.012390
0.391614 1.000000 0.012390
0.496383 1.000000 0.012390
0.601744 1.000000 0.012390
0.704237 1.000000 0.012390
0.800374 1.000000 0.012390
0.886652 1.000000 0.012390
0.959559 1.000000 0.012390
1.000000 1.000000 0.012390
1.000000 1.000000 0.012390
1.000000 1.000000 0.012390
0.019558 0.009642 0.051433
0.029953 0.009642 0.051433
0.062271 0.009642 0.051433
0.114208 0.009642 0.051433
0.183030 0.009642 0.051433
0.265719 0.009642 0.051433
0.359087 0.009642 0.051433
0.459840 0.009642 0.051433
0.564609 0.009642 0.051433
0.669970 0.009642 0.051433
0.772463 0.009642 0.051433
0.868600 0.009642 0.051433
0.954878 0.009642 0.051433
1.000000 0.009642 0.051433
1.000000 0.009642 0.051433
1.000000 0.009642 0.051433
1.000000 0.009642 0.051433
0.015266 0.025503 0.051433
0.025662 0.025503 0.051433
0.057979 0.025503 0.051433
0.109917 0.025503 0.051433
0.178739 0.025503 0.051433
0.261427 0.025503 0.051433
0.354796 0.025503 0.051433
0.455549 0.025503 0.051433
0.560318 0.025503 0.051433
0.665679 0.025503 0.051433
0.768171 0.025503 0.051433
0.864309 0.025503 0.051433
0.950586 0.025503 0.051433
1.000000 0.025503 0.051433
1.000000 0.025503 0.051433
1.000000 0.025503 0.051433
1.000000 0.025503 0.051433
0.010975 0.059563 0.051433
0.021371 0.059563 0.051433
0.053688 0.059563 0.051433
0.105625 0.059563 0.051433
0.174448 0.059563 0.051433
0.257136 0.059563 0.051433
0.350505 0.059563 0.051433
0.451258 0.059563 0.051433
0.556026 0.059563 0.051433
0.661388 0.059563 0.051433
0.763880 0.059563 0.051433
0.860017 0.059563 0.051433
0.946295 0.059563 0.051433
1.000000 0.059563 0.051433
1.000000 0.059563 0.051433
1.000000 0.059563 0.051433
1.000000 0.059563 0.051433
0.006684 0.109448 0.051433
0.017080 0.109448 0.051433
0.049397 0.109448 0.051433
0.101334 0.109448 0.051433
0.170156 0.109448 0.051433
0.252845 0.109448 0.051433
0.346213 0.109448 0.051433
0.446967 0.109448 0.051433
0.551735 0.109448 0.051433
0.657096 0.109448 0.051433
0.759589 0.109448 0.051433
0.855726 0.109448 0.051433
0.942004 0.109448 0.051433
1.000000 0.109448 0.051433
1.000000 0.109448 0.051433
1.000000 0.109448 0.051433
1.000000 0.109448 0.051433
0.002393 0.172649 0.051433
0.012789 0.172649 0.051433
0.045106 0.172649 0.051433
0.097043 0.172649 0.051433
0.165865 0.172649 0.051433
0.248554 0.172649 0.051433
0.341922 0.172649 0.051433
0.442675 0.172649 0.051433
0.547444 0.172649 0.051433
0.652805 0.172649 0.051433
0.755298 0.172649 0.051433
0.851435 0.172649 0.051433
0.937713 0.172649 0.051433
1.000000 0.172649 0.051433
1.000000 0.172649 0.051433
1.000000 0.172649 0.051433
1.000000 0.172649 0.051433
0.000000 0.246590 0.051433
0.008497 0.246590 0.051433
0.040815 0.246590 0.051433
0.092752 0.246590 0.051433
0.161574 0.246590 0.051433
0.244263 0.246590 0.051433
0.337631 0.246590 0.051433
0.438384 0.246590 0.051433
0.543153 0.246590 0.051433
0.648514 0.246590 0.051433
0.751007 0.246590 0.051433
0.847144 0.246590 0.051433
0.933422 0.246590 0.051433
1.000000 0.246590 0.051433
1.000000 0.246590 0.051433
1.000000 0.246590 0.051433
1.000000 0.246590 0.051433
0.000000 0.328656 0.051433
0.004206 0.328656 0.051433
0.036523 0.328656 0.051433
0.088461 0.328656 0.051433
0.157283 0.328656 0.051433
0.239971 0.328656 0.051433
0.333340 0.328656 0.051433
0.434093 0.328656 0.051433
0.538862 0.328656 0.051433
0.644223 0.328656 0.051433
0.746715 0.328656 0.051433
0.842853 0.328656 0.051433
0.929130 0.328656 0.051433
1.000000 0.328656 0.051433
1.000000 0.328656 0.051433
1.000000 0.328656 0.051433
1.000000 0.328656 0.051433
0.000000 0.416209 0.051433
0.000000 0.416209 0.051433
0.032232 0.416209 0.051433
0.084169 0.416209 0.051433
0.152992 0.416209 0.051433
0.235680 0.416209 0.051433
0.329049 0.416209 0.051433
0.429802 0.416209 0.051433
0.534570 0.416209 0.051433
0.639932 0.416209 0.051433
0.742424 0.416209 0.051433
0.838561 0.416209 0.051433
0.924839 0.416209 0.051433
0.997746 0.416209 0.051433
1.000000 0.416209 0.051433
1.000000 0.416209 0.051433
1.000000 0.416209 0.051433
0.000000 0.506593 0.051433
0.000000 0.506593 0.051433
0.027941 0.506593 0.051433
0.079878 0.506593 0.051433
0.148700 0.506593 0.051433
0.231389 0.506593 0.051433
0.324757 0.506593 0.051433
0.425511 0.506593 0.051433
0.530279 0.506593 0.051433
0.635640 0.506593 0.051433
0.738133 0.506593 0.051433
0.834270 0.506593 0.051433
0.920548 0.506593 0.051433
0.993455 0.506593 0.051433
1.000000 0.506593 0.051433
1.000000 0.506593 0.051433
1.000000 0.506593 0.051433
0.000000 0.597140 0.051433
0.000000 0.597140 0.051433
0.023650 0.597140 0.051433
0.075587 0.597140 0.051433
0.144409 0.597140 0.051433
0.227098 0.597140 0.051433
0.320466 0.597140 0.051433
0.421219 0.597140 0.051433
0.525988 0.597140 0.051433
0.631349 0.597140 0.051433
0.733842 0.597140 0.051433
0.829979 0.597140 0.051433
0.916257 0.597140 0.051433
0.989164 0.597140 0.051433
1.000000 0.597140 0.051433
1.000000 0.597140 0.051433
1.000000 0.597140 0.051433
0.000000 0.685171 0.051433
0.000000 0.685171 0.051433
0.019359 0.685171 0.051433
0.071296 0.685171 0.051433
0.140118 0.685171 0.051433
0.222807 0.685171 0.051433
0.316175 0.685171 0.051433
0.416928 0.685171 0.051433
0.521697 0.685171 0.051433
0.627058 0.685171 0.051433
0.729551 0.685171 0.051433
0.825688 0.685171 0.051433
0.911966 0.685171 0.051433
0.984873 0.685171 0.051433
1.000000 0.685171 0.051433
1.000000 0.685171 0.051433
1.000000 0.685171 0.051433
0.000000 0.768004 0.051433
0.000000 0.768004 0.051433
0.015067 0.768004 0.051433
0.067005 0.768004 0.051433
0.135827 0.768004 0.051433
0.218515 0.768004 0.051433
0.311884 0.768004 0.051433
0.412637 0.768004 0.051433
0.517406 0.768004 0.051433
0.622767 0.768004 0.051433
0.725259 0.768004 0.051433
0.821397 0.768004 0.051433
0.907674 0.768004 0.051433
0.980582 0.768004 0.051433
1.000000 0.768004 0.051433
1.000000 0.768004 0.051433
1.000000 0.768004 0.051433
0.000000 0.842950 0.051433
0.000000 0.842950 0.051433
0.010776 0.842950 0.051433
0.062713 0.842950 0.051433
0.131536 0.842950 0.051433
0.214224 0.842950 0.051433
0.307593 0.842950 0.051433
0.408346 0.842950 0.051433
0.513114 0.842950 0.051433
0.618476 0.842950 0.051433
0.720968 0.842950 0.051433
0.817105 0.842950 0.051433
0.903383 0.842950 0.051433
0.976290 0.842950 0.051433
1.000000 0.842950 0.051433
1.000000 0.842950 0.051433
1.000000 0.842950 0.051433
0.000000 0.907321 0.051433
0.000000 0.907321 0.051433
0.006485 0.907321 0.051433
0.058422 0.907321 0.051433
0.127244 0.907321 0.051433
0.209933 0.907321 0.051433
0.303301 0.907321 0.051433
0.404055 0.907321 0.051433
0.508823 0.907321 0.051433
0.614184 0.907321 0.051433
0.716677 0.907321 0.051433
0.812814 0.907321 0.051433
0.899092 0.907321 0.051433
0.971999 0.907321 0.051433
1.000000 0.907321 0.051433
1.000000 0.907321 0.051433
1.000000 0.907321 0.051433
0.000000 0.958426 0.051433
0.000000 0.958426 0.051433
0.002194 0.958426 0.051433
0.054131 0.958426 0.051433
0.122953 0.958426 0.051433
0.205642 0.958426 0.051433
0.299010 0.958426 0.051433
0.399763 0.958426 0.051433
0.504532 0.958426 0.051433
0.609893 0.958426 0.051433
0.712386 0.958426 0.051433
0.808523 0.958426 0.051433
0.894801 0.958426 0.051433
0.967708 0.958426 0.051433
1.000000 0.958426 0.051433
1.000000 0.958426 0.051433
1.000000 0.958426 0.051433
0.000000 0.993580 0.051433
0.000000 0.993580 0.051433
0.000000 0.993580 0.051433
0.049840 0.993580 0.051433
0.118662 0.993580 0.051433
0.201351 0.993580 0.051433
0.294719 0.993580 0.051433
0.395472 0.993580 0.051433
0.500241 0.993580 0.051433
0.605602 0.993580 0.051433
0.708095 0.993580 0.051433
0.804232 0.993580 0.051433
0.890510 0.993580 0.051433
0.963417 0.993580 0.051433
1.000000 0.993580 0.051433
1.000000 0.993580 0.051433
1.000000 0.993580 0.051433
0.000000 1.000000 0.051433
0.000000 1.000000 0.051433
0.000000 1.000000 0.051433
0.045549 1.000000 0.051433
0.114371 1.000000 0.051433
0.197059 1.000000 0.051433
0.290428 1.000000 0.051433
0.391181 1.000000 0.051433
0.495950 1.000000 0.051433
0.601311 1.000000 0.051433
0.703803 1.000000 0.051433
0.799941 1.000000 0.051433
0.886218 1.000000 0.051433
0.959126 1.000000 0.051433
1.000000 1.000000 0.051433
1.000000 1.000000 0.051433
1.000000 1.000000 0.051433
0.019124 0.009642 0.103970
0.029520 0.009642 0.103970
0.061837 0.009642 0.103970
0.113775 0.009642 0.103970
0.182597 0.009642 0.103970
0.265285 0.009642 0.103970
0.358654 0.009642 0.103970
0.459407 0.009642 0.103970
0.564176 0.009642 0.103970
0.669537 0.009642 0.103970
0.772029 0.009642 0.103970
0.868167 0.009642 0.103970
0.954444 0.009642 0.103970
1.000000 0.009642 0.103970
1.000000 0.009642 0.103970
1.000000 0.009642 0.103970
1.000000 0.009642 0.103970
0.014833 0.025503 0.103970
0.025229 0.025503 0.103970
0.057546 0.025503 0.103970
