Fotico/Resources/LUTs/portada.cube
# Portada
LUT_3D_SIZE 9
0.020424 0.009642 0.000000
0.063137 0.009642 0.000000
0.183896 0.009642 0.000000
0.359953 0.009642 0.000000
0.565475 0.009642 0.000000
0.773329 0.009642 0.000000
0.955744 0.009642 0.000000
1.000000 0.009642 0.000000
1.000000 0.009642 0.000000
0.011842 0.059563 0.000000
0.054555 0.059563 0.000000
0.175314 0.059563 0.000000
0.351371 0.059563 0.000000
0.556893 0.059563 0.000000
0.764747 0.059563 0.000000
0.947162 0.059563 0.000000
1.000000 0.059563 0.000000
1.000000 0.059563 0.000000
0.003259 0.172649 0.000000
0.045972 0.172649 0.000000
0.166732 0.172649 0.000000
0.342789 0.172649 0.000000
0.548310 0.172649 0.000000
0.756164 0.172649 0.000000
0.938579 0.172649 0.000000
1.000000 0.172649 0.000000
1.000000 0.172649 0.000000
0.000000 0.328656 0.000000
0.037390 0.328656 0.000000
0.158149 0.328656 0.000000
0.334206 0.328656 0.000000
0.539728 0.328656 0.000000
0.747582 0.328656 0.000000
0.929997 0.328656 0.000000
1.000000 0.328656 0.000000
1.000000 0.328656 0.000000
0.000000 0.506593 0.000000
0.028807 0.506593 0.000000
0.149567 0.506593 0.000000
0.325624 0.506593 0.000000
0.531146 0.506593 0.000000
0.738999 0.506593 0.000000
0.921414 0.506593 0.000000
1.000000 0.506593 0.000000
1.000000 0.506593 0.000000
0.000000 0.685171 0.000000
0.020225 0.685171 0.000000
0.140984 0.685171 0.000000
0.317041 0.685171 0.000000
0.522563 0.685171 0.000000
0.730417 0.685171 0.000000
0.912832 0.685171 0.000000
1.000000 0.685171 0.000000
1.000000 0.685171 0.000000
0.000000 0.842950 0.000000
0.011643 0.842950 0.000000
0.132402 0.842950 0.000000
0.308459 0.842950 0.000000
0.513981 0.842950 0.000000
0.721835 0.842950 0.000000
0.904250 0.842950 0.000000
1.000000 0.842950 0.000000
1.000000 0.842950 0.000000
0.000000 0.958426 0.000000
0.003060 0.958426 0.000000
0.123820 0.958426 0.000000
0.299877 0.958426 0.000000
0.505398 0.958426 0.000000
0.713252 0.958426 0.000000
0.895667 0.958426 0.000000
1.000000 0.958426 0.000000
1.000000 0.958426 0.000000
0.000000 1.000000 0.000000
0.000000 1.000000 0.000000
0.115237 1.000000 0.000000
0.291294 1.000000 0.000000
0.496816 1.000000 0.000000
0.704670 1.000000 0.000000
0.887085 1.000000 0.000000
1.000000 1.000000 0.000000
1.000000 1.000000 0.000000
0.019558 0.009642 0.051433
0.062271 0.009642 0.051433
0.183030 0.009642 0.051433
0.359087 0.009642 0.051433
0.564609 0.009642 0.051433
0.772463 0.009642 0.051433
0.954878 0.009642 0.051433
1.000000 0.009642 0.051433
1.000000 0.009642 0.051433
0.010975 0.059563 0.051433
0.053688 0.059563 0.051433
0.174448 0.059563 0.051433
0.350505 0.059563 0.051433
0.556026 0.059563 0.051433
0.763880 0.059563 0.051433
0.946295 0.059563 0.051433
1.000000 0.059563 0.051433
1.000000 0.059563 0.051433
0.002393 0.172649 0.051433
0.045106 0.172649 0.051433
0.165865 0.172649 0.051433
0.341922 0.172649 0.051433
0.547444 0.172649 0.051433
0.755298 0.172649 0.051433
0.937713 0.172649 0.051433
1.000000 0.172649 0.051433
1.000000 0.172649 0.051433
0.000000 0.328656 0.051433
0.036523 0.328656 0.051433
0.157283 0.328656 0.051433
0.333340 0.328656 0.051433
0.538862 0.328656 0.051433
0.746715 0.328656 0.051433
0.929130 0.328656 0.051433
1.000000 0.328656 0.051433
1.000000 0.328656 0.051433
0.000000 0.506593 0.051433
0.027941 0.506593 0.051433
0.148700 0.506593 0.051433
0.324757 0.506593 0.051433
0.530279 0.506593 0.051433
0.738133 0.506593 0.051433
0.920548 0.506593 0.051433
1.000000 0.506593 0.051433
1.000000 0.506593 0.051433
0.000000 0.685171 0.051433
0.019359 0.685171 0.051433
0.140118 0.685171 0.051433
0.316175 0.685171 0.051433
0.521697 0.685171 0.051433
0.729551 0.685171 0.051433
0.911966 0.685171 0.051433
1.000000 0.685171 0.051433
1.000000 0.685171 0.051433
0.000000 0.842950 0.051433
0.010776 0.842950 0.051433
0.131536 0.842950 0.051433
0.307593 0.842950 0.051433
0.513114 0.842950 0.051433
0.720968 0.842950 0.051433
0.903383 0.842950 0.051433
1.000000 0.842950 0.051433
1.000000 0.842950 0.051433
0.000000 0.958426 0.051433
0.002194 0.958426 0.051433
0.122953 0.958426 0.051433
0.299010 0.958426 0.051433
0.504532 0.958426 0.051433
0.712386 0.958426 0.051433
0.894801 0.958426 0.051433
1.000000 0.958426 0.051433
1.000000 0.958426 0.051433
0.000000 1.000000 0.051433
0.000000 1.000000 0.051433
0.114371 1.000000 0.051433
0.290428 1.000000 0.051433
0.495950 1.000000 0.051433
0.703803 1.000000 0.051433
0.886218 1.000000 0.051433
1.000000 1.000000 0.051433
1.000000 1.000000 0.051433
0.018691 0.009642 0.167630
0.061404 0.009642 0.167630
0.182164 0.009642 0.167630
0.358221 0.009642 0.167630
0.563742 0.009642 0.167630
0.771596 0.009642 0.167630
0.954011 0.009642 0.167630
1.000000 0.009642 0.167630
1.000000 0.009642 0.167630
0.010109 0.059563 0.167630
0.052822 0.059563 0.167630
0.173581 0.059563 0.167630
0.349638 0.059563 0.167630
0.555160 0.059563 0.167630
0.763014 0.059563 0.167630
0.945429 0.059563 0.167630
1.000000 0.059563 0.167630
1.000000 0.059563 0.167630
0.001526 0.172649 0.167630
0.044239 0.172649 0.167630
0.164999 0.172649 0.167630
0.341056 0.172649 0.167630
0.546578 0.172649 0.167630
0.754431 0.172649 0.167630
0.936846 0.172649 0.167630
1.000000 0.172649 0.167630
1.000000 0.172649 0.167630
0.000000 0.328656 0.167630
0.035657 0.328656 0.167630
0.156416 0.328656 0.167630
0.332473 0.328656 0.167630
0.537995 0.328656 0.167630
0.745849 0.328656 0.167630
0.928264 0.328656 0.167630
1.000000 0.328656 0.167630
1.000000 0.328656 0.167630
0.000000 0.506593 0.167630
0.027075 0.506593 0.167630
0.147834 0.506593 0.167630
0.323891 0.506593 0.167630
0.529413 0.506593 0.167630
0.737267 0.506593 0.167630
0.919682 0.506593 0.167630
1.000000 0.506593 0.167630
1.000000 0.506593 0.167630
0.000000 0.685171 0.167630
0.018492 0.685171 0.167630
0.139252 0.685171 0.167630
0.315309 0.685171 0.167630
0.520830 0.685171 0.167630
0.728684 0.685171 0.167630
0.911099 0.685171 0.167630
1.000000 0.685171 0.167630
1.000000 0.685171 0.167630
0.000000 0.842950 0.167630
0.009910 0.842950 0.167630
0.130669 0.842950 0.167630
0.306726 0.842950 0.167630
0.512248 0.842950 0.167630
0.720102 0.842950 0.167630
0.902517 0.842950 0.167630
1.000000 0.842950 0.167630
1.000000 0.842950 0.167630
0.000000 0.958426 0.167630
0.001327 0.958426 0.167630
0.122087 0.958426 0.167630
0.298144 0.958426 0.167630
0.503666 0.958426 0.167630
0.711519 0.958426 0.167630
0.893934 0.958426 0.167630
1.000000 0.958426 0.167630
1.000000 0.958426 0.167630
0.000000 1.000000 0.167630
0.000000 1.000000 0.167630
0.113504 1.000000 0.167630
0.289561 1.000000 0.167630
0.495083 1.000000 0.167630
0.702937 1.000000 0.167630
0.885352 1.000000 0.167630
1.000000 1.000000 0.167630
1.000000 1.000000 0.167630
0.017825 0.009642 0.318971
0.060538 0.009642 0.318971
0.181297 0.009642 0.318971
0.357354 0.009642 0.318971
0.562876 0.009642 0.318971
0.770730 0.009642 0.318971
0.953145 0.009642 0.318971
1.000000 0.009642 0.318971
1.000000 0.009642 0.318971
0.009242 0.059563 0.318971
0.051955 0.059563 0.318971
0.172715 0.059563 0.318971
0.348772 0.059563 0.318971
0.554294 0.059563 0.318971
0.762147 0.059563 0.318971
0.944562 0.059563 0.318971
1.000000 0.059563 0.318971
1.000000 0.059563 0.318971
0.000660 0.172649 0.318971
0.043373 0.172649 0.318971
0.164132 0.172649 0.318971
0.340189 0.172649 0.318971
0.545711 0.172649 0.318971
0.753565 0.172649 0.318971
0.935980 0.172649 0.318971
1.000000 0.172649 0.318971
1.000000 0.172649 0.318971
0.000000 0.328656 0.318971
0.034791 0.328656 0.318971
0.155550 0.328656 0.318971
0.331607 0.328656 0.318971
0.537129 0.328656 0.318971
0.744983 0.328656 0.318971
0.927398 0.328656 0.318971
1.000000 0.328656 0.318971
1.000000 0.328656 0.318971
0.000000 0.506593 0.318971
0.026208 0.506593 0.318971
0.146968 0.506593 0.318971
0.323025 0.506593 0.318971
0.528546 0.506593 0.318971
0.736400 0.506593 0.318971
0.918815 0.506593 0.318971
1.000000 0.506593 0.318971
1.000000 0.506593 0.318971
0.000000 0.685171 0.318971
0.017626 0.685171 0.318971
0.138385 0.685171 0.318971
0.314442 0.685171 0.318971
0.519964 0.685171 0.318971
0.727818 0.685171 0.318971
0.910233 0.685171 0.318971
1.000000 0.685171 0.318971
1.000000 0.685171 0.318971
0.000000 0.842950 0.318971
0.009043 0.842950 0.318971
0.129803 0.842950 0.318971
0.305860 0.842950 0.318971
0.511382 0.842950 0.318971
0.719235 0.842950 0.318971
0.901650 0.842950 0.318971
1.000000 0.842950 0.318971
1.000000 0.842950 0.318971
0.000000 0.958426 0.318971
0.000461 0.958426 0.318971
0.121220 0.958426 0.318971
0.297277 0.958426 0.318971
0.502799 0.958426 0.318971
0.710653 0.958426 0.318971
0.893068 0.958426 0.318971
1.000000 0.958426 0.318971
1.000000 0.958426 0.318971
0.000000 1.000000 0.318971
0.000000 1.000000 0.318971
0.112638 1.000000 0.318971
0.288695 1.000000 0.318971
0.494217 1.000000 0.318971
0.702071 1.000000 0.318971
0.884486 1.000000 0.318971
1.000000 1.000000 0.318971
1.000000 1.000000 0.318971
0.016958 0.009642 0.487107
0.059671 0.009642 0.487107
0.180431 0.009642 0.487107
0.356488 0.009642 0.487107
0.562010 0.009642 0.487107
0.769863 0.009642 0.487107
0.952278 0.009642 0.487107
1.000000 0.009642 0.487107
1.000000 0.009642 0.487107
0.008376 0.059563 0.487107
0.051089 0.059563 0.487107
0.171848 0.059563 0.487107
0.347905 0.059563 0.487107
0.553427 0.059563 0.487107
0.761281 0.059563 0.487107
0.943696 0.059563 0.487107
1.000000 0.059563 0.487107
1.000000 0.059563 0.487107
0.000000 0.172649 0.487107
0.042507 0.172649 0.487107
0.163266 0.172649 0.487107
0.339323 0.172649 0.487107
0.544845 0.172649 0.487107
0.752699 0.172649 0.487107
0.935114 0.172649 0.487107
1.000000 0.172649 0.487107
1.000000 0.172649 0.487107
0.000000 0.328656 0.487107
0.033924 0.328656 0.487107
0.154684 0.328656 0.487107
0.330741 0.328656 0.487107
0.536262 0.328656 0.487107
0.744116 0.328656 0.487107
0.926531 0.328656 0.487107
1.000000 0.328656 0.487107
1.000000 0.328656 0.487107
0.000000 0.506593 0.487107
0.025342 0.506593 0.487107
0.146101 0.506593 0.487107
0.322158 0.506593 0.487107
0.527680 0.506593 0.487107
0.735534 0.506593 0.487107
0.917949 0.506593 0.487107
1.000000 0.506593 0.487107
1.000000 0.506593 0.487107
0.000000 0.685171 0.487107
0.016759 0.685171 0.487107
0.137519 0.685171 0.487107
0.313576 0.685171 0.487107
0.519098 0.685171 0.487107
0.726951 0.685171 0.487107
0.909366 0.685171 0.487107
1.000000 0.685171 0.487107
1.000000 0.685171 0.487107
0.000000 0.842950 0.487107
0.008177 0.842950 0.487107
0.128936 0.842950 0.487107
0.304993 0.842950 0.487107
0.510515 0.842950 0.487107
0.718369 0.842950 0.487107
0.900784 0.842950 0.487107
1.000000 0.842950 0.487107
1.000000 0.842950 0.487107
0.000000 0.958426 0.487107
0.000000 0.958426 0.487107
0.120354 0.958426 0.487107
0.296411 0.958426 0.487107
0.501933 0.958426 0.487107
0.709787 0.958426 0.487107
0.892202 0.958426 0.487107
1.000000 0.958426 0.487107
1.000000 0.958426 0.487107
0.000000 1.000000 0.487107
0.000000 1.000000 0.487107
0.111772 1.000000 0.487107
0.287829 1.000000 0.487107
0.493350 1.000000 0.487107
0.701204 1.000000 0.487107
0.883619 1.000000 0.487107
1.000000 1.000000 0.487107
1.000000 1.000000 0.487107
0.016092 0.009642 0.654066
0.058805 0.009642 0.654066
0.179564 0.009642 0.654066
0.355621 0.009642 0.654066
0.561143 0.009642 0.654066
0.768997 0.009642 0.654066
0.951412 0.009642 0.654066
1.000000 0.009642 0.654066
1.000000 0.009642 0.654066
0.007510 0.059563 0.654066
0.050223 0.059563 0.654066
0.170982 0.059563 0.654066
0.347039 0.059563 0.654066
0.552561 0.059563 0.654066
0.760415 0.059563 0.654066
0.942830 0.059563 0.654066
1.000000 0.059563 0.654066
1.000000 0.059563 0.654066
0.000000 0.172649 0.654066
0.041640 0.172649 0.654066
0.162400 0.172649 0.654066
0.338457 0.172649 0.654066
0.543978 0.172649 0.654066
0.751832 0.172649 0.654066
0.934247 0.172649 0.654066
1.000000 0.172649 0.654066
1.000000 0.172649 0.654066
0.000000 0.328656 0.654066
0.033058 0.328656 0.654066
0.153817 0.328656 0.654066
0.329874 0.328656 0.654066
0.535396 0.328656 0.654066
0.743250 0.328656 0.654066
0.925665 0.328656 0.654066
1.000000 0.328656 0.654066
1.000000 0.328656 0.654066
0.000000 0.506593 0.654066
0.024475 0.506593 0.654066
0.145235 0.506593 0.654066
0.321292 0.506593 0.654066
0.526814 0.506593 0.654066
0.734667 0.506593 0.654066
0.917082 0.506593 0.654066
1.000000 0.506593 0.654066
1.000000 0.506593 0.654066
0.000000 0.685171 0.654066
0.015893 0.685171 0.654066
0.136652 0.685171 0.654066
0.312709 0.685171 0.654066
0.518231 0.685171 0.654066
0.726085 0.685171 0.654066
0.908500 0.685171 0.654066
1.000000 0.685171 0.654066
1.000000 0.685171 0.654066
0.000000 0.842950 0.654066
0.007311 0.842950 0.654066
0.128070 0.842950 0.654066
0.304127 0.842950 0.654066
0.509649 0.842950 0.654066
0.717503 0.842950 0.654066
0.899918 0.842950 0.654066
1.000000 0.842950 0.654066
1.000000 0.842950 0.654066
0.000000 0.958426 0.654066
0.000000 0.958426 0.654066
0.119488 0.958426 0.654066
0.295545 0.958426 0.654066
0.501066 0.958426 0.654066
0.708920 0.958426 0.654066
0.891335 0.958426 0.654066
1.000000 0.958426 0.654066
1.000000 0.958426 0.654066
0.000000 1.000000 0.654066
0.000000 1.000000 0.654066
0.110905 1.000000 0.654066
0.286962 1.000000 0.654066
0.492484 1.000000 0.654066
0.700338 1.000000 0.654066
0.882753 1.000000 0.654066
1.000000 1.000000 0.654066
1.000000 1.000000 0.654066
0.015226 0.009642 0.802083
0.057939 0.009642 0.802083
0.178698 0.009642 0.802083
0.354755 0.009642 0.802083
0.560277 0.009642 0.802083
0.768131 0.009642 0.802083
0.950546 0.009642 0.802083
1.000000 0.009642 0.802083
1.000000 0.009642 0.802083
0.006643 0.059563 0.802083
0.049356 0.059563 0.802083
0.170116 0.059563 0.802083
0.346173 0.059563 0.802083
0.551694 0.059563 0.802083
0.759548 0.059563 0.802083
0.941963 0.059563 0.802083
1.000000 0.059563 0.802083
1.000000 0.059563 0.802083
0.000000 0.172649 0.802083
0.040774 0.172649 0.802083
0.161533 0.172649 0.802083
0.337590 0.172649 0.802083
0.543112 0.172649 0.802083
0.750966 0.172649 0.802083
0.933381 0.172649 0.802083
1.000000 0.172649 0.802083
1.000000 0.172649 0.802083
0.000000 0.328656 0.802083
0.032191 0.328656 0.802083
0.152951 0.328656 0.802083
0.329008 0.328656 0.802083
0.534530 0.328656 0.802083
0.742383 0.328656 0.802083
0.924798 0.328656 0.802083
1.000000 0.328656 0.802083
1.000000 0.328656 0.802083
0.000000 0.506593 0.802083
0.023609 0.506593 0.802083
0.144368 0.506593 0.802083
0.320425 0.506593 0.802083
0.525947 0.506593 0.802083
0.733801 0.506593 0.802083
0.916216 0.506593 0.802083
1.000000 0.506593 0.802083
1.000000 0.506593 0.802083
0.000000 0.685171 0.802083
0.015027 0.685171 0.802083
0.135786 0.685171 0.802083
0.311843 0.685171 0.802083
0.517365 0.685171 0.802083
0.725219 0.685171 0.802083
0.907634 0.685171 0.802083
1.000000 0.685171 0.802083
1.000000 0.685171 0.802083
0.000000 0.842950 0.802083
0.006444 0.842950 0.802083
0.127204 0.842950 0.802083
0.303261 0.842950 0.802083
0.508782 0.842950 0.802083
0.716636 0.842950 0.802083
0.899051 0.842950 0.802083
1.000000 0.842950 0.802083
1.000000 0.842950 0.802083
0.000000 0.958426 0.802083
0.000000 0.958426 0.802083
0.118621 0.958426 0.802083
0.294678 0.958426 0.802083
0.500200 0.958426 0.802083
0.708054 0.958426 0.802083
0.890469 0.958426 0.802083
1.000000 0.958426 0.802083
1.000000 0.958426 0.802083
0.000000 1.000000 0.802083
0.000000 1.000000 0.802083
0.110039 1.000000 0.802083
0.286096 1.000000 0.802083
0.491618 1.000000 0.802083
0.699471 1.000000 0.802083
0.881886 1.000000 0.802083
1.000000 1.000000 0.802083
1.000000 1.000000 0.802083
0.014359 0.009642 0.913482
0.057072 0.009642 0.913482
0.177832 0.009642 0.913482
0.353889 0.009642 0.913482
0.559410 0.009642 0.913482
0.767264 0.009642 0.913482
0.949679 0.009642 0.913482
1.000000 0.009642 0.913482
1.000000 0.009642 0.913482
0.005777 0.059563 0.913482
0.048490 0.059563 0.913482
0.169249 0.059563 0.913482
0.345306 0.059563 0.913482
0.550828 0.059563 0.913482
0.758682 0.059563 0.913482
0.941097 0.059563 0.913482
1.000000 0.059563 0.913482
1.000000 0.059563 0.913482
0.000000 0.172649 0.913482
0.039907 0.172649 0.913482
0.160667 0.172649 0.913482
0.336724 0.172649 0.913482
0.542246 0.172649 0.913482
0.750099 0.172649 0.913482
0.932514 0.172649 0.913482
1.000000 0.172649 0.913482
1.000000 0.172649 0.913482
0.000000 0.328656 0.913482
0.031325 0.328656 0.913482
0.152084 0.328656 0.913482
0.328141 0.328656 0.913482
0.533663 0.328656 0.913482
0.741517 0.328656 0.913482
0.923932 0.328656 0.913482
1.000000 0.328656 0.913482
1.000000 0.328656 0.913482
0.000000 0.506593 0.913482
0.022743 0.506593 0.913482
0.143502 0.506593 0.913482
0.319559 0.506593 0.913482
0.525081 0.506593 0.913482
0.732935 0.506593 0.913482
0.915350 0.506593 0.913482
1.000000 0.506593 0.913482
1.000000 0.506593 0.913482
0.000000 0.685171 0.913482
0.014160 0.685171 0.913482
0.134920 0.685171 0.913482
0.310977 0.685171 0.913482
0.516498 0.685171 0.913482
0.724352 0.685171 0.913482
0.906767 0.685171 0.913482
1.000000 0.685171 0.913482
1.000000 0.685171 0.913482
0.000000 0.842950 0.913482
0.005578 0.842950 0.913482
0.126337 0.842950 0.913482
0.302394 0.842950 0.913482
0.507916 0.842950 0.913482
0.715770 0.842950 0.913482
0.898185 0.842950 0.913482
1.000000 0.842950 0.913482
1.000000 0.842950 0.913482
0.000000 0.958426 0.913482
0.000000 0.958426 0.913482
0.117755 0.958426 0.913482
0.293812 0.958426 0.913482
0.499334 0.958426 0.913482
0.707187 0.958426 0.913482
0.889602 0.958426 0.913482
1.000000 0.958426 0.913482
1.000000 0.958426 0.913482
0.000000 1.000000 0.913482
0.000000 1.000000 0.913482
0.109172 1.000000 0.913482
0.285229 1.000000 0.913482
0.490751 1.000000 0.913482
0.698605 1.000000 0.913482
0.881020 1.000000 0.913482
1.000000 1.000000 0.913482
1.000000 1.000000 0.913482
0.013493 0.009642 0.970579
0.056206 0.009642 0.970579
0.176965 0.009642 0.970579
0.353022 0.009642 0.970579
0.558544 0.009642 0.970579
0.766398 0.009642 0.970579
0.948813 0.009642 0.970579
1.000000 0.009642 0.970579
1.000000 0.009642 0.970579
0.004910 0.059563 0.970579
0.047623 0.059563 0.970579
0.168383 0.059563 0.970579
0.344440 0.059563 0.970579
0.549962 0.059563 0.970579
0.757815 0.059563 0.970579
0.940230 0.059563 0.970579
1.000000 0.059563 0.970579
1.000000 0.059563 0.970579
0.000000 0.172649 0.970579
0.039041 0.172649 0.970579
0.159800 0.172649 0.970579
0.335857 0.172649 0.970579
0.541379 0.172649 0.970579
0.749233 0.172649 0.970579
0.931648 0.172649 0.970579
1.000000 0.172649 0.970579
1.000000 0.172649 0.970579
0.000000 0.328656 0.970579
0.030459 0.328656 0.970579
0.151218 0.328656 0.970579
0.327275 0.328656 0.970579
0.532797 0.328656 0.970579
0.740651 0.328656 0.970579
0.923066 0.328656 0.970579
1.000000 0.328656 0.970579
1.000000 0.328656 0.970579
0.000000 0.506593 0.970579
0.021876 0.506593 0.970579
0.142636 0.506593 0.970579
0.318693 0.506593 0.970579
0.524214 0.506593 0.970579
0.732068 0.506593 0.970579
0.914483 0.506593 0.970579
1.000000 0.506593 0.970579
1.000000 0.506593 0.970579
0.000000 0.685171 0.970579
0.013294 0.685171 0.970579
0.134053 0.685171 0.970579
0.310110 0.685171 0.970579
0.515632 0.685171 0.970579
0.723486 0.685171 0.970579
0.905901 0.685171 0.970579
1.000000 0.685171 0.970579
1.000000 0.685171 0.970579
0.000000 0.842950 0.970579
0.004711 0.842950 0.970579
0.125471 0.842950 0.970579
0.301528 0.842950 0.970579
0.507050 0.842950 0.970579
0.714903 0.842950 0.970579
0.897318 0.842950 0.970579
1.000000 0.842950 0.970579
1.000000 0.842950 0.970579
0.000000 0.958426 0.970579
0.000000 0.958426 0.970579
0.116888 0.958426 0.970579
0.292945 0.958426 0.970579
0.498467 0.958426 0.970579
0.706321 0.958426 0.970579
0.888736 0.958426 0.970579
1.000000 0.958426 0.970579
1.000000 0.958426 0.970579
0.000000 1.000000 0.970579
0.000000 1.000000 0.970579
0.108306 1.000000 0.970579
0.284363 1.000000 0.970579
0.489885 1.000000 0.970579
0.697739 1.000000 0.970579
0.880154 1.000000 0.970579
1.000000 1.000000 0.970579
1.000000 1.000000 0.970579
