Fotico/Resources/LUTs/portra.cube
TITLE "Portra 400"
LUT_3D_SIZE 5
0.016267 0.009713 0.003176
0.227894 0.026497 0.019373
0.478226 0.034760 0.027066
0.752841 0.034423 0.026184
0.923382 0.028709 0.020087
0.042017 0.236497 0.026713
0.267524 0.252026 0.026627
0.533495 0.258324 0.017970
0.806154 0.255335 0.000823
0.962500 0.255036 0.000000
0.036488 0.506580 0.019133
0.273505 0.520456 0.002769
0.548276 0.521536 0.000000
0.806925 0.521536 0.000000
0.962500 0.521536 0.000000
0.018464 0.779665 0.000000
0.272669 0.779665 0.000000
0.548276 0.779665 0.000000
0.806925 0.779665 0.000000
0.962500 0.779665 0.000000
0.018464 0.962500 0.000000
0.272669 0.962500 0.000000
0.548276 0.962500 0.000000
0.806925 0.962500 0.000000
0.962500 0.962500 0.000000
0.022738 0.015995 0.161170
0.236840 0.030069 0.188116
0.490003 0.035589 0.206152
0.763839 0.032501 0.215114
0.934803 0.024780 0.215870
0.043280 0.242456 0.204857
0.270891 0.255046 0.214667
0.539184 0.258379 0.215327
0.806925 0.255036 0.210144
0.962500 0.255036 0.210144
0.032500 0.512101 0.215652
0.272669 0.521536 0.210144
0.548276 0.521536 0.210144
0.806925 0.521536 0.210144
0.962500 0.521536 0.210144
0.018464 0.779665 0.210144
0.272669 0.779665 0.210144
0.548276 0.779665 0.210144
0.806925 0.779665 0.210144
0.962500 0.779665 0.210144
0.018464 0.962500 0.210144
0.272669 0.962500 0.210144
0.548276 0.962500 0.210144
0.806925 0.962500 0.210144
0.962500 0.962500 0.210144
0.028582 0.021641 0.343941
0.245209 0.032869 0.383395
0.501266 0.035515 0.413558
0.774435 0.029554 0.434173
0.945889 0.019742 0.443120
0.043658 0.247687 0.411155
0.273396 0.257193 0.432666
0.544047 0.257421 0.444469
0.806925 0.255036 0.446400
0.962500 0.255036 0.446400
0.027398 0.516780 0.443785
0.272669 0.521536 0.446400
0.548276 0.521536 0.446400
0.806925 0.521536 0.446400
0.962500 0.521536 0.446400
0.018464 0.779665 0.446400
0.272669 0.779665 0.446400
0.548276 0.779665 0.446400
0.806925 0.779665 0.446400
0.962500 0.779665 0.446400
0.018464 0.962500 0.446400
0.272669 0.962500 0.446400
0.548276 0.962500 0.446400
0.806925 0.962500 0.446400
0.962500 0.962500 0.446400
0.033478 0.026342 0.545504
0.252565 0.034710 0.596779
0.511411 0.034480 0.637722
0.784121 0.025652 0.668681
0.956112 0.013760 0.685195
0.043072 0.251891 0.634345
0.274859 0.258303 0.666218
0.547803 0.255428 0.688351
0.806925 0.255036 0.689216
0.962500 0.255036 0.689216
0.021350 0.520346 0.686700
0.272669 0.521536 0.689216
0.548276 0.521536 0.689216
0.806925 0.521536 0.689216
0.962500 0.521536 0.689216
0.018464 0.779665 0.689216
0.272669 0.779665 0.689216
0.548276 0.779665 0.689216
0.806925 0.779665 0.689216
0.962500 0.779665 0.689216
0.018464 0.962500 0.689216
0.272669 0.962500 0.689216
0.548276 0.962500 0.689216
0.806925 0.962500 0.689216
0.962500 0.962500 0.689216
0.037420 0.030091 0.750452
0.258901 0.035591 0.800185
0.520421 0.032484 0.841380
0.792906 0.020800 0.874413
0.962500 0.009216 0.891018
0.041522 0.255064 0.837903
0.275281 0.258376 0.871680
0.548276 0.255036 0.891018
0.806925 0.255036 0.891018
0.962500 0.255036 0.891018
0.018464 0.521536 0.891018
0.272669 0.521536 0.891018
0.548276 0.521536 0.891018
0.806925 0.521536 0.891018
0.962500 0.521536 0.891018
0.018464 0.779665 0.891018
0.272669 0.779665 0.891018
0.548276 0.779665 0.891018
0.806925 0.779665 0.891018
0.962500 0.779665 0.891018
0.018464 0.962500 0.891018
0.272669 0.962500 0.891018
0.548276 0.962500 0.891018
0.806925 0.962500 0.891018
0.962500 0.962500 0.891018
