Fotico/Resources/LUTs/revista.cube
# Revista
LUT_3D_SIZE 9
0.000000 0.000000 0.000000
0.030433 0.000000 0.000000
0.182591 0.000000 0.000000
0.400802 0.000000 0.000000
0.639692 0.000000 0.000000
0.853890 0.000000 0.000000
0.998024 0.000000 0.000000
1.000000 0.000000 0.000000
0.894606 0.000000 0.000000
0.000000 0.029825 0.000000
0.018445 0.026663 0.000000
0.159291 0.023617 0.000000
0.371796 0.020689 0.000000
0.610587 0.017880 0.000000
0.830294 0.015192 0.000000
0.985543 0.012626 0.000000
1.000000 0.010183 0.000000
0.921178 0.007866 0.000000
0.002044 0.156404 0.000000
0.008244 0.150632 0.000000
0.137084 0.144936 0.000000
0.343191 0.139316 0.000000
0.581191 0.133775 0.000000
0.805713 0.128314 0.000000
0.971385 0.122934 0.000000
1.000000 0.117636 0.000000
0.944686 0.112423 0.000861
0.012021 0.338678 0.000000
0.000000 0.331420 0.000000
0.116058 0.324197 0.000000
0.315073 0.317010 0.000000
0.551589 0.309860 0.000000
0.780234 0.302748 0.001421
0.955635 0.295678 0.003031
1.000000 0.288649 0.004752
0.965217 0.281663 0.006583
0.024650 0.545791 0.000000
0.000000 0.538171 0.000453
0.096297 0.530543 0.001994
0.287528 0.522911 0.003645
0.521867 0.515275 0.005406
0.753941 0.507638 0.007277
0.938379 0.499999 0.009260
1.000000 0.492362 0.011355
0.982856 0.484727 0.013564
0.040017 0.746885 0.004273
0.000000 0.740025 0.006074
0.077888 0.733117 0.007986
0.260641 0.726164 0.010010
0.492110 0.719165 0.012146
0.726921 0.712124 0.014396
0.919703 0.705042 0.016760
1.000000 0.697920 0.019239
0.997689 0.690759 0.021834
0.058205 0.911103 0.010775
0.000000 0.906126 0.012952
0.060915 0.901061 0.015243
0.234498 0.895909 0.017649
0.462404 0.890672 0.020170
0.699259 0.885351 0.022807
0.899692 0.879948 0.025561
1.000000 0.874464 0.028432
1.000000 0.868900 0.031422
0.079303 1.000000 0.018554
0.000000 1.000000 0.021117
0.045465 1.000000 0.023796
0.209185 1.000000 0.026593
0.432835 0.998938 0.029507
0.671041 0.996460 0.032540
0.878432 0.993859 0.035692
1.000000 0.991137 0.038965
1.000000 0.988294 0.042358
0.103394 1.000000 0.027640
0.000000 1.000000 0.030597
0.031623 1.000000 0.033674
0.184787 1.000000 0.036870
0.403488 1.000000 0.040186
0.642352 1.000000 0.043624
0.856009 1.000000 0.047184
0.999085 1.000000 0.050866
1.000000 1.000000 0.054672
0.000000 0.000000 0.046062
0.029144 0.000000 0.043117
0.180192 0.000000 0.040243
0.397858 0.000000 0.037440
0.636770 0.000000 0.034709
0.851555 0.000000 0.032050
0.996842 0.000000 0.029465
1.000000 0.000000 0.026954
0.897430 0.000000 0.024518
0.000000 0.028738 0.036437
0.017333 0.025616 0.033732
0.156998 0.022610 0.031100
0.368888 0.019722 0.028542
0.607632 0.016954 0.026058
0.827856 0.014307 0.023650
0.984188 0.011782 0.021318
1.000000 0.009382 0.019062
0.923688 0.007107 0.016884
0.002933 0.154435 0.027629
0.007317 0.148689 0.025173
0.134907 0.143019 0.022792
0.340329 0.137426 0.020487
0.578211 0.131912 0.018260
0.803180 0.126478 0.016110
0.969866 0.121125 0.014040
1.000000 0.115856 0.012048
0.946893 0.110672 0.010137
0.013174 0.336210 0.019668
0.000000 0.328963 0.017468
0.114004 0.321752 0.015347
0.312265 0.314577 0.013305
0.548593 0.307440 0.011343
0.777615 0.300342 0.009461
0.953960 0.293286 0.007660
1.000000 0.286271 0.005942
0.967128 0.279301 0.004306
0.026076 0.543204 0.012582
0.000000 0.535581 0.010648
0.094376 0.527952 0.008796
0.284782 0.520318 0.007025
0.518863 0.512682 0.005337
0.751245 0.505044 0.003731
0.936557 0.497406 0.002210
1.000000 0.489769 0.000773
0.984480 0.482135 0.000000
0.041723 0.744561 0.006401
0.000000 0.737684 0.004742
0.076108 0.730761 0.003167
0.257967 0.723792 0.001677
0.489107 0.716779 0.000271
0.724156 0.709724 0.000000
0.917742 0.702628 0.000000
1.000000 0.695492 0.000000
0.999034 0.688319 0.000000
0.060202 0.909423 0.001155
0.000000 0.904416 0.000000
0.059285 0.899321 0.000000
0.231904 0.894140 0.000000
0.459411 0.888874 0.000000
0.696434 0.883525 0.000000
0.897601 0.878094 0.000000
1.000000 0.872583 0.000000
1.000000 0.866993 0.000000
0.081597 1.000000 0.000000
0.000000 1.000000 0.000000
0.043993 1.000000 0.000000
0.206679 1.000000 0.000000
0.429860 0.998110 0.000000
0.668165 0.995591 0.000000
0.876220 0.992948 0.000000
1.000000 0.990185 0.000000
1.000000 0.987301 0.000000
0.105996 1.000000 0.000000
0.000000 1.000000 0.000000
0.030318 1.000000 0.000000
0.182378 1.000000 0.000000
0.400541 1.000000 0.000000
0.639433 1.000000 0.000000
0.853684 1.000000 0.000000
0.997920 1.000000 0.000000
1.000000 1.000000 0.000000
0.000000 0.000000 0.190985
0.027873 0.000000 0.186037
0.177803 0.000000 0.181131
0.394917 0.000000 0.176268
0.633844 0.000000 0.171450
0.849210 0.000000 0.166677
0.995643 0.000000 0.161949
1.000000 0.000000 0.157268
0.900222 0.000099 0.152634
0.000000 0.027665 0.174509
0.016239 0.024582 0.169707
0.154716 0.021616 0.164950
0.365985 0.018768 0.160240
0.604673 0.016041 0.155576
0.825408 0.013435 0.150959
0.982817 0.010953 0.146391
1.000000 0.008595 0.141872
0.926168 0.006364 0.137403
0.003849 0.152475 0.158536
0.006409 0.146755 0.153889
0.132741 0.141111 0.149291
0.337472 0.135544 0.144740
0.575228 0.130057 0.140240
0.800639 0.124651 0.135789
0.968330 0.119327 0.131389
1.000000 0.114086 0.127041
0.949069 0.108931 0.122746
0.014355 0.333745 0.143096
0.000000 0.326510 0.138613
0.111964 0.319311 0.134181
0.309463 0.312149 0.129800
0.545595 0.305025 0.125471
0.774988 0.297941 0.121195
0.952270 0.290899 0.116973
1.000000 0.283899 0.112804
0.969009 0.276944 0.108691
0.027530 0.540616 0.128218
0.000000 0.532991 0.123908
0.092469 0.525360 0.119652
0.282044 0.517725 0.115449
0.515859 0.510088 0.111301
0.748542 0.502450 0.107208
0.934720 0.494812 0.103171
1.000000 0.487176 0.099191
0.986075 0.479544 0.095269
0.043459 0.742231 0.113932
0.000000 0.735338 0.109804
0.074342 0.728399 0.105731
0.255300 0.721415 0.101715
0.486105 0.714388 0.097757
0.721385 0.707318 0.093856
0.915768 0.700209 0.090014
1.000000 0.693060 0.086231
1.000000 0.685874 0.082509
0.062228 0.907733 0.100268
0.000000 0.902696 0.096330
0.057670 0.897571 0.092450
0.229318 0.892361 0.088630
0.456420 0.887067 0.084869
0.693604 0.881690 0.081169
0.895498 0.876232 0.077531
1.000000 0.870694 0.073954
1.000000 0.865077 0.070441
0.083923 1.000000 0.087254
0.000000 1.000000 0.083515
0.042538 1.000000 0.079837
0.204183 0.999706 0.076221
0.426889 0.997268 0.072668
0.665284 0.994707 0.069177
0.873996 0.992023 0.065751
1.000000 0.989219 0.062389
1.000000 0.986295 0.059093
0.108629 1.000000 0.074920
0.000000 1.000000 0.071390
0.029031 1.000000 0.067922
0.179980 1.000000 0.064519
0.397597 1.000000 0.061182
0.636511 1.000000 0.057910
0.851348 1.000000 0.054704
0.996737 1.000000 0.051566
1.000000 1.000000 0.048496
0.000000 0.000000 0.389325
0.026619 0.000000 0.383362
0.175424 0.000000 0.377414
0.391980 0.000000 0.371482
0.630914 0.000000 0.365566
0.846853 0.000000 0.359668
0.994426 0.000000 0.353787
1.000000 0.000000 0.347925
0.902982 0.000754 0.342083
0.000000 0.026605 0.369326
0.015163 0.023561 0.363417
0.152446 0.020635 0.357524
0.363086 0.017828 0.351651
0.601712 0.015142 0.345796
0.822950 0.012579 0.339961
0.981428 0.010138 0.334147
1.000000 0.007823 0.328354
0.928617 0.005635 0.322584
0.004790 0.150524 0.349517
0.005521 0.144829 0.343669
0.130588 0.139211 0.337842
0.334620 0.133672 0.332036
0.572244 0.128212 0.326251
0.798088 0.122833 0.320488
0.966779 0.117537 0.314749
1.000000 0.112326 0.309034
0.951214 0.107200 0.303344
0.015562 0.331284 0.329927
0.000000 0.324061 0.324150
0.109936 0.316875 0.318396
0.306666 0.309725 0.312666
0.542596 0.302615 0.306960
0.772353 0.295545 0.301279
0.950564 0.288517 0.295624
1.000000 0.281532 0.289995
0.970861 0.274592 0.284394
0.029011 0.538027 0.310586
0.000000 0.530400 0.304889
0.090575 0.522768 0.299217
0.279312 0.515132 0.293572
0.512854 0.507494 0.287953
0.745831 0.499856 0.282362
0.932869 0.492218 0.276800
1.000000 0.484584 0.271267
0.987641 0.476953 0.265764
0.045223 0.739896 0.291523
0.000000 0.732987 0.285914
0.072592 0.726032 0.280334
0.252641 0.719033 0.274782
0.483104 0.711992 0.269260
0.718608 0.704908 0.263768
0.913780 0.697785 0.258307
1.000000 0.690624 0.252878
1.000000 0.683425 0.247481
0.064284 0.906032 0.272768
0.000000 0.900965 0.267257
0.056071 0.895812 0.261776
0.226741 0.890573 0.256327
0.453430 0.885250 0.250909
0.690768 0.879845 0.245525
0.893382 0.874360 0.240174
1.000000 0.868795 0.234858
1.000000 0.863152 0.229577
0.086279 1.000000 0.254351
0.000000 1.000000 0.248945
0.041099 1.000000 0.243573
0.201696 0.998892 0.238235
0.423919 0.996412 0.232931
0.662398 0.993809 0.227663
0.871760 0.991084 0.222432
1.000000 0.988239 0.217237
1.000000 0.985275 0.212081
0.111294 1.000000 0.236300
0.000000 1.000000 0.231009
0.027761 1.000000 0.225755
0.177592 1.000000 0.220536
0.394657 1.000000 0.215355
0.633584 1.000000 0.210213
0.849001 1.000000 0.205109
0.995536 1.000000 0.200045
1.000000 1.000000 0.195021
0.000000 0.000000 0.605738
0.025383 0.000000 0.599750
0.173056 0.000000 0.593749
0.389046 0.000000 0.587736
0.627980 0.000000 0.581712
0.844486 0.000000 0.575678
0.993191 0.000000 0.569634
1.000000 0.000000 0.563581
0.905710 0.001428 0.557520
0.000000 0.025558 0.585545
0.014106 0.022554 0.579517
0.150187 0.019669 0.573479
0.360192 0.016903 0.567431
0.598747 0.014258 0.561375
0.820482 0.011736 0.555311
0.980023 0.009338 0.549240
1.000000 0.007066 0.543163
0.931034 0.004921 0.537080
0.005759 0.148582 0.565227
0.004651 0.142913 0.559168
0.128447 0.137321 0.553102
0.331773 0.131809 0.547029
0.569258 0.126376 0.540949
0.795528 0.121025 0.534865
0.965212 0.115758 0.528776
1.000000 0.110575 0.522683
0.953330 0.105479 0.516588
0.016797 0.328827 0.544816
0.000000 0.321617 0.538735
0.107921 0.314443 0.532648
0.303876 0.307306 0.526558
0.539597 0.300209 0.520464
0.769710 0.293153 0.514368
0.948844 0.286140 0.508270
1.000000 0.279170 0.502171
0.972683 0.272245 0.496071
0.030521 0.535437 0.524340
0.000000 0.527808 0.518245
0.088696 0.520175 0.512148
0.276587 0.512538 0.506049
0.509850 0.504900 0.499950
0.743113 0.497262 0.493851
0.931004 0.489625 0.487752
1.000000 0.481992 0.481655
0.989179 0.474363 0.475560
0.047017 0.737555 0.503829
0.000000 0.730630 0.497729
0.070856 0.723660 0.491630
0.249990 0.716647 0.485532
0.480103 0.709591 0.479436
0.715824 0.702494 0.473342
0.911779 0.695357 0.467252
1.000000 0.688183 0.461165
1.000000 0.680973 0.455084
0.066370 0.904321 0.483312
0.000000 0.899225 0.477217
0.054488 0.894042 0.471124
0.224172 0.888775 0.465035
0.450442 0.883424 0.458951
0.687927 0.877991 0.452871
0.891253 0.872479 0.446798
1.000000 0.866887 0.440732
1.000000 0.861218 0.434673
0.088666 1.000000 0.462820
0.000000 1.000000 0.456737
0.039677 1.000000 0.450660
0.199218 0.998064 0.444589
0.420953 0.995542 0.438525
0.659508 0.992897 0.432469
0.869513 0.990131 0.426421
1.000000 0.987246 0.420383
1.000000 0.984242 0.414355
0.113990 1.000000 0.442380
0.000000 1.000000 0.436319
0.026509 1.000000 0.430266
0.175214 1.000000 0.424222
0.391720 1.000000 0.418188
0.630654 1.000000 0.412164
0.846644 1.000000 0.406151
0.994317 1.000000 0.400150
1.000000 1.000000 0.394162
0.000000 0.000000 0.804879
0.024164 0.000000 0.799855
0.170699 0.000000 0.794791
0.386116 0.000000 0.789687
0.625043 0.000000 0.784545
0.842108 0.000000 0.779364
0.991939 0.000000 0.774145
1.000000 0.000135 0.768891
0.908406 0.002122 0.763600
0.000000 0.024525 0.787819
0.013068 0.021561 0.782663
0.147940 0.018716 0.777468
0.357302 0.015991 0.772237
0.595781 0.013388 0.766969
0.818004 0.010908 0.761665
0.978601 0.008552 0.756327
1.000000 0.006323 0.750955
0.933421 0.004221 0.745549
0.006754 0.146648 0.770323
0.003802 0.141005 0.765042
0.126318 0.135440 0.759726
0.328932 0.129955 0.754375
0.566270 0.124550 0.748991
0.792959 0.119227 0.743573
0.963629 0.113988 0.738124
1.000000 0.108835 0.732643
0.955416 0.103768 0.727132
0.018059 0.326375 0.752419
0.000000 0.319176 0.747022
0.105920 0.312015 0.741593
0.301092 0.304892 0.736132
0.536596 0.297808 0.730640
0.767059 0.290767 0.725118
0.947108 0.283768 0.719566
1.000000 0.276813 0.713986
0.974477 0.269904 0.708377
0.032059 0.532847 0.734136
0.000000 0.525216 0.728633
0.086831 0.517582 0.723100
0.273869 0.509944 0.717538
0.506846 0.502306 0.711947
0.740388 0.494668 0.706328
0.929125 0.487032 0.700683
1.000000 0.479400 0.695011
0.990689 0.471773 0.689314
0.048839 0.735208 0.715506
0.000000 0.728268 0.709905
0.069136 0.721283 0.704276
0.247347 0.714255 0.698621
0.477104 0.707185 0.692940
0.713034 0.700075 0.687234
0.909764 0.692925 0.681504
1.000000 0.685739 0.675750
1.000000 0.678516 0.669973
0.068486 0.902600 0.696556
0.000000 0.897474 0.690866
0.052921 0.892263 0.685151
0.221612 0.886967 0.679412
0.447456 0.881588 0.673649
0.685080 0.876128 0.667864
0.889112 0.870589 0.662058
1.000000 0.864971 0.656231
1.000000 0.859276 0.650383
0.091083 1.000000 0.677316
0.000000 1.000000 0.671546
0.038272 0.999662 0.665753
0.196750 0.997221 0.659939
0.417988 0.994658 0.654104
0.656614 0.991972 0.648249
0.867254 0.989165 0.642376
1.000000 0.986239 0.636483
1.000000 0.983195 0.630574
0.116718 1.000000 0.657817
0.000000 1.000000 0.651975
0.025274 1.000000 0.646113
0.172847 1.000000 0.640232
0.388786 1.000000 0.634334
0.627720 1.000000 0.628418
0.844276 1.000000 0.622486
0.993081 1.000000 0.616538
1.000000 1.000000 0.610575
0.000000 0.000000 0.951404
0.022963 0.000000 0.948334
0.168352 0.000000 0.945196
0.383189 0.000000 0.941990
0.622103 0.000000 0.938718
0.839720 0.000000 0.935381
0.990669 0.000000 0.931978
1.000000 0.000791 0.928510
0.911071 0.002835 0.924980
0.000000 0.023505 0.940807
0.012048 0.020581 0.937511
0.145704 0.017777 0.934149
0.354416 0.015093 0.930723
0.592811 0.012532 0.927232
0.815517 0.010094 0.923679
0.977162 0.007781 0.920063
1.000000 0.005595 0.916385
0.935777 0.003537 0.912646
0.007775 0.144723 0.929459
0.002971 0.139106 0.925946
0.124202 0.133568 0.922369
0.326096 0.128110 0.918731
0.563280 0.122733 0.915031
0.790382 0.117439 0.911270
0.962030 0.112229 0.907450
1.000000 0.107104 0.903570
0.957472 0.102067 0.899632
0.019349 0.323926 0.917391
0.000000 0.316740 0.913669
0.103932 0.309591 0.909886
0.298315 0.302482 0.906044
0.533595 0.295412 0.902143
0.764400 0.288385 0.898185
0.945358 0.281401 0.894169
1.000000 0.274462 0.890096
0.976241 0.267569 0.885968
0.033625 0.530256 0.904631
0.000000 0.522624 0.900709
0.084980 0.514988 0.896729
0.271158 0.507350 0.892692
0.503841 0.499712 0.888599
0.737656 0.492075 0.884451
0.927231 0.484440 0.880248
1.000000 0.476809 0.875992
0.992170 0.469184 0.871682
0.050691 0.732856 0.891209
0.000000 0.725901 0.887096
0.067430 0.718901 0.882927
0.244712 0.711859 0.878705
0.474105 0.704775 0.874429
0.710237 0.697651 0.870100
0.907736 0.690489 0.865719
1.000000 0.683290 0.861287
1.000000 0.676055 0.856804
0.070631 0.900869 0.877154
0.000000 0.895714 0.872859
0.051370 0.890473 0.868511
0.219061 0.885149 0.864111
0.444472 0.879743 0.859660
0.682228 0.874256 0.855160
0.886959 0.868689 0.850609
1.000000 0.863045 0.846011
1.000000 0.857325 0.841364
0.093532 1.000000 0.862497
0.000000 1.000000 0.858028
0.036883 0.998847 0.853509
0.194292 0.996365 0.848941
0.415027 0.993759 0.844324
0.653715 0.991032 0.839660
0.864984 0.988184 0.834950
1.000000 0.985218 0.830193
1.000000 0.982135 0.825391
0.119478 1.000000 0.847266
0.000000 1.000000 0.842632
0.024057 1.000000 0.837951
0.170490 1.000000 0.833223
0.385856 1.000000 0.828450
0.624783 1.000000 0.823632
0.841897 1.000000 0.818769
0.991827 1.000000 0.813863
1.000000 1.000000 0.808915
0.000000 0.000000 1.000000
0.021780 0.000000 1.000000
0.166016 0.000000 1.000000
0.380267 0.000000 1.000000
0.619159 0.000000 1.000000
0.837322 0.000000 1.000000
0.989382 0.000000 1.000000
1.000000 0.001466 1.000000
0.913704 0.003568 1.000000
0.000000 0.022499 1.000000
0.011047 0.019615 1.000000
0.143480 0.016852 1.000000
0.351535 0.014209 1.000000
0.589840 0.011690 1.000000
0.813021 0.009294 1.000000
0.975707 0.007024 1.000000
1.000000 0.004882 1.000000
0.938103 0.002868 1.000000
0.008823 0.142807 1.000000
0.002160 0.137217 1.000000
0.122099 0.131706 1.000000
0.323266 0.126275 1.000000
0.560289 0.120926 1.000000
0.787796 0.115660 1.000000
0.960415 0.110479 1.000000
1.000000 0.105384 1.000000
0.959498 0.100377 0.998745
0.020666 0.321481 1.000000
0.000000 0.314308 1.000000
0.101958 0.307172 1.000000
0.295544 0.300076 1.000000
0.530593 0.293021 0.999629
0.761733 0.286008 0.998223
0.943592 0.279039 0.996733
1.000000 0.272116 0.995158
0.977977 0.265239 0.993499
0.035220 0.527665 1.000000
0.000000 0.520031 0.999127
0.083143 0.512394 0.997690
0.268455 0.504756 0.996169
0.500837 0.497118 0.994563
0.734918 0.489482 0.992875
0.925324 0.481848 0.991104
1.000000 0.474219 0.989252
0.993624 0.466596 0.987318
0.052572 0.730499 0.995594
0.000000 0.723529 0.993958
0.065740 0.716514 0.992240
0.242085 0.709458 0.990439
0.471107 0.702360 0.988557
0.707435 0.695223 0.986595
0.905696 0.688048 0.984553
1.000000 0.680837 0.982432
1.000000 0.673590 0.980232
0.072807 0.899128 0.989763
0.000000 0.893944 0.987852
0.049834 0.888675 0.985860
0.216520 0.883322 0.983790
0.441489 0.877888 0.981640
0.679371 0.872374 0.979413
0.884793 0.866781 0.977108
1.000000 0.861111 0.974727
1.000000 0.855365 0.972271
0.096012 1.000000 0.983016
0.000000 1.000000 0.980838
0.035512 0.998018 0.978582
0.191844 0.995493 0.976250
0.412068 0.992846 0.973842
0.650812 0.990078 0.971358
0.862702 0.987190 0.968800
1.000000 0.984184 0.966168
1.000000 0.981062 0.963463
0.122270 1.000000 0.975382
0.000000 1.000000 0.972946
0.022858 1.000000 0.970435
0.168145 1.000000 0.967850
0.382930 1.000000 0.965191
0.621842 1.000000 0.962460
0.839508 1.000000 0.959657
0.990556 1.000000 0.956783
1.000000 1.000000 0.953838
0.000000 0.000000 0.945228
0.020615 0.000000 0.949034
0.163691 0.000000 0.952716
0.377348 0.000000 0.956276
0.616212 0.000000 0.959714
0.834913 0.000000 0.963030
0.988077 0.000171 0.966226
1.000000 0.002161 0.969303
0.916306 0.004321 0.972260
0.000421 0.021506 0.957542
0.010064 0.018663 0.960935
0.141268 0.015941 0.964208
0.348659 0.013340 0.967360
0.586865 0.010862 0.970393
0.810515 0.008509 0.973307
0.974235 0.006282 0.976104
1.000000 0.004183 0.978783
0.940397 0.002213 0.981346
0.009898 0.140900 0.968478
0.001369 0.135336 0.971468
0.120008 0.129852 0.974339
0.320441 0.124449 0.977093
0.557296 0.119128 0.979730
0.785202 0.113891 0.982251
0.958785 0.108739 0.984657
1.000000 0.103674 0.986948
0.961495 0.098697 0.989125
0.022011 0.319041 0.978066
0.000000 0.311880 0.980661
0.099997 0.304758 0.983140
0.292779 0.297676 0.985504
0.527590 0.290635 0.987754
0.759059 0.283636 0.989890
0.941812 0.276683 0.991914
1.000000 0.269775 0.993826
0.979683 0.262915 0.995627
0.036844 0.525073 0.986336
0.000000 0.517438 0.988545
0.081321 0.509801 0.990640
0.265759 0.502162 0.992623
0.497833 0.494525 0.994494
0.732172 0.486889 0.996255
0.923403 0.479257 0.997906
1.000000 0.471629 0.999447
0.995050 0.464009 1.000000
0.054483 0.728137 0.993317
0.000000 0.721151 0.995148
0.064065 0.714122 0.996869
0.239466 0.707052 0.998479
0.468111 0.699940 0.999981
0.704627 0.692790 1.000000
0.903642 0.685603 1.000000
1.000000 0.678380 1.000000
1.000000 0.671122 1.000000
0.075014 0.897377 0.999039
0.000000 0.892164 1.000000
0.048315 0.886866 1.000000
0.213987 0.881486 1.000000
0.438509 0.876025 1.000000
0.676509 0.870484 1.000000
0.882616 0.864864 1.000000
1.000000 0.859168 1.000000
1.000000 0.853396 1.000000
0.098522 1.000000 1.000000
0.000000 0.999617 1.000000
0.034157 0.997174 1.000000
0.189406 0.994608 1.000000
0.409113 0.991920 1.000000
0.647904 0.989111 1.000000
0.860409 0.986183 1.000000
1.000000 0.983137 1.000000
1.000000 0.979975 1.000000
0.125094 1.000000 1.000000
0.000000 1.000000 1.000000
0.021676 1.000000 1.000000
0.165810 1.000000 1.000000
0.380008 1.000000 1.000000
0.618898 1.000000 1.000000
0.837109 1.000000 1.000000
0.989267 1.000000 1.000000
1.000000 1.000000 1.000000
