Fotico/Resources/LUTs/revista.cube
# Revista
LUT_3D_SIZE 17
0.000000 0.000000 0.000000
0.000000 0.000000 0.000000
0.030433 0.000000 0.000000
0.095420 0.000000 0.000000
0.182591 0.000000 0.000000
0.286276 0.000000 0.000000
0.400802 0.000000 0.000000
0.520498 0.000000 0.000000
0.639692 0.000000 0.000000
0.752714 0.000000 0.000000
0.853890 0.000000 0.000000
0.937551 0.000000 0.000000
0.998024 0.000000 0.000000
1.000000 0.000000 0.000000
1.000000 0.000000 0.000000
0.983600 0.000000 0.000000
0.894606 0.000000 0.000000
0.000000 0.000000 0.000000
0.000000 0.000000 0.000000
0.024221 0.000000 0.000000
0.086073 0.000000 0.000000
0.170810 0.000000 0.000000
0.272761 0.000000 0.000000
0.386254 0.000000 0.000000
0.505618 0.000000 0.000000
0.625182 0.000000 0.000000
0.739273 0.000000 0.000000
0.842221 0.000000 0.000000
0.928353 0.000000 0.000000
0.991998 0.000000 0.000000
1.000000 0.000000 0.000000
1.000000 0.000000 0.000000
0.991298 0.000000 0.000000
0.908280 0.000000 0.000000
0.000000 0.029825 0.000000
0.000000 0.028230 0.000000
0.018445 0.026663 0.000000
0.077075 0.025126 0.000000
0.159291 0.023617 0.000000
0.259421 0.022138 0.000000
0.371796 0.020689 0.000000
0.490741 0.019270 0.000000
0.610587 0.017880 0.000000
0.725662 0.016521 0.000000
0.830294 0.015192 0.000000
0.918811 0.013893 0.000000
0.985543 0.012626 0.000000
1.000000 0.011389 0.000000
1.000000 0.010183 0.000000
0.998306 0.009009 0.000000
0.921178 0.007866 0.000000
0.000000 0.084224 0.000000
0.000000 0.081908 0.000000
0.013116 0.079617 0.000000
0.068437 0.077349 0.000000
0.148045 0.075105 0.000000
0.246269 0.072886 0.000000
0.357438 0.070691 0.000000
0.475878 0.068521 0.000000
0.595920 0.066375 0.000000
0.711892 0.064255 0.000000
0.818121 0.062160 0.000000
0.908937 0.060091 0.000000
0.978668 0.058047 0.000000
1.000000 0.056028 0.000000
1.000000 0.054036 0.000000
1.000000 0.052070 0.000000
0.933309 0.050131 0.000000
0.002044 0.156404 0.000000
0.000000 0.153508 0.000000
0.008244 0.150632 0.000000
0.060170 0.147774 0.000000
0.137084 0.144936 0.000000
0.233315 0.142116 0.000000
0.343191 0.139316 0.000000
0.461040 0.136536 0.000000
0.581191 0.133775 0.000000
0.697973 0.131035 0.000000
0.805713 0.128314 0.000000
0.898741 0.125614 0.000000
0.971385 0.122934 0.000000
1.000000 0.120275 0.000000
1.000000 0.117636 0.000000
1.000000 0.115019 0.000117
0.944686 0.112423 0.000861
0.006706 0.242507 0.000000
0.000000 0.239173 0.000000
0.003841 0.235852 0.000000
0.052285 0.232545 0.000000
0.126418 0.229252 0.000000
0.220569 0.225973 0.000000
0.329066 0.222708 0.000000
0.446237 0.219458 0.000000
0.566410 0.216222 0.000000
0.683916 0.213002 0.000000
0.793081 0.209796 0.000000
0.888234 0.206605 0.000000
0.963704 0.203430 0.000385
1.000000 0.200270 0.001139
1.000000 0.197126 0.001921
1.000000 0.193998 0.002730
0.955319 0.190886 0.003566
0.012021 0.338678 0.000000
0.000000 0.335045 0.000000
0.000000 0.331420 0.000000
0.044792 0.327804 0.000000
0.116058 0.324197 0.000000
0.208042 0.320599 0.000000
0.315073 0.317010 0.000000
0.431479 0.313430 0.000000
0.551589 0.309860 0.000000
0.669731 0.306299 0.000656
0.780234 0.302748 0.001421
0.877426 0.299208 0.002212
0.955635 0.295678 0.003031
1.000000 0.292158 0.003878
1.000000 0.288649 0.004752
1.000000 0.285150 0.005653
0.965217 0.281663 0.006583
0.017999 0.441058 0.000000
0.000000 0.437267 0.000000
0.000000 0.433479 0.000000
0.037703 0.429694 0.000000
0.106014 0.425913 0.000000
0.195745 0.422136 0.000184
0.301223 0.418363 0.000931
0.416778 0.414594 0.001706
0.536737 0.410830 0.002507
0.655430 0.407070 0.003336
0.767184 0.403315 0.004193
0.866328 0.399565 0.005077
0.947190 0.395820 0.005989
1.000000 0.392080 0.006928
1.000000 0.388346 0.007895
1.000000 0.384618 0.008891
0.974393 0.380896 0.009914
0.024650 0.545791 0.000000
0.000000 0.541982 0.000000
0.000000 0.538171 0.000453
0.031026 0.534358 0.001210
0.096297 0.530543 0.001994
0.183688 0.526728 0.002806
0.287528 0.522911 0.003645
0.402144 0.519094 0.004511
0.521867 0.515275 0.005406
0.641023 0.511457 0.006327
0.753941 0.507638 0.007277
0.854951 0.503819 0.008255
0.938379 0.499999 0.009260
0.998556 0.496181 0.010294
1.000000 0.492362 0.011355
1.000000 0.488544 0.012445
0.982856 0.484727 0.013564
0.031986 0.649019 0.001492
0.000000 0.645332 0.002287
0.000000 0.641638 0.003108
0.024775 0.637938 0.003957
0.086918 0.634230 0.004834
0.171883 0.630517 0.005738
0.273997 0.626797 0.006670
0.387589 0.623071 0.007630
0.506987 0.619340 0.008617
0.626520 0.615603 0.009633
0.740517 0.611860 0.010677
0.843305 0.608112 0.011749
0.929214 0.604359 0.012849
0.992571 0.600601 0.013978
1.000000 0.596839 0.015135
1.000000 0.593072 0.016321
0.990618 0.589301 0.017536
0.040017 0.746885 0.004273
0.000000 0.743461 0.005160
0.000000 0.740025 0.006074
0.018958 0.736577 0.007016
0.077888 0.733117 0.007986
0.160339 0.729646 0.008984
0.260641 0.726164 0.010010
0.373122 0.722670 0.011064
0.492110 0.719165 0.012146
0.611933 0.715650 0.013257
0.726921 0.712124 0.014396
0.831402 0.708588 0.015564
0.919703 0.705042 0.016760
0.986154 0.701486 0.017985
1.000000 0.697920 0.019239
1.000000 0.694344 0.020522
0.997689 0.690759 0.021834
0.048753 0.835532 0.007366
0.000000 0.832512 0.008346
0.000000 0.829473 0.009354
0.013587 0.826418 0.010390
0.069216 0.823347 0.011455
0.149068 0.820258 0.012547
0.247471 0.817153 0.013668
0.358754 0.814032 0.014818
0.477245 0.810895 0.015996
0.597273 0.807742 0.017203
0.713165 0.804574 0.018438
0.819251 0.801390 0.019703
0.909859 0.798191 0.020996
0.979318 0.794976 0.022318
1.000000 0.791747 0.023670
1.000000 0.788503 0.025051
1.000000 0.785244 0.026461
0.058205 0.911103 0.010775
0.001647 0.908626 0.011849
0.000000 0.906126 0.012952
0.008673 0.903605 0.014084
0.060915 0.901061 0.015243
0.138081 0.898496 0.016432
0.234498 0.895909 0.017649
0.344497 0.893301 0.018895
0.462404 0.890672 0.020170
0.582549 0.888022 0.021474
0.699259 0.885351 0.022807
0.806864 0.882660 0.024169
0.899692 0.879948 0.025561
0.972072 0.877216 0.026982
1.000000 0.874464 0.028432
1.000000 0.871692 0.029912
1.000000 0.868900 0.031422
0.068385 0.969740 0.014502
0.006250 0.967947 0.015673
0.000000 0.966127 0.016872
0.004226 0.964279 0.018099
0.052994 0.962404 0.019356
0.127387 0.960502 0.020642
0.221733 0.958574 0.021956
0.330360 0.956620 0.023300
0.447597 0.954639 0.024673
0.567772 0.952632 0.026075
0.685214 0.950599 0.027507
0.794252 0.948540 0.028968
0.889213 0.946456 0.030458
0.964427 0.944347 0.031979
1.000000 0.942213 0.033529
1.000000 0.940053 0.035110
1.000000 0.937869 0.036720
0.079303 1.000000 0.018554
0.011505 1.000000 0.019821
0.000000 1.000000 0.021117
0.000257 1.000000 0.022442
0.045465 1.000000 0.023796
0.116998 1.000000 0.025180
0.209185 1.000000 0.026593
0.316354 1.000000 0.028035
0.432835 0.998938 0.029507
0.552954 0.997715 0.031009
0.671041 0.996460 0.032540
0.781424 0.995175 0.034101
0.878432 0.993859 0.035692
0.956393 0.992513 0.037314
1.000000 0.991137 0.038965
1.000000 0.989730 0.040646
1.000000 0.988294 0.042358
0.090969 1.000000 0.022932
0.017421 1.000000 0.024296
0.000000 1.000000 0.025691
0.000000 1.000000 0.027114
0.038338 1.000000 0.028568
0.106925 1.000000 0.030050
0.196866 1.000000 0.031563
0.302491 1.000000 0.033105
0.418128 1.000000 0.034677
0.538105 1.000000 0.036279
0.656750 1.000000 0.037911
0.768393 1.000000 0.039574
0.867361 1.000000 0.041266
0.947983 1.000000 0.042989
1.000000 1.000000 0.044743
1.000000 1.000000 0.046527
1.000000 1.000000 0.048341
0.103394 1.000000 0.027640
0.024010 1.000000 0.029104
0.000000 1.000000 0.030597
0.000000 1.000000 0.032121
0.031623 1.000000 0.033674
0.097177 1.000000 0.035257
0.184787 1.000000 0.036870
0.288781 1.000000 0.038513
0.403488 1.000000 0.040186
0.523235 1.000000 0.041890
0.642352 1.000000 0.043624
0.755167 1.000000 0.045388
0.856009 1.000000 0.047184
0.939205 1.000000 0.049009
0.999085 1.000000 0.050866
1.000000 1.000000 0.052754
1.000000 1.000000 0.054672
0.000000 0.000000 0.004677
0.000000 0.000000 0.003881
0.029787 0.000000 0.003105
0.094461 0.000000 0.002351
0.181390 0.000000 0.001618
0.284904 0.000000 0.000906
0.399329 0.000000 0.000215
0.518996 0.000000 0.000000
0.638232 0.000000 0.000000
0.751365 0.000000 0.000000
0.852724 0.000000 0.000000
0.936638 0.000000 0.000000
0.997435 0.000000 0.000000
1.000000 0.000000 0.000000
1.000000 0.000000 0.000000
0.984408 0.000000 0.000000
0.896022 0.000000 0.000000
0.000000 0.000000 0.002082
0.000000 0.000000 0.001356
0.023618 0.000000 0.000652
0.085148 0.000000 0.000000
0.169635 0.000000 0.000000
0.271406 0.000000 0.000000
0.384790 0.000000 0.000000
0.504116 0.000000 0.000000
0.623712 0.000000 0.000000
0.737906 0.000000 0.000000
0.841028 0.000000 0.000000
0.927405 0.000000 0.000000
0.991366 0.000000 0.000000
1.000000 0.000000 0.000000
1.000000 0.000000 0.000000
0.992036 0.000000 0.000000
0.909617 0.000000 0.000000
0.000000 0.029280 0.000000
0.000000 0.027694 0.000000
0.017887 0.026138 0.000000
0.076186 0.024610 0.000000
0.158143 0.023112 0.000000
0.258085 0.021643 0.000000
0.370341 0.020204 0.000000
0.489240 0.018794 0.000000
0.609110 0.017415 0.000000
0.724279 0.016066 0.000000
0.829076 0.014747 0.000000
0.917829 0.013459 0.000000
0.984868 0.012202 0.000000
1.000000 0.010976 0.000000
1.000000 0.009781 0.000000
0.998975 0.008617 0.000000
0.922437 0.007485 0.000000
0.000000 0.083435 0.000000
0.000000 0.081127 0.000000
0.012603 0.078844 0.000000
0.067586 0.076584 0.000000
0.146926 0.074349 0.000000
0.244952 0.072138 0.000000
0.355994 0.069951 0.000000
0.474379 0.067789 0.000000
0.594436 0.065653 0.000000
0.710493 0.063541 0.000000
0.816879 0.061455 0.000000
0.907922 0.059394 0.000000
0.977951 0.057358 0.000000
1.000000 0.055349 0.000000
1.000000 0.053366 0.000000
1.000000 0.051409 0.000000
0.934492 0.049478 0.000000
0.002485 0.155418 0.000000
0.000000 0.152530 0.000000
0.007779 0.149659 0.000000
0.059357 0.146808 0.000000
0.135994 0.143976 0.000000
0.232019 0.141163 0.000000
0.341759 0.138370 0.000000
0.459544 0.135596 0.000000
0.579701 0.132842 0.000000
0.696560 0.130108 0.000000
0.804448 0.127395 0.000000
0.897694 0.124701 0.000000
0.970627 0.122028 0.000000
1.000000 0.119376 0.000000
1.000000 0.116745 0.000000
1.000000 0.114135 0.000000
0.945793 0.111546 0.000000
0.007213 0.241374 0.000000
0.000000 0.238044 0.000000
0.003423 0.234728 0.000000
0.051511 0.231425 0.000000
0.125358 0.228137 0.000000
0.219294 0.224863 0.000000
0.327647 0.221603 0.000000
0.444745 0.218358 0.000000
0.564916 0.215127 0.000000
0.682489 0.211911 0.000000
0.791793 0.208710 0.000000
0.887156 0.205525 0.000000
0.962906 0.202355 0.000000
1.000000 0.199201 0.000000
1.000000 0.196062 0.000000
1.000000 0.192940 0.000000
0.956351 0.189833 0.000000
0.012594 0.337443 0.000000
0.000000 0.333813 0.000000
0.000000 0.330191 0.000000
0.044058 0.326578 0.000000
0.115029 0.322974 0.000000
0.206790 0.319379 0.000000
0.313668 0.315793 0.000000
0.429992 0.312216 0.000000
0.550091 0.308649 0.000000
0.668292 0.305092 0.000000
0.778925 0.301545 0.000000
0.876318 0.298008 0.000000
0.954799 0.294481 0.000000
1.000000 0.290965 0.000000
1.000000 0.287459 0.000000
1.000000 0.283965 0.000000
0.966176 0.280481 0.000000
0.018640 0.439771 0.000000
0.000000 0.435980 0.000000
0.000000 0.432193 0.000000
0.037010 0.428410 0.000000
0.105018 0.424630 0.000000
0.194517 0.420854 0.000000
0.299834 0.417083 0.000000
0.415298 0.413315 0.000000
0.535237 0.409552 0.000000
0.653980 0.405794 0.000000
0.765856 0.402041 0.000000
0.865192 0.398292 0.000000
0.946317 0.394549 0.000000
1.000000 0.390812 0.000000
1.000000 0.387079 0.000000
1.000000 0.383353 0.000000
0.975280 0.379633 0.000000
0.025360 0.544498 0.000000
0.000000 0.540688 0.000000
0.000000 0.536876 0.000000
0.030376 0.533062 0.000000
0.095335 0.529248 0.000000
0.182485 0.525432 0.000000
0.286154 0.521615 0.000000
0.400671 0.517797 0.000000
0.520365 0.513979 0.000000
0.639563 0.510160 0.000000
0.752594 0.506341 0.000000
0.853787 0.502522 0.000000
0.937470 0.498703 0.000000
0.997972 0.494884 0.000000
1.000000 0.491066 0.000000
1.000000 0.487248 0.000000
0.983672 0.483431 0.000000
0.032765 0.647768 0.000000
0.000000 0.644079 0.000000
0.000000 0.640382 0.000000
0.024168 0.636679 0.000000
0.085991 0.632970 0.000000
0.170705 0.629254 0.000000
0.272640 0.625532 0.000000
0.386124 0.621805 0.000000
0.505485 0.618071 0.000000
0.625051 0.614332 0.000000
0.739152 0.610588 0.000000
0.842115 0.606838 0.000000
0.928269 0.603084 0.000000
0.991942 0.599324 0.000000
1.000000 0.595560 0.000000
1.000000 0.591792 0.000000
0.991363 0.588019 0.000000
0.040866 0.745724 0.000000
0.000000 0.742296 0.000000
0.000000 0.738855 0.000000
0.018396 0.735403 0.000000
0.076996 0.731940 0.000000
0.159189 0.728465 0.000000
0.259303 0.724978 0.000000
0.371667 0.721481 0.000000
0.490608 0.717973 0.000000
0.610456 0.714454 0.000000
0.725540 0.710925 0.000000
0.830186 0.707385 0.000000
0.918724 0.703835 0.000000
0.985483 0.700276 0.000000
1.000000 0.696706 0.000000
1.000000 0.693128 0.000000
0.998365 0.689539 0.000000
0.049674 0.834508 0.000000
0.000000 0.831482 0.000000
0.000000 0.828438 0.000000
0.013070 0.825377 0.000000
0.068361 0.822300 0.000000
0.147946 0.819206 0.000000
0.246153 0.816095 0.000000
0.357310 0.812969 0.000000
0.475746 0.809826 0.000000
0.595789 0.806668 0.000000
0.711768 0.803494 0.000000
0.818011 0.800305 0.000000
0.908847 0.797101 0.000000
0.978605 0.793881 0.000000
1.000000 0.790647 0.000000
1.000000 0.787398 0.000000
1.000000 0.784135 0.000000
0.059200 0.910264 0.000000
0.002082 0.907779 0.000000
0.000000 0.905272 0.000000
0.008203 0.902743 0.000000
0.060098 0.900192 0.000000
0.136988 0.897620 0.000000
0.233200 0.895026 0.000000
0.343064 0.892411 0.000000
0.460907 0.889774 0.000000
0.581059 0.887117 0.000000
0.697848 0.884439 0.000000
0.805601 0.881741 0.000000
0.898648 0.879022 0.000000
0.971318 0.876283 0.000000
1.000000 0.873525 0.000000
1.000000 0.870746 0.000000
1.000000 0.867948 0.000000
0.069454 0.969134 0.000000
0.006751 0.967332 0.000000
0.000000 0.965502 0.000000
0.003804 0.963645 0.000000
0.052216 0.961761 0.000000
0.126324 0.959851 0.000000
0.220456 0.957913 0.000000
0.328940 0.955950 0.000000
0.446104 0.953960 0.000000
0.566278 0.951944 0.000000
0.683789 0.949903 0.000000
0.792967 0.947836 0.000000
0.888138 0.945743 0.000000
0.963633 0.943625 0.000000
1.000000 0.941482 0.000000
1.000000 0.939314 0.000000
1.000000 0.937122 0.000000
0.080446 1.000000 0.000000
0.012072 1.000000 0.000000
0.000000 1.000000 0.000000
0.000000 1.000000 0.000000
0.044727 1.000000 0.000000
0.115967 1.000000 0.000000
0.207931 1.000000 0.000000
0.314948 0.999729 0.000000
0.431347 0.998526 0.000000
0.551456 0.997292 0.000000
0.669604 0.996027 0.000000
0.780118 0.994732 0.000000
0.877328 0.993405 0.000000
0.955561 0.992049 0.000000
1.000000 0.990662 0.000000
1.000000 0.989246 0.000000
1.000000 0.987799 0.000000
0.092188 1.000000 0.000000
0.018055 1.000000 0.000000
0.000000 1.000000 0.000000
0.000000 1.000000 0.000000
0.037641 1.000000 0.000000
0.105926 1.000000 0.000000
0.195636 1.000000 0.000000
0.301100 1.000000 0.000000
0.416647 1.000000 0.000000
0.536604 1.000000 0.000000
0.655301 1.000000 0.000000
0.767066 1.000000 0.000000
0.866227 1.000000 0.000000
0.947113 1.000000 0.000000
1.000000 1.000000 0.000324
1.000000 1.000000 0.001077
1.000000 1.000000 0.001856
0.104691 1.000000 0.000000
0.024713 1.000000 0.000000
0.000000 1.000000 0.000000
0.000000 1.000000 0.000000
0.030969 1.000000 0.000000
0.096212 1.000000 0.000000
0.183581 1.000000 0.000000
0.287406 1.000000 0.000000
0.402014 1.000000 0.000000
0.521733 1.000000 0.000000
0.640893 1.000000 0.000000
0.753822 1.000000 0.000595
0.854848 1.000000 0.001358
0.938299 1.000000 0.002147
0.998504 1.000000 0.002964
1.000000 1.000000 0.003808
1.000000 1.000000 0.004680
0.000000 0.000000 0.046062
0.000000 0.000000 0.044581
0.029144 0.000000 0.043117
0.093505 0.000000 0.041671
0.180192 0.000000 0.040243
0.283533 0.000000 0.038833
0.397858 0.000000 0.037440
0.517494 0.000000 0.036065
0.636770 0.000000 0.034709
0.750014 0.000000 0.033370
0.851555 0.000000 0.032050
0.935722 0.000000 0.030748
0.996842 0.000000 0.029465
1.000000 0.000000 0.028200
1.000000 0.000000 0.026954
0.985210 0.000000 0.025727
0.897430 0.000000 0.024518
0.000000 0.000000 0.041149
0.000000 0.000000 0.039728
0.023020 0.000000 0.038324
0.084227 0.000000 0.036937
0.168462 0.000000 0.035569
0.270053 0.000000 0.034219
0.383327 0.000000 0.032888
0.502614 0.000000 0.031574
0.622241 0.000000 0.030279
0.736538 0.000000 0.029002
0.839833 0.000000 0.027744
0.926454 0.000000 0.026505
0.990729 0.000000 0.025284
1.000000 0.000000 0.024083
1.000000 0.000000 0.022900
0.992768 0.000000 0.021736
0.910946 0.000000 0.020592
0.000000 0.028738 0.036437
0.000000 0.027162 0.035076
0.017333 0.025616 0.033732
0.075301 0.024098 0.032407
0.156998 0.022610 0.031100
0.256751 0.021151 0.029812
0.368888 0.019722 0.028542
0.487739 0.018323 0.027291
0.607632 0.016954 0.026058
0.722894 0.015615 0.024845
0.827856 0.014307 0.023650
0.916844 0.013029 0.022474
0.984188 0.011782 0.021318
1.000000 0.010567 0.020180
1.000000 0.009382 0.019062
0.999638 0.008229 0.017963
0.923688 0.007107 0.016884
0.000000 0.082648 0.031929
0.000000 0.080349 0.030629
0.012095 0.078074 0.029348
0.066738 0.075822 0.028085
0.145809 0.073595 0.026840
0.243638 0.071392 0.025614
0.354552 0.069214 0.024408
0.472880 0.067061 0.023220
0.592951 0.064933 0.022051
0.709093 0.062830 0.020901
0.815635 0.060752 0.019771
0.906904 0.058700 0.018660
0.977230 0.056673 0.017568
1.000000 0.054673 0.016496
1.000000 0.052698 0.015443
1.000000 0.050750 0.014411
0.935667 0.048828 0.013398
0.002933 0.154435 0.027629
0.000000 0.151553 0.026392
0.007317 0.148689 0.025173
0.058547 0.145844 0.023973
0.134907 0.143019 0.022792
0.230724 0.140213 0.021630
0.340329 0.137426 0.020487
0.458048 0.134659 0.019364
0.578211 0.131912 0.018260
0.695145 0.129184 0.017175
0.803180 0.126478 0.016110
0.896644 0.123791 0.015065
0.969866 0.121125 0.014040
1.000000 0.118480 0.013034
1.000000 0.115856 0.012048
1.000000 0.113254 0.011082
0.946893 0.110672 0.010137
0.007726 0.240241 0.023541
0.000000 0.236916 0.022367
0.003010 0.233605 0.021212
0.050740 0.230307 0.020076
0.124302 0.227024 0.018960
0.218022 0.223754 0.017863
0.326229 0.220499 0.016785
0.443253 0.217259 0.015728
0.563421 0.214033 0.014689
0.681062 0.210822 0.013671
0.790504 0.207627 0.012673
0.886075 0.204447 0.011694
0.962105 0.201282 0.010736
1.000000 0.198133 0.009798
1.000000 0.195000 0.008880
1.000000 0.191883 0.007982
0.957376 0.188782 0.007105
0.013174 0.336210 0.019668
0.000000 0.332582 0.018558
0.000000 0.328963 0.017468
0.043328 0.325353 0.016398
0.114004 0.321752 0.015347
0.205540 0.318160 0.014316
0.312265 0.314577 0.013305
0.428506 0.311004 0.012314
0.548593 0.307440 0.011343
0.666853 0.303886 0.010392
0.777615 0.300342 0.009461
0.875208 0.296809 0.008550
0.953960 0.293286 0.007660
1.000000 0.289773 0.006791
1.000000 0.286271 0.005942
1.000000 0.282780 0.005113
0.967128 0.279301 0.004306
0.019287 0.438483 0.016013
0.000000 0.434694 0.014970
0.000000 0.430908 0.013946
0.036321 0.427126 0.012942
0.104026 0.423347 0.011958
0.193291 0.419573 0.010994
0.298445 0.415803 0.010051
0.413818 0.412037 0.009127
0.533736 0.408275 0.008224
0.652529 0.404519 0.007341
0.764525 0.400767 0.006479
0.864053 0.397021 0.005638
0.945440 0.393279 0.004817
1.000000 0.389543 0.004017
1.000000 0.385813 0.003238
1.000000 0.382089 0.002480
0.976159 0.378371 0.001743
0.026076 0.543204 0.012582
0.000000 0.539393 0.011605
0.000000 0.535581 0.010648
0.029730 0.531767 0.009712
0.094376 0.527952 0.008796
0.181284 0.524136 0.007900
0.284782 0.520318 0.007025
0.399199 0.516500 0.006171
0.518863 0.512682 0.005337
0.638102 0.508863 0.004523
0.751245 0.505044 0.003731
0.852621 0.501225 0.002960
0.936557 0.497406 0.002210
0.997383 0.493587 0.001480
1.000000 0.489769 0.000773
1.000000 0.485952 0.000086
0.984480 0.482135 0.000000
0.033551 0.646516 0.009376
0.000000 0.642824 0.008468
0.000000 0.639126 0.007579
0.023565 0.635420 0.006712
0.085067 0.631709 0.005865
0.169531 0.627991 0.005038
0.271286 0.624267 0.004233
0.384660 0.620537 0.003448
0.503983 0.616802 0.002684
0.623582 0.613061 0.001942
0.737785 0.609315 0.001220
0.840922 0.605564 0.000520
0.927321 0.601807 0.000000
0.991310 0.598046 0.000000
1.000000 0.594281 0.000000
1.000000 0.590511 0.000000
0.992101 0.586737 0.000000
0.041723 0.744561 0.006401
0.000000 0.741129 0.005561
0.000000 0.737684 0.004742
0.017838 0.734228 0.003944
0.076108 0.730761 0.003167
0.158041 0.727282 0.002411
0.257967 0.723792 0.001677
0.370213 0.720291 0.000963
0.489107 0.716779 0.000271
0.608979 0.713257 0.000000
0.724156 0.709724 0.000000
0.828968 0.706181 0.000000
0.917742 0.702628 0.000000
0.984808 0.699065 0.000000
1.000000 0.695492 0.000000
1.000000 0.691910 0.000000
0.999034 0.688319 0.000000
0.050603 0.833482 0.003659
0.000000 0.830450 0.002890
0.000000 0.827400 0.002141
0.012558 0.824334 0.001414
0.067510 0.821251 0.000708
0.146827 0.818151 0.000024
0.244836 0.815035 0.000000
0.355866 0.811903 0.000000
0.474246 0.808756 0.000000
0.594304 0.805592 0.000000
0.710369 0.802413 0.000000
0.816769 0.799219 0.000000
0.907832 0.796009 0.000000
0.977887 0.792785 0.000000
1.000000 0.789545 0.000000
1.000000 0.786291 0.000000
1.000000 0.783023 0.000000
0.060202 0.909423 0.001155
0.002524 0.906931 0.000457
0.000000 0.904416 0.000000
0.007737 0.901880 0.000000
0.059285 0.899321 0.000000
0.135898 0.896741 0.000000
0.231904 0.894140 0.000000
0.341632 0.891518 0.000000
0.459411 0.888874 0.000000
0.579569 0.886210 0.000000
0.696434 0.883525 0.000000
0.804336 0.880820 0.000000
0.897601 0.878094 0.000000
0.970560 0.875349 0.000000
1.000000 0.872583 0.000000
1.000000 0.869798 0.000000
1.000000 0.866993 0.000000
0.070530 0.968525 0.000000
0.007258 0.966714 0.000000
0.000000 0.964874 0.000000
0.003386 0.963008 0.000000
0.051442 0.961115 0.000000
0.125265 0.959196 0.000000
0.219181 0.957249 0.000000
0.327521 0.955277 0.000000
0.444612 0.953278 0.000000
0.564783 0.951254 0.000000
0.682363 0.949204 0.000000
0.791679 0.947128 0.000000
0.887060 0.945027 0.000000
0.962836 0.942900 0.000000
1.000000 0.940749 0.000000
1.000000 0.938572 0.000000
1.000000 0.936372 0.000000
0.081597 1.000000 0.000000
0.012646 1.000000 0.000000
0.000000 1.000000 0.000000
0.000000 1.000000 0.000000
0.043993 1.000000 0.000000
0.114938 1.000000 0.000000
0.206679 1.000000 0.000000
0.313544 0.999324 0.000000
0.429860 0.998110 0.000000
0.549958 0.996866 0.000000
0.668165 0.995591 0.000000
0.778809 0.994285 0.000000
0.876220 0.992948 0.000000
0.954725 0.991581 0.000000
1.000000 0.990185 0.000000
1.000000 0.988758 0.000000
1.000000 0.987301 0.000000
0.093416 1.000000 0.000000
0.018697 1.000000 0.000000
0.000000 1.000000 0.000000
0.000000 1.000000 0.000000
0.036948 1.000000 0.000000
0.104930 1.000000 0.000000
0.194408 1.000000 0.000000
0.299711 1.000000 0.000000
0.415166 1.000000 0.000000
0.535104 1.000000 0.000000
0.653852 1.000000 0.000000
0.765738 1.000000 0.000000
0.865091 1.000000 0.000000
0.946240 1.000000 0.000000
1.000000 1.000000 0.000000
1.000000 1.000000 0.000000
1.000000 1.000000 0.000000
0.105996 1.000000 0.000000
0.025423 1.000000 0.000000
0.000000 1.000000 0.000000
0.000000 1.000000 0.000000
0.030318 1.000000 0.000000
0.095250 1.000000 0.000000
0.182378 1.000000 0.000000
0.286033 1.000000 0.000000
0.400541 1.000000 0.000000
0.520232 1.000000 0.000000
0.639433 1.000000 0.000000
0.752475 1.000000 0.000000
0.853684 1.000000 0.000000
0.937389 1.000000 0.000000
0.997920 1.000000 0.000000
1.000000 1.000000 0.000000
1.000000 1.000000 0.000000
0.000000 0.000000 0.109638
0.000000 0.000000 0.107595
0.028507 0.000000 0.105567
0.092553 0.000000 0.103553
0.178996 0.000000 0.101554
0.282165 0.000000 0.099568
0.396387 0.000000 0.097597
0.515992 0.000000 0.095641
0.635307 0.000000 0.093699
0.748662 0.000000 0.091771
0.850384 0.000000 0.089859
0.934802 0.000000 0.087961
0.996245 0.000000 0.086079
1.000000 0.000000 0.084211
1.000000 0.000000 0.082359
0.986005 0.000000 0.080522
0.898830 0.000000 0.078701
0.000000 0.000000 0.102824
0.000000 0.000000 0.100829
0.022425 0.000000 0.098849
