Fotico/Resources/LUTs/revista.cube
# Revista
LUT_3D_SIZE 5
0.000000 0.000000 0.000000
0.182591 0.000000 0.000000
0.639692 0.000000 0.000000
0.998024 0.000000 0.000000
0.894606 0.000000 0.000000
0.002044 0.156404 0.000000
0.137084 0.144936 0.000000
0.581191 0.133775 0.000000
0.971385 0.122934 0.000000
0.944686 0.112423 0.000861
0.024650 0.545791 0.000000
0.096297 0.530543 0.001994
0.521867 0.515275 0.005406
0.938379 0.499999 0.009260
0.982856 0.484727 0.013564
0.058205 0.911103 0.010775
0.060915 0.901061 0.015243
0.462404 0.890672 0.020170
0.899692 0.879948 0.025561
1.000000 0.868900 0.031422
0.103394 1.000000 0.027640
0.031623 1.000000 0.033674
0.403488 1.000000 0.040186
0.856009 1.000000 0.047184
1.000000 1.000000 0.054672
0.000000 0.000000 0.190985
0.177803 0.000000 0.181131
0.633844 0.000000 0.171450
0.995643 0.000000 0.161949
0.900222 0.000099 0.152634
0.003849 0.152475 0.158536
0.132741 0.141111 0.149291
0.575228 0.130057 0.140240
0.968330 0.119327 0.131389
0.949069 0.108931 0.122746
0.027530 0.540616 0.128218
0.092469 0.525360 0.119652
0.515859 0.510088 0.111301
0.934720 0.494812 0.103171
0.986075 0.479544 0.095269
0.062228 0.907733 0.100268
0.057670 0.897571 0.092450
0.456420 0.887067 0.084869
0.895498 0.876232 0.077531
1.000000 0.865077 0.070441
0.108629 1.000000 0.074920
0.029031 1.000000 0.067922
0.397597 1.000000 0.061182
0.851348 1.000000 0.054704
1.000000 1.000000 0.048496
0.000000 0.000000 0.605738
0.173056 0.000000 0.593749
0.627980 0.000000 0.581712
0.993191 0.000000 0.569634
0.905710 0.001428 0.557520
0.005759 0.148582 0.565227
0.128447 0.137321 0.553102
0.569258 0.126376 0.540949
0.965212 0.115758 0.528776
0.953330 0.105479 0.516588
0.030521 0.535437 0.524340
0.088696 0.520175 0.512148
0.509850 0.504900 0.499950
0.931004 0.489625 0.487752
0.989179 0.474363 0.475560
0.066370 0.904321 0.483312
0.054488 0.894042 0.471124
0.450442 0.883424 0.458951
0.891253 0.872479 0.446798
1.000000 0.861218 0.434673
0.113990 1.000000 0.442380
0.026509 1.000000 0.430266
0.391720 1.000000 0.418188
0.846644 1.000000 0.406151
1.000000 1.000000 0.394162
0.000000 0.000000 0.951404
0.168352 0.000000 0.945196
0.622103 0.000000 0.938718
0.990669 0.000000 0.931978
0.911071 0.002835 0.924980
0.007775 0.144723 0.929459
0.124202 0.133568 0.922369
0.563280 0.122733 0.915031
0.962030 0.112229 0.907450
0.957472 0.102067 0.899632
0.033625 0.530256 0.904631
0.084980 0.514988 0.896729
0.503841 0.499712 0.888599
0.927231 0.484440 0.880248
0.992170 0.469184 0.871682
0.070631 0.900869 0.877154
0.051370 0.890473 0.868511
0.444472 0.879743 0.859660
0.886959 0.868689 0.850609
1.000000 0.857325 0.841364
0.119478 1.000000 0.847266
0.024057 1.000000 0.837951
0.385856 1.000000 0.828450
0.841897 1.000000 0.818769
1.000000 1.000000 0.808915
0.000000 0.000000 0.945228
0.163691 0.000000 0.952716
0.616212 0.000000 0.959714
0.988077 0.000171 0.966226
0.916306 0.004321 0.972260
0.009898 0.140900 0.968478
0.120008 0.129852 0.974339
0.557296 0.119128 0.979730
0.958785 0.108739 0.984657
0.961495 0.098697 0.989125
0.036844 0.525073 0.986336
0.081321 0.509801 0.990640
0.497833 0.494525 0.994494
0.923403 0.479257 0.997906
0.995050 0.464009 1.000000
0.075014 0.897377 0.999039
0.048315 0.886866 1.000000
0.438509 0.876025 1.000000
0.882616 0.864864 1.000000
1.000000 0.853396 1.000000
0.125094 1.000000 1.000000
0.021676 1.000000 1.000000
0.380008 1.000000 1.000000
0.837109 1.000000 1.000000
1.000000 1.000000 1.000000
