Fotico/Resources/LUTs/seda.cube
# Seda
LUT_3D_SIZE 9
0.222659 0.202659 0.172659
0.236827 0.216827 0.186827
0.251304 0.231304 0.201304
0.266045 0.246045 0.216045
0.281016 0.261016 0.231016
0.296193 0.276193 0.246193
0.311554 0.291554 0.261554
0.327085 0.307085 0.277085
0.342771 0.322771 0.292771
0.271470 0.251470 0.221470
0.286519 0.266519 0.236519
0.301765 0.281765 0.251765
0.317190 0.297190 0.267190
0.332778 0.312778 0.282778
0.348518 0.328518 0.298518
0.364397 0.344397 0.314397
0.380408 0.360408 0.330408
0.396541 0.376541 0.346541
0.322847 0.302847 0.272847
0.338491 0.318491 0.288491
0.354283 0.334283 0.304283
0.370211 0.350211 0.320211
0.386267 0.366267 0.336267
0.402444 0.382444 0.352444
0.418733 0.398733 0.368733
0.435131 0.415131 0.385131
0.451630 0.431630 0.401630
0.376042 0.356042 0.326042
0.392143 0.372143 0.342143
0.408361 0.388361 0.358361
0.424691 0.404691 0.374691
0.441126 0.421126 0.391126
0.457661 0.437661 0.407661
0.474292 0.454292 0.424292
0.491014 0.471014 0.441014
0.507824 0.487824 0.457824
0.430662 0.410662 0.380662
0.447134 0.427134 0.397134
0.463705 0.443705 0.413705
0.480370 0.460370 0.430370
0.497124 0.477124 0.447124
0.513965 0.493965 0.463965
0.530889 0.510889 0.480889
0.547893 0.527893 0.497893
0.564973 0.544973 0.514973
0.486459 0.466459 0.436459
0.503246 0.483246 0.453246
0.520117 0.500117 0.470117
0.537070 0.517070 0.487070
0.554102 0.534102 0.504102
0.571210 0.551210 0.521210
0.588391 0.568391 0.538391
0.605643 0.585643 0.555643
0.622964 0.602964 0.572964
0.543262 0.523262 0.493262
0.560322 0.540322 0.510322
0.577457 0.557457 0.527457
0.594664 0.574664 0.544664
0.611941 0.591941 0.561941
0.629286 0.609286 0.579286
0.646697 0.626697 0.596697
0.664171 0.644171 0.614171
0.681708 0.661708 0.631708
0.600946 0.580946 0.550946
0.618248 0.598248 0.568248
0.635617 0.615617 0.585617
0.653051 0.633051 0.603051
0.670549 0.650549 0.620549
0.688107 0.668107 0.638107
0.705726 0.685726 0.655726
0.723402 0.703402 0.673402
0.741136 0.721136 0.691136
0.659414 0.639414 0.609414
0.676934 0.656934 0.626934
0.694515 0.674515 0.644515
0.712155 0.692155 0.662155
0.729852 0.709852 0.679852
0.747606 0.727606 0.697606
0.765414 0.745414 0.715414
0.783276 0.763276 0.733276
0.801189 0.781189 0.751189
0.227432 0.207432 0.177432
0.241711 0.221711 0.191711
0.256282 0.236282 0.206282
0.271105 0.251105 0.221105
0.286148 0.266148 0.236148
0.301390 0.281390 0.251390
0.316810 0.296810 0.266810
0.332395 0.312395 0.282395
0.348131 0.328131 0.298131
0.276557 0.256557 0.226557
0.291675 0.271675 0.241675
0.306984 0.286984 0.256984
0.322466 0.302466 0.272466
0.338107 0.318107 0.288107
0.353895 0.333895 0.303895
0.369820 0.349820 0.319820
0.385873 0.365873 0.335873
0.402047 0.382047 0.352047
0.328143 0.308143 0.278143
0.343838 0.323838 0.293838
0.359678 0.339678 0.309678
0.375650 0.355650 0.325650
0.391748 0.371748 0.341748
0.407963 0.387963 0.357963
0.424290 0.404290 0.374290
0.440723 0.420723 0.390723
0.457256 0.437256 0.407256
0.381497 0.361497 0.331497
0.397638 0.377638 0.347638
0.413895 0.393895 0.363895
0.430261 0.410261 0.380261
0.446730 0.426730 0.396730
0.463299 0.443299 0.413299
0.479961 0.459961 0.429961
0.496714 0.476714 0.446714
0.513552 0.493552 0.463552
0.436245 0.416245 0.386245
0.452751 0.432751 0.402751
0.469354 0.449354 0.419354
0.486050 0.466050 0.436050
0.502834 0.482834 0.452834
0.519704 0.499704 0.469704
0.536655 0.516655 0.486655
0.553685 0.533685 0.503685
0.570791 0.550791 0.520791
0.492150 0.472150 0.442150
0.508966 0.488966 0.458966
0.525866 0.505866 0.475866
0.542846 0.522846 0.492846
0.559904 0.539904 0.509904
0.577037 0.557037 0.527037
0.594242 0.574242 0.544242
0.611518 0.591518 0.561518
0.628861 0.608861 0.578861
0.549047 0.529047 0.499047
0.566133 0.546133 0.516133
0.583292 0.563292 0.533292
0.600524 0.580524 0.550524
0.617824 0.597824 0.567824
0.635192 0.615192 0.585192
0.652624 0.632624 0.602624
0.670120 0.650120 0.620120
0.687677 0.667677 0.637677
0.606814 0.586814 0.556814
0.624139 0.604139 0.574139
0.641531 0.621531 0.591531
0.658987 0.638987 0.608987
0.676505 0.656505 0.626505
0.694084 0.674084 0.644084
0.711723 0.691723 0.661723
0.729419 0.709419 0.679419
0.747171 0.727171 0.697171
0.665357 0.645357 0.615357
0.682898 0.662898 0.632898
0.700499 0.680499 0.650499
0.718158 0.698158 0.668158
0.735875 0.715875 0.685875
0.753647 0.733647 0.703647
0.771474 0.751474 0.721474
0.789353 0.769353 0.739353
0.807285 0.787285 0.757285
0.232245 0.212245 0.182245
0.246629 0.226629 0.196629
0.261289 0.241289 0.211289
0.276190 0.256190 0.226190
0.291303 0.271303 0.241303
0.306607 0.286607 0.256607
0.322085 0.302085 0.272085
0.337723 0.317723 0.287723
0.353507 0.333507 0.303507
0.281669 0.261669 0.231669
0.296854 0.276854 0.246854
0.312223 0.292223 0.262223
0.327760 0.307760 0.277760
0.343453 0.323453 0.293453
0.359288 0.339288 0.309288
0.375258 0.355258 0.325258
0.391353 0.371353 0.341353
0.407565 0.387565 0.357565
0.333456 0.313456 0.283456
0.349202 0.329202 0.299202
0.365087 0.345087 0.315087
0.381103 0.361103 0.331103
0.397242 0.377242 0.347242
0.413496 0.393496 0.363496
0.429859 0.409859 0.379859
0.446326 0.426326 0.396326
0.462892 0.442892 0.412892
0.386965 0.366965 0.336965
0.403146 0.383146 0.353146
0.419441 0.399441 0.369441
0.435843 0.415843 0.385843
0.452346 0.432346 0.402346
0.468947 0.448947 0.418947
0.485640 0.465640 0.435640
0.502423 0.482423 0.452423
0.519290 0.499290 0.469290
0.441839 0.421839 0.391839
0.458379 0.438379 0.408379
0.475014 0.455014 0.425014
0.491740 0.471740 0.441740
0.508554 0.488554 0.458554
0.525451 0.505451 0.475451
0.542430 0.522430 0.492430
0.559486 0.539486 0.509486
0.576617 0.556617 0.526617
0.497851 0.477851 0.447851
0.514696 0.494696 0.464696
0.531623 0.511623 0.481623
0.548630 0.528630 0.498630
0.565714 0.545714 0.515714
0.582872 0.562872 0.532872
0.600101 0.580101 0.550101
0.617400 0.597400 0.567400
0.634766 0.614766 0.584766
0.554841 0.534841 0.504841
0.571952 0.551952 0.521952
0.589136 0.569136 0.539136
0.606391 0.586391 0.556391
0.623715 0.603715 0.573715
0.641105 0.621105 0.591105
0.658559 0.638559 0.608559
0.676076 0.656076 0.626076
0.693653 0.673653 0.643653
0.612690 0.592690 0.562690
0.630038 0.610038 0.580038
0.647452 0.627452 0.597452
0.664929 0.644929 0.614929
0.682468 0.662468 0.632468
0.700068 0.680068 0.650068
0.717726 0.697726 0.667726
0.735441 0.715441 0.685441
0.753212 0.733212 0.703212
0.671307 0.651307 0.621307
0.688869 0.668869 0.638869
0.706490 0.686490 0.656490
0.724169 0.704169 0.674169
0.741904 0.721904 0.691904
0.759695 0.739695 0.709695
0.777540 0.757540 0.727540
0.795437 0.775437 0.745437
0.813386 0.793386 0.763386
0.237096 0.217096 0.187096
0.251579 0.231579 0.201579
0.266324 0.246324 0.216324
0.281300 0.261300 0.231300
0.296480 0.276480 0.246480
0.311845 0.291845 0.261845
0.327379 0.307379 0.277379
0.343067 0.323067 0.293067
0.358900 0.338900 0.308900
0.286804 0.266804 0.236804
0.302053 0.282053 0.252053
0.317481 0.297481 0.267481
0.333073 0.313073 0.283073
0.348815 0.328815 0.298815
0.364697 0.344697 0.314697
0.380710 0.360710 0.330710
0.396846 0.376846 0.346846
0.413097 0.393097 0.363097
0.338787 0.318787 0.288787
0.354582 0.334582 0.304582
0.370512 0.350512 0.320512
0.386571 0.366571 0.336571
0.402749 0.382749 0.352749
0.419041 0.399041 0.369041
0.435440 0.415440 0.385440
0.451941 0.431941 0.401941
0.468540 0.448540 0.418540
0.392447 0.372447 0.342447
0.408668 0.388668 0.358668
0.424999 0.404999 0.374999
0.441436 0.421436 0.391436
0.457973 0.437973 0.407973
0.474606 0.454606 0.424606
0.491330 0.471330 0.441330
0.508141 0.488141 0.458141
0.525037 0.505037 0.475037
0.447445 0.427445 0.397445
0.464018 0.444018 0.414018
0.480684 0.460684 0.430684
0.497440 0.477440 0.447440
0.514283 0.494283 0.464283
0.531208 0.511208 0.481208
0.548213 0.528213 0.498213
0.565295 0.545295 0.515295
0.582451 0.562451 0.532451
0.503562 0.483562 0.453562
0.520435 0.500435 0.470435
0.537390 0.517390 0.487390
0.554424 0.534424 0.504424
0.571533 0.551533 0.521533
0.588715 0.568715 0.538715
0.605968 0.585968 0.555968
0.623290 0.603290 0.573290
0.640678 0.620678 0.590678
0.560644 0.540644 0.510644
0.577780 0.557780 0.527780
0.594988 0.574988 0.544988
0.612267 0.592267 0.562267
0.629613 0.609613 0.579613
0.647025 0.627025 0.597025
0.664501 0.644501 0.614501
0.682038 0.662038 0.632038
0.699636 0.679636 0.649636
0.618574 0.598574 0.568574
0.635945 0.615945 0.585945
0.653380 0.633380 0.603380
0.670878 0.650878 0.620878
0.688438 0.668438 0.638438
0.706058 0.686058 0.656058
0.723736 0.703736 0.673736
0.741470 0.721470 0.691470
0.759259 0.739259 0.709259
0.677264 0.657264 0.627264
0.694846 0.674846 0.644846
0.712487 0.692487 0.662487
0.730186 0.710186 0.680186
0.747940 0.727940 0.697940
0.765749 0.745749 0.715749
0.783612 0.763612 0.733612
0.801527 0.781527 0.751527
0.819493 0.799493 0.769493
0.241983 0.221983 0.191983
0.256559 0.236559 0.206559
0.271386 0.251386 0.221386
0.286433 0.266433 0.236433
0.301678 0.281678 0.251678
0.317102 0.297102 0.267102
0.332690 0.312690 0.282690
0.348428 0.328428 0.298428
0.364307 0.344307 0.314307
0.291962 0.271962 0.241962
0.307274 0.287274 0.257274
0.322759 0.302759 0.272759
0.338403 0.318403 0.288403
0.354194 0.334194 0.304194
0.370121 0.350121 0.320121
0.386176 0.366176 0.336176
0.402352 0.382352 0.352352
0.418641 0.398641 0.368641
0.344135 0.324135 0.294135
0.359977 0.339977 0.309977
0.375952 0.355952 0.325952
0.392052 0.372052 0.342052
0.408270 0.388270 0.358270
0.424599 0.404599 0.374599
0.441033 0.421033 0.391033
0.457568 0.437568 0.407568
0.474198 0.454198 0.424198
0.397943 0.377943 0.347943
0.414202 0.394202 0.364202
0.430570 0.410570 0.380570
0.447041 0.427041 0.397041
0.463611 0.443611 0.413611
0.480275 0.460275 0.430275
0.497030 0.477030 0.447030
0.513870 0.493870 0.463870
0.530793 0.510793 0.480793
0.453063 0.433063 0.403063
0.469667 0.449667 0.419667
0.486365 0.466365 0.436365
0.503151 0.483151 0.453151
0.520022 0.500022 0.470022
0.536975 0.516975 0.486975
0.554006 0.534006 0.504006
0.571113 0.551113 0.521113
0.588294 0.568294 0.538294
0.509283 0.489283 0.459283
0.526184 0.506184 0.476184
0.543166 0.523166 0.493166
0.560226 0.540226 0.510226
0.577360 0.557360 0.527360
0.594567 0.574567 0.544567
0.611843 0.591843 0.561843
0.629188 0.609188 0.579188
0.646598 0.626598 0.596598
0.566455 0.546455 0.516455
0.583616 0.563616 0.533616
0.600848 0.580848 0.550848
0.618150 0.598150 0.568150
0.635519 0.615519 0.585519
0.652953 0.632953 0.602953
0.670450 0.650450 0.620450
0.688008 0.668008 0.638008
0.705626 0.685626 0.655626
0.624466 0.604466 0.574466
0.641858 0.621858 0.591858
0.659316 0.639316 0.609316
0.676835 0.656835 0.626835
0.694415 0.674415 0.644415
0.712055 0.692055 0.662055
0.729752 0.709752 0.679752
0.747505 0.727505 0.697505
0.765313 0.745313 0.715313
0.683229 0.663229 0.633229
0.700831 0.680831 0.650831
0.718491 0.698491 0.668491
0.736209 0.716209 0.686209
0.753982 0.733982 0.703982
0.771810 0.751810 0.721810
0.789690 0.769690 0.739690
0.807623 0.787623 0.757623
0.825605 0.805605 0.775605
0.246903 0.226903 0.196903
0.261568 0.241568 0.211568
0.276472 0.256472 0.226472
0.291589 0.271589 0.241589
0.306897 0.286897 0.256897
0.322378 0.302378 0.272378
0.338018 0.318018 0.288018
0.353806 0.333806 0.303806
0.369730 0.349730 0.319730
0.297141 0.277141 0.247141
0.312514 0.292514 0.262514
0.328054 0.308054 0.278054
0.343749 0.323749 0.293749
0.359588 0.339588 0.309588
0.375560 0.355560 0.325560
0.391657 0.371657 0.341657
0.407872 0.387872 0.357872
0.424198 0.404198 0.374198
0.349500 0.329500 0.299500
0.365388 0.345388 0.315388
0.381406 0.361406 0.331406
0.397547 0.377547 0.347547
0.413803 0.393803 0.363803
0.430168 0.410168 0.380168
0.446637 0.426637 0.396637
0.463205 0.443205 0.413205
0.479867 0.459867 0.429867
0.403452 0.383452 0.353452
0.419749 0.399749 0.369749
0.436152 0.416152 0.386152
0.452658 0.432658 0.402658
0.469260 0.449260 0.419260
0.485955 0.465955 0.435955
0.502739 0.482739 0.452739
0.519608 0.499608 0.469608
0.536559 0.516559 0.486559
0.458691 0.438691 0.408691
0.475328 0.455328 0.425328
0.492056 0.472056 0.442056
0.508871 0.488871 0.458871
0.525770 0.505770 0.475770
0.542750 0.522750 0.492750
0.559807 0.539807 0.509807
0.576940 0.556940 0.526940
0.594145 0.574145 0.544145
0.515014 0.495014 0.465014
0.531943 0.511943 0.481943
0.548951 0.528951 0.498951
0.566036 0.546036 0.516036
0.583195 0.563195 0.533195
0.600426 0.580426 0.550426
0.617726 0.597726 0.567726
0.635093 0.615093 0.585093
0.652526 0.632526 0.602526
0.572275 0.552275 0.522275
0.589460 0.569460 0.539460
0.606717 0.586717 0.556717
0.624041 0.604041 0.574041
0.641432 0.621432 0.591432
0.658888 0.638888 0.608888
0.676406 0.656406 0.626406
0.693985 0.673985 0.643985
0.711623 0.691623 0.661623
0.630365 0.610365 0.580365
0.647780 0.627780 0.597780
0.665258 0.645258 0.615258
0.682799 0.662799 0.632799
0.700399 0.680399 0.650399
0.718059 0.698059 0.668059
0.735775 0.715775 0.685775
0.753547 0.733547 0.703547
0.771373 0.751373 0.721373
0.689200 0.669200 0.639200
0.706822 0.686822 0.656822
0.724502 0.704502 0.674502
0.742239 0.722239 0.692239
0.760031 0.740031 0.710031
0.777876 0.757876 0.727876
0.795774 0.775774 0.745774
0.813724 0.793724 0.763724
0.831724 0.811724 0.781724
0.251854 0.231854 0.201854
0.266604 0.246604 0.216604
0.281584 0.261584 0.231584
0.296767 0.276767 0.246767
0.312136 0.292136 0.262136
0.327672 0.307672 0.277672
0.343364 0.323364 0.293364
0.359199 0.339199 0.309199
0.375167 0.355167 0.325167
0.302342 0.282342 0.252342
0.317773 0.297773 0.267773
0.333368 0.313368 0.283368
0.349113 0.329113 0.299113
0.364997 0.344997 0.314997
0.381013 0.361013 0.331013
0.397150 0.377150 0.347150
0.413404 0.393404 0.363404
0.429767 0.409767 0.379767
0.354880 0.334880 0.304880
0.370813 0.350813 0.320813
0.386874 0.366874 0.336874
0.403055 0.383055 0.353055
0.419349 0.399349 0.369349
0.435750 0.415750 0.385750
0.452253 0.432253 0.402253
0.468853 0.448853 0.418853
0.485546 0.465546 0.435546
0.408974 0.388974 0.358974
0.425308 0.405308 0.375308
0.441746 0.421746 0.391746
0.458285 0.438285 0.408285
0.474920 0.454920 0.424920
0.491645 0.471645 0.441645
0.508459 0.488459 0.458459
0.525356 0.505356 0.475356
0.542334 0.522334 0.492334
0.464330 0.444330 0.414330
0.480999 0.460999 0.430999
0.497757 0.477757 0.447757
0.514601 0.494601 0.464601
0.531528 0.511528 0.481528
0.548534 0.528534 0.498534
0.565617 0.545617 0.515617
0.582775 0.562775 0.532775
0.600004 0.580004 0.550004
0.520754 0.500754 0.470754
0.537710 0.517710 0.487710
0.554745 0.534745 0.504745
0.571855 0.551855 0.521855
0.589039 0.569039 0.539039
0.606294 0.586294 0.556294
0.623617 0.603617 0.573617
0.641006 0.621006 0.591006
0.658460 0.638460 0.608460
0.578103 0.558103 0.528103
0.595313 0.575313 0.545313
0.612593 0.592593 0.562593
0.629940 0.609940 0.579940
0.647353 0.627353 0.597353
0.664830 0.644830 0.614830
0.682369 0.662369 0.632369
0.699968 0.679968 0.649968
0.717626 0.697626 0.667626
0.636272 0.616272 0.586272
0.653709 0.633709 0.603709
0.671208 0.651208 0.621208
0.688769 0.668769 0.638769
0.706390 0.686390 0.656390
0.724069 0.704069 0.674069
0.741804 0.721804 0.691804
0.759595 0.739595 0.709595
0.777439 0.757439 0.727439
0.695178 0.675178 0.645178
0.712820 0.692820 0.662820
0.730519 0.710519 0.680519
0.748275 0.728275 0.698275
0.766085 0.746085 0.716085
0.783949 0.763949 0.733949
0.801865 0.781865 0.751865
0.819831 0.799831 0.769831
0.837848 0.817848 0.787848
0.256836 0.236836 0.206836
0.271667 0.251667 0.221667
0.286718 0.266718 0.236718
0.301967 0.281967 0.251967
0.317394 0.297394 0.267394
0.332984 0.312984 0.282984
0.348726 0.328726 0.298726
0.364607 0.344607 0.314607
0.380619 0.360619 0.330619
0.307563 0.287563 0.257563
0.323052 0.303052 0.273052
0.338698 0.318698 0.288698
0.354492 0.334492 0.304492
0.370422 0.350422 0.320422
0.386480 0.366480 0.336480
0.402658 0.382658 0.352658
0.418949 0.398949 0.368949
0.435347 0.415347 0.385347
0.360276 0.340276 0.310276
0.376254 0.356254 0.326254
0.392356 0.372356 0.342356
0.408576 0.388576 0.358576
0.424907 0.404907 0.374907
0.441343 0.421343 0.391343
0.457880 0.437880 0.407880
0.474512 0.454512 0.424512
0.491235 0.471235 0.441235
0.414509 0.394509 0.364509
0.430879 0.410879 0.380879
0.447352 0.427352 0.397352
0.463924 0.443924 0.413924
0.480590 0.460590 0.430590
0.497346 0.477346 0.447346
0.514188 0.494188 0.464188
0.531113 0.511113 0.481113
0.548117 0.528117 0.498117
0.469981 0.449981 0.419981
0.486680 0.466680 0.436680
0.503467 0.483467 0.453467
0.520340 0.500340 0.470340
0.537294 0.517294 0.487294
0.554327 0.534327 0.504327
0.571436 0.551436 0.521436
0.588618 0.568618 0.538618
0.605871 0.585871 0.555871
0.526503 0.506503 0.476503
0.543486 0.523486 0.493486
0.560547 0.540547 0.510547
0.577683 0.557683 0.527683
0.594891 0.574891 0.544891
0.612169 0.592169 0.562169
0.629515 0.609515 0.579515
0.646926 0.626926 0.596926
0.664402 0.644402 0.614402
0.583940 0.563940 0.533940
0.601173 0.581173 0.551173
0.618476 0.598476 0.568476
0.635846 0.615846 0.585846
0.653281 0.633281 0.603281
0.670780 0.650780 0.620780
0.688339 0.668339 0.638339
0.705958 0.685958 0.655958
0.723636 0.703636 0.673636
0.642186 0.622186 0.592186
0.659645 0.639645 0.609645
0.677165 0.657165 0.627165
0.694747 0.674747 0.644747
0.712387 0.692387 0.662387
0.730086 0.710086 0.680086
0.747840 0.727840 0.697840
0.765649 0.745649 0.715649
0.783511 0.763511 0.733511
0.701162 0.681162 0.651162
0.718824 0.698824 0.668824
0.736543 0.716543 0.686543
0.754317 0.734317 0.704317
0.772146 0.752146 0.722146
0.790027 0.770027 0.740027
0.807960 0.787960 0.757960
0.825944 0.805944 0.775944
0.843978 0.823978 0.793978
0.261846 0.241846 0.211846
0.276755 0.256755 0.226755
0.291876 0.271876 0.241876
0.307187 0.287187 0.257187
0.322671 0.302671 0.272671
0.338314 0.318314 0.288314
0.354104 0.334104 0.304104
0.370031 0.350031 0.320031
0.386085 0.366085 0.336085
0.312805 0.292805 0.262805
0.328348 0.308348 0.278348
0.344046 0.324046 0.294046
0.359887 0.339887 0.309887
0.375861 0.355861 0.325861
0.391961 0.371961 0.341961
0.408178 0.388178 0.358178
0.424506 0.404506 0.374506
0.440940 0.420940 0.390940
0.365688 0.345688 0.315688
0.381708 0.361708 0.331708
0.397851 0.377851 0.347851
0.414110 0.394110 0.364110
0.430477 0.410477 0.380477
0.446948 0.426948 0.396948
0.463517 0.443517 0.413517
0.480181 0.460181 0.430181
0.496935 0.476935 0.446935
0.420056 0.400056 0.370056
0.436462 0.416462 0.386462
0.452969 0.432969 0.402969
0.469573 0.449573 0.419573
0.486270 0.466270 0.436270
0.503056 0.483056 0.453056
0.519926 0.499926 0.469926
0.536879 0.516879 0.486879
0.553910 0.533910 0.503910
0.475642 0.455642 0.425642
0.492371 0.472371 0.442371
0.509188 0.489188 0.459188
0.526089 0.506089 0.476089
0.543070 0.523070 0.493070
0.560129 0.540129 0.510129
0.577263 0.557263 0.527263
0.594469 0.574469 0.544469
0.611746 0.591746 0.561746
0.532262 0.512262 0.482262
0.549272 0.529272 0.499272
0.566358 0.546358 0.516358
0.583519 0.563519 0.533519
0.600751 0.580751 0.550751
0.618052 0.598052 0.568052
0.635421 0.615421 0.585421
0.652854 0.632854 0.602854
0.670351 0.650351 0.620351
0.589784 0.569784 0.539784
0.607042 0.587042 0.557042
0.624368 0.604368 0.574368
0.641760 0.621760 0.591760
0.659217 0.639217 0.609217
0.676736 0.656736 0.626736
0.694316 0.674316 0.644316
0.711955 0.691955 0.661955
0.729652 0.709652 0.679652
0.648108 0.628108 0.598108
0.665588 0.645588 0.615588
0.683129 0.663129 0.633129
0.700731 0.680731 0.650731
0.718391 0.698391 0.668391
0.736109 0.716109 0.686109
0.753882 0.733882 0.703882
0.771709 0.751709 0.721709
0.789589 0.769589 0.739589
0.707154 0.687154 0.657154
0.724835 0.704835 0.674835
0.742573 0.722573 0.692573
0.760366 0.740366 0.710366
0.778212 0.758212 0.728212
0.796112 0.776112 0.746112
0.814062 0.794062 0.764062
0.832063 0.812063 0.782063
0.850113 0.830113 0.800113
