Fotico/Resources/LUTs/seda.cube
# Seda
LUT_3D_SIZE 17
0.222659 0.202659 0.172659
0.229701 0.209701 0.179701
0.236827 0.216827 0.186827
0.244030 0.224030 0.194030
0.251304 0.231304 0.201304
0.258644 0.238644 0.208644
0.266045 0.246045 0.216045
0.273503 0.253503 0.223503
0.281016 0.261016 0.231016
0.288580 0.268580 0.238580
0.296193 0.276193 0.246193
0.303851 0.283851 0.253851
0.311554 0.291554 0.261554
0.319299 0.299299 0.269299
0.327085 0.307085 0.277085
0.334909 0.314909 0.284909
0.342771 0.322771 0.292771
0.246670 0.226670 0.196670
0.253969 0.233969 0.203969
0.261331 0.241331 0.211331
0.268754 0.248754 0.218754
0.276232 0.256232 0.226232
0.283764 0.263764 0.233764
0.291346 0.271346 0.241346
0.298976 0.278976 0.248976
0.306651 0.286651 0.256651
0.314369 0.294369 0.264369
0.322129 0.302129 0.272129
0.329929 0.309929 0.279929
0.337767 0.317767 0.287767
0.345642 0.325642 0.295642
0.353552 0.333552 0.303552
0.361497 0.341497 0.311497
0.369474 0.349474 0.319474
0.271470 0.251470 0.221470
0.278968 0.258968 0.228968
0.286519 0.266519 0.236519
0.294118 0.274118 0.244118
0.301765 0.281765 0.251765
0.309456 0.289456 0.259456
0.317190 0.297190 0.267190
0.324964 0.304964 0.274964
0.332778 0.312778 0.282778
0.340630 0.320630 0.290630
0.348518 0.328518 0.298518
0.356440 0.336440 0.306440
0.364397 0.344397 0.314397
0.372387 0.352387 0.322387
0.380408 0.360408 0.330408
0.388459 0.368459 0.338459
0.396541 0.376541 0.346541
0.296897 0.276897 0.246897
0.304560 0.284560 0.254560
0.312267 0.292267 0.262267
0.320015 0.300015 0.270015
0.327805 0.307805 0.277805
0.335632 0.315632 0.285632
0.343497 0.323497 0.293497
0.351398 0.331398 0.301398
0.359333 0.339333 0.309333
0.367302 0.347302 0.317302
0.375303 0.355303 0.325303
0.383336 0.363336 0.333336
0.391398 0.371398 0.341398
0.399491 0.379491 0.349491
0.407611 0.387611 0.357611
0.415760 0.395760 0.365760
0.423936 0.403936 0.373936
0.322847 0.302847 0.272847
0.330650 0.310650 0.280650
0.338491 0.318491 0.288491
0.346370 0.326370 0.296370
0.354283 0.334283 0.304283
0.362231 0.342231 0.312231
0.370211 0.350211 0.320211
0.378224 0.358224 0.328224
0.386267 0.366267 0.336267
0.394341 0.374341 0.344341
0.402444 0.382444 0.352444
0.410575 0.390575 0.360575
0.418733 0.398733 0.368733
0.426919 0.406919 0.376919
0.435131 0.415131 0.385131
0.443368 0.423368 0.393368
0.451630 0.431630 0.401630
0.349247 0.329247 0.299247
0.357173 0.337173 0.307173
0.365132 0.345132 0.315132
0.373125 0.353125 0.323125
0.381149 0.361149 0.331149
0.389203 0.369203 0.339203
0.397288 0.377288 0.347288
0.405401 0.385401 0.355401
0.413542 0.393542 0.363542
0.421710 0.401710 0.371710
0.429906 0.409906 0.379906
0.438127 0.418127 0.388127
0.446373 0.426373 0.396373
0.454644 0.434644 0.404644
0.462939 0.442939 0.412939
0.471258 0.451258 0.421258
0.479600 0.459600 0.429600
0.376042 0.356042 0.326042
0.384078 0.364078 0.334078
0.392143 0.372143 0.342143
0.400238 0.380238 0.350238
0.408361 0.388361 0.358361
0.416513 0.396513 0.366513
0.424691 0.404691 0.374691
0.432896 0.412896 0.382896
0.441126 0.421126 0.391126
0.449381 0.429381 0.399381
0.457661 0.437661 0.407661
0.465965 0.445965 0.415965
0.474292 0.454292 0.424292
0.482642 0.462642 0.432642
0.491014 0.471014 0.441014
0.499409 0.479409 0.449409
0.507824 0.487824 0.457824
0.403192 0.383192 0.353192
0.411326 0.391326 0.361326
0.419487 0.399487 0.369487
0.427675 0.407675 0.377675
0.435889 0.415889 0.385889
0.444129 0.424129 0.394129
0.452393 0.432393 0.402393
0.460682 0.440682 0.410682
0.468994 0.448994 0.418994
0.477329 0.457329 0.427329
0.485688 0.465688 0.435688
0.494068 0.474068 0.444068
0.502470 0.482470 0.452470
0.510893 0.490893 0.460893
0.519338 0.499338 0.469338
0.527802 0.507802 0.477802
0.536287 0.516287 0.486287
0.430662 0.410662 0.380662
0.438886 0.418886 0.388886
0.447134 0.427134 0.397134
0.455408 0.435408 0.405408
0.463705 0.443705 0.413705
0.472026 0.452026 0.422026
0.480370 0.460370 0.430370
0.488736 0.468736 0.438736
0.497124 0.477124 0.447124
0.505534 0.485534 0.455534
0.513965 0.493965 0.463965
0.522417 0.502417 0.472417
0.530889 0.510889 0.480889
0.539381 0.519381 0.489381
0.547893 0.527893 0.497893
0.556423 0.536423 0.506423
0.564973 0.544973 0.514973
0.458426 0.438426 0.408426
0.466732 0.446732 0.416732
0.475061 0.455061 0.425061
0.483413 0.463413 0.433413
0.491787 0.471787 0.441787
0.500184 0.480184 0.450184
0.508601 0.488601 0.458601
0.517040 0.497040 0.467040
0.525499 0.505499 0.475499
0.533978 0.513978 0.483978
0.542478 0.522478 0.492478
0.550996 0.530996 0.500996
0.559534 0.539534 0.509534
0.568090 0.548090 0.518090
0.576665 0.556665 0.526665
0.585258 0.565258 0.535258
0.593869 0.573869 0.543869
0.486459 0.466459 0.436459
0.494842 0.474842 0.444842
0.503246 0.483246 0.453246
0.511671 0.491671 0.461671
0.520117 0.500117 0.470117
0.528584 0.508584 0.478584
0.537070 0.517070 0.487070
0.545577 0.525577 0.495577
0.554102 0.534102 0.504102
0.562647 0.542647 0.512647
0.571210 0.551210 0.521210
0.579792 0.559792 0.529792
0.588391 0.568391 0.538391
0.597008 0.577008 0.547008
0.605643 0.585643 0.555643
0.614295 0.594295 0.564295
0.622964 0.602964 0.572964
0.514744 0.494744 0.464744
0.523197 0.503197 0.473197
0.531671 0.511671 0.481671
0.540165 0.520165 0.490165
0.548678 0.528678 0.498678
0.557211 0.537211 0.507211
0.565762 0.545762 0.515762
0.574332 0.554332 0.524332
0.582920 0.562920 0.532920
0.591526 0.571526 0.541526
0.600150 0.580150 0.550150
0.608791 0.588791 0.558791
0.617449 0.597449 0.567449
0.626124 0.606124 0.576124
0.634815 0.614815 0.584815
0.643523 0.623523 0.593523
0.652246 0.632246 0.602246
0.543262 0.523262 0.493262
0.551783 0.531783 0.501783
0.560322 0.540322 0.510322
0.568880 0.548880 0.518880
0.577457 0.557457 0.527457
0.586051 0.566051 0.536051
0.594664 0.574664 0.544664
0.603294 0.583294 0.553294
0.611941 0.591941 0.561941
0.620605 0.600605 0.570605
0.629286 0.609286 0.579286
0.637983 0.617983 0.587983
0.646697 0.626697 0.596697
0.655426 0.635426 0.605426
0.664171 0.644171 0.614171
0.672932 0.652932 0.622932
0.681708 0.661708 0.631708
0.572000 0.552000 0.522000
0.580584 0.560584 0.530584
0.589185 0.569185 0.539185
0.597804 0.577804 0.547804
0.606440 0.586440 0.556440
0.615093 0.595093 0.565093
0.623764 0.603764 0.573764
0.632450 0.612450 0.582450
0.641154 0.621154 0.591154
0.649873 0.629873 0.599873
0.658608 0.638608 0.608608
0.667359 0.647359 0.617359
0.676125 0.656125 0.626125
0.684907 0.664907 0.634907
0.693703 0.673703 0.643703
0.702514 0.682514 0.652514
0.711340 0.691340 0.661340
0.600946 0.580946 0.550946
0.609588 0.589588 0.559588
0.618248 0.598248 0.568248
0.626924 0.606924 0.576924
0.635617 0.615617 0.585617
0.644326 0.624326 0.594326
0.653051 0.633051 0.603051
0.661792 0.641792 0.611792
0.670549 0.650549 0.620549
0.679320 0.659320 0.629320
0.688107 0.668107 0.638107
0.696909 0.676909 0.646909
0.705726 0.685726 0.655726
0.714557 0.694557 0.664557
0.723402 0.703402 0.673402
0.732262 0.712262 0.682262
0.741136 0.721136 0.691136
0.630087 0.610087 0.580087
0.638786 0.618786 0.588786
0.647501 0.627501 0.597501
0.656232 0.636232 0.606232
0.664978 0.644978 0.614978
0.673740 0.653740 0.623740
0.682518 0.662518 0.632518
0.691310 0.671310 0.641310
0.700117 0.680117 0.650117
0.708939 0.688939 0.658939
0.717776 0.697776 0.667776
0.726626 0.706626 0.676626
0.735491 0.715491 0.685491
0.744370 0.724370 0.694370
0.753262 0.733262 0.703262
0.762168 0.742168 0.712168
0.771088 0.751088 0.721088
0.659414 0.639414 0.609414
0.668167 0.648167 0.618167
0.676934 0.656934 0.626934
0.685717 0.665717 0.635717
0.694515 0.674515 0.644515
0.703327 0.683327 0.653327
0.712155 0.692155 0.662155
0.720996 0.700996 0.670996
0.729852 0.709852 0.679852
0.738722 0.718722 0.688722
0.747606 0.727606 0.697606
0.756503 0.736503 0.706503
0.765414 0.745414 0.715414
0.774338 0.754338 0.724338
0.783276 0.763276 0.733276
0.792226 0.772226 0.742226
0.801189 0.781189 0.751189
0.225040 0.205040 0.175040
0.232112 0.212112 0.182112
0.239265 0.219265 0.189265
0.246492 0.226492 0.196492
0.253789 0.233789 0.203789
0.261150 0.241150 0.211150
0.268571 0.248571 0.218571
0.276049 0.256049 0.226049
0.283579 0.263579 0.233579
0.291160 0.271160 0.241160
0.298788 0.278788 0.248788
0.306462 0.286462 0.256462
0.314180 0.294180 0.264180
0.321939 0.301939 0.271939
0.329738 0.309738 0.279738
0.337575 0.317575 0.287575
0.345449 0.325449 0.295449
0.249141 0.229141 0.199141
0.256462 0.236462 0.206462
0.263845 0.243845 0.213845
0.271287 0.251287 0.221287
0.278784 0.258784 0.228784
0.286333 0.266333 0.236333
0.293932 0.273932 0.243932
0.301577 0.281577 0.251577
0.309267 0.289267 0.259267
0.317000 0.297000 0.267000
0.324774 0.304774 0.274774
0.332587 0.312587 0.282587
0.340437 0.320437 0.290437
0.348324 0.328324 0.298324
0.356246 0.336246 0.306246
0.364202 0.344202 0.314202
0.372191 0.352191 0.322191
0.274010 0.254010 0.224010
0.281527 0.261527 0.231527
0.289094 0.269094 0.239094
0.296710 0.276710 0.246710
0.304372 0.284372 0.254372
0.312078 0.292078 0.262078
0.319825 0.299825 0.269825
0.327614 0.307614 0.277614
0.335440 0.315440 0.285440
0.343304 0.323304 0.293304
0.351204 0.331204 0.301204
0.359139 0.339139 0.309139
0.367107 0.347107 0.317107
0.375107 0.355107 0.325107
0.383139 0.363139 0.333139
0.391201 0.371201 0.341201
0.399292 0.379292 0.349292
0.299494 0.279494 0.249494
0.307172 0.287172 0.257172
0.314894 0.294894 0.264894
0.322656 0.302656 0.272656
0.330459 0.310459 0.280459
0.338299 0.318299 0.288299
0.346176 0.326176 0.296176
0.354089 0.334089 0.304089
0.362036 0.342036 0.312036
0.370016 0.350016 0.320016
0.378028 0.358028 0.328028
0.386070 0.366070 0.336070
0.394143 0.374143 0.344143
0.402245 0.382245 0.352245
0.410376 0.390376 0.360376
0.418534 0.398534 0.368534
0.426718 0.406718 0.376718
0.325492 0.305492 0.275492
0.333309 0.313309 0.283309
0.341163 0.321163 0.291163
0.349053 0.329053 0.299053
0.356978 0.336978 0.306978
0.364937 0.344937 0.314937
0.372929 0.352929 0.322929
0.380952 0.360952 0.330952
0.389006 0.369006 0.339006
0.397090 0.377090 0.347090
0.405202 0.385202 0.355202
0.413342 0.393342 0.363342
0.421510 0.401510 0.371510
0.429705 0.409705 0.379705
0.437925 0.417925 0.387925
0.446171 0.426171 0.396171
0.454441 0.434441 0.404441
0.351934 0.331934 0.301934
0.359872 0.339872 0.309872
0.367843 0.347843 0.317843
0.375846 0.355846 0.325846
0.383881 0.363881 0.333881
0.391945 0.371945 0.341945
0.400040 0.380040 0.350040
0.408162 0.388162 0.358162
0.416313 0.396313 0.366313
0.424491 0.404491 0.374491
0.432695 0.412695 0.382695
0.440924 0.420924 0.390924
0.449179 0.429179 0.399179
0.457458 0.437458 0.407458
0.465762 0.445762 0.415762
0.474088 0.454088 0.424088
0.482438 0.462438 0.432438
0.378768 0.358768 0.328768
0.386813 0.366813 0.336813
0.394889 0.374889 0.344889
0.402994 0.382994 0.352994
0.411127 0.391127 0.361127
0.419287 0.399287 0.369287
0.427474 0.407474 0.377474
0.435688 0.415688 0.385688
0.443927 0.423927 0.393927
0.452191 0.432191 0.402191
0.460479 0.440479 0.410479
0.468790 0.448790 0.418790
0.477125 0.457125 0.427125
0.485483 0.465483 0.435483
0.493863 0.473863 0.443863
0.502264 0.482264 0.452264
0.510687 0.490687 0.460687
0.405951 0.385951 0.355951
0.414094 0.394094 0.364094
0.422265 0.402265 0.372265
0.430462 0.410462 0.380462
0.438684 0.418684 0.388684
0.446932 0.426932 0.396932
0.455205 0.435205 0.405205
0.463502 0.443502 0.413502
0.471822 0.451822 0.421822
0.480165 0.460165 0.430165
0.488531 0.468531 0.438531
0.496919 0.476919 0.446919
0.505328 0.485328 0.455328
0.513759 0.493759 0.463759
0.522210 0.502210 0.472210
0.530682 0.510682 0.480682
0.539173 0.519173 0.489173
0.433452 0.413452 0.383452
0.441684 0.421684 0.391684
0.449941 0.429941 0.399941
0.458223 0.438223 0.408223
0.466528 0.446528 0.416528
0.474857 0.454857 0.424857
0.483208 0.463208 0.433208
0.491582 0.471582 0.441582
0.499978 0.479978 0.449978
0.508395 0.488395 0.458395
0.516833 0.496833 0.466833
0.525292 0.505292 0.475292
0.533771 0.513771 0.483771
0.542270 0.522270 0.492270
0.550788 0.530788 0.500788
0.559325 0.539325 0.509325
0.567881 0.547881 0.517881
0.461244 0.441244 0.411244
0.469558 0.449558 0.419558
0.477895 0.457895 0.427895
0.486255 0.466255 0.436255
0.494636 0.474636 0.444636
0.503040 0.483040 0.453040
0.511465 0.491465 0.461465
0.519910 0.499910 0.469910
0.528376 0.508376 0.478376
0.536863 0.516863 0.486863
0.545368 0.525368 0.495368
0.553894 0.533894 0.503894
0.562438 0.542438 0.512438
0.571000 0.551000 0.521000
0.579582 0.559582 0.529582
0.588181 0.568181 0.538181
0.596797 0.576797 0.546797
0.489304 0.469304 0.439304
0.497693 0.477693 0.447693
0.506105 0.486105 0.456105
0.514537 0.494537 0.464537
0.522990 0.502990 0.472990
0.531464 0.511464 0.481464
0.539957 0.519957 0.489957
0.548470 0.528470 0.498470
0.557002 0.537002 0.507002
0.565553 0.545553 0.515553
0.574122 0.554122 0.524122
0.582710 0.562710 0.532710
0.591316 0.571316 0.541316
0.599939 0.579939 0.549939
0.608579 0.588579 0.558579
0.617237 0.597237 0.567237
0.625911 0.605911 0.575911
0.517612 0.497612 0.467612
0.526073 0.506073 0.476073
0.534554 0.514554 0.484554
0.543054 0.523054 0.493054
0.551574 0.531574 0.501574
0.560113 0.540113 0.510113
0.568671 0.548671 0.518671
0.577247 0.557247 0.527247
0.585841 0.565841 0.535841
0.594453 0.574453 0.544453
0.603083 0.583083 0.553083
0.611729 0.591729 0.561729
0.620393 0.600393 0.570393
0.629073 0.609073 0.579073
0.637770 0.617770 0.587770
0.646483 0.626483 0.596483
0.655212 0.635212 0.605212
0.546154 0.526154 0.496154
0.554680 0.534680 0.504680
0.563226 0.543226 0.513226
0.571791 0.551791 0.521791
0.580374 0.560374 0.530374
0.588974 0.568974 0.538974
0.597593 0.577593 0.547593
0.606229 0.586229 0.556229
0.614882 0.594882 0.564882
0.623551 0.603551 0.573551
0.632238 0.612238 0.582238
0.640941 0.620941 0.590941
0.649660 0.629660 0.599660
0.658394 0.638394 0.608394
0.667145 0.647145 0.617145
0.675911 0.655911 0.625911
0.684692 0.664692 0.634692
0.574913 0.554913 0.524913
0.583503 0.563503 0.533503
0.592110 0.572110 0.542110
0.600735 0.580735 0.550735
0.609377 0.589377 0.559377
0.618036 0.598036 0.568036
0.626712 0.606712 0.576712
0.635404 0.615404 0.585404
0.644113 0.624113 0.594113
0.652838 0.632838 0.602838
0.661578 0.641578 0.611578
0.670334 0.650334 0.620334
0.679106 0.659106 0.629106
0.687892 0.667892 0.637892
0.696694 0.676694 0.646694
0.705510 0.685510 0.655510
0.714341 0.694341 0.664341
0.603879 0.583879 0.553879
0.612527 0.592527 0.562527
0.621193 0.601193 0.571193
0.629875 0.609875 0.579875
0.638573 0.618573 0.588573
0.647288 0.627288 0.597288
0.656018 0.636018 0.606018
0.664764 0.644764 0.614764
0.673526 0.653526 0.623526
0.682303 0.662303 0.632303
0.691095 0.671095 0.641095
0.699902 0.679902 0.649902
0.708723 0.688723 0.658723
0.717559 0.697559 0.667559
0.726410 0.706410 0.676410
0.735274 0.715274 0.685274
0.744152 0.724152 0.694152
0.633039 0.613039 0.583039
0.641744 0.621744 0.591744
0.650464 0.630464 0.600464
0.659200 0.639200 0.609200
0.667952 0.647952 0.617952
0.676720 0.656720 0.626720
0.685502 0.665502 0.635502
0.694299 0.674299 0.644299
0.703112 0.683112 0.653112
0.711939 0.691939 0.661939
0.720780 0.700780 0.670780
0.729635 0.709635 0.679635
0.738505 0.718505 0.688505
0.747388 0.727388 0.697388
0.756285 0.736285 0.706285
0.765196 0.745196 0.715196
0.774120 0.754120 0.724120
0.662385 0.642385 0.612385
0.671142 0.651142 0.621142
0.679915 0.659915 0.629915
0.688703 0.668703 0.638703
0.697506 0.677506 0.647506
0.706324 0.686324 0.656324
0.715156 0.695156 0.665156
0.724002 0.704002 0.674002
0.732863 0.712863 0.682863
0.741737 0.721737 0.691737
0.750626 0.730626 0.700626
0.759528 0.739528 0.709528
0.768443 0.748443 0.718443
0.777372 0.757372 0.727372
0.786314 0.766314 0.736314
0.795269 0.775269 0.745269
0.804236 0.784236 0.754236
0.227432 0.207432 0.177432
0.234532 0.214532 0.184532
0.241711 0.221711 0.191711
0.248963 0.228963 0.198963
0.256282 0.236282 0.206282
0.263664 0.243664 0.213664
0.271105 0.251105 0.221105
0.278600 0.258600 0.228600
0.286148 0.266148 0.236148
0.293745 0.273745 0.243745
0.301390 0.281390 0.251390
0.309079 0.289079 0.259079
0.316810 0.296810 0.266810
0.324583 0.304583 0.274583
0.332395 0.312395 0.282395
0.340245 0.320245 0.290245
0.348131 0.328131 0.298131
0.251620 0.231620 0.201620
0.258963 0.238963 0.208963
0.266366 0.246366 0.216366
0.273827 0.253827 0.223827
0.281342 0.261342 0.231342
0.288908 0.268908 0.238908
0.296523 0.276523 0.246523
0.304184 0.284184 0.254184
0.311889 0.291889 0.261889
0.319635 0.299635 0.269635
0.327423 0.307423 0.277423
0.335249 0.315249 0.285249
0.343112 0.323112 0.293112
0.351011 0.331011 0.301011
0.358944 0.338944 0.308944
0.366912 0.346912 0.316912
0.374911 0.354911 0.324911
0.276557 0.256557 0.226557
0.284091 0.264091 0.234091
0.291675 0.271675 0.241675
0.299307 0.279307 0.249307
0.306984 0.286984 0.256984
0.314704 0.294704 0.264704
0.322466 0.302466 0.272466
0.330267 0.310267 0.280267
0.338107 0.318107 0.288107
0.345983 0.325983 0.295983
0.353895 0.333895 0.303895
0.361841 0.341841 0.311841
0.369820 0.349820 0.319820
0.377831 0.357831 0.327831
0.385873 0.365873 0.335873
0.393945 0.373945 0.343945
0.402047 0.382047 0.352047
0.302097 0.282097 0.252097
0.309790 0.289790 0.259790
0.317525 0.297525 0.267525
0.325302 0.305302 0.275302
0.333117 0.313117 0.283117
0.340970 0.320970 0.290970
0.348860 0.328860 0.298860
0.356784 0.336784 0.306784
0.364742 0.344742 0.314742
0.372733 0.352733 0.322733
0.380755 0.360755 0.330755
0.388809 0.368809 0.338809
0.396891 0.376891 0.346891
0.405003 0.385003 0.355003
0.413143 0.393143 0.363143
0.421310 0.401310 0.371310
0.429504 0.409504 0.379504
0.328143 0.308143 0.278143
0.335972 0.315972 0.285972
0.343838 0.323838 0.293838
0.351741 0.331741 0.301741
0.359678 0.339678 0.309678
0.367648 0.347648 0.317648
0.375650 0.355650 0.325650
0.383684 0.363684 0.333684
0.391748 0.371748 0.341748
0.399841 0.379841 0.349841
0.407963 0.387963 0.357963
0.416113 0.396113 0.366113
0.424290 0.404290 0.374290
0.432494 0.412494 0.382494
0.440723 0.420723 0.390723
0.448977 0.428977 0.398977
0.457256 0.437256 0.407256
0.354626 0.334626 0.304626
0.362575 0.342575 0.312575
0.370557 0.350557 0.320557
0.378571 0.358571 0.328571
0.386616 0.366616 0.336616
0.394691 0.374691 0.344691
0.402795 0.382795 0.352795
0.410927 0.390927 0.360927
0.419087 0.399087 0.369087
0.427274 0.407274 0.377274
0.435487 0.415487 0.385487
0.443725 0.423725 0.393725
0.451988 0.431988 0.401988
0.460276 0.440276 0.410276
0.468587 0.448587 0.418587
0.476921 0.456921 0.426921
0.485278 0.465278 0.435278
0.381497 0.361497 0.331497
0.389553 0.369553 0.339553
0.397638 0.377638 0.347638
0.405752 0.385752 0.355752
0.413895 0.393895 0.363895
0.422065 0.402065 0.372065
0.430261 0.410261 0.380261
0.438483 0.418483 0.388483
0.446730 0.426730 0.396730
0.455002 0.435002 0.405002
0.463299 0.443299 0.413299
0.471618 0.451618 0.421618
0.479961 0.459961 0.429961
0.488326 0.468326 0.438326
0.496714 0.476714 0.446714
0.505122 0.485122 0.455122
0.513552 0.493552 0.463552
0.408714 0.388714 0.358714
0.416866 0.396866 0.366866
0.425045 0.405045 0.375045
0.433251 0.413251 0.383251
0.441483 0.421483 0.391483
0.449739 0.429739 0.399739
0.458020 0.438020 0.408020
0.466325 0.446325 0.416325
0.474653 0.454653 0.424653
0.483004 0.463004 0.433004
0.491377 0.471377 0.441377
0.499772 0.479772 0.449772
0.508189 0.488189 0.458189
0.516627 0.496627 0.466627
0.525085 0.505085 0.475085
0.533563 0.513563 0.483563
0.542061 0.522061 0.492061
0.436245 0.416245 0.386245
0.444486 0.424486 0.394486
0.452751 0.432751 0.402751
0.461041 0.441041 0.411041
0.469354 0.449354 0.419354
0.477691 0.457691 0.427691
0.486050 0.466050 0.436050
0.494431 0.474431 0.444431
0.502834 0.482834 0.452834
0.511258 0.491258 0.461258
0.519704 0.499704 0.469704
0.528169 0.508169 0.478169
0.536655 0.516655 0.486655
0.545160 0.525160 0.495160
0.553685 0.533685 0.503685
0.562228 0.542228 0.512228
0.570791 0.550791 0.520791
0.464065 0.444065 0.414065
0.472386 0.452386 0.422386
0.480731 0.460731 0.430731
0.489099 0.469099 0.439099
0.497488 0.477488 0.447488
0.505899 0.485899 0.455899
0.514331 0.494331 0.464331
0.522783 0.502783 0.472783
0.531256 0.511256 0.481256
0.539749 0.519749 0.489749
0.548261 0.528261 0.498261
0.556793 0.536793 0.506793
0.565344 0.545344 0.515344
0.573913 0.553913 0.523913
0.582500 0.562500 0.532500
0.591105 0.571105 0.541105
0.599728 0.579728 0.549728
0.492150 0.472150 0.442150
0.500547 0.480547 0.450547
0.508966 0.488966 0.458966
0.517406 0.497406 0.467406
0.525866 0.505866 0.475866
0.534346 0.514346 0.484346
0.542846 0.522846 0.492846
0.551365 0.531365 0.501365
0.559904 0.539904 0.509904
0.568461 0.548461 0.518461
0.577037 0.557037 0.527037
0.585631 0.565631 0.535631
0.594242 0.574242 0.544242
0.602871 0.582871 0.552871
0.611518 0.591518 0.561518
0.620181 0.600181 0.570181
0.628861 0.608861 0.578861
0.520483 0.500483 0.470483
0.528951 0.508951 0.478951
0.537438 0.517438 0.487438
0.545945 0.525945 0.495945
0.554472 0.534472 0.504472
0.563017 0.543017 0.513017
0.571581 0.551581 0.521581
0.580163 0.560163 0.530163
0.588764 0.568764 0.538764
0.597382 0.577382 0.547382
0.606017 0.586017 0.556017
0.614670 0.594670 0.564670
0.623339 0.603339 0.573339
0.632025 0.612025 0.582025
0.640728 0.620728 0.590728
0.649446 0.629446 0.599446
0.658180 0.638180 0.608180
0.549047 0.529047 0.499047
0.557581 0.537581 0.507581
0.566133 0.546133 0.516133
0.574703 0.554703 0.524703
0.583292 0.563292 0.533292
0.591899 0.571899 0.541899
0.600524 0.580524 0.550524
0.609165 0.589165 0.559165
0.617824 0.597824 0.567824
0.626499 0.606499 0.576499
0.635192 0.615192 0.585192
0.643900 0.623900 0.593900
0.652624 0.632624 0.602624
0.661364 0.641364 0.611364
0.670120 0.650120 0.620120
0.678891 0.658891 0.628891
0.687677 0.667677 0.637677
0.577828 0.557828 0.527828
0.586424 0.566424 0.536424
0.595037 0.575037 0.545037
0.603668 0.583668 0.553668
0.612316 0.592316 0.562316
0.620980 0.600980 0.570980
0.629662 0.609662 0.579662
0.638360 0.618360 0.588360
0.647074 0.627074 0.597074
0.655804 0.635804 0.605804
0.664550 0.644550 0.614550
0.673311 0.653311 0.623311
0.682088 0.662088 0.632088
0.690880 0.670880 0.640880
0.699686 0.679686 0.649686
0.708507 0.688507 0.658507
0.717343 0.697343 0.667343
0.606814 0.586814 0.556814
0.615468 0.595468 0.565468
0.624139 0.604139 0.574139
0.632827 0.612827 0.582827
0.641531 0.621531 0.591531
0.650251 0.630251 0.600251
0.658987 0.638987 0.608987
0.667738 0.647738 0.617738
0.676505 0.656505 0.626505
0.685287 0.665287 0.635287
0.694084 0.674084 0.644084
0.702896 0.682896 0.652896
0.711723 0.691723 0.661723
0.720563 0.700563 0.670563
0.729419 0.709419 0.679419
0.738288 0.718288 0.688288
0.747171 0.727171 0.697171
0.635994 0.615994 0.585994
0.644703 0.624703 0.594703
0.653429 0.633429 0.603429
0.662171 0.642171 0.612171
0.670928 0.650928 0.620928
0.679700 0.659700 0.629700
0.688488 0.668488 0.638488
0.697291 0.677291 0.647291
0.706108 0.686108 0.656108
0.714939 0.694939 0.664939
0.723786 0.703786 0.673786
0.732646 0.712646 0.682646
0.741520 0.721520 0.691520
0.750408 0.730408 0.700408
0.759310 0.739310 0.709310
0.768225 0.748225 0.718225
0.777153 0.757153 0.727153
0.665357 0.645357 0.615357
0.674120 0.654120 0.624120
0.682898 0.662898 0.632898
0.691691 0.671691 0.641691
0.700499 0.680499 0.650499
0.709321 0.689321 0.659321
0.718158 0.698158 0.668158
0.727010 0.707010 0.677010
0.735875 0.715875 0.685875
0.744754 0.724754 0.694754
0.753647 0.733647 0.703647
0.762554 0.742554 0.712554
0.771474 0.751474 0.721474
0.780407 0.760407 0.730407
0.789353 0.769353 0.739353
0.798313 0.778313 0.748313
0.807285 0.787285 0.757285
0.229834 0.209834 0.179834
0.236962 0.216962 0.186962
0.244166 0.224166 0.194166
0.251441 0.231441 0.201441
0.258782 0.238782 0.208782
0.266184 0.246184 0.216184
0.273644 0.253644 0.223644
0.281158 0.261158 0.231158
0.288723 0.268723 0.238723
0.296336 0.276336 0.246336
0.303996 0.283996 0.253996
0.311700 0.291700 0.261700
0.319445 0.299445 0.269445
0.327232 0.307232 0.277232
0.335057 0.315057 0.285057
0.342919 0.322919 0.292919
0.350817 0.330817 0.300817
0.254107 0.234107 0.204107
0.261470 0.241470 0.211470
0.268894 0.248894 0.218894
0.276374 0.256374 0.226374
