Fotico/Resources/LUTs/seda.cube
# Seda
LUT_3D_SIZE 5
0.222659 0.202659 0.172659
0.251304 0.231304 0.201304
0.281016 0.261016 0.231016
0.311554 0.291554 0.261554
0.342771 0.322771 0.292771
0.322847 0.302847 0.272847
0.354283 0.334283 0.304283
0.386267 0.366267 0.336267
0.418733 0.398733 0.368733
0.451630 0.431630 0.401630
0.430662 0.410662 0.380662
0.463705 0.443705 0.413705
0.497124 0.477124 0.447124
0.530889 0.510889 0.480889
0.564973 0.544973 0.514973
0.543262 0.523262 0.493262
0.577457 0.557457 0.527457
0.611941 0.591941 0.561941
0.646697 0.626697 0.596697
0.681708 0.661708 0.631708
0.659414 0.639414 0.609414
0.694515 0.674515 0.644515
0.729852 0.709852 0.679852
0.765414 0.745414 0.715414
0.801189 0.781189 0.751189
0.232245 0.212245 0.182245
0.261289 0.241289 0.211289
0.291303 0.271303 0.241303
0.322085 0.302085 0.272085
0.353507 0.333507 0.303507
0.333456 0.313456 0.283456
0.365087 0.345087 0.315087
0.397242 0.377242 0.347242
0.429859 0.409859 0.379859
0.462892 0.442892 0.412892
0.441839 0.421839 0.391839
0.475014 0.455014 0.425014
0.508554 0.488554 0.458554
0.542430 0.522430 0.492430
0.576617 0.556617 0.526617
0.554841 0.534841 0.504841
0.589136 0.569136 0.539136
0.623715 0.603715 0.573715
0.658559 0.638559 0.608559
0.693653 0.673653 0.643653
0.671307 0.651307 0.621307
0.706490 0.686490 0.656490
0.741904 0.721904 0.691904
0.777540 0.757540 0.727540
0.813386 0.793386 0.763386
0.241983 0.221983 0.191983
0.271386 0.251386 0.221386
0.301678 0.281678 0.251678
0.332690 0.312690 0.282690
0.364307 0.344307 0.314307
0.344135 0.324135 0.294135
0.375952 0.355952 0.325952
0.408270 0.388270 0.358270
0.441033 0.421033 0.391033
0.474198 0.454198 0.424198
0.453063 0.433063 0.403063
0.486365 0.466365 0.436365
0.520022 0.500022 0.470022
0.554006 0.534006 0.504006
0.588294 0.568294 0.538294
0.566455 0.546455 0.516455
0.600848 0.580848 0.550848
0.635519 0.615519 0.585519
0.670450 0.650450 0.620450
0.705626 0.685626 0.655626
0.683229 0.663229 0.633229
0.718491 0.698491 0.668491
0.753982 0.733982 0.703982
0.789690 0.769690 0.739690
0.825605 0.805605 0.775605
0.251854 0.231854 0.201854
0.281584 0.261584 0.231584
0.312136 0.292136 0.262136
0.343364 0.323364 0.293364
0.375167 0.355167 0.325167
0.354880 0.334880 0.304880
0.386874 0.366874 0.336874
0.419349 0.399349 0.369349
0.452253 0.432253 0.402253
0.485546 0.465546 0.435546
0.464330 0.444330 0.414330
0.497757 0.477757 0.447757
0.531528 0.511528 0.481528
0.565617 0.545617 0.515617
0.600004 0.580004 0.550004
0.578103 0.558103 0.528103
0.612593 0.592593 0.562593
0.647353 0.627353 0.597353
0.682369 0.662369 0.632369
0.717626 0.697626 0.667626
0.695178 0.675178 0.645178
0.730519 0.710519 0.680519
0.766085 0.746085 0.716085
0.801865 0.781865 0.751865
0.837848 0.817848 0.787848
0.261846 0.241846 0.211846
0.291876 0.271876 0.241876
0.322671 0.302671 0.272671
0.354104 0.334104 0.304104
0.386085 0.366085 0.336085
0.365688 0.345688 0.315688
0.397851 0.377851 0.347851
0.430477 0.410477 0.380477
0.463517 0.443517 0.413517
0.496935 0.476935 0.446935
0.475642 0.455642 0.425642
0.509188 0.489188 0.459188
0.543070 0.523070 0.493070
0.577263 0.557263 0.527263
0.611746 0.591746 0.561746
0.589784 0.569784 0.539784
0.624368 0.604368 0.574368
0.659217 0.639217 0.609217
0.694316 0.674316 0.644316
0.729652 0.709652 0.679652
0.707154 0.687154 0.657154
0.742573 0.722573 0.692573
0.778212 0.758212 0.728212
0.814062 0.794062 0.764062
0.850113 0.830113 0.800113
