Fotico/Resources/LUTs/sepia.cube
# Sepia
LUT_3D_SIZE 5
0.040147 0.019058 0.000000
0.085687 0.052774 0.018904
0.137277 0.090934 0.046945
0.194011 0.133046 0.077045
0.254980 0.178621 0.109033
0.215765 0.149263 0.088481
0.278051 0.195976 0.121115
0.343333 0.245481 0.155405
0.410705 0.297287 0.191181
0.479259 0.350902 0.228275
0.435574 0.316623 0.204542
0.504332 0.370775 0.242073
0.573033 0.426067 0.280688
0.640768 0.482007 0.320218
0.706631 0.538106 0.360493
0.665011 0.502438 0.334803
0.729967 0.558472 0.375307
0.791812 0.613993 0.416324
0.849637 0.668510 0.457685
0.902535 0.721533 0.499218
0.869514 0.688013 0.472794
0.920393 0.740369 0.514349
0.965107 0.790561 0.555844
1.000000 0.838097 0.597111
1.000000 0.882486 0.637979
0.054878 0.029980 0.001596
0.102574 0.065259 0.028185
0.156013 0.104817 0.056945
0.214287 0.148160 0.087705
0.276488 0.194799 0.120296
0.236525 0.164784 0.099367
0.299930 0.212500 0.132582
0.366024 0.262841 0.167396
0.433899 0.315317 0.203639
0.502647 0.369435 0.241141
0.458875 0.334855 0.217155
0.527715 0.389449 0.255073
0.596190 0.445016 0.294018
0.663391 0.501066 0.333821
0.728412 0.557105 0.374310
0.687363 0.521495 0.348491
0.751364 0.577409 0.389188
0.811946 0.632644 0.430341
0.868199 0.686709 0.471779
0.919218 0.739112 0.513332
0.887427 0.706005 0.486902
0.936315 0.757682 0.528456
0.978728 0.807027 0.569893
1.000000 0.853549 0.611043
1.000000 0.896758 0.651737
0.070375 0.041451 0.010372
0.120123 0.078238 0.037717
0.175306 0.119136 0.067175
0.235016 0.163654 0.098576
0.298344 0.211300 0.131750
0.257700 0.180664 0.110457
0.322120 0.229326 0.144235
0.388921 0.280447 0.179553
0.457194 0.333536 0.216242
0.526032 0.388100 0.254133
0.482238 0.353256 0.229907
0.551056 0.408236 0.268193
0.619200 0.464022 0.307448
0.685763 0.520123 0.347502
0.749836 0.576048 0.388186
0.709425 0.540529 0.362250
0.772367 0.596268 0.403121
0.831580 0.651161 0.444390
0.886158 0.704716 0.485886
0.935192 0.756444 0.527440
0.904699 0.723786 0.501017
0.951490 0.774726 0.542549
0.991499 0.823167 0.583908
1.000000 0.868619 0.624923
1.000000 0.910591 0.665423
0.086604 0.053452 0.019411
0.138300 0.091691 0.047493
0.195122 0.133873 0.077630
0.256162 0.179508 0.109652
0.320512 0.228105 0.143389
0.279254 0.196884 0.121745
0.344585 0.246436 0.156065
0.411987 0.298281 0.191868
0.480554 0.351925 0.228984
0.549377 0.406879 0.267244
0.505628 0.371806 0.242790
0.574319 0.427115 0.281424
0.642028 0.483063 0.320969
0.707847 0.539159 0.361257
0.770868 0.594913 0.402116
0.731162 0.559523 0.376075
0.792939 0.615029 0.417100
0.850681 0.669523 0.458465
0.903478 0.722513 0.500000
0.950423 0.773507 0.541535
0.921294 0.741335 0.515130
0.965883 0.791481 0.556623
1.000000 0.838963 0.597884
1.000000 0.883288 0.638743
1.000000 0.923966 0.679031
0.103529 0.065966 0.028707
0.157067 0.105599 0.057506
0.215424 0.149009 0.088302
0.277690 0.195704 0.120926
0.342958 0.245195 0.155207
0.301152 0.213424 0.133223
0.367288 0.263810 0.168066
0.435188 0.316321 0.204334
0.503943 0.370466 0.241858
0.572647 0.425753 0.280467
0.529009 0.390487 0.255797
0.597469 0.446068 0.294760
0.664638 0.502122 0.334577
0.729608 0.558157 0.375077
0.791473 0.613682 0.416092
0.752538 0.578456 0.389959
0.813047 0.633674 0.431118
0.869211 0.687712 0.472560
0.920122 0.740079 0.514114
0.964873 0.790285 0.555610
0.937175 0.758633 0.529237
0.979458 0.807930 0.570670
1.000000 0.854394 0.611814
1.000000 0.897536 0.652498
1.000000 0.936863 0.692552
