Fotico/Resources/LUTs/sepia.cube
# Sepia
LUT_3D_SIZE 17
0.040147 0.019058 0.000000
0.050915 0.027044 0.000000
0.062104 0.035330 0.005708
0.073699 0.043909 0.012235
0.085687 0.052774 0.018904
0.098052 0.061916 0.025712
0.110782 0.071329 0.032657
0.123862 0.081004 0.039735
0.137277 0.090934 0.046945
0.151014 0.101110 0.054284
0.165058 0.111527 0.061748
0.179395 0.122174 0.069336
0.194011 0.133046 0.077045
0.208891 0.144135 0.084872
0.224023 0.155432 0.092814
0.239390 0.166930 0.100868
0.254980 0.178621 0.109033
0.078019 0.047104 0.014647
0.090145 0.056071 0.021366
0.102645 0.065312 0.028224
0.115504 0.074821 0.035218
0.128708 0.084590 0.042345
0.142242 0.094610 0.049602
0.156092 0.104875 0.056987
0.170244 0.115377 0.064497
0.184684 0.126107 0.072129
0.199398 0.137058 0.079881
0.214372 0.148224 0.087750
0.229591 0.159595 0.095733
0.245041 0.171164 0.103828
0.260708 0.182924 0.112033
0.276578 0.194866 0.120343
0.292636 0.206984 0.128758
0.308869 0.219270 0.137273
0.120272 0.078348 0.037798
0.133597 0.088209 0.044972
0.147248 0.098320 0.052276
0.161210 0.108671 0.059707
0.175469 0.119257 0.067261
0.190010 0.130069 0.074937
0.204820 0.141099 0.082732
0.219885 0.152340 0.090643
0.235190 0.163784 0.098668
0.250720 0.175424 0.106803
0.266463 0.187251 0.115046
0.282403 0.199258 0.123395
0.298527 0.211438 0.131846
0.314820 0.223783 0.140398
0.331268 0.236284 0.149047
0.347857 0.248935 0.157791
0.364572 0.261728 0.166627
0.166367 0.112499 0.062443
0.180731 0.123167 0.070042
0.195372 0.134060 0.077762
0.210276 0.145167 0.085599
0.225430 0.156483 0.093552
0.240818 0.167999 0.101617
0.256428 0.179708 0.109791
0.272244 0.191602 0.118073
0.288253 0.203673 0.126460
0.304440 0.215914 0.134948
0.320791 0.228316 0.143536
0.337292 0.240873 0.152220
0.353928 0.253576 0.160998
0.370686 0.266419 0.169867
0.387552 0.279392 0.178824
0.404511 0.292490 0.187868
0.421549 0.305703 0.196995
0.215765 0.149263 0.088481
0.231006 0.160653 0.096475
0.246476 0.172240 0.104580
0.262163 0.184017 0.112794
0.278051 0.195976 0.121115
0.294126 0.208110 0.129538
0.310374 0.220411 0.138063
0.326781 0.232870 0.146686
0.343333 0.245481 0.155405
0.360016 0.258236 0.164216
0.376815 0.271127 0.173118
0.393716 0.284147 0.182107
0.410705 0.297287 0.191181
0.427768 0.310540 0.200338
0.444891 0.323899 0.209574
0.462059 0.337356 0.218887
0.479259 0.350902 0.228275
0.267924 0.188350 0.115811
0.283882 0.200374 0.124170
0.300022 0.212569 0.132630
0.316330 0.224929 0.141191
0.332791 0.237444 0.149849
0.349393 0.250109 0.158602
0.366119 0.262914 0.167447
0.382957 0.275853 0.176380
0.399892 0.288917 0.185401
0.416910 0.302099 0.194505
0.433996 0.315392 0.203691
0.451137 0.328787 0.212956
0.468318 0.342277 0.222296
0.485525 0.355855 0.231710
0.502744 0.369512 0.241195
0.519961 0.383241 0.250747
0.537162 0.397035 0.260365
0.322306 0.229467 0.144332
0.338820 0.242038 0.153025
0.355468 0.254755 0.161811
0.372237 0.267609 0.170689
0.389112 0.280595 0.179655
0.406079 0.293703 0.188706
0.423123 0.306926 0.197840
0.440231 0.320257 0.207055
0.457388 0.333688 0.216348
0.474580 0.347211 0.225715
0.491793 0.360818 0.235155
0.509013 0.374502 0.244665
0.526226 0.388256 0.254241
0.543417 0.402071 0.263883
0.560572 0.415939 0.273586
0.577677 0.429854 0.283348
0.594718 0.443807 0.293166
0.378369 0.272322 0.173943
0.395279 0.285353 0.182940
0.412276 0.298504 0.192022
0.429345 0.311768 0.201186
0.446472 0.325136 0.210429
0.463644 0.338601 0.219750
0.480845 0.352155 0.229144
0.498063 0.365792 0.238609
0.515282 0.379502 0.248144
0.532488 0.393279 0.257744
0.549667 0.407114 0.267408
0.566806 0.421000 0.277133
0.583890 0.434930 0.286916
0.600904 0.448895 0.296754
0.617834 0.462889 0.306645
0.634667 0.476902 0.316587
0.651388 0.490928 0.326576
0.435574 0.316623 0.204542
0.452719 0.330027 0.213814
0.469903 0.343526 0.223161
0.487112 0.357111 0.232582
0.504332 0.370775 0.242073
0.521548 0.384510 0.251631
0.538746 0.398309 0.261255
0.555913 0.412164 0.270942
0.573033 0.426067 0.280688
0.590093 0.440010 0.290491
0.607078 0.453987 0.300349
0.623975 0.467988 0.310259
0.640768 0.482007 0.320218
0.657445 0.496036 0.330224
0.673991 0.510068 0.340273
0.690391 0.524093 0.350364
0.706631 0.538106 0.360493
0.493381 0.362077 0.236029
0.510601 0.375768 0.245545
0.527812 0.389527 0.255128
0.545000 0.403347 0.264775
0.562151 0.417220 0.274483
0.579251 0.431139 0.284250
0.596286 0.445095 0.294074
0.613240 0.459082 0.303951
0.630101 0.473091 0.313879
0.646854 0.487114 0.323855
0.663485 0.501145 0.333877
0.679979 0.515175 0.343942
0.696323 0.529196 0.354047
0.712502 0.543202 0.364190
0.728502 0.557184 0.374367
0.744308 0.571135 0.384577
0.759908 0.585047 0.394817
0.551249 0.408392 0.268302
0.568384 0.422283 0.278032
0.585461 0.436216 0.287820
0.602468 0.450184 0.297664
0.619391 0.464180 0.307560
0.636214 0.478195 0.317506
0.652924 0.492222 0.327499
0.669506 0.506253 0.337537
0.685947 0.520281 0.347616
0.702233 0.534298 0.357735
0.718348 0.548296 0.367891
0.734279 0.562267 0.378081
0.750012 0.576205 0.388302
0.765533 0.590100 0.398552
0.780826 0.603946 0.408828
0.795879 0.617736 0.419127
0.810677 0.631460 0.429447
0.608640 0.455277 0.301261
0.625527 0.469280 0.311175
0.642311 0.483301 0.321139
0.658976 0.497330 0.331148
0.675509 0.511361 0.341202
0.691895 0.525386 0.351296
0.708120 0.539396 0.361429
0.724170 0.553386 0.371597
0.740031 0.567346 0.381799
0.755688 0.581269 0.392030
0.771128 0.595147 0.402290
0.786335 0.608974 0.412575
0.801297 0.622740 0.422882
0.815999 0.636439 0.433208
0.830426 0.650062 0.443552
0.844564 0.663603 0.453910
0.858400 0.677052 0.464281
0.665011 0.502438 0.334803
0.681492 0.516468 0.344872
0.697821 0.530488 0.354981
0.713984 0.544492 0.365127
0.729967 0.558472 0.375307
0.745755 0.572419 0.385520
0.761335 0.586327 0.395762
0.776692 0.600187 0.406031
0.791812 0.613993 0.416324
0.806680 0.627735 0.426639
0.821283 0.641408 0.436972
0.835607 0.655002 0.447322
0.849637 0.668510 0.457685
0.863359 0.681925 0.468058
0.876759 0.695239 0.478440
0.889822 0.708444 0.488828
0.902535 0.721533 0.499218
0.719825 0.549585 0.368829
0.735738 0.563554 0.379022
0.751452 0.577488 0.389246
0.766952 0.591379 0.399498
0.782225 0.605220 0.409776
0.797255 0.619004 0.420077
0.812028 0.632721 0.430399
0.826531 0.646366 0.440738
0.840750 0.659930 0.451093
0.854669 0.673405 0.461460
0.868275 0.686784 0.471837
0.881554 0.700059 0.482221
0.894492 0.713223 0.492610
0.907074 0.726267 0.503001
0.919286 0.739185 0.513391
0.931114 0.751968 0.523777
0.942544 0.764608 0.534158
0.772540 0.596424 0.403237
0.787725 0.610245 0.413524
0.802663 0.624006 0.423833
0.817340 0.637698 0.434161
0.831741 0.651314 0.444507
0.845853 0.664846 0.454866
0.859660 0.678288 0.465237
0.873148 0.691630 0.475617
0.886305 0.704865 0.486003
0.899115 0.717986 0.496393
0.911564 0.730985 0.506784
0.923637 0.743855 0.517173
0.935322 0.756587 0.527557
0.946604 0.769173 0.537935
0.957467 0.781608 0.548303
0.967899 0.793881 0.558658
0.977886 0.805987 0.568998
0.822616 0.642664 0.437926
0.836913 0.656251 0.448277
0.850915 0.669751 0.458641
0.864608 0.683157 0.469015
0.877977 0.696461 0.479398
0.891009 0.709656 0.489786
0.903689 0.722733 0.500176
0.916003 0.735686 0.510566
0.927937 0.748506 0.520954
0.939477 0.761186 0.531336
0.950608 0.773718 0.541711
0.961316 0.786095 0.552074
0.971587 0.798309 0.562424
0.981408 0.810351 0.572759
0.990763 0.822215 0.583074
0.999638 0.833893 0.593369
1.000000 0.845377 0.603639
0.869514 0.688013 0.472794
0.882762 0.701278 0.483179
0.895667 0.714431 0.493568
0.908216 0.727464 0.503959
0.920393 0.740369 0.514349
0.932185 0.753139 0.524735
0.943577 0.765766 0.535114
0.954556 0.778243 0.545485
0.965107 0.790561 0.555844
0.975216 0.802713 0.566189
0.984868 0.814692 0.576517
0.994050 0.826489 0.586825
1.000000 0.838097 0.597111
1.000000 0.849508 0.607372
1.000000 0.860715 0.617605
1.000000 0.871711 0.627809
1.000000 0.882486 0.637979
0.043756 0.021736 0.000000
0.054668 0.029824 0.001477
0.065997 0.038211 0.007909
0.077727 0.046888 0.014484
0.089844 0.055848 0.021200
0.102335 0.065083 0.028055
0.115186 0.074586 0.035046
0.128381 0.084348 0.042169
0.141907 0.094362 0.049423
0.155749 0.104621 0.056805
0.169895 0.115117 0.064312
0.184328 0.125842 0.071941
0.199035 0.136788 0.079690
0.214003 0.147948 0.087556
0.229216 0.159314 0.095537
0.244660 0.170879 0.103629
0.260322 0.182634 0.111831
0.082094 0.050118 0.016913
0.094349 0.059179 0.023680
0.106973 0.068512 0.030585
0.119950 0.078110 0.037624
0.133268 0.087965 0.044795
0.146910 0.098069 0.052096
0.160865 0.108415 0.059523
0.175117 0.118995 0.067075
0.189651 0.129802 0.074748
0.204455 0.140827 0.082540
0.219514 0.152063 0.090448
0.234813 0.163502 0.098470
0.250338 0.175137 0.106602
0.266075 0.186959 0.114843
0.282011 0.198962 0.123189
0.298130 0.211138 0.131638
0.314419 0.223479 0.140188
0.124760 0.081669 0.040219
0.138197 0.091615 0.047438
0.151955 0.101808 0.054785
0.166020 0.112241 0.062259
0.180376 0.122904 0.069855
0.195010 0.133791 0.077571
0.209909 0.144893 0.085406
0.225056 0.156204 0.093356
0.240439 0.167715 0.101418
0.256044 0.179420 0.109590
0.271855 0.191309 0.117870
0.287859 0.203376 0.126253
0.304042 0.215612 0.134739
0.320389 0.228011 0.143324
0.336886 0.240564 0.152006
0.353520 0.253264 0.160782
0.370275 0.266103 0.169649
0.171213 0.116096 0.065010
0.185673 0.126842 0.072650
0.200405 0.137808 0.080410
0.215395 0.148987 0.088287
0.230630 0.160372 0.096278
0.246095 0.171955 0.104381
0.261777 0.183727 0.112592
0.277660 0.195682 0.120910
0.293731 0.207811 0.129331
0.309975 0.220108 0.137853
0.326378 0.232564 0.146474
0.342927 0.245171 0.155190
0.359607 0.257923 0.163999
0.376403 0.270810 0.172899
0.393302 0.283827 0.181886
0.410289 0.296964 0.190958
0.427350 0.310215 0.200113
0.220914 0.153109 0.091183
0.236235 0.164566 0.099215
0.251780 0.176219 0.107358
0.267537 0.188059 0.115608
0.283490 0.200078 0.123964
0.299625 0.212269 0.132422
0.315929 0.224624 0.140981
0.332387 0.237136 0.149636
0.348985 0.249797 0.158387
0.365709 0.262599 0.167229
0.382544 0.275535 0.176161
0.399477 0.288596 0.185179
0.416492 0.301776 0.194282
0.433577 0.315066 0.203466
0.450717 0.328458 0.212728
0.467897 0.341946 0.222067
0.485104 0.355522 0.231479
0.273322 0.192414 0.118638
0.289344 0.204497 0.127032
0.305542 0.216749 0.135527
0.321904 0.229162 0.144121
0.338414 0.241729 0.152811
0.355060 0.254442 0.161595
0.371826 0.267293 0.170471
0.388698 0.280276 0.179434
0.405663 0.293381 0.188484
0.422705 0.306602 0.197616
0.439812 0.319930 0.206829
0.456968 0.333358 0.216119
0.474159 0.346879 0.225485
0.491372 0.360484 0.234923
0.508592 0.374167 0.244431
0.525805 0.387919 0.254006
0.542997 0.401732 0.263646
0.327898 0.233720 0.147274
0.344459 0.246341 0.155999
0.361150 0.259105 0.164816
0.377957 0.272005 0.173724
0.394864 0.285033 0.182719
0.411859 0.298181 0.191799
0.428926 0.311442 0.200961
0.446053 0.324808 0.210202
0.463223 0.338270 0.219521
0.480424 0.351823 0.228913
0.497641 0.365457 0.238377
0.514860 0.379166 0.247910
0.532067 0.392941 0.257509
0.549248 0.406775 0.267171
0.566388 0.420660 0.276894
0.583472 0.434589 0.286676
0.600489 0.448553 0.296513
0.384101 0.276734 0.176989
0.401042 0.289806 0.186015
0.418065 0.302996 0.195125
0.435155 0.316296 0.204316
0.452299 0.329698 0.213586
0.469483 0.343194 0.222932
0.486691 0.356778 0.232350
0.503911 0.370440 0.241840
0.521127 0.384174 0.251397
0.538326 0.397971 0.261019
0.555493 0.411824 0.270704
0.572615 0.425726 0.280449
0.589676 0.439669 0.290251
0.606664 0.453645 0.300107
0.623563 0.467646 0.310016
0.640359 0.481664 0.319974
0.657039 0.495693 0.329978
0.441391 0.321164 0.207682
0.458551 0.334601 0.216980
0.475746 0.348130 0.226352
0.492960 0.361743 0.235797
0.510180 0.375432 0.245311
0.527391 0.389190 0.254893
0.544580 0.403008 0.264538
0.561733 0.416880 0.274245
0.578834 0.430798 0.284011
0.595870 0.444754 0.293833
0.612827 0.458739 0.303709
0.629690 0.472748 0.313636
0.646446 0.486771 0.323611
0.663080 0.500802 0.333632
0.679577 0.514832 0.343695
0.695925 0.528854 0.353799
0.712108 0.542860 0.363941
0.499229 0.366718 0.239253
0.516448 0.380433 0.248792
0.533653 0.394214 0.258397
0.550830 0.408053 0.268065
0.567965 0.421942 0.277794
0.585044 0.435875 0.287580
0.602053 0.449842 0.297422
0.618978 0.463837 0.307317
0.635804 0.477852 0.317262
0.652516 0.491879 0.327254
0.669102 0.505910 0.337291
0.685547 0.519938 0.347369
0.701836 0.533955 0.357488
0.717956 0.547954 0.367642
0.733892 0.561926 0.377831
0.749630 0.575864 0.388052
0.765156 0.589761 0.398301
0.557074 0.413104 0.271600
0.574190 0.427010 0.281350
0.591246 0.440956 0.291157
0.608225 0.454934 0.301019
0.625116 0.468937 0.310932
0.641902 0.482957 0.320894
0.658570 0.496987 0.330903
0.675106 0.511018 0.340955
0.691496 0.525043 0.351049
0.707725 0.539054 0.361180
0.723780 0.553044 0.371348
0.739645 0.567005 0.381549
0.755308 0.580929 0.391780
0.770753 0.594808 0.402039
0.785966 0.608636 0.412323
0.800934 0.622404 0.422629
0.815642 0.636104 0.432956
0.614386 0.460030 0.304622
0.631240 0.474040 0.314553
0.647985 0.488064 0.324533
0.664607 0.502095 0.334558
0.681091 0.516125 0.344625
0.697424 0.530146 0.354733
0.713591 0.544150 0.364878
0.729578 0.558130 0.375058
0.745372 0.572079 0.385270
0.760957 0.585987 0.395512
0.776319 0.599849 0.405780
0.791445 0.613656 0.416072
0.806320 0.627400 0.426386
0.820929 0.641074 0.436719
0.835260 0.654670 0.447068
0.849297 0.668181 0.457431
0.863027 0.681598 0.467805
0.670625 0.507203 0.338218
0.687056 0.521231 0.348301
0.703330 0.535246 0.358422
0.719433 0.549243 0.368580
0.735351 0.563212 0.378772
0.751070 0.577147 0.388995
0.766576 0.591040 0.399247
0.781854 0.604882 0.409524
0.796890 0.618667 0.419825
0.811670 0.632387 0.430146
0.826180 0.646033 0.440485
0.840405 0.659599 0.450840
0.854332 0.673077 0.461207
0.867946 0.686458 0.471583
0.881234 0.699736 0.481967
0.894180 0.712902 0.492356
0.906771 0.725950 0.502747
0.725251 0.554332 0.372287
0.741098 0.568290 0.382491
0.756741 0.582210 0.392724
0.772165 0.596086 0.402986
0.787357 0.609908 0.413272
0.802301 0.623670 0.423580
0.816985 0.637364 0.433908
0.831393 0.650982 0.444253
0.845511 0.664517 0.454613
0.859326 0.677960 0.464983
0.872822 0.691305 0.475363
0.885987 0.704543 0.485749
0.898806 0.717667 0.496139
0.911263 0.730669 0.506530
0.923347 0.743541 0.516919
0.935041 0.756277 0.527303
0.946333 0.768867 0.537681
0.777724 0.601124 0.406728
0.792827 0.614926 0.417022
0.807678 0.628664 0.427338
0.822263 0.642331 0.437673
0.836567 0.655919 0.448023
0.850576 0.669422 0.458387
0.864277 0.682830 0.468761
0.877654 0.696137 0.479144
0.890695 0.709334 0.489531
0.903383 0.722415 0.499922
0.915707 0.735371 0.510312
0.927650 0.748194 0.520700
0.939199 0.760878 0.531082
0.950340 0.773414 0.541457
0.961059 0.785794 0.551821
0.971341 0.798012 0.562172
0.981173 0.810059 0.572506
0.827503 0.647287 0.441439
0.841702 0.660846 0.451795
0.855601 0.674315 0.462163
0.869185 0.687687 0.472540
0.882442 0.700955 0.482925
0.895356 0.714110 0.493314
0.907913 0.727146 0.503705
0.920100 0.740055 0.514094
0.931901 0.752828 0.524481
0.943303 0.765459 0.534860
0.954292 0.777939 0.545231
0.964854 0.790262 0.555591
0.974974 0.802418 0.565936
0.984637 0.814401 0.576264
0.993831 0.826202 0.586573
1.000000 0.837815 0.596860
1.000000 0.849232 0.607121
0.874050 0.692530 0.476320
0.887184 0.705758 0.486707
0.899969 0.718871 0.497097
0.912393 0.731861 0.507487
0.924441 0.744721 0.517876
0.936099 0.757444 0.528260
0.947353 0.770021 0.538637
0.958188 0.782444 0.549004
0.968590 0.794707 0.559359
0.978545 0.806801 0.569698
0.988040 0.818719 0.580020
0.997059 0.830452 0.590321
1.000000 0.841995 0.600599
1.000000 0.853338 0.610851
1.000000 0.864474 0.621074
1.000000 0.875395 0.631267
1.000000 0.886094 0.641425
0.047414 0.024449 0.000000
0.058470 0.032640 0.003645
0.069936 0.041126 0.010126
0.081799 0.049900 0.016749
0.094045 0.058954 0.023513
0.106660 0.068281 0.030414
0.119629 0.077872 0.037450
0.132938 0.087721 0.044618
0.146573 0.097819 0.051916
0.160520 0.108160 0.059340
0.174765 0.118734 0.066889
0.189293 0.129535 0.074559
0.204090 0.140554 0.082348
0.219142 0.151785 0.090254
0.234436 0.163220 0.098272
0.249956 0.174850 0.106402
0.265688 0.186668 0.114640
0.086214 0.053164 0.019195
0.098596 0.062318 0.026010
0.111341 0.071742 0.032960
0.124435 0.081428 0.040045
0.137865 0.091369 0.047260
0.151615 0.101556 0.054604
0.165672 0.111983 0.062074
0.180022 0.122640 0.069667
0.194649 0.133522 0.077381
0.209541 0.144619 0.085213
0.224683 0.155925 0.093160
0.240060 0.167431 0.101219
0.255659 0.179131 0.109389
0.271466 0.191016 0.117666
0.287465 0.203078 0.126047
0.303644 0.215311 0.134531
0.319987 0.227706 0.143113
0.129287 0.085018 0.042656
0.142835 0.095050 0.049919
0.156698 0.105325 0.057309
0.170863 0.115836 0.064825
0.185316 0.126576 0.072462
0.200041 0.137537 0.080219
0.215026 0.148711 0.088093
0.230255 0.160091 0.096081
0.245715 0.171669 0.104181
0.261391 0.183437 0.112390
0.277269 0.195387 0.120705
0.293335 0.207513 0.129124
0.309576 0.219805 0.137644
0.325975 0.232257 0.146262
0.342521 0.244861 0.154976
0.359197 0.257609 0.163783
0.375991 0.270494 0.172680
0.176092 0.119720 0.067591
0.190646 0.130542 0.075272
0.205467 0.141581 0.083072
0.220542 0.152831 0.090988
0.235857 0.164284 0.099017
0.251397 0.175932 0.107157
0.267149 0.187767 0.115405
0.283097 0.199782 0.123758
0.299228 0.211969 0.132214
0.315528 0.224320 0.140770
0.331983 0.236829 0.149424
0.348577 0.249486 0.158172
0.365298 0.262284 0.167012
0.382131 0.275217 0.175941
0.399061 0.288275 0.184958
0.416075 0.301452 0.194058
0.433159 0.314739 0.203240
0.226091 0.156978 0.093898
0.241489 0.168502 0.101968
0.257108 0.180219 0.110148
0.272933 0.192121 0.118434
0.288950 0.204199 0.126825
0.305144 0.216447 0.135318
0.321502 0.228856 0.143909
0.338009 0.241420 0.152598
0.354651 0.254129 0.161379
0.371414 0.266978 0.170253
0.388284 0.279957 0.179214
0.405247 0.293059 0.188261
0.422288 0.306277 0.197392
0.439393 0.319603 0.206603
0.456548 0.333029 0.215891
0.473739 0.346547 0.225255
0.490951 0.360151 0.234692
0.278743 0.196498 0.121477
0.294825 0.208639 0.129905
0.311081 0.220946 0.138434
0.327495 0.233413 0.147061
0.344053 0.246030 0.155784
0.360741 0.258791 0.164599
0.377544 0.271688 0.173505
0.394450 0.284713 0.182498
0.411442 0.297858 0.191576
0.428508 0.311116 0.200736
0.445633 0.324479 0.209975
0.462803 0.337940 0.219292
0.480003 0.351490 0.228682
0.497220 0.365123 0.238145
0.514439 0.378830 0.247676
0.531647 0.392603 0.257273
0.548828 0.406436 0.266934
0.333507 0.237989 0.150226
0.350114 0.250660 0.158983
0.366846 0.263471 0.167831
0.383688 0.276415 0.176769
0.400627 0.289485 0.185793
0.417648 0.302672 0.194901
0.434737 0.315970 0.204091
0.451880 0.329369 0.213358
0.469062 0.342863 0.222702
0.486270 0.356444 0.232119
0.503490 0.370105 0.241607
0.520706 0.383837 0.251162
0.537906 0.397633 0.260783
0.555074 0.411485 0.270466
0.572197 0.425386 0.280210
0.589260 0.439328 0.290010
0.606249 0.453302 0.299866
0.389844 0.281160 0.180045
0.406815 0.294273 0.189100
0.423862 0.307501 0.198238
0.440972 0.320836 0.207456
0.458131 0.334271 0.216752
0.475325 0.347798 0.226122
0.492539 0.361409 0.235565
0.509759 0.375096 0.245078
0.526971 0.388852 0.254657
0.544160 0.402670 0.264301
0.561314 0.416541 0.274007
0.578416 0.430457 0.283771
0.595454 0.444412 0.293592
0.612413 0.458397 0.303467
0.629279 0.472405 0.313392
0.646037 0.486428 0.323366
0.662674 0.500458 0.333386
0.447214 0.325716 0.210831
0.464388 0.339186 0.220155
0.481590 0.352744 0.229552
0.498808 0.366384 0.239020
0.516026 0.380097 0.248558
0.533232 0.393876 0.258161
0.550410 0.407714 0.267828
0.567547 0.421602 0.277555
0.584627 0.435534 0.287340
0.601638 0.449500 0.297181
0.618565 0.463495 0.307075
0.635393 0.477509 0.317018
0.652109 0.491535 0.327009
0.668698 0.505567 0.337045
0.685147 0.519595 0.347122
0.701440 0.533612 0.357240
0.717564 0.547611 0.367394
0.505077 0.371368 0.242485
0.522293 0.385106 0.252046
0.539490 0.398908 0.261673
0.556654 0.412765 0.271362
0.573772 0.426670 0.281111
0.590829 0.440615 0.290917
0.607811 0.454592 0.300777
0.624704 0.468595 0.310689
0.641493 0.482614 0.320650
0.658164 0.496644 0.330658
0.674704 0.510675 0.340709
0.691097 0.524700 0.350801
0.707330 0.538711 0.360932
0.723389 0.552702 0.371099
0.739260 0.566664 0.381299
0.754927 0.580589 0.391529
0.770378 0.594470 0.401787
0.562893 0.417822 0.274905
0.579990 0.431742 0.284674
0.597021 0.445700 0.294500
0.613972 0.459688 0.304380
0.630829 0.473697 0.314310
0.647577 0.487721 0.324288
0.664202 0.501752 0.334312
0.680690 0.515782 0.344378
0.697026 0.529803 0.354485
0.713198 0.543808 0.364629
0.729190 0.557789 0.374809
0.744988 0.571738 0.385020
0.760578 0.585648 0.395261
0.775946 0.599511 0.405528
0.791078 0.613319 0.415820
0.805959 0.627065 0.426134
0.820575 0.640740 0.436466
0.620121 0.464786 0.307989
0.636939 0.478802 0.317937
0.653644 0.492829 0.327932
0.670221 0.506860 0.337972
0.686655 0.520888 0.348053
0.702934 0.534904 0.358174
0.719041 0.548901 0.368331
0.734964 0.562871 0.378523
0.750688 0.576807 0.388745
0.766199 0.590701 0.398996
0.781483 0.604544 0.409273
0.796525 0.618331 0.419573
0.811312 0.632052 0.429894
0.825828 0.645700 0.440232
0.840061 0.659268 0.450586
0.853995 0.672748 0.460953
0.867617 0.686132 0.471329
0.676221 0.511968 0.341638
0.692601 0.525992 0.351734
0.708818 0.540002 0.361868
0.724861 0.553990 0.372038
0.740713 0.567949 0.382241
0.756361 0.581870 0.392474
0.771791 0.595747 0.402734
0.786988 0.609571 0.413020
0.801939 0.623334 0.423328
0.816629 0.637030 0.433656
0.831043 0.650650 0.444000
0.845169 0.664187 0.454359
0.858991 0.677632 0.464730
0.872496 0.690979 0.475109
0.885669 0.704220 0.485495
0.898496 0.717347 0.495885
0.910963 0.730352 0.506275
0.730654 0.559076 0.375749
0.746434 0.573022 0.385963
0.762004 0.586928 0.396206
0.777351 0.600786 0.406476
0.792460 0.614589 0.416770
0.807318 0.628329 0.427086
0.821909 0.641998 0.437420
0.836220 0.655588 0.447770
0.850237 0.669093 0.458133
0.863946 0.682503 0.468508
0.877331 0.695813 0.478890
0.890380 0.709013 0.489277
0.903077 0.722096 0.499668
0.915410 0.735055 0.510058
0.927363 0.747882 0.520446
0.938922 0.760569 0.530829
0.950073 0.773109 0.541203
0.782880 0.605818 0.410221
0.797899 0.619599 0.420524
0.812661 0.633313 0.430846
0.827153 0.646955 0.441186
0.841358 0.660515 0.451541
0.855264 0.673986 0.461909
0.868857 0.687361 0.472287
0.882121 0.700631 0.482671
0.895044 0.713790 0.493060
0.907610 0.726829 0.503451
0.919806 0.739741 0.513840
0.931617 0.752518 0.524227
0.943029 0.765152 0.534607
0.954029 0.777636 0.544978
0.964601 0.789962 0.555338
0.974732 0.802123 0.565683
0.984407 0.814110 0.576012
0.832358 0.651901 0.444955
0.846456 0.665430 0.455315
0.860250 0.678867 0.465686
0.873725 0.692205 0.476066
0.886866 0.705435 0.486453
0.899661 0.718551 0.496843
0.912094 0.731545 0.507233
0.924151 0.744408 0.517622
0.935819 0.757134 0.528006
0.947082 0.769715 0.538384
0.957928 0.782142 0.548751
0.968341 0.794409 0.559106
0.978307 0.806507 0.569446
0.987813 0.818429 0.579768
0.996844 0.830168 0.590069
1.000000 0.841715 0.600347
1.000000 0.853063 0.610600
0.878548 0.697034 0.479847
0.891565 0.710224 0.490235
0.904230 0.723296 0.500626
0.916528 0.736244 0.511016
0.928445 0.749058 0.521403
0.939967 0.761732 0.531785
0.951080 0.774257 0.542159
0.961770 0.786627 0.552522
0.972022 0.798833 0.562872
0.981822 0.810868 0.573206
0.991157 0.822725 0.583520
1.000000 0.834394 0.593814
1.000000 0.845870 0.604083
1.000000 0.857143 0.614326
1.000000 0.868207 0.624539
1.000000 0.879054 0.634720
1.000000 0.889675 0.644867
0.051122 0.027197 0.000000
0.062318 0.035489 0.005829
0.073921 0.044073 0.012359
0.085916 0.052943 0.019031
0.098289 0.062091 0.025841
0.111025 0.071509 0.032789
0.124111 0.081188 0.039870
0.137533 0.091123 0.047082
0.151275 0.101304 0.054423
0.165325 0.111725 0.061890
0.179667 0.122377 0.069480
0.194288 0.133253 0.077191
0.209174 0.144345 0.085020
0.224310 0.155646 0.092964
0.239682 0.167148 0.101021
0.255275 0.178843 0.109188
0.271077 0.190723 0.117462
0.090377 0.056242 0.021494
0.102884 0.065489 0.028355
0.115749 0.075003 0.035351
0.128959 0.084776 0.042480
