Fotico/Resources/LUTs/sepia.cube
# Sepia
LUT_3D_SIZE 9
0.040147 0.019058 0.000000
0.062104 0.035330 0.005708
0.085687 0.052774 0.018904
0.110782 0.071329 0.032657
0.137277 0.090934 0.046945
0.165058 0.111527 0.061748
0.194011 0.133046 0.077045
0.224023 0.155432 0.092814
0.254980 0.178621 0.109033
0.120272 0.078348 0.037798
0.147248 0.098320 0.052276
0.175469 0.119257 0.067261
0.204820 0.141099 0.082732
0.235190 0.163784 0.098668
0.266463 0.187251 0.115046
0.298527 0.211438 0.131846
0.331268 0.236284 0.149047
0.364572 0.261728 0.166627
0.215765 0.149263 0.088481
0.246476 0.172240 0.104580
0.278051 0.195976 0.121115
0.310374 0.220411 0.138063
0.343333 0.245481 0.155405
0.376815 0.271127 0.173118
0.410705 0.297287 0.191181
0.444891 0.323899 0.209574
0.479259 0.350902 0.228275
0.322306 0.229467 0.144332
0.355468 0.254755 0.161811
0.389112 0.280595 0.179655
0.423123 0.306926 0.197840
0.457388 0.333688 0.216348
0.491793 0.360818 0.235155
0.526226 0.388256 0.254241
0.560572 0.415939 0.273586
0.594718 0.443807 0.293166
0.435574 0.316623 0.204542
0.469903 0.343526 0.223161
0.504332 0.370775 0.242073
0.538746 0.398309 0.261255
0.573033 0.426067 0.280688
0.607078 0.453987 0.300349
0.640768 0.482007 0.320218
0.673991 0.510068 0.340273
0.706631 0.538106 0.360493
0.551249 0.408392 0.268302
0.585461 0.436216 0.287820
0.619391 0.464180 0.307560
0.652924 0.492222 0.327499
0.685947 0.520281 0.347616
0.718348 0.548296 0.367891
0.750012 0.576205 0.388302
0.780826 0.603946 0.408828
0.810677 0.631460 0.429447
0.665011 0.502438 0.334803
0.697821 0.530488 0.354981
0.729967 0.558472 0.375307
0.761335 0.586327 0.395762
0.791812 0.613993 0.416324
0.821283 0.641408 0.436972
0.849637 0.668510 0.457685
0.876759 0.695239 0.478440
0.902535 0.721533 0.499218
0.772540 0.596424 0.403237
0.802663 0.624006 0.423833
0.831741 0.651314 0.444507
0.859660 0.678288 0.465237
0.886305 0.704865 0.486003
0.911564 0.730985 0.506784
0.935322 0.756587 0.527557
0.957467 0.781608 0.548303
0.977886 0.805987 0.568998
0.869514 0.688013 0.472794
0.895667 0.714431 0.493568
0.920393 0.740369 0.514349
0.943577 0.765766 0.535114
0.965107 0.790561 0.555844
0.984868 0.814692 0.576517
1.000000 0.838097 0.597111
1.000000 0.860715 0.617605
1.000000 0.882486 0.637979
0.047414 0.024449 0.000000
0.069936 0.041126 0.010126
0.094045 0.058954 0.023513
0.119629 0.077872 0.037450
0.146573 0.097819 0.051916
0.174765 0.118734 0.066889
0.204090 0.140554 0.082348
0.234436 0.163220 0.098272
0.265688 0.186668 0.114640
0.129287 0.085018 0.042656
0.156698 0.105325 0.057309
0.185316 0.126576 0.072462
0.215026 0.148711 0.088093
0.245715 0.171669 0.104181
0.277269 0.195387 0.120705
0.309576 0.219805 0.137644
0.342521 0.244861 0.154976
0.375991 0.270494 0.172680
0.226091 0.156978 0.093898
0.257108 0.180219 0.110148
0.288950 0.204199 0.126825
0.321502 0.228856 0.143909
0.354651 0.254129 0.161379
0.388284 0.279957 0.179214
0.422288 0.306277 0.197392
0.456548 0.333029 0.215891
0.490951 0.360151 0.234692
0.333507 0.237989 0.150226
0.366846 0.263471 0.167831
0.400627 0.289485 0.185793
0.434737 0.315970 0.204091
0.469062 0.342863 0.222702
0.503490 0.370105 0.241607
0.537906 0.397633 0.260783
0.572197 0.425386 0.280210
0.606249 0.453302 0.299866
0.447214 0.325716 0.210831
0.481590 0.352744 0.229552
0.516026 0.380097 0.248558
0.550410 0.407714 0.267828
0.584627 0.435534 0.287340
0.618565 0.463495 0.307075
0.652109 0.491535 0.327009
0.685147 0.519595 0.347122
0.717564 0.547611 0.367394
0.562893 0.417822 0.274905
0.597021 0.445700 0.294500
0.630829 0.473697 0.314310
0.664202 0.501752 0.334312
0.697026 0.529803 0.354485
0.729190 0.557789 0.374809
0.760578 0.585648 0.395261
0.791078 0.613319 0.415820
0.820575 0.640740 0.436466
0.676221 0.511968 0.341638
0.708818 0.540002 0.361868
0.740713 0.567949 0.382241
0.771791 0.595747 0.402734
0.801939 0.623334 0.423328
0.831043 0.650650 0.444000
0.858991 0.677632 0.464730
0.885669 0.704220 0.485495
0.910963 0.730352 0.506275
0.782880 0.605818 0.410221
0.812661 0.633313 0.430846
0.841358 0.660515 0.451541
0.868857 0.687361 0.472287
0.895044 0.713790 0.493060
0.919806 0.739741 0.513840
0.943029 0.765152 0.534607
0.964601 0.789962 0.555338
0.984407 0.814110 0.576012
0.878548 0.697034 0.479847
0.904230 0.723296 0.500626
0.928445 0.749058 0.521403
0.951080 0.774257 0.542159
0.972022 0.798833 0.562872
0.991157 0.822725 0.583520
1.000000 0.845870 0.604083
1.000000 0.868207 0.624539
1.000000 0.889675 0.644867
0.054878 0.029980 0.001596
0.077951 0.047054 0.014609
0.102574 0.065259 0.028185
0.128632 0.084534 0.042304
0.156013 0.104817 0.056945
0.184602 0.126046 0.072086
0.214287 0.148160 0.087705
0.244953 0.171098 0.103782
0.276488 0.194799 0.120296
0.138453 0.091805 0.047575
0.166287 0.112439 0.062400
0.195288 0.133998 0.077718
0.225344 0.156419 0.093506
0.256339 0.179642 0.109745
0.288162 0.203604 0.126412
0.320698 0.228246 0.143487
0.353834 0.253504 0.160948
0.387457 0.279319 0.178774
0.236525 0.164784 0.099367
0.267835 0.188283 0.115764
0.299930 0.212500 0.132582
0.332698 0.237373 0.149800
0.366024 0.262841 0.167396
0.399796 0.288843 0.185350
0.433899 0.315317 0.203639
0.468221 0.342201 0.222243
0.502647 0.369435 0.241141
0.344772 0.246580 0.156164
0.378274 0.272249 0.173892
0.412179 0.298430 0.191971
0.446375 0.325060 0.210377
0.480748 0.352079 0.229090
0.515184 0.379424 0.248090
0.549571 0.407036 0.267353
0.583793 0.434851 0.286860
0.617739 0.462809 0.306589
0.458875 0.334855 0.217155
0.493284 0.362000 0.235975
0.527715 0.389449 0.255073
0.562055 0.417142 0.274428
0.596190 0.445016 0.294018
0.630006 0.473012 0.313823
0.663391 0.501066 0.333821
0.696231 0.529117 0.353990
0.728412 0.557105 0.374310
0.574512 0.427272 0.281534
0.608544 0.455198 0.301205
0.642217 0.483221 0.321082
0.675416 0.511282 0.341145
0.708029 0.539317 0.361371
0.739942 0.567267 0.381741
0.771041 0.595069 0.402232
0.801213 0.622662 0.422823
0.830345 0.649985 0.443494
0.687363 0.521495 0.348491
0.719734 0.549506 0.368772
0.751364 0.577409 0.389188
0.782139 0.605142 0.409718
0.811946 0.632644 0.430341
0.840670 0.659854 0.451035
0.868199 0.686709 0.471779
0.894420 0.713149 0.492552
0.919218 0.739112 0.513332
0.793109 0.615185 0.417216
0.822534 0.642587 0.437867
0.850837 0.669675 0.458582
0.877903 0.696386 0.479339
0.903619 0.722660 0.500117
0.927871 0.748434 0.520895
0.950546 0.773648 0.541652
0.971531 0.798240 0.562366
0.990711 0.822149 0.583016
0.887427 0.706005 0.486902
0.912624 0.732104 0.507683
0.936315 0.757682 0.528456
0.958387 0.782676 0.549199
0.978728 0.807027 0.569893
0.997224 0.830671 0.590514
1.000000 0.853549 0.611043
1.000000 0.875598 0.631458
1.000000 0.896758 0.651737
0.062533 0.035648 0.005951
0.086145 0.053113 0.019157
0.111268 0.071688 0.032921
0.137788 0.091312 0.047219
0.165592 0.111923 0.062032
0.194566 0.133460 0.077337
0.224597 0.155861 0.093115
0.255571 0.179064 0.109343
0.287374 0.203010 0.126000
0.147768 0.098705 0.052553
0.176011 0.119660 0.067548
0.205383 0.141518 0.083028
0.235770 0.164219 0.098972
0.267059 0.187699 0.115358
0.299137 0.211900 0.132166
0.331889 0.236757 0.149374
0.365204 0.262212 0.166962
0.398966 0.288201 0.184907
0.247063 0.172680 0.104887
0.278652 0.196430 0.121430
0.310989 0.220877 0.138386
0.343959 0.245959 0.155735
0.377449 0.271615 0.173454
0.411346 0.297784 0.191524
0.445536 0.324404 0.209923
0.479906 0.351414 0.228629
0.514342 0.378752 0.247622
0.356097 0.255236 0.162144
0.389749 0.281086 0.179994
0.423766 0.307426 0.198186
0.458034 0.334195 0.216699
0.492441 0.361332 0.235512
0.526873 0.388775 0.254603
0.561217 0.416462 0.273952
0.595358 0.444333 0.293537
0.629184 0.472326 0.313336
0.470551 0.344035 0.223514
0.504980 0.371291 0.242431
0.539393 0.398830 0.261619
0.573676 0.426591 0.281056
0.607715 0.454513 0.300721
0.641398 0.482535 0.320594
0.674611 0.510595 0.340652
0.707239 0.538632 0.360875
0.739171 0.566585 0.381241
0.586103 0.436741 0.288190
0.620025 0.464707 0.307933
0.653550 0.492750 0.327876
0.686563 0.520809 0.347996
0.718951 0.548822 0.368274
0.750600 0.576728 0.388687
0.781397 0.604466 0.409215
0.811229 0.631975 0.429835
0.839981 0.659192 0.450528
0.698433 0.531016 0.355362
0.730565 0.558997 0.375691
0.761917 0.586849 0.396148
0.792376 0.614511 0.416712
0.821828 0.641921 0.437361
0.850159 0.669017 0.458075
0.877257 0.695738 0.478831
0.903007 0.722023 0.499609
0.927296 0.747810 0.520387
0.803221 0.624522 0.424221
0.832278 0.651825 0.444896
0.860173 0.678791 0.465628
0.886793 0.705361 0.486394
0.912025 0.731472 0.507175
0.935754 0.757063 0.527948
0.957868 0.782072 0.548692
0.978252 0.806439 0.569387
0.996794 0.830102 0.590011
0.896146 0.714923 0.493959
0.920844 0.740852 0.514739
0.943998 0.766239 0.535505
0.965495 0.791021 0.556234
0.985222 0.815139 0.576905
1.000000 0.838530 0.597497
1.000000 0.861133 0.617990
1.000000 0.882887 0.638361
1.000000 0.903730 0.658590
0.070375 0.041451 0.010372
0.094513 0.059300 0.023770
0.120123 0.078238 0.037717
0.147092 0.098204 0.052193
0.175306 0.119136 0.067175
0.204652 0.140973 0.082644
0.235016 0.163654 0.098576
0.266284 0.187116 0.114952
0.298344 0.211300 0.131750
0.157226 0.105716 0.057590
0.185865 0.126985 0.072752
0.215594 0.149136 0.088391
0.246301 0.172108 0.104488
0.277870 0.195840 0.121020
0.310190 0.220271 0.137966
0.343146 0.245338 0.155306
0.376625 0.270981 0.173017
0.410513 0.297138 0.191078
0.257700 0.180664 0.110457
0.289556 0.204657 0.127143
0.322120 0.229326 0.144235
0.355280 0.254610 0.161712
0.388921 0.280447 0.179553
0.422930 0.306776 0.197737
0.457194 0.333536 0.216242
0.491599 0.360664 0.235048
0.526032 0.388100 0.254133
0.367477 0.263956 0.168166
0.401266 0.289979 0.186134
0.435381 0.316472 0.204438
0.469709 0.343373 0.223055
0.504138 0.370620 0.241965
0.538552 0.398153 0.261146
0.572840 0.425910 0.280578
0.606887 0.453829 0.300238
0.640580 0.481849 0.320105
0.482238 0.353256 0.229907
0.516674 0.380614 0.248918
0.551056 0.408236 0.268193
0.585269 0.436059 0.287710
0.619200 0.464022 0.307448
0.652736 0.492063 0.327386
0.685763 0.520123 0.347502
0.718167 0.548138 0.367776
0.749836 0.576048 0.388186
0.597661 0.446226 0.294871
0.631461 0.474225 0.314684
0.664825 0.502280 0.334690
0.697638 0.530330 0.354866
0.729788 0.558314 0.375192
0.761160 0.586170 0.395647
0.791642 0.613837 0.416208
0.821120 0.641254 0.436856
0.849480 0.668358 0.457568
0.709425 0.540529 0.362250
0.741305 0.568474 0.382625
0.772367 0.596268 0.403121
0.802496 0.623851 0.423716
0.831580 0.651161 0.444390
0.859505 0.678136 0.465120
0.886158 0.704716 0.485886
0.911425 0.730839 0.506666
0.935192 0.756444 0.527440
0.813212 0.633828 0.431235
0.841887 0.661024 0.451931
0.869362 0.687862 0.472677
0.895523 0.714283 0.493451
0.920257 0.740224 0.514231
0.943451 0.765625 0.534997
0.964990 0.790423 0.555727
0.984762 0.814557 0.576400
1.000000 0.837967 0.596995
0.904699 0.723786 0.501017
0.928886 0.749537 0.521794
0.951490 0.774726 0.542549
0.972399 0.799289 0.563261
0.991499 0.823167 0.583908
1.000000 0.846297 0.604469
1.000000 0.868619 0.624923
1.000000 0.890071 0.645248
1.000000 0.910591 0.665423
0.078400 0.047386 0.014859
0.103051 0.065612 0.028446
0.129135 0.084907 0.042575
0.156540 0.105207 0.057225
0.185151 0.126454 0.072375
0.214855 0.148584 0.088003
0.245539 0.171537 0.104089
0.277089 0.195251 0.120611
0.309391 0.219665 0.137547
0.166822 0.112836 0.062684
0.195845 0.134412 0.078011
0.225918 0.156849 0.093808
0.256931 0.180086 0.110055
0.288768 0.204062 0.126730
0.321316 0.228715 0.143812
0.354462 0.253985 0.161280
0.388093 0.279809 0.179112
0.422095 0.306127 0.197288
0.268432 0.188732 0.116077
0.300541 0.212962 0.132903
0.333320 0.237847 0.150128
0.366656 0.263326 0.167731
0.400435 0.289337 0.185691
0.434543 0.315819 0.203986
0.468868 0.342710 0.222596
0.503295 0.369950 0.241499
0.537712 0.397477 0.260674
0.378908 0.272737 0.174229
0.412820 0.298927 0.192314
0.447021 0.325565 0.210726
0.481396 0.352590 0.229445
0.515832 0.379942 0.248450
0.550216 0.407557 0.267718
0.584435 0.435376 0.287230
0.618374 0.463336 0.306963
0.651921 0.491377 0.326896
0.493932 0.362514 0.236332
0.528362 0.389968 0.255435
0.562699 0.417665 0.274795
0.596829 0.445542 0.294389
0.630639 0.473539 0.314197
0.664015 0.501594 0.334199
0.696843 0.529645 0.354371
0.729010 0.557631 0.374694
0.760403 0.585491 0.395145
0.609181 0.455724 0.301577
0.642846 0.483749 0.321458
0.676036 0.511810 0.341524
0.708636 0.539844 0.361753
0.740535 0.567792 0.382125
0.771618 0.595590 0.402618
0.801771 0.623179 0.423212
0.830882 0.650497 0.443883
0.858837 0.677481 0.464612
0.720337 0.550032 0.369155
0.751951 0.577933 0.389573
0.782709 0.605662 0.410105
0.812496 0.633159 0.430729
0.841200 0.660362 0.451424
0.868705 0.687211 0.472169
0.894900 0.713642 0.492943
0.919670 0.739596 0.513723
0.942903 0.765010 0.534490
0.823078 0.643100 0.438257
0.851358 0.670181 0.458972
0.878400 0.696885 0.479730
0.904089 0.723149 0.500508
0.928313 0.748914 0.521286
0.950957 0.774117 0.542042
0.971909 0.798696 0.562755
0.991054 0.822592 0.583404
1.000000 0.845741 0.603967
0.913084 0.732591 0.508074
0.936745 0.758158 0.528846
0.958787 0.783141 0.549589
0.979094 0.807478 0.570281
0.997553 0.831109 0.590901
1.000000 0.853972 0.611428
1.000000 0.876005 0.631841
1.000000 0.897147 0.652118
1.000000 0.917337 0.672237
0.086604 0.053452 0.019411
0.111754 0.072048 0.033185
0.138300 0.091691 0.047493
0.166127 0.112320 0.062315
0.195122 0.133873 0.077630
0.225171 0.156290 0.093416
0.256162 0.179508 0.109652
0.287980 0.203467 0.126317
0.320512 0.228105 0.143389
0.176553 0.120063 0.067835
0.205945 0.141938 0.083324
0.236351 0.164653 0.099276
0.267656 0.188148 0.115671
0.299747 0.212361 0.132486
0.332511 0.237231 0.149702
0.365835 0.262696 0.167296
0.399604 0.288695 0.185248
0.433706 0.315166 0.203535
0.279254 0.196884 0.121745
0.311604 0.221343 0.138709
0.344585 0.246436 0.156065
0.378084 0.272103 0.173791
0.411987 0.298281 0.191868
0.446182 0.324909 0.210272
0.480554 0.351925 0.228984
0.514990 0.379269 0.247982
0.549377 0.406879 0.267244
0.390386 0.281577 0.180333
0.424408 0.307926 0.198531
0.458681 0.334703 0.217050
0.493089 0.361846 0.235868
0.527521 0.389293 0.254965
0.561861 0.416985 0.274318
0.595998 0.444859 0.293907
0.629817 0.472853 0.313711
0.663204 0.500907 0.333707
0.505628 0.371806 0.242790
0.540039 0.399350 0.261982
0.574319 0.427115 0.281424
0.608353 0.455040 0.301093
0.642028 0.483063 0.320969
0.675230 0.511123 0.341031
0.707847 0.539159 0.361257
0.739764 0.567110 0.381626
0.770868 0.594913 0.402116
0.620660 0.465234 0.308307
0.654176 0.493278 0.328253
0.687179 0.521336 0.348377
0.719554 0.549348 0.368657
0.751188 0.577252 0.389072
0.781968 0.604986 0.409602
0.811780 0.632490 0.430224
0.840511 0.659701 0.450918
0.868048 0.686559 0.471661
0.731162 0.559523 0.376075
0.762499 0.587372 0.396534
0.792939 0.615029 0.417100
0.822371 0.642433 0.437751
0.850681 0.669523 0.458465
0.877754 0.696237 0.479222
0.903478 0.722513 0.500000
0.927738 0.748290 0.520778
0.950423 0.773507 0.541535
0.832814 0.652335 0.445286
0.860686 0.679295 0.466018
0.887281 0.705857 0.486785
0.912485 0.731958 0.507566
0.936185 0.757539 0.528339
0.958268 0.782537 0.549082
0.978619 0.806891 0.569776
0.997125 0.830540 0.590398
1.000000 0.853422 0.610928
0.921294 0.741335 0.515130
0.944418 0.766711 0.535895
0.965883 0.791481 0.556623
0.985576 0.815586 0.577293
1.000000 0.838963 0.597884
1.000000 0.861550 0.618374
1.000000 0.883288 0.638743
1.000000 0.904113 0.658969
1.000000 0.923966 0.679031
0.094982 0.059646 0.024027
0.120619 0.078605 0.037985
0.147612 0.098589 0.052470
0.175848 0.119539 0.067462
0.205214 0.141392 0.082939
0.235596 0.164088 0.098880
0.266880 0.187565 0.115264
0.298954 0.211761 0.132070
0.331703 0.236615 0.149276
0.186414 0.127394 0.073042
0.216163 0.149561 0.088690
0.246887 0.172548 0.104795
0.278472 0.196294 0.121335
0.310804 0.220737 0.138289
0.343771 0.245815 0.155636
0.377259 0.271469 0.173353
0.411154 0.297635 0.191421
0.445343 0.324252 0.209818
0.290162 0.205115 0.127461
0.322739 0.229797 0.144560
0.355909 0.255092 0.162044
0.389558 0.280939 0.179892
0.423573 0.307276 0.198082
0.457840 0.334043 0.216593
0.492247 0.361178 0.235405
0.526679 0.388619 0.254495
0.561023 0.416305 0.273842
0.401905 0.290474 0.186476
0.436025 0.316975 0.204785
0.470356 0.343882 0.223408
0.504786 0.371136 0.242324
0.539199 0.398673 0.261510
0.573483 0.426434 0.280945
0.607524 0.454355 0.300610
0.641209 0.482377 0.320481
0.674425 0.510437 0.340538
0.517322 0.381132 0.249278
0.551701 0.408757 0.268558
0.585910 0.436584 0.288079
0.619835 0.464549 0.307821
0.653362 0.492591 0.327763
0.686378 0.520650 0.347882
0.718770 0.548664 0.368159
0.750424 0.576571 0.388572
0.781226 0.604310 0.409099
0.632093 0.474752 0.315059
0.665447 0.502808 0.335068
0.698249 0.530858 0.355247
0.730386 0.558840 0.375576
0.761742 0.586693 0.396033
0.792207 0.614356 0.416596
0.821664 0.641767 0.437245
0.850002 0.668865 0.457958
0.877107 0.695588 0.478714
0.741898 0.568998 0.383010
0.772943 0.596789 0.403508
0.803054 0.624367 0.424105
0.832117 0.651672 0.444779
0.860019 0.678640 0.465510
0.886647 0.705212 0.486277
0.911886 0.731326 0.507057
0.935625 0.756920 0.527831
0.957748 0.781933 0.548576
0.842415 0.661532 0.452321
0.869867 0.688363 0.473068
0.896002 0.714776 0.493842
0.920708 0.740707 0.514622
0.943872 0.766097 0.535388
0.965379 0.790883 0.556117
0.985116 0.815005 0.576788
1.000000 0.838400 0.597382
1.000000 0.861008 0.617875
0.929326 0.750017 0.522185
0.951899 0.775194 0.542940
0.972775 0.799745 0.563650
0.991840 0.823609 0.584296
1.000000 0.846725 0.604855
1.000000 0.869031 0.625306
1.000000 0.890466 0.645629
1.000000 0.910967 0.665801
1.000000 0.930475 0.685803
0.103529 0.065966 0.028707
0.129639 0.085279 0.042846
0.157067 0.105599 0.057506
0.185700 0.126862 0.072665
0.215424 0.149009 0.088302
0.246125 0.171976 0.104396
0.277690 0.195704 0.120926
0.310006 0.220131 0.137870
0.342958 0.245195 0.155207
0.196401 0.134826 0.078303
0.226494 0.157279 0.094109
0.257522 0.180530 0.110364
0.289374 0.204520 0.127047
0.321935 0.229185 0.144137
0.355091 0.254466 0.161612
0.388730 0.280300 0.179451
0.422737 0.306627 0.197633
0.457000 0.333384 0.216137
0.301152 0.213424 0.133223
0.333943 0.238321 0.150456
0.367288 0.263810 0.168066
0.401074 0.289831 0.186032
0.435188 0.316321 0.204334
0.469515 0.343220 0.222949
0.503943 0.370466 0.241858
0.538358 0.397997 0.261037
0.572647 0.425753 0.280467
0.413462 0.299424 0.192657
0.447666 0.326070 0.211076
0.482043 0.353102 0.229800
0.516480 0.380459 0.248810
0.550862 0.408079 0.268083
0.585076 0.435901 0.287599
0.619009 0.463863 0.307336
0.652548 0.491905 0.327273
0.685578 0.519964 0.347388
0.529009 0.390487 0.255797
0.563344 0.418188 0.275161
0.597469 0.446068 0.294760
0.631271 0.474066 0.314572
0.664638 0.502122 0.334577
0.697455 0.530172 0.354752
0.729608 0.558157 0.375077
0.760986 0.586014 0.395531
0.791473 0.613682 0.416092
0.643475 0.484277 0.321834
0.676655 0.512338 0.341903
0.709243 0.540371 0.362135
0.741128 0.568316 0.382510
0.772194 0.596112 0.403005
0.802329 0.623696 0.423600
0.831419 0.651007 0.444273
0.859351 0.677985 0.465003
0.886012 0.704568 0.485769
0.752538 0.578456 0.389959
0.783279 0.606182 0.410492
0.813047 0.633674 0.431118
0.841728 0.660871 0.451814
0.869211 0.687712 0.472560
0.895380 0.714135 0.493334
0.920122 0.740079 0.514114
0.943324 0.765483 0.534880
0.964873 0.790285 0.555610
0.851879 0.670687 0.459363
0.878896 0.697383 0.480121
0.904559 0.723639 0.500899
0.928753 0.749393 0.521677
0.951367 0.774585 0.542432
0.972286 0.799153 0.563144
0.991396 0.823034 0.583792
1.000000 0.846169 0.604353
1.000000 0.868496 0.624808
0.937175 0.758633 0.529237
0.959185 0.783605 0.549979
0.979458 0.807930 0.570670
0.997882 0.831547 0.591289
1.000000 0.854394 0.611814
1.000000 0.876411 0.632224
1.000000 0.897536 0.652498
1.000000 0.917707 0.672614
1.000000 0.936863 0.692552
