Fotico/Resources/LUTs/sf_dusk.cube
TITLE "Dusk"
LUT_3D_SIZE 9
DOMAIN_MIN 0.0 0.0 0.0
DOMAIN_MAX 1.0 1.0 1.0
0.115528 0.111252 0.227787
0.173776 0.116187 0.231187
0.238378 0.121685 0.234510
0.305463 0.127417 0.237535
0.374160 0.133306 0.240266
0.444074 0.139317 0.242756
0.514997 0.145424 0.245082
0.586811 0.151614 0.247337
0.659459 0.157876 0.249624
0.129256 0.187444 0.238364
0.186777 0.192378 0.240594
0.250716 0.197876 0.242852
0.317276 0.203608 0.245033
0.385610 0.209498 0.247180
0.455338 0.215508 0.249370
0.526262 0.221616 0.251699
0.598274 0.227806 0.254271
0.671322 0.234067 0.257203
0.141735 0.269009 0.246122
0.198981 0.273944 0.247910
0.262773 0.279441 0.249930
0.329355 0.285173 0.252148
0.397902 0.291063 0.254637
0.468045 0.297073 0.257494
0.539594 0.303181 0.260827
0.612450 0.309371 0.264756
0.686566 0.315632 0.269407
0.154235 0.352733 0.253586
0.211740 0.357668 0.255792
0.275983 0.363166 0.258538
0.343219 0.368898 0.261807
0.412631 0.374788 0.265687
0.483859 0.380798 0.270288
0.556720 0.386905 0.275732
0.630847 0.393095 0.281703
0.705828 0.399357 0.287744
0.168860 0.437892 0.264253
0.227193 0.442827 0.267789
0.292523 0.448324 0.272283
0.361054 0.454056 0.277633
0.431586 0.459946 0.283315
0.503558 0.465956 0.289113
0.576699 0.472064 0.295005
0.650825 0.478254 0.300977
0.725807 0.484515 0.307017
0.187716 0.524133 0.281558
0.246811 0.529068 0.286318
0.312644 0.534565 0.291622
0.381287 0.540297 0.297152
0.451819 0.546187 0.302834
0.523791 0.552197 0.308631
0.596931 0.558305 0.314524
0.671058 0.564495 0.320495
0.746039 0.570756 0.326535
0.208153 0.611246 0.301274
0.267248 0.616181 0.306034
0.333082 0.621678 0.311338
0.401724 0.627410 0.316867
0.472256 0.633300 0.322549
0.544228 0.639310 0.328347
0.617368 0.645418 0.334239
0.691495 0.651608 0.340211
0.766476 0.657869 0.346251
0.228762 0.699092 0.321155
0.287857 0.704027 0.325916
0.353691 0.709524 0.331219
0.422333 0.715256 0.336749
0.492865 0.721146 0.342431
0.564837 0.727156 0.348229
0.637977 0.733264 0.354121
0.712104 0.739454 0.360093
0.787085 0.745715 0.366133
0.249519 0.787569 0.341180
0.308614 0.792504 0.345941
0.374448 0.798002 0.351244
0.443090 0.803734 0.356774
0.513622 0.809624 0.362456
0.585594 0.815634 0.368254
0.658735 0.821741 0.374146
0.732861 0.827931 0.380117
0.807843 0.834193 0.386158
0.117401 0.113474 0.298632
0.175534 0.118409 0.301847
0.240026 0.123906 0.304993
0.307017 0.129638 0.307868
0.375639 0.135528 0.310478
0.445500 0.141538 0.312883
0.516392 0.147646 0.315159
0.588201 0.153836 0.317404
0.660866 0.160097 0.319721
0.130786 0.189665 0.308657
0.188248 0.194600 0.310793
0.252141 0.200098 0.312976
0.318672 0.205830 0.315111
0.386999 0.211719 0.317247
0.456742 0.217729 0.319462
0.527706 0.223837 0.321854
0.599783 0.230027 0.324530
0.672921 0.236288 0.327607
0.143125 0.271230 0.316190
0.200373 0.276165 0.317981
0.264185 0.281663 0.320034
0.330809 0.287395 0.322319
0.399421 0.293285 0.324913
0.469653 0.299295 0.327913
0.541316 0.305402 0.331430
0.614313 0.311592 0.335585
0.688596 0.317854 0.340503
0.155724 0.354955 0.323815
0.213294 0.359890 0.326123
0.277627 0.365387 0.329013
0.344977 0.371119 0.332465
0.414527 0.377009 0.336569
0.485920 0.383019 0.341435
0.558942 0.389127 0.347137
0.633068 0.395317 0.353108
0.708050 0.401578 0.359149
0.170705 0.440114 0.335053
0.229165 0.445048 0.338792
0.294655 0.450546 0.343543
0.363276 0.456278 0.349038
0.433808 0.462168 0.354720
0.505780 0.468178 0.360518
0.578920 0.474285 0.366410
0.653047 0.480475 0.372382
0.728028 0.486737 0.378422
0.189938 0.526354 0.352963
0.249032 0.531289 0.357724
0.314866 0.536787 0.363027
0.383508 0.542519 0.368557
0.454041 0.548409 0.374239
0.526012 0.554419 0.380037
0.599153 0.560526 0.385929
0.673279 0.566716 0.391900
0.748261 0.572978 0.397941
0.210375 0.613468 0.372679
0.269469 0.618403 0.377440
0.335303 0.623900 0.382743
0.403945 0.629632 0.388273
0.474478 0.635522 0.393955
0.546450 0.641532 0.399753
0.619590 0.647640 0.405645
0.693717 0.653830 0.411616
0.768698 0.660091 0.417657
0.230984 0.701314 0.392561
0.290078 0.706248 0.397321
0.355912 0.711746 0.402625
0.424554 0.717478 0.408154
0.495087 0.723368 0.413836
0.567059 0.729378 0.419634
0.640199 0.735485 0.425526
0.714326 0.741675 0.431498
0.789307 0.747937 0.437538
0.251741 0.789791 0.412585
0.310836 0.794726 0.417346
0.376669 0.800223 0.422649
0.445312 0.805955 0.428179
0.515844 0.811845 0.433861
0.587816 0.817855 0.439659
0.660956 0.823963 0.445551
0.735083 0.830153 0.451522
0.810064 0.836414 0.457563
0.119098 0.115544 0.364573
0.177130 0.120479 0.367625
0.241527 0.125976 0.370618
0.308437 0.131708 0.373363
0.376998 0.137598 0.375875
0.446817 0.143608 0.378211
0.517688 0.149716 0.380455
0.589499 0.155906 0.382703
0.662189 0.162167 0.385060
0.132186 0.191736 0.374121
0.189600 0.196670 0.376179
0.253456 0.202168 0.378302
0.319968 0.207900 0.380407
0.388296 0.213790 0.382544
0.458062 0.219800 0.384795
0.529070 0.225907 0.387259
0.601214 0.232097 0.390044
0.674445 0.238359 0.393269
0.144419 0.273301 0.381483
0.201675 0.278235 0.383286
0.265513 0.283733 0.385381
0.332184 0.289465 0.387741
0.400864 0.295355 0.390444
0.471186 0.301365 0.393590
0.542964 0.307472 0.397292
0.616099 0.313662 0.401669
0.690546 0.319924 0.406851
0.157137 0.357025 0.389297
0.214772 0.361960 0.391712
0.279195 0.367457 0.394747
0.346659 0.373190 0.398382
0.416347 0.379079 0.402706
0.487901 0.385089 0.407832
0.561012 0.391197 0.413678
0.635139 0.397387 0.419649
0.710120 0.403648 0.425689
0.172474 0.442184 0.401108
0.231058 0.447119 0.405049
0.296704 0.452616 0.410049
0.365346 0.458348 0.415579
0.435878 0.464238 0.421261
0.507850 0.470248 0.427059
0.580991 0.476356 0.432951
0.655117 0.482546 0.438923
0.730098 0.488807 0.444963
0.192008 0.528425 0.419504
0.251103 0.533359 0.424264
0.316936 0.538857 0.429568
0.385578 0.544589 0.435097
0.456111 0.550479 0.440779
0.528083 0.556489 0.446577
0.601223 0.562596 0.452469
0.675350 0.568786 0.458441
0.750331 0.575048 0.464481
0.212445 0.615538 0.439220
0.271540 0.620473 0.443980
0.337373 0.625970 0.449284
0.406016 0.631702 0.454813
0.476548 0.637592 0.460495
0.548520 0.643602 0.466293
0.621660 0.649710 0.472185
0.695787 0.655900 0.478157
0.770768 0.662161 0.484197
0.233054 0.703384 0.459101
0.292149 0.708318 0.463862
0.357982 0.713816 0.469165
0.426625 0.719548 0.474695
0.497157 0.725438 0.480377
0.569129 0.731448 0.486175
0.642269 0.737556 0.492067
0.716396 0.743746 0.498038
0.791377 0.750007 0.504079
0.253811 0.791861 0.479126
0.312906 0.796796 0.483886
0.378740 0.802293 0.489190
0.447382 0.808026 0.494720
0.517914 0.813915 0.500402
0.589886 0.819925 0.506200
0.663027 0.826033 0.512092
0.737153 0.832223 0.518063
0.812134 0.838484 0.524103
0.120709 0.117561 0.428740
0.178648 0.122496 0.431644
0.242959 0.127993 0.434498
0.309798 0.133725 0.437129
0.378305 0.139615 0.439554
0.448090 0.145625 0.441836
0.518949 0.151733 0.444060
0.590768 0.157923 0.446322
0.663491 0.164184 0.448731
0.133529 0.193752 0.437858
0.190902 0.198687 0.439850
0.254729 0.204184 0.441926
0.321229 0.209916 0.444012
0.389564 0.215806 0.446161
0.459359 0.221816 0.448458
0.530417 0.227924 0.451004
0.602636 0.234114 0.453907
0.675963 0.240375 0.457288
0.145681 0.275317 0.445090
0.202951 0.280252 0.446915
0.266821 0.285750 0.449061
0.333544 0.291482 0.451505
0.402297 0.297371 0.454326
0.472715 0.303382 0.457626
0.544611 0.309489 0.461518
0.617889 0.315679 0.466125
0.692503 0.321941 0.471574
0.158537 0.359042 0.453127
0.216242 0.363977 0.455654
0.280760 0.369474 0.458842
0.348342 0.375206 0.462665
0.418170 0.381096 0.467216
0.489888 0.387106 0.472606
0.563029 0.393214 0.478498
0.637155 0.399404 0.484469
0.712137 0.405665 0.490510
0.174245 0.444200 0.465535
0.232957 0.449135 0.469680
0.298720 0.454633 0.474870
0.367363 0.460365 0.480399
0.437895 0.466255 0.486081
0.509867 0.472265 0.491879
0.583007 0.478372 0.497771
0.657134 0.484562 0.503743
0.732115 0.490824 0.509783
0.194025 0.530441 0.484324
0.253119 0.535376 0.489085
0.318953 0.540874 0.494388
0.387595 0.546606 0.499918
0.458127 0.552495 0.505600
0.530099 0.558506 0.511398
0.603240 0.564613 0.517290
0.677366 0.570803 0.523261
0.752348 0.577065 0.529302
0.214462 0.617555 0.504040
0.273556 0.622489 0.508800
0.339390 0.627987 0.514104
0.408032 0.633719 0.519634
0.478565 0.639609 0.525316
0.550537 0.645619 0.531114
0.623677 0.651727 0.537006
0.697804 0.657917 0.542977
0.772785 0.664178 0.549017
0.235071 0.705400 0.523921
0.294165 0.710335 0.528682
0.359999 0.715833 0.533985
0.428641 0.721565 0.539515
0.499174 0.727455 0.545197
0.571146 0.733465 0.550995
0.644286 0.739572 0.556887
0.718413 0.745762 0.562859
0.793394 0.752024 0.568899
0.255828 0.793878 0.543946
0.314923 0.798813 0.548707
0.380756 0.804310 0.554010
0.449399 0.810042 0.559540
0.519931 0.815932 0.565222
0.591903 0.821942 0.571020
0.665043 0.828050 0.576912
0.739170 0.834240 0.582883
0.814151 0.840501 0.588924
0.122254 0.119544 0.491765
0.180108 0.124478 0.494531
0.244340 0.129976 0.497259
0.311115 0.135708 0.499787
0.379577 0.141598 0.502139
0.449336 0.147608 0.504379
0.520189 0.153715 0.506593
0.592024 0.159905 0.508881
0.664786 0.166167 0.511353
0.134832 0.195735 0.500492
0.192169 0.200670 0.502427
0.255973 0.206167 0.504467
0.322469 0.211899 0.506545
0.390818 0.217789 0.508718
0.460648 0.223799 0.511071
0.531764 0.229907 0.513708
0.604062 0.236097 0.516739
0.677492 0.242358 0.520285
0.146926 0.277300 0.507630
0.204214 0.282235 0.509487
0.268122 0.287732 0.511694
0.334903 0.293464 0.514230
0.403734 0.299354 0.517178
0.474253 0.305364 0.520640
0.546274 0.311472 0.524731
0.619698 0.317662 0.529574
0.694477 0.323923 0.535289
0.159940 0.361025 0.515923
0.217720 0.365959 0.518570
0.282338 0.371457 0.521918
0.350041 0.377189 0.525937
0.420014 0.383079 0.530721
0.491871 0.389089 0.536333
0.565011 0.395196 0.542226
0.639138 0.401386 0.548197
0.714119 0.407648 0.554237
0.176036 0.446183 0.528954
0.234879 0.451118 0.533309
0.300703 0.456615 0.538597
0.369345 0.462347 0.544127
0.439878 0.468237 0.549809
0.511850 0.474247 0.555607
0.584990 0.480355 0.561499
0.659117 0.486545 0.567471
0.734098 0.492806 0.573511
0.196007 0.532424 0.548052
0.255102 0.537359 0.552812
0.320936 0.542856 0.558116
0.389578 0.548588 0.563645
0.460110 0.554478 0.569327
0.532082 0.560488 0.575125
0.605222 0.566596 0.581017
0.679349 0.572786 0.586989
0.754330 0.579047 0.593029
0.216444 0.619537 0.567768
0.275539 0.624472 0.572528
0.341373 0.629970 0.577832
0.410015 0.635702 0.583361
0.480547 0.641592 0.589043
0.552519 0.647602 0.594841
0.625660 0.653709 0.600733
0.699786 0.659899 0.606705
0.774768 0.666161 0.612745
0.237053 0.707383 0.587649
0.296148 0.712318 0.592410
0.361982 0.717815 0.597713
0.430624 0.723547 0.603243
0.501156 0.729437 0.608925
0.573128 0.735447 0.614723
0.646269 0.741555 0.620615
0.720395 0.747745 0.626586
0.795377 0.754006 0.632627
0.257811 0.795861 0.607674
0.316905 0.800795 0.612434
0.382739 0.806293 0.617738
0.451381 0.812025 0.623268
0.521914 0.817915 0.628950
0.593886 0.823925 0.634747
0.667026 0.830032 0.640640
0.741152 0.836222 0.646611
0.816134 0.842484 0.652651
0.123744 0.121501 0.553941
0.181520 0.126436 0.556580
0.245680 0.131934 0.559193
0.312399 0.137666 0.561630
0.380822 0.143555 0.563920
0.450561 0.149566 0.566129
0.521416 0.155673 0.568346
0.593274 0.161863 0.570671
0.666081 0.168125 0.573214
0.136102 0.197693 0.562314
0.193411 0.202627 0.564203
0.257199 0.208125 0.566217
0.323695 0.213857 0.568297
0.392066 0.219747 0.570503
0.461937 0.225757 0.572923
0.533116 0.231865 0.575661
0.605499 0.238055 0.578830
0.679037 0.244316 0.582550
0.148161 0.279258 0.569395
0.205474 0.284193 0.571291
0.269424 0.289690 0.573567
0.336268 0.295422 0.576206
0.405185 0.301312 0.579289
0.475810 0.307322 0.582922
0.547959 0.313430 0.587220
0.621536 0.319620 0.592308
0.696435 0.325881 0.598216
0.161354 0.362982 0.577975
0.219213 0.367917 0.580749
0.283934 0.373415 0.584264
0.351764 0.379147 0.588488
0.421887 0.385037 0.593512
0.493829 0.391047 0.599261
0.566969 0.397154 0.605153
0.641096 0.403344 0.611125
0.716077 0.409606 0.617165
0.177854 0.448141 0.591657
0.236827 0.453076 0.596221
0.302661 0.458573 0.601525
0.371303 0.464305 0.607054
0.441835 0.470195 0.612736
0.513807 0.476205 0.618534
0.586948 0.482313 0.624426
0.661074 0.488503 0.630398
0.736056 0.494764 0.636438
0.197965 0.534382 0.610979
0.257060 0.539317 0.615740
0.322893 0.544814 0.621043
0.391536 0.550546 0.626573
0.462068 0.556436 0.632255
0.534040 0.562446 0.638053
0.607180 0.568554 0.643945
0.681307 0.574744 0.649916
0.756288 0.581005 0.655957
0.218402 0.621495 0.630695
0.277497 0.626430 0.635456
0.343331 0.631927 0.640759
0.411973 0.637660 0.646289
0.482505 0.643549 0.651971
0.554477 0.649559 0.657769
0.627617 0.655667 0.663661
0.701744 0.661857 0.669632
0.776725 0.668118 0.675673
0.239011 0.709341 0.650577
0.298106 0.714276 0.655337
0.363940 0.719773 0.660641
0.432582 0.725505 0.666170
0.503114 0.731395 0.671852
0.575086 0.737405 0.677650
0.648227 0.743513 0.683542
0.722353 0.749703 0.689514
0.797334 0.755964 0.695554
0.259768 0.797818 0.670601
0.318863 0.802753 0.675362
0.384697 0.808251 0.680665
0.453339 0.813983 0.686195
0.523871 0.819873 0.691877
0.595843 0.825883 0.697675
0.668984 0.831990 0.703567
0.743110 0.838180 0.709539
0.818092 0.844442 0.715579
0.125187 0.123440 0.615442
0.182890 0.128374 0.617964
0.246986 0.133872 0.620473
0.313655 0.139604 0.622831
0.382046 0.145494 0.625069
0.451773 0.151504 0.627258
0.522635 0.157611 0.629487
0.594523 0.163801 0.631859
0.667381 0.170063 0.634486
0.137347 0.199631 0.623496
0.194632 0.204566 0.625347
0.258410 0.210063 0.627346
0.324915 0.215795 0.629438
0.393312 0.221685 0.631687
0.463231 0.227695 0.634184
0.534478 0.233803 0.637033
0.606952 0.239993 0.640348
0.680605 0.246254 0.644251
0.149391 0.281196 0.630554
0.206733 0.286131 0.632497
0.270733 0.291628 0.634852
0.337646 0.297360 0.637601
0.406652 0.303250 0.640830
0.477389 0.309260 0.644642
0.549673 0.315368 0.649156
0.623407 0.321558 0.654497
0.698373 0.327819 0.660513
0.162782 0.364921 0.639452
0.220725 0.369855 0.642360
0.285555 0.375353 0.646052
0.353517 0.381085 0.650487
0.423795 0.386975 0.655760
0.495767 0.392985 0.661558
0.568907 0.399093 0.667450
0.643034 0.405282 0.673422
0.718015 0.411544 0.679462
0.179705 0.450079 0.653814
0.238765 0.455014 0.658518
0.304599 0.460511 0.663822
0.373241 0.466243 0.669351
0.443774 0.472133 0.675033
0.515746 0.478143 0.680831
0.588886 0.484251 0.686723
0.663013 0.490441 0.692695
0.737994 0.496702 0.698735
0.199903 0.536320 0.673276
0.258998 0.541255 0.678037
0.324832 0.546752 0.683340
0.393474 0.552484 0.688870
0.464006 0.558374 0.694552
0.535978 0.564384 0.700350
0.609118 0.570492 0.706242
0.683245 0.576682 0.712213
0.758226 0.582943 0.718254
0.220340 0.623433 0.692992
0.279435 0.628368 0.697753
0.345269 0.633866 0.703056
0.413911 0.639598 0.708586
0.484443 0.645488 0.714268
0.556415 0.651498 0.720066
0.629556 0.657605 0.725958
0.703682 0.663795 0.731929
0.778664 0.670057 0.737970
0.240949 0.711279 0.712874
0.300044 0.716214 0.717634
0.365878 0.721711 0.722938
0.434520 0.727443 0.728467
0.505052 0.733333 0.734149
0.577024 0.739343 0.739947
0.650165 0.745451 0.745839
0.724291 0.751641 0.751811
0.799273 0.757902 0.757851
0.261707 0.799757 0.732898
0.320801 0.804691 0.737659
0.386635 0.810189 0.742962
0.455277 0.815921 0.748492
0.525810 0.821811 0.754174
0.597782 0.827821 0.759972
0.670922 0.833928 0.765864
0.745048 0.840118 0.771836
0.820030 0.846380 0.777876
0.126589 0.125362 0.676382
0.184225 0.130296 0.678797
0.248262 0.135794 0.681212
0.314888 0.141526 0.683500
0.383253 0.147416 0.685698
0.452975 0.153426 0.687877
0.523852 0.159533 0.690130
0.595775 0.165723 0.692559
0.668691 0.171985 0.695278
0.138570 0.201553 0.684151
0.195838 0.206488 0.685973
0.259612 0.211985 0.687966
0.326130 0.217717 0.690080
0.394561 0.223607 0.692382
0.464533 0.229617 0.694965
0.535855 0.235725 0.697934
0.608427 0.241915 0.701405
0.682199 0.248176 0.705501
0.150621 0.283118 0.691219
0.207998 0.288053 0.693218
0.272052 0.293550 0.695660
0.339039 0.299282 0.698529
0.408141 0.305172 0.701910
0.478995 0.311182 0.705912
0.551419 0.317290 0.710651
0.625314 0.323480 0.716250
0.700295 0.329741 0.722291
0.164229 0.366843 0.700467
0.222260 0.371777 0.703517
0.287205 0.377275 0.707391
0.355304 0.383007 0.712047
0.425717 0.388897 0.717538
0.497689 0.394907 0.723336
0.570829 0.401015 0.729228
0.644956 0.407205 0.735199
0.719937 0.413466 0.741240
0.181593 0.452001 0.715536
0.240687 0.456936 0.720296
0.306521 0.462433 0.725599
0.375163 0.468165 0.731129
0.445696 0.474055 0.736811
0.517668 0.480065 0.742609
0.590808 0.486173 0.748501
0.664935 0.492363 0.754473
0.739916 0.498624 0.760513
0.201825 0.538242 0.735054
0.260920 0.543177 0.739814
0.326754 0.548674 0.745118
0.395396 0.554406 0.750647
0.465928 0.560296 0.756329
0.537900 0.566306 0.762127
0.611041 0.572414 0.768019
0.685167 0.578604 0.773991
0.760148 0.584865 0.780031
0.222262 0.625355 0.754770
0.281357 0.630290 0.759530
0.347191 0.635788 0.764834
0.415833 0.641520 0.770363
0.486365 0.647410 0.776045
0.558337 0.653420 0.781843
0.631478 0.659527 0.787735
0.705604 0.665717 0.793707
0.780586 0.671979 0.799747
0.242871 0.713201 0.774651
0.301966 0.718136 0.779412
0.367800 0.723633 0.784715
0.436442 0.729365 0.790245
0.506974 0.735255 0.795927
0.578946 0.741265 0.801725
0.652087 0.747373 0.807617
0.726213 0.753563 0.813589
0.801195 0.759824 0.819629
0.263629 0.801679 0.794676
0.322723 0.806613 0.799436
0.388557 0.812111 0.804740
0.457199 0.817843 0.810270
0.527732 0.823733 0.815952
0.599704 0.829743 0.821750
0.672844 0.835851 0.827642
0.746971 0.842041 0.833613
0.821952 0.848302 0.839654
0.127953 0.127270 0.736843
0.185528 0.132205 0.739160
0.249513 0.137702 0.741491
0.316102 0.143434 0.743720
0.384449 0.149324 0.745888
0.454170 0.155334 0.748068
0.525068 0.161442 0.750353
0.597033 0.167632 0.752850
0.670013 0.173893 0.755672
0.139777 0.203461 0.744359
0.197032 0.208396 0.746161
0.260808 0.213894 0.748156
0.327346 0.219626 0.750302
0.395815 0.225515 0.752668
0.465847 0.231525 0.755346
0.537250 0.237633 0.758445
0.609924 0.243823 0.762081
0.683822 0.250084 0.766379
0.151854 0.285026 0.751469
0.209270 0.289961 0.753531
0.273384 0.295459 0.756070
0.340451 0.301191 0.759067
0.409654 0.307081 0.762611
0.480631 0.313091 0.766810
0.553200 0.319198 0.771782
0.627222 0.325388 0.777587
0.702203 0.331650 0.783627
0.165699 0.368751 0.761097
0.223822 0.373686 0.764296
0.288887 0.379183 0.768363
0.357127 0.384915 0.773247
0.427625 0.390805 0.778874
0.499597 0.396815 0.784672
0.572738 0.402923 0.790564
0.646864 0.409113 0.796535
0.721846 0.415374 0.802576
0.183501 0.453910 0.776872
0.242596 0.458844 0.781632
0.308429 0.464342 0.786936
0.377072 0.470074 0.792465
0.447604 0.475964 0.798147
0.519576 0.481974 0.803945
0.592716 0.488081 0.809837
0.666843 0.494271 0.815809
0.741824 0.500533 0.821849
0.203734 0.540150 0.796390
0.262828 0.545085 0.801151
0.328662 0.550583 0.806454
0.397304 0.556315 0.811984
0.467837 0.562205 0.817666
0.539808 0.568215 0.823464
0.612949 0.574322 0.829356
0.687075 0.580512 0.835327
0.762057 0.586774 0.841368
0.224171 0.627264 0.816106
0.283265 0.632199 0.820867
0.349099 0.637696 0.826170
0.417741 0.643428 0.831700
0.488274 0.649318 0.837382
0.560246 0.655328 0.843180
0.633386 0.661436 0.849072
0.707513 0.667626 0.855043
0.782494 0.673887 0.861084
0.244780 0.715109 0.835988
0.303874 0.720044 0.840748
0.369708 0.725542 0.846052
0.438350 0.731274 0.851581
0.508883 0.737164 0.857263
0.580855 0.743174 0.863061
0.653995 0.749281 0.868953
0.728122 0.755471 0.874925
0.803103 0.761733 0.880965
0.265537 0.803587 0.856012
0.324632 0.808522 0.860773
0.390465 0.814019 0.866076
0.459108 0.819751 0.871606
0.529640 0.825641 0.877288
0.601612 0.831651 0.883086
0.674752 0.837759 0.888978
0.748879 0.843949 0.894949
0.823860 0.850210 0.900990
