Fotico/Resources/LUTs/sf_dusk.cube
TITLE "Dusk"
LUT_3D_SIZE 5
DOMAIN_MIN 0.0 0.0 0.0
DOMAIN_MAX 1.0 1.0 1.0
0.115528 0.111252 0.227787
0.238378 0.121685 0.234510
0.374160 0.133306 0.240266
0.514997 0.145424 0.245082
0.659459 0.157876 0.249624
0.141735 0.269009 0.246122
0.262773 0.279441 0.249930
0.397902 0.291063 0.254637
0.539594 0.303181 0.260827
0.686566 0.315632 0.269407
0.168860 0.437892 0.264253
0.292523 0.448324 0.272283
0.431586 0.459946 0.283315
0.576699 0.472064 0.295005
0.725807 0.484515 0.307017
0.208153 0.611246 0.301274
0.333082 0.621678 0.311338
0.472256 0.633300 0.322549
0.617368 0.645418 0.334239
0.766476 0.657869 0.346251
0.249519 0.787569 0.341180
0.374448 0.798002 0.351244
0.513622 0.809624 0.362456
0.658735 0.821741 0.374146
0.807843 0.834193 0.386158
0.119098 0.115544 0.364573
0.241527 0.125976 0.370618
0.376998 0.137598 0.375875
0.517688 0.149716 0.380455
0.662189 0.162167 0.385060
0.144419 0.273301 0.381483
0.265513 0.283733 0.385381
0.400864 0.295355 0.390444
0.542964 0.307472 0.397292
0.690546 0.319924 0.406851
0.172474 0.442184 0.401108
0.296704 0.452616 0.410049
0.435878 0.464238 0.421261
0.580991 0.476356 0.432951
0.730098 0.488807 0.444963
0.212445 0.615538 0.439220
0.337373 0.625970 0.449284
0.476548 0.637592 0.460495
0.621660 0.649710 0.472185
0.770768 0.662161 0.484197
0.253811 0.791861 0.479126
0.378740 0.802293 0.489190
0.517914 0.813915 0.500402
0.663027 0.826033 0.512092
0.812134 0.838484 0.524103
0.122254 0.119544 0.491765
0.244340 0.129976 0.497259
0.379577 0.141598 0.502139
0.520189 0.153715 0.506593
0.664786 0.166167 0.511353
0.146926 0.277300 0.507630
0.268122 0.287732 0.511694
0.403734 0.299354 0.517178
0.546274 0.311472 0.524731
0.694477 0.323923 0.535289
0.176036 0.446183 0.528954
0.300703 0.456615 0.538597
0.439878 0.468237 0.549809
0.584990 0.480355 0.561499
0.734098 0.492806 0.573511
0.216444 0.619537 0.567768
0.341373 0.629970 0.577832
0.480547 0.641592 0.589043
0.625660 0.653709 0.600733
0.774768 0.666161 0.612745
0.257811 0.795861 0.607674
0.382739 0.806293 0.617738
0.521914 0.817915 0.628950
0.667026 0.830032 0.640640
0.816134 0.842484 0.652651
0.125187 0.123440 0.615442
0.246986 0.133872 0.620473
0.382046 0.145494 0.625069
0.522635 0.157611 0.629487
0.667381 0.170063 0.634486
0.149391 0.281196 0.630554
0.270733 0.291628 0.634852
0.406652 0.303250 0.640830
0.549673 0.315368 0.649156
0.698373 0.327819 0.660513
0.179705 0.450079 0.653814
0.304599 0.460511 0.663822
0.443774 0.472133 0.675033
0.588886 0.484251 0.686723
0.737994 0.496702 0.698735
0.220340 0.623433 0.692992
0.345269 0.633866 0.703056
0.484443 0.645488 0.714268
0.629556 0.657605 0.725958
0.778664 0.670057 0.737970
0.261707 0.799757 0.732898
0.386635 0.810189 0.742962
0.525810 0.821811 0.754174
0.670922 0.833928 0.765864
0.820030 0.846380 0.777876
0.127953 0.127270 0.736843
0.249513 0.137702 0.741491
0.384449 0.149324 0.745888
0.525068 0.161442 0.750353
0.670013 0.173893 0.755672
0.151854 0.285026 0.751469
0.273384 0.295459 0.756070
0.409654 0.307081 0.762611
0.553200 0.319198 0.771782
0.702203 0.331650 0.783627
0.183501 0.453910 0.776872
0.308429 0.464342 0.786936
0.447604 0.475964 0.798147
0.592716 0.488081 0.809837
0.741824 0.500533 0.821849
0.224171 0.627264 0.816106
0.349099 0.637696 0.826170
0.488274 0.649318 0.837382
0.633386 0.661436 0.849072
0.782494 0.673887 0.861084
0.265537 0.803587 0.856012
0.390465 0.814019 0.866076
0.529640 0.825641 0.877288
0.674752 0.837759 0.888978
0.823860 0.850210 0.900990
