Fotico/Resources/LUTs/sf_dusk.cube
TITLE "Dusk"
LUT_3D_SIZE 33
DOMAIN_MIN 0.0 0.0 0.0
DOMAIN_MAX 1.0 1.0 1.0
0.115528 0.111252 0.227787
0.128584 0.112357 0.228585
0.143114 0.113587 0.229448
0.158246 0.114869 0.230320
0.173776 0.116187 0.231187
0.189605 0.117532 0.232042
0.205674 0.118898 0.232882
0.221941 0.120284 0.233706
0.238378 0.121685 0.234510
0.254964 0.123100 0.235296
0.271682 0.124527 0.236061
0.288519 0.125967 0.236808
0.305463 0.127417 0.237535
0.322506 0.128876 0.238244
0.339641 0.130345 0.238935
0.356860 0.131822 0.239609
0.374160 0.133306 0.240266
0.391535 0.134799 0.240909
0.408981 0.136298 0.241537
0.426495 0.137804 0.242152
0.444074 0.139317 0.242756
0.461716 0.140835 0.243350
0.479418 0.142359 0.243934
0.497179 0.143889 0.244511
0.514997 0.145424 0.245082
0.532870 0.146964 0.245648
0.550797 0.148510 0.246212
0.568778 0.150060 0.246774
0.586811 0.151614 0.247337
0.604897 0.153173 0.247901
0.623033 0.154736 0.248469
0.641221 0.156304 0.249043
0.659459 0.157876 0.249624
0.118999 0.129025 0.230687
0.132006 0.130129 0.231405
0.146482 0.131359 0.232182
0.161560 0.132641 0.232967
0.177037 0.133959 0.233748
0.192814 0.135304 0.234520
0.208831 0.136671 0.235278
0.225049 0.138056 0.236022
0.241439 0.139457 0.236750
0.257980 0.140872 0.237463
0.274654 0.142300 0.238158
0.291449 0.143739 0.238838
0.308354 0.145189 0.239503
0.325360 0.146648 0.240152
0.342460 0.148117 0.240788
0.359648 0.149594 0.241410
0.376918 0.151079 0.242020
0.394266 0.152571 0.242618
0.411687 0.154070 0.243207
0.429179 0.155576 0.243787
0.446739 0.157089 0.244360
0.464365 0.158607 0.244927
0.482053 0.160131 0.245489
0.499802 0.161661 0.246048
0.517612 0.163196 0.246605
0.535479 0.164737 0.247163
0.553404 0.166282 0.247722
0.571385 0.167832 0.248285
0.589422 0.169386 0.248852
0.607513 0.170945 0.249426
0.625659 0.172509 0.250009
0.643858 0.174076 0.250602
0.662111 0.175648 0.251207
0.122517 0.148050 0.233472
0.135477 0.149155 0.234114
0.149902 0.150385 0.234810
0.164929 0.151667 0.235514
0.180357 0.152985 0.236215
0.196085 0.154330 0.236909
0.212056 0.155697 0.237592
0.228229 0.157082 0.238264
0.244576 0.158483 0.238923
0.261075 0.159898 0.239569
0.277711 0.161326 0.240203
0.294470 0.162765 0.240824
0.311341 0.164215 0.241434
0.328316 0.165674 0.242033
0.345387 0.167143 0.242622
0.362548 0.168620 0.243202
0.379795 0.170104 0.243774
0.397122 0.171597 0.244339
0.414525 0.173096 0.244899
0.432002 0.174602 0.245455
0.449550 0.176115 0.246008
0.467166 0.177633 0.246560
0.484848 0.179157 0.247112
0.502594 0.180687 0.247665
0.520403 0.182222 0.248222
0.538273 0.183762 0.248784
0.556204 0.185308 0.249352
0.574193 0.186858 0.249929
0.592242 0.188412 0.250516
0.610348 0.189971 0.251114
0.628512 0.191534 0.251727
0.646733 0.193102 0.252354
0.665011 0.194674 0.252999
0.125940 0.167580 0.236030
0.138858 0.168684 0.236605
0.153239 0.169914 0.237230
0.168222 0.171197 0.237862
0.183607 0.172515 0.238494
0.199294 0.173859 0.239120
0.215224 0.175226 0.239739
0.231359 0.176611 0.240350
0.247670 0.178012 0.240951
0.264136 0.179427 0.241544
0.280741 0.180855 0.242127
0.297471 0.182294 0.242703
0.314316 0.183744 0.243271
0.331267 0.185204 0.243832
0.348317 0.186672 0.244387
0.365461 0.188149 0.244938
0.382692 0.189634 0.245486
0.400007 0.191126 0.246031
0.417401 0.192626 0.246576
0.434871 0.194132 0.247121
0.452415 0.195644 0.247669
0.470031 0.197162 0.248219
0.487715 0.198687 0.248775
0.505467 0.200216 0.249338
0.523285 0.201752 0.249909
0.541167 0.203292 0.250490
0.559112 0.204837 0.251083
0.577121 0.206387 0.251689
0.595191 0.207942 0.252310
0.613322 0.209501 0.252949
0.631514 0.211064 0.253606
0.649766 0.212631 0.254284
0.668079 0.214203 0.254985
0.129256 0.187444 0.238364
0.142139 0.188548 0.238883
0.156482 0.189778 0.239446
0.171428 0.191061 0.240020
0.186777 0.192378 0.240594
0.202430 0.193723 0.241165
0.218328 0.195090 0.241733
0.234433 0.196475 0.242295
0.250716 0.197876 0.242852
0.267157 0.199291 0.243404
0.283739 0.200719 0.243950
0.300448 0.202158 0.244493
0.317276 0.203608 0.245033
0.334212 0.205067 0.245570
0.351251 0.206536 0.246106
0.368385 0.208013 0.246643
0.385610 0.209498 0.247180
0.402921 0.210990 0.247720
0.420315 0.212489 0.248264
0.437788 0.213996 0.248814
0.455338 0.215508 0.249370
0.472962 0.217026 0.249936
0.490659 0.218551 0.250511
0.508426 0.220080 0.251098
0.526262 0.221616 0.251699
0.544166 0.223156 0.252315
0.562136 0.224701 0.252947
0.580173 0.226251 0.253599
0.598274 0.227806 0.254271
0.616440 0.229365 0.254966
0.634671 0.230928 0.255685
0.652965 0.232495 0.256430
0.671322 0.234067 0.257203
0.132473 0.207560 0.240501
0.145327 0.208664 0.240973
0.159640 0.209894 0.241488
0.174557 0.211177 0.242014
0.189877 0.212495 0.242544
0.205504 0.213840 0.243074
0.221379 0.215206 0.243603
0.237462 0.216591 0.244131
0.253727 0.217992 0.244657
0.270151 0.219407 0.245182
0.286718 0.220835 0.245706
0.303417 0.222275 0.246231
0.320236 0.223724 0.246756
0.337166 0.225184 0.247285
0.354202 0.226652 0.247816
0.371336 0.228129 0.248353
0.388564 0.229614 0.248895
0.405881 0.231107 0.249445
0.423285 0.232606 0.250004
0.440770 0.234112 0.250573
0.458336 0.235624 0.251155
0.475978 0.237143 0.251750
0.493697 0.238667 0.252361
0.511489 0.240197 0.252988
0.529354 0.241732 0.253635
0.547289 0.243272 0.254302
0.565295 0.244817 0.254991
0.583370 0.246367 0.255705
0.601514 0.247922 0.256444
0.619725 0.249481 0.257212
0.638004 0.251044 0.258009
0.656350 0.252612 0.258838
0.674764 0.254183 0.259701
0.135609 0.227880 0.242477
0.148441 0.228984 0.242914
0.162732 0.230214 0.243393
0.177627 0.231497 0.243885
0.192928 0.232815 0.244383
0.208538 0.234160 0.244885
0.224397 0.235526 0.245390
0.240468 0.236911 0.245897
0.256722 0.238312 0.246407
0.273138 0.239727 0.246919
0.289701 0.241155 0.247436
0.306397 0.242594 0.247957
0.323217 0.244044 0.248485
0.340152 0.245504 0.249019
0.357194 0.246972 0.249561
0.374338 0.248449 0.250113
0.391579 0.249934 0.250676
0.408912 0.251426 0.251252
0.426334 0.252926 0.251842
0.443842 0.254432 0.252447
0.461433 0.255944 0.253069
0.479105 0.257463 0.253711
0.496855 0.258987 0.254373
0.514683 0.260517 0.255058
0.532586 0.262052 0.255766
0.550564 0.263592 0.256501
0.568615 0.265137 0.257264
0.586739 0.266687 0.258056
0.604935 0.268242 0.258880
0.623203 0.269801 0.259738
0.641541 0.271364 0.260631
0.659951 0.272932 0.261561
0.678431 0.274503 0.262531
0.138687 0.248371 0.244335
0.151505 0.249475 0.244748
0.165781 0.250705 0.245204
0.180663 0.251988 0.245675
0.195954 0.253306 0.246156
0.211554 0.254650 0.246644
0.227408 0.256017 0.247139
0.243475 0.257402 0.247640
0.259728 0.258803 0.248148
0.276146 0.260218 0.248664
0.292713 0.261646 0.249188
0.309417 0.263085 0.249721
0.326247 0.264535 0.250265
0.343195 0.265995 0.250821
0.360254 0.267463 0.251390
0.377418 0.268940 0.251973
0.394681 0.270425 0.252573
0.412041 0.271917 0.253190
0.429492 0.273417 0.253827
0.447032 0.274923 0.254484
0.464659 0.276435 0.255165
0.482370 0.277953 0.255869
0.500163 0.279478 0.256599
0.518036 0.281007 0.257358
0.535989 0.282543 0.258146
0.554020 0.284083 0.258965
0.572127 0.285628 0.259818
0.590311 0.287178 0.260707
0.608570 0.288733 0.261632
0.626904 0.290292 0.262597
0.645313 0.291855 0.263603
0.663796 0.293422 0.264653
0.682354 0.294994 0.265747
0.141735 0.269009 0.246122
0.154545 0.270113 0.246523
0.168815 0.271343 0.246969
0.183693 0.272626 0.247433
0.198981 0.273944 0.247910
0.214582 0.275288 0.248399
0.230439 0.276655 0.248898
0.246511 0.278040 0.249408
0.262773 0.279441 0.249930
0.279202 0.280856 0.250464
0.295784 0.282284 0.251011
0.312505 0.283723 0.251572
0.329355 0.285173 0.252148
0.346327 0.286633 0.252742
0.363412 0.288101 0.253353
0.380605 0.289578 0.253985
0.397902 0.291063 0.254637
0.415298 0.292555 0.255313
0.432788 0.294055 0.256013
0.450372 0.295561 0.256740
0.468045 0.297073 0.257494
0.485805 0.298592 0.258278
0.503651 0.300116 0.259094
0.521581 0.301646 0.259943
0.539594 0.303181 0.260827
0.557688 0.304721 0.261749
0.575862 0.306266 0.262710
0.594116 0.307816 0.263712
0.612450 0.309371 0.264756
0.630862 0.310930 0.265846
0.649352 0.312493 0.266983
0.667920 0.314061 0.268169
0.686566 0.315632 0.269407
0.144782 0.289777 0.247887
0.157592 0.290881 0.248288
0.171864 0.292111 0.248737
0.186746 0.293394 0.249208
0.202041 0.294711 0.249696
0.217652 0.296056 0.250200
0.233521 0.297423 0.250720
0.249608 0.298808 0.251254
0.265888 0.300209 0.251805
0.282338 0.301624 0.252372
0.298944 0.303052 0.252958
0.315692 0.304491 0.253563
0.332573 0.305941 0.254188
0.349578 0.307400 0.254835
0.366700 0.308869 0.255506
0.383933 0.310346 0.256202
0.401273 0.311831 0.256924
0.418715 0.313323 0.257675
0.436256 0.314822 0.258455
0.453893 0.316329 0.259267
0.471622 0.317841 0.260113
0.489443 0.319359 0.260994
0.507353 0.320884 0.261912
0.525350 0.322413 0.262870
0.543434 0.323949 0.263868
0.561602 0.325489 0.264909
0.579855 0.327034 0.265996
0.598191 0.328584 0.267129
0.616609 0.330139 0.268310
0.635110 0.331698 0.269543
0.653693 0.333261 0.270829
0.672357 0.334828 0.272170
0.691103 0.336400 0.273568
0.147859 0.310660 0.249683
0.160676 0.311765 0.250097
0.174958 0.312995 0.250562
0.189854 0.314277 0.251054
0.205165 0.315595 0.251569
0.220795 0.316940 0.252103
0.236685 0.318307 0.252657
0.252798 0.319692 0.253232
0.269105 0.321093 0.253827
0.285587 0.322508 0.254444
0.302226 0.323936 0.255085
0.319012 0.325375 0.255749
0.335933 0.326825 0.256440
0.352982 0.328284 0.257157
0.370151 0.329753 0.257903
0.387435 0.331230 0.258680
0.404828 0.332715 0.259489
0.422327 0.334207 0.260331
0.439929 0.335706 0.261209
0.457630 0.337212 0.262125
0.475427 0.338725 0.263079
0.493319 0.340243 0.264075
0.511303 0.341767 0.265113
0.529379 0.343297 0.266196
0.547544 0.344832 0.267326
0.565798 0.346373 0.268505
0.584140 0.347918 0.269734
0.602568 0.349468 0.271016
0.621083 0.351022 0.272353
0.639684 0.352581 0.273747
0.658371 0.354145 0.275200
0.677138 0.355712 0.276705
0.695958 0.357284 0.278221
0.150998 0.331649 0.251564
0.163831 0.332753 0.252002
0.178132 0.333983 0.252499
0.193051 0.335266 0.253027
0.208387 0.336584 0.253581
0.224045 0.337929 0.254161
0.239967 0.339295 0.254766
0.256114 0.340680 0.255396
0.272459 0.342081 0.256052
0.288981 0.343496 0.256735
0.305665 0.344924 0.257447
0.322498 0.346364 0.258188
0.339470 0.347813 0.258960
0.356573 0.349273 0.259764
0.373799 0.350741 0.260603
0.391144 0.352218 0.261478
0.408602 0.353703 0.262390
0.426169 0.355196 0.263342
0.443842 0.356695 0.264335
0.461618 0.358201 0.265370
0.479494 0.359713 0.266451
0.497468 0.361232 0.267578
0.515538 0.362756 0.268754
0.533703 0.364286 0.269981
0.551961 0.365821 0.271260
0.570311 0.367361 0.272594
0.588753 0.368906 0.273985
0.607286 0.370456 0.275434
0.625900 0.372011 0.276931
0.644570 0.373570 0.278435
0.663291 0.375133 0.279943
0.682062 0.376701 0.281456
0.700882 0.378272 0.282972
0.154235 0.352733 0.253586
0.167091 0.353838 0.254062
0.181420 0.355068 0.254603
0.196369 0.356350 0.255181
0.211740 0.357668 0.255792
0.227436 0.359013 0.256433
0.243399 0.360380 0.257104
0.259591 0.361765 0.257805
0.275983 0.363166 0.258538
0.292557 0.364581 0.259303
0.309295 0.366009 0.260102
0.326186 0.367448 0.260936
0.343219 0.368898 0.261807
0.360387 0.370357 0.262715
0.377682 0.371826 0.263664
0.395098 0.373303 0.264654
0.412631 0.374788 0.265687
0.430277 0.376280 0.266765
0.448032 0.377779 0.267890
0.465894 0.379285 0.269064
0.483859 0.380798 0.270288
0.501926 0.382316 0.271565
0.520093 0.383840 0.272897
0.538358 0.385370 0.274285
0.556720 0.386905 0.275732
0.575165 0.388446 0.277218
0.593669 0.389991 0.278708
0.612230 0.391541 0.280203
0.630847 0.393095 0.281703
0.649516 0.394654 0.283207
0.668237 0.396218 0.284715
0.687008 0.397785 0.286227
0.705828 0.399357 0.287744
0.157603 0.373906 0.255807
0.170490 0.375010 0.256332
0.184856 0.376240 0.256933
0.199846 0.377523 0.257576
0.215261 0.378841 0.258258
0.231004 0.380186 0.258975
0.247018 0.381552 0.259728
0.263264 0.382937 0.260518
0.279715 0.384338 0.261344
0.296350 0.385753 0.262207
0.313153 0.387181 0.263111
0.330112 0.388620 0.264054
0.347217 0.390070 0.265040
0.364460 0.391530 0.266070
0.381834 0.392998 0.267145
0.399332 0.394475 0.268267
0.416952 0.395960 0.269439
0.434687 0.397452 0.270661
0.452535 0.398952 0.271936
0.470494 0.400458 0.273266
0.488560 0.401970 0.274652
0.506731 0.403489 0.276096
0.524984 0.405013 0.277567
0.543304 0.406543 0.279043
0.561687 0.408078 0.280524
0.580132 0.409618 0.282009
0.598636 0.411163 0.283500
0.617198 0.412713 0.284995
0.635814 0.414268 0.286495
0.654483 0.415827 0.287999
0.673205 0.417390 0.289507
0.691976 0.418958 0.291019
0.710795 0.420529 0.292535
0.161138 0.395160 0.258285
0.174064 0.396264 0.258873
0.188476 0.397494 0.259547
0.203516 0.398777 0.260271
0.218985 0.400095 0.261039
0.234786 0.401440 0.261849
0.250861 0.402806 0.262700
0.267172 0.404191 0.263593
0.283691 0.405592 0.264529
0.300397 0.407008 0.265508
0.317276 0.408435 0.266532
0.334314 0.409875 0.267602
0.351501 0.411324 0.268721
0.368830 0.412784 0.269889
0.386293 0.414252 0.271108
0.403885 0.415729 0.272381
0.421601 0.417214 0.273708
0.439437 0.418707 0.275092
0.457387 0.420206 0.276530
0.475422 0.421712 0.277983
0.493533 0.423224 0.279442
0.511717 0.424743 0.280907
0.529970 0.426267 0.282377
0.548290 0.427797 0.283853
0.566674 0.429332 0.285334
0.585119 0.430872 0.286820
0.603623 0.432417 0.288310
0.622184 0.433967 0.289806
0.640800 0.435522 0.291305
0.659470 0.437081 0.292809
0.678191 0.438644 0.294318
0.696962 0.440212 0.295830
0.715782 0.441783 0.297346
0.164878 0.416490 0.261080
0.177852 0.417595 0.261744
0.192318 0.418825 0.262506
0.207417 0.420107 0.263325
0.222950 0.421425 0.264195
0.238818 0.422770 0.265114
0.254964 0.424137 0.266079
0.271350 0.425522 0.267092
0.287947 0.426923 0.268154
0.304736 0.428338 0.269266
0.321700 0.429766 0.270428
0.338828 0.431205 0.271642
0.356108 0.432655 0.272910
0.373534 0.434114 0.274234
0.391098 0.435583 0.275615
0.408784 0.437060 0.277039
0.426566 0.438545 0.278471
0.444436 0.440037 0.279911
0.462391 0.441536 0.281357
0.480426 0.443042 0.282810
0.498537 0.444555 0.284269
0.516721 0.446073 0.285734
0.534975 0.447597 0.287205
0.553294 0.449127 0.288680
0.571678 0.450662 0.290161
0.590123 0.452202 0.291647
0.608627 0.453748 0.293138
0.627188 0.455298 0.294633
0.645804 0.456852 0.296133
0.664474 0.458411 0.297637
0.683195 0.459975 0.299145
0.701966 0.461542 0.300657
0.720786 0.463114 0.302173
0.168860 0.437892 0.264253
0.181889 0.438996 0.265007
0.196419 0.440226 0.265871
0.211588 0.441509 0.266801
0.227193 0.442827 0.267789
0.243139 0.444172 0.268831
0.259366 0.445538 0.269928
0.275837 0.446923 0.271078
0.292523 0.448324 0.272283
0.309405 0.449739 0.273543
0.326465 0.451167 0.274860
0.343692 0.452606 0.276234
0.361054 0.454056 0.277633
0.378532 0.455516 0.279041
0.396118 0.456984 0.280458
0.413805 0.458461 0.281883
0.431586 0.459946 0.283315
0.449457 0.461438 0.284755
0.467412 0.462938 0.286201
0.485447 0.464444 0.287654
0.503558 0.465956 0.289113
0.521742 0.467475 0.290578
0.539995 0.468999 0.292048
0.558315 0.470529 0.293524
0.576699 0.472064 0.295005
0.595144 0.473604 0.296491
0.613648 0.475149 0.297982
0.632209 0.476699 0.299477
0.650825 0.478254 0.300977
0.669495 0.479813 0.302481
0.688216 0.481376 0.303989
0.706987 0.482944 0.305501
0.725807 0.484515 0.307017
0.173122 0.459361 0.267867
0.186215 0.460465 0.268722
0.200818 0.461695 0.269704
0.216065 0.462977 0.270760
0.231753 0.464295 0.271882
0.247786 0.465640 0.273065
0.264105 0.467007 0.274308
0.280672 0.468392 0.275612
0.297448 0.469793 0.276962
0.314395 0.471208 0.278327
0.331493 0.472636 0.279705
0.348729 0.474075 0.281093
0.366091 0.475525 0.282492
0.383569 0.476984 0.283900
0.401155 0.478453 0.285317
0.418842 0.479930 0.286742
0.436623 0.481415 0.288174
0.454494 0.482907 0.289614
0.472449 0.484406 0.291060
0.490484 0.485912 0.292513
0.508595 0.487425 0.293972
0.526779 0.488943 0.295437
0.545032 0.490467 0.296907
0.563352 0.491997 0.298383
0.581735 0.493532 0.299864
0.600180 0.495073 0.301350
0.618685 0.496618 0.302841
0.637246 0.498168 0.304336
0.655862 0.499722 0.305836
0.674531 0.501281 0.307339
0.693253 0.502845 0.308848
0.712024 0.504412 0.310360
0.730843 0.505984 0.311876
0.177703 0.480892 0.271983
0.190867 0.481997 0.272954
0.205553 0.483227 0.274068
0.220888 0.484509 0.275266
0.236666 0.485827 0.276532
0.252770 0.487172 0.277829
0.269136 0.488539 0.279148
0.285722 0.489924 0.280484
0.302500 0.491325 0.281835
0.319447 0.492740 0.283201
0.336545 0.494168 0.284578
0.353780 0.495607 0.285967
0.371142 0.497057 0.287365
0.388620 0.498516 0.288773
0.406206 0.499985 0.290190
0.423893 0.501462 0.291615
0.441675 0.502946 0.293047
0.459545 0.504439 0.294487
0.477500 0.505938 0.295933
0.495535 0.507444 0.297386
0.513646 0.508957 0.298845
0.531830 0.510475 0.300310
0.550084 0.511999 0.301780
0.568403 0.513529 0.303256
0.586787 0.515064 0.304737
0.605232 0.516604 0.306223
0.623736 0.518150 0.307714
0.642297 0.519700 0.309209
0.660913 0.521254 0.310709
0.679583 0.522813 0.312213
0.698304 0.524377 0.313721
0.717075 0.525944 0.315233
0.735895 0.527516 0.316749
0.182637 0.502484 0.276658
0.195860 0.503588 0.277723
0.210591 0.504818 0.278910
0.225950 0.506101 0.280147
0.241732 0.507419 0.281419
0.257836 0.508764 0.282716
0.274202 0.510130 0.284034
0.290788 0.511515 0.285371
0.307565 0.512916 0.286722
0.324512 0.514332 0.288087
0.341610 0.515759 0.289465
0.358846 0.517199 0.290853
0.376208 0.518648 0.292252
0.393686 0.520108 0.293660
0.411272 0.521576 0.295077
0.428959 0.523053 0.296501
0.446740 0.524538 0.297934
0.464611 0.526031 0.299374
0.482566 0.527530 0.300820
0.500601 0.529036 0.302273
0.518712 0.530548 0.303732
0.536896 0.532067 0.305197
0.555149 0.533591 0.306667
0.573469 0.535121 0.308143
0.591852 0.536656 0.309624
0.610297 0.538196 0.311110
0.628802 0.539741 0.312600
0.647363 0.541291 0.314096
0.665979 0.542846 0.315595
0.684648 0.544405 0.317099
0.703370 0.545968 0.318608
0.722141 0.547536 0.320120
0.740960 0.549107 0.321636
0.187716 0.524133 0.281558
0.200939 0.525237 0.282623
0.215670 0.526467 0.283810
0.231029 0.527750 0.285047
0.246811 0.529068 0.286318
0.262915 0.530412 0.287616
0.279280 0.531779 0.288934
0.295867 0.533164 0.290270
0.312644 0.534565 0.291622
0.329591 0.535980 0.292987
0.346689 0.537408 0.294364
0.363925 0.538847 0.295753
0.381287 0.540297 0.297152
0.398765 0.541757 0.298560
0.416351 0.543225 0.299976
0.434037 0.544702 0.301401
0.451819 0.546187 0.302834
0.469690 0.547679 0.304273
0.487645 0.549179 0.305720
0.505680 0.550685 0.307172
0.523791 0.552197 0.308631
0.541975 0.553715 0.310096
0.560228 0.555240 0.311567
0.578548 0.556770 0.313043
0.596931 0.558305 0.314524
0.615376 0.559845 0.316009
0.633880 0.561390 0.317500
0.652442 0.562940 0.318995
0.671058 0.564495 0.320495
0.689727 0.566054 0.321999
0.708448 0.567617 0.323507
0.727220 0.569184 0.325019
0.746039 0.570756 0.326535
0.192808 0.545836 0.286470
0.206030 0.546940 0.287535
0.220761 0.548170 0.288722
0.236120 0.549453 0.289959
0.251902 0.550771 0.291230
0.268006 0.552115 0.292528
0.284372 0.553482 0.293846
0.300958 0.554867 0.295182
0.317736 0.556268 0.296534
0.334683 0.557683 0.297899
0.351781 0.559111 0.299276
0.369016 0.560550 0.300665
0.386378 0.562000 0.302063
0.403856 0.563460 0.303471
0.421442 0.564928 0.304888
0.439129 0.566405 0.306313
0.456911 0.567890 0.307745
0.474781 0.569382 0.309185
0.492736 0.570882 0.310631
0.510771 0.572388 0.312084
0.528883 0.573900 0.313543
0.547066 0.575418 0.315008
0.565320 0.576943 0.316479
0.583639 0.578472 0.317954
0.602023 0.580008 0.319435
0.620468 0.581548 0.320921
0.638972 0.583093 0.322412
0.657533 0.584643 0.323907
0.676149 0.586198 0.325407
0.694819 0.587757 0.326911
0.713540 0.589320 0.328419
0.732311 0.590887 0.329931
0.751131 0.592459 0.331447
0.197911 0.567590 0.291393
0.211134 0.568695 0.292459
0.225865 0.569925 0.293645
0.241224 0.571207 0.294883
0.257006 0.572525 0.296154
0.273110 0.573870 0.297451
0.289476 0.575237 0.298770
0.306062 0.576622 0.300106
0.322840 0.578023 0.301457
0.339786 0.579438 0.302823
0.356884 0.580866 0.304200
0.374120 0.582305 0.305588
0.391482 0.583755 0.306987
0.408960 0.585214 0.308395
0.426546 0.586683 0.309812
0.444233 0.588160 0.311237
0.462014 0.589645 0.312669
0.479885 0.591137 0.314109
0.497840 0.592636 0.315555
0.515875 0.594142 0.317008
0.533986 0.595655 0.318467
0.552170 0.597173 0.319932
0.570423 0.598697 0.321402
0.588743 0.600227 0.322878
0.607127 0.601762 0.324359
0.625572 0.603302 0.325845
0.644076 0.604848 0.327336
0.662637 0.606398 0.328831
0.681253 0.607952 0.330331
0.699923 0.609511 0.331835
0.718644 0.611075 0.333343
0.737415 0.612642 0.334855
0.756235 0.614214 0.336371
0.203027 0.589395 0.296328
0.216250 0.590499 0.297393
0.230980 0.591729 0.298580
0.246339 0.593011 0.299817
0.262121 0.594329 0.301089
0.278226 0.595674 0.302386
0.294591 0.597041 0.303704
0.311177 0.598426 0.305041
0.327955 0.599827 0.306392
0.344902 0.601242 0.307757
0.362000 0.602670 0.309135
0.379236 0.604109 0.310523
0.396597 0.605559 0.311922
0.414075 0.607018 0.313330
0.431661 0.608487 0.314747
0.449348 0.609964 0.316171
0.467130 0.611449 0.317604
0.485000 0.612941 0.319043
0.502955 0.614440 0.320490
0.520990 0.615946 0.321943
0.539102 0.617459 0.323402
0.557285 0.618977 0.324867
0.575539 0.620501 0.326337
0.593858 0.622031 0.327813
0.612242 0.623566 0.329294
0.630687 0.625107 0.330780
0.649191 0.626652 0.332270
0.667752 0.628202 0.333766
0.686369 0.629756 0.335265
0.705038 0.631315 0.336769
0.723759 0.632879 0.338278
0.742530 0.634446 0.339790
0.761350 0.636018 0.341306
0.208153 0.611246 0.301274
0.221376 0.612350 0.302339
0.236107 0.613581 0.303526
0.251466 0.614863 0.304763
0.267248 0.616181 0.306034
0.283352 0.617526 0.307332
0.299718 0.618892 0.308650
0.316304 0.620277 0.309986
0.333082 0.621678 0.311338
0.350028 0.623094 0.312703
0.367126 0.624521 0.314080
0.384362 0.625961 0.315469
0.401724 0.627410 0.316867
0.419202 0.628870 0.318275
0.436788 0.630339 0.319692
0.454475 0.631815 0.321117
0.472256 0.633300 0.322549
0.490127 0.634793 0.323989
0.508082 0.636292 0.325435
0.526117 0.637798 0.326888
0.544228 0.639310 0.328347
0.562412 0.640829 0.329812
0.580665 0.642353 0.331283
0.598985 0.643883 0.332758
0.617368 0.645418 0.334239
0.635813 0.646958 0.335725
0.654318 0.648504 0.337216
0.672879 0.650053 0.338711
0.691495 0.651608 0.340211
0.710165 0.653167 0.341715
0.728886 0.654730 0.343223
0.747657 0.656298 0.344735
0.766476 0.657869 0.346251
0.213290 0.633143 0.306230
0.226513 0.634248 0.307295
0.241244 0.635478 0.308481
0.256603 0.636760 0.309719
0.272385 0.638078 0.310990
0.288489 0.639423 0.312287
0.304855 0.640790 0.313606
0.321441 0.642175 0.314942
0.338219 0.643576 0.316294
0.355165 0.644991 0.317659
0.372264 0.646419 0.319036
0.389499 0.647858 0.320425
0.406861 0.649308 0.321823
0.424339 0.650767 0.323231
0.441925 0.652236 0.324648
0.459612 0.653713 0.326073
0.477393 0.655198 0.327505
0.495264 0.656690 0.328945
0.513219 0.658189 0.330391
0.531254 0.659695 0.331844
0.549365 0.661208 0.333303
0.567549 0.662726 0.334768
0.585802 0.664250 0.336239
0.604122 0.665780 0.337714
0.622506 0.667315 0.339195
0.640951 0.668856 0.340681
0.659455 0.670401 0.342172
0.678016 0.671951 0.343667
0.696632 0.673505 0.345167
0.715302 0.675064 0.346671
0.734023 0.676628 0.348179
0.752794 0.678195 0.349691
0.771614 0.679767 0.351207
0.218438 0.655085 0.311195
0.231661 0.656189 0.312261
0.246391 0.657419 0.313447
0.261751 0.658701 0.314685
0.277533 0.660019 0.315956
0.293637 0.661364 0.317253
0.310002 0.662731 0.318572
0.326589 0.664116 0.319908
0.343366 0.665517 0.321259
0.360313 0.666932 0.322625
0.377411 0.668360 0.324002
0.394647 0.669799 0.325390
0.412008 0.671249 0.326789
0.429486 0.672708 0.328197
0.447072 0.674177 0.329614
0.464759 0.675654 0.331039
0.482541 0.677139 0.332471
0.500412 0.678631 0.333911
0.518367 0.680130 0.335357
0.536402 0.681636 0.336810
0.554513 0.683149 0.338269
0.572697 0.684667 0.339734
0.590950 0.686191 0.341204
0.609270 0.687721 0.342680
0.627653 0.689256 0.344161
0.646098 0.690797 0.345647
0.664602 0.692342 0.347138
0.683163 0.693892 0.348633
