Fotico/Resources/LUTs/sf_haze.cube
TITLE "Haze"
LUT_3D_SIZE 9
DOMAIN_MIN 0.0 0.0 0.0
DOMAIN_MAX 1.0 1.0 1.0
0.230597 0.217997 0.207497
0.294062 0.225876 0.215376
0.349027 0.232699 0.222199
0.401182 0.239174 0.228674
0.451594 0.245432 0.234932
0.500747 0.251533 0.241033
0.548920 0.257514 0.247014
0.596293 0.263394 0.252894
0.642992 0.269192 0.258692
0.257101 0.300087 0.234001
0.320566 0.307966 0.241879
0.375530 0.314789 0.248703
0.427686 0.321263 0.255177
0.478097 0.327521 0.261435
0.527251 0.333623 0.267537
0.575424 0.339603 0.273517
0.622796 0.345484 0.279398
0.669495 0.351281 0.285195
0.280055 0.371182 0.256955
0.343519 0.379061 0.264833
0.398484 0.385884 0.271656
0.450640 0.392358 0.278131
0.501051 0.398616 0.284389
0.550204 0.404718 0.290491
0.598377 0.410698 0.296471
0.645750 0.416579 0.302352
0.692449 0.422376 0.308149
0.301836 0.438644 0.278736
0.365300 0.446523 0.286614
0.420265 0.453346 0.293437
0.472420 0.459820 0.299912
0.522832 0.466078 0.306170
0.571985 0.472180 0.312272
0.620158 0.478160 0.318252
0.667531 0.484041 0.324132
0.714230 0.489838 0.329930
0.322888 0.503850 0.299788
0.386353 0.511729 0.307666
0.441317 0.518552 0.314490
0.493473 0.525026 0.320964
0.543884 0.531284 0.327222
0.593038 0.537386 0.333324
0.641211 0.543366 0.339304
0.688583 0.549247 0.345185
0.735282 0.555044 0.350982
0.343415 0.567428 0.320315
0.406879 0.575307 0.328193
0.461844 0.582130 0.335016
0.514000 0.588605 0.341491
0.564411 0.594863 0.347749
0.613564 0.600964 0.353851
0.661737 0.606945 0.359831
0.709110 0.612825 0.365712
0.755809 0.618623 0.371509
0.363532 0.629739 0.340432
0.426997 0.637617 0.348311
0.481961 0.644441 0.355134
0.534117 0.650915 0.361609
0.584529 0.657173 0.367867
0.633682 0.663275 0.373968
0.681855 0.669255 0.379949
0.729228 0.675136 0.385829
0.775926 0.680933 0.391626
0.383316 0.691014 0.360216
0.446780 0.698893 0.368094
0.501745 0.705716 0.374917
0.553901 0.712191 0.381392
0.604312 0.718449 0.387650
0.653465 0.724550 0.393752
0.701638 0.730531 0.399732
0.749011 0.736411 0.405613
0.795710 0.742208 0.411410
0.402818 0.751418 0.379718
0.466282 0.759296 0.387596
0.521247 0.766119 0.394419
0.573402 0.772594 0.400894
0.623814 0.778852 0.407152
0.672967 0.784954 0.413254
0.721140 0.790934 0.419234
0.768513 0.796815 0.425115
0.815212 0.802612 0.430912
0.233104 0.220504 0.262086
0.296569 0.228383 0.269964
0.351533 0.235206 0.276788
0.403689 0.241681 0.283262
0.454101 0.247939 0.289520
0.503254 0.254040 0.295622
0.551427 0.260020 0.301602
0.598800 0.265901 0.307483
0.645498 0.271698 0.313280
0.259608 0.302594 0.288590
0.323072 0.310472 0.296468
0.378037 0.317296 0.303291
0.430193 0.323770 0.309766
0.480604 0.330028 0.316024
0.529757 0.336130 0.322126
0.577930 0.342110 0.328106
0.625303 0.347991 0.333987
0.672002 0.353788 0.339784
0.282562 0.373689 0.311543
0.346026 0.381567 0.319422
0.400991 0.388391 0.326245
0.453146 0.394865 0.332720
0.503558 0.401123 0.338978
0.552711 0.407225 0.345079
0.600884 0.413205 0.351060
0.648257 0.419086 0.356940
0.694956 0.424883 0.362737
0.304342 0.441151 0.333324
0.367807 0.449029 0.341203
0.422771 0.455853 0.348026
0.474927 0.462327 0.354500
0.525339 0.468585 0.360758
0.574492 0.474687 0.366860
0.622665 0.480667 0.372840
0.670038 0.486548 0.378721
0.716736 0.492345 0.384518
0.325395 0.506357 0.354377
0.388859 0.514236 0.362255
0.443824 0.521059 0.369078
0.495980 0.527533 0.375553
0.546391 0.533791 0.381811
0.595544 0.539893 0.387913
0.643717 0.545873 0.393893
0.691090 0.551754 0.399774
0.737789 0.557551 0.405571
0.345922 0.569935 0.374903
0.409386 0.577814 0.382782
0.464351 0.584637 0.389605
0.516507 0.591112 0.396080
0.566918 0.597370 0.402338
0.616071 0.603471 0.408440
0.664244 0.609451 0.414420
0.711617 0.615332 0.420300
0.758316 0.621129 0.426098
0.366039 0.632246 0.395021
0.429504 0.640124 0.402899
0.484468 0.646947 0.409723
0.536624 0.653422 0.416197
0.587036 0.659680 0.422455
0.636189 0.665782 0.428557
0.684362 0.671762 0.434537
0.731735 0.677643 0.440418
0.778433 0.683440 0.446215
0.385823 0.693521 0.414804
0.449287 0.701400 0.422683
0.504252 0.708223 0.429506
0.556408 0.714697 0.435981
0.606819 0.720955 0.442239
0.655972 0.727057 0.448340
0.704145 0.733037 0.454321
0.751518 0.738918 0.460201
0.798217 0.744715 0.465999
0.405324 0.753924 0.434306
0.468789 0.761803 0.442185
0.523754 0.768626 0.449008
0.575909 0.775101 0.455482
0.626321 0.781359 0.461740
0.675474 0.787461 0.467842
0.723647 0.793441 0.473822
0.771020 0.799321 0.479703
0.817719 0.805119 0.485500
0.235341 0.222741 0.310785
0.298805 0.230619 0.318664
0.353770 0.237442 0.325487
0.405926 0.243917 0.331962
0.456337 0.250175 0.338220
0.505490 0.256277 0.344321
0.553663 0.262257 0.350302
0.601036 0.268138 0.356182
0.647735 0.273935 0.361980
0.261844 0.304830 0.337289
0.325309 0.312709 0.345167
0.380273 0.319532 0.351991
0.432429 0.326007 0.358465
0.482841 0.332265 0.364723
0.531994 0.338366 0.370825
0.580167 0.344347 0.376805
0.627540 0.350227 0.382686
0.674238 0.356024 0.388483
0.284798 0.375925 0.360243
0.348263 0.383804 0.368121
0.403227 0.390627 0.374944
0.455383 0.397102 0.381419
0.505794 0.403360 0.387677
0.554948 0.409461 0.393779
0.603121 0.415442 0.399759
0.650494 0.421322 0.405640
0.697192 0.427120 0.411437
0.306579 0.443387 0.382024
0.370043 0.451266 0.389902
0.425008 0.458089 0.396725
0.477164 0.464564 0.403200
0.527575 0.470822 0.409458
0.576728 0.476924 0.415560
0.624901 0.482904 0.421540
0.672274 0.488784 0.427421
0.718973 0.494582 0.433218
0.327631 0.508594 0.403076
0.391096 0.516472 0.410954
0.446060 0.523295 0.417778
0.498216 0.529770 0.424252
0.548628 0.536028 0.430510
0.597781 0.542130 0.436612
0.645954 0.548110 0.442592
0.693327 0.553990 0.448473
0.740025 0.559788 0.454270
0.348158 0.572172 0.423603
0.411623 0.580050 0.431481
0.466587 0.586873 0.438304
0.518743 0.593348 0.444779
0.569155 0.599606 0.451037
0.618308 0.605708 0.457139
0.666481 0.611688 0.463119
0.713854 0.617569 0.469000
0.760552 0.623366 0.474797
0.368276 0.634482 0.443720
0.431740 0.642361 0.451599
0.486705 0.649184 0.458422
0.538861 0.655658 0.464897
0.589272 0.661916 0.471155
0.638425 0.668018 0.477256
0.686598 0.673998 0.483237
0.733971 0.679879 0.489117
0.780670 0.685676 0.494914
0.388059 0.695758 0.463504
0.451524 0.703636 0.471382
0.506488 0.710459 0.478205
0.558644 0.716934 0.484680
0.609056 0.723192 0.490938
0.658209 0.729294 0.497040
0.706382 0.735274 0.503020
0.753755 0.741155 0.508901
0.800453 0.746952 0.514698
0.407561 0.756161 0.483006
0.471025 0.764039 0.490884
0.525990 0.770863 0.497707
0.578146 0.777337 0.504182
0.628557 0.783595 0.510440
0.677711 0.789697 0.516542
0.725884 0.795677 0.522522
0.773256 0.801558 0.528403
0.819955 0.807355 0.534200
0.237485 0.224885 0.357485
0.300950 0.232764 0.365363
0.355914 0.239587 0.372186
0.408070 0.246061 0.378661
0.458482 0.252320 0.384919
0.507635 0.258421 0.391021
0.555808 0.264401 0.397001
0.603181 0.270282 0.402882
0.649879 0.276079 0.408679
0.263989 0.306975 0.383988
0.327453 0.314853 0.391866
0.382418 0.321677 0.398690
0.434574 0.328151 0.405164
0.484985 0.334409 0.411422
0.534138 0.340511 0.417524
0.582311 0.346491 0.423504
0.629684 0.352372 0.429385
0.676383 0.358169 0.435182
0.286943 0.378070 0.406942
0.350407 0.385948 0.414820
0.405372 0.392772 0.421643
0.457527 0.399246 0.428118
0.507939 0.405504 0.434376
0.557092 0.411606 0.440478
0.605265 0.417586 0.446458
0.652638 0.423467 0.452339
0.699337 0.429264 0.458136
0.308723 0.445532 0.428723
0.372188 0.453410 0.436601
0.427152 0.460234 0.443424
0.479308 0.466708 0.449899
0.529720 0.472966 0.456157
0.578873 0.479068 0.462259
0.627046 0.485048 0.468239
0.674419 0.490929 0.474120
0.721117 0.496726 0.479917
0.329776 0.510738 0.449775
0.393240 0.518616 0.457653
0.448205 0.525440 0.464477
0.500361 0.531914 0.470951
0.550772 0.538172 0.477209
0.599925 0.544274 0.483311
0.648098 0.550254 0.489291
0.695471 0.556135 0.495172
0.742170 0.561932 0.500969
0.350303 0.574316 0.470302
0.413767 0.582195 0.478180
0.468732 0.589018 0.485004
0.520888 0.595492 0.491478
0.571299 0.601751 0.497736
0.620452 0.607852 0.503838
0.668625 0.613832 0.509818
0.715998 0.619713 0.515699
0.762697 0.625510 0.521496
0.370420 0.636627 0.490419
0.433885 0.644505 0.498298
0.488849 0.651328 0.505121
0.541005 0.657803 0.511596
0.591417 0.664061 0.517854
0.640570 0.670163 0.523956
0.688743 0.676143 0.529936
0.736116 0.682024 0.535816
0.782814 0.687821 0.541614
0.390204 0.697902 0.510203
0.453668 0.705781 0.518081
0.508633 0.712604 0.524905
0.560789 0.719078 0.531379
0.611200 0.725336 0.537637
0.660353 0.731438 0.543739
0.708526 0.737418 0.549719
0.755899 0.743299 0.555600
0.802598 0.749096 0.561397
0.409705 0.758305 0.529705
0.473170 0.766184 0.537583
0.528135 0.773007 0.544406
0.580290 0.779482 0.550881
0.630702 0.785740 0.557139
0.679855 0.791841 0.563241
0.728028 0.797822 0.569221
0.775401 0.803702 0.575102
0.822100 0.809500 0.580899
0.239572 0.226972 0.402930
0.303037 0.234851 0.410809
0.358001 0.241674 0.417632
0.410157 0.248148 0.424106
0.460569 0.254407 0.430364
0.509722 0.260508 0.436466
0.557895 0.266488 0.442446
0.605268 0.272369 0.448327
0.651966 0.278166 0.454124
0.266076 0.309062 0.429434
0.329540 0.316940 0.437312
0.384505 0.323764 0.444135
0.436661 0.330238 0.450610
0.487072 0.336496 0.456868
0.536225 0.342598 0.462970
0.584398 0.348578 0.468950
0.631771 0.354459 0.474831
0.678470 0.360256 0.480628
0.289030 0.380157 0.452388
0.352494 0.388035 0.460266
0.407459 0.394859 0.467089
0.459614 0.401333 0.473564
0.510026 0.407591 0.479822
0.559179 0.413693 0.485924
0.607352 0.419673 0.491904
0.654725 0.425554 0.497785
0.701424 0.431351 0.503582
0.310810 0.447619 0.474168
0.374275 0.455497 0.482047
0.429239 0.462321 0.488870
0.481395 0.468795 0.495345
0.531807 0.475053 0.501603
0.580960 0.481155 0.507704
0.629133 0.487135 0.513685
0.676506 0.493016 0.519565
0.723204 0.498813 0.525362
0.331863 0.512825 0.495221
0.395327 0.520703 0.503099
0.450292 0.527527 0.509922
0.502448 0.534001 0.516397
0.552859 0.540259 0.522655
0.602012 0.546361 0.528757
0.650185 0.552341 0.534737
0.697558 0.558222 0.540618
0.744257 0.564019 0.546415
0.352390 0.576403 0.515748
0.415854 0.584282 0.523626
0.470819 0.591105 0.530449
0.522975 0.597579 0.536924
0.573386 0.603838 0.543182
0.622539 0.609939 0.549284
0.670712 0.615919 0.555264
0.718085 0.621800 0.561145
0.764784 0.627597 0.566942
0.372507 0.638714 0.535865
0.435972 0.646592 0.543744
0.490936 0.653415 0.550567
0.543092 0.659890 0.557041
0.593504 0.666148 0.563299
0.642657 0.672250 0.569401
0.690830 0.678230 0.575381
0.738203 0.684111 0.581262
0.784901 0.689908 0.587059
0.392291 0.699989 0.555649
0.455755 0.707868 0.563527
0.510720 0.714691 0.570350
0.562876 0.721165 0.576825
0.613287 0.727423 0.583083
0.662440 0.733525 0.589185
0.710613 0.739505 0.595165
0.757986 0.745386 0.601046
0.804685 0.751183 0.606843
0.411792 0.760392 0.575150
0.475257 0.768271 0.583029
0.530222 0.775094 0.589852
0.582377 0.781569 0.596327
0.632789 0.787827 0.602585
0.681942 0.793928 0.608686
0.730115 0.799909 0.614667
0.777488 0.805789 0.620547
0.824187 0.811587 0.626345
0.241618 0.229018 0.447466
0.305082 0.236896 0.455345
0.360047 0.243719 0.462168
0.412202 0.250194 0.468642
0.462614 0.256452 0.474900
0.511767 0.262554 0.481002
0.559940 0.268534 0.486982
0.607313 0.274414 0.492863
0.654012 0.280212 0.498660
0.268121 0.311107 0.473970
0.331586 0.318986 0.481848
0.386550 0.325809 0.488671
0.438706 0.332283 0.495146
0.489118 0.338541 0.501404
0.538271 0.344643 0.507506
0.586444 0.350623 0.513486
0.633817 0.356504 0.519367
0.680515 0.362301 0.525164
0.291075 0.382202 0.496923
0.354539 0.390081 0.504802
0.409504 0.396904 0.511625
0.461660 0.403378 0.518100
0.512071 0.409636 0.524358
0.561224 0.415738 0.530460
0.609397 0.421718 0.536440
0.656770 0.427599 0.542320
0.703469 0.433396 0.548118
0.312856 0.449664 0.518704
0.376320 0.457543 0.526583
0.431285 0.464366 0.533406
0.483440 0.470840 0.539880
0.533852 0.477098 0.546139
0.583005 0.483200 0.552240
0.631178 0.489180 0.558220
0.678551 0.495061 0.564101
0.725250 0.500858 0.569898
0.333908 0.514870 0.539757
0.397373 0.522749 0.547635
0.452337 0.529572 0.554458
0.504493 0.536046 0.560933
0.554905 0.542305 0.567191
0.604058 0.548406 0.573293
0.652231 0.554386 0.579273
0.699604 0.560267 0.585154
0.746302 0.566064 0.590951
0.354435 0.578449 0.560284
0.417899 0.586327 0.568162
0.472864 0.593150 0.574985
0.525020 0.599625 0.581460
0.575431 0.605883 0.587718
0.624585 0.611985 0.593820
0.672758 0.617965 0.599800
0.720130 0.623845 0.605681
0.766829 0.629643 0.611478
0.374552 0.640759 0.580401
0.438017 0.648637 0.588280
0.492982 0.655461 0.595103
0.545137 0.661935 0.601577
0.595549 0.668193 0.607835
0.644702 0.674295 0.613937
0.692875 0.680275 0.619917
0.740248 0.686156 0.625798
0.786947 0.691953 0.631595
0.394336 0.702034 0.600185
0.457800 0.709913 0.608063
0.512765 0.716736 0.614886
0.564921 0.723211 0.621361
0.615332 0.729469 0.627619
0.664486 0.735570 0.633721
0.712659 0.741551 0.639701
0.760031 0.747431 0.645582
0.806730 0.753229 0.651379
0.413838 0.762438 0.619686
0.477302 0.770316 0.627565
0.532267 0.777139 0.634388
0.584423 0.783614 0.640863
0.634834 0.789872 0.647121
0.683987 0.795974 0.653222
0.732160 0.801954 0.659203
0.779533 0.807835 0.665083
0.826232 0.813632 0.670880
0.243630 0.231030 0.491290
0.307095 0.238908 0.499169
0.362059 0.245732 0.505992
0.414215 0.252206 0.512466
0.464627 0.258464 0.518725
0.513780 0.264566 0.524826
0.561953 0.270546 0.530806
0.609326 0.276427 0.536687
0.656024 0.282224 0.542484
0.270134 0.313120 0.517794
0.333598 0.320998 0.525672
0.388563 0.327821 0.532495
0.440718 0.334296 0.538970
0.491130 0.340554 0.545228
0.540283 0.346656 0.551330
0.588456 0.352636 0.557310
0.635829 0.358517 0.563191
0.682528 0.364314 0.568988
0.293087 0.384215 0.540748
0.356552 0.392093 0.548626
0.411516 0.398916 0.555449
0.463672 0.405391 0.561924
0.514084 0.411649 0.568182
0.563237 0.417751 0.574284
0.611410 0.423731 0.580264
0.658783 0.429612 0.586145
0.705481 0.435409 0.591942
0.314868 0.451677 0.562528
0.378333 0.459555 0.570407
0.433297 0.466378 0.577230
0.485453 0.472853 0.583705
0.535865 0.479111 0.589963
0.585018 0.485213 0.596064
0.633191 0.491193 0.602045
0.680564 0.497074 0.607925
0.727262 0.502871 0.613722
0.335921 0.516883 0.583581
0.399385 0.524761 0.591459
0.454350 0.531584 0.598282
0.506505 0.538059 0.604757
0.556917 0.544317 0.611015
0.606070 0.550419 0.617117
0.654243 0.556399 0.623097
0.701616 0.562280 0.628978
0.748315 0.568077 0.634775
0.356447 0.580461 0.604108
0.419912 0.588339 0.611986
0.474877 0.595163 0.618809
0.527032 0.601637 0.625284
0.577444 0.607895 0.631542
0.626597 0.613997 0.637644
0.674770 0.619977 0.643624
0.722143 0.625858 0.649505
0.768841 0.631655 0.655302
0.376565 0.642771 0.624225
0.440030 0.650650 0.632104
0.494994 0.657473 0.638927
0.547150 0.663948 0.645401
0.597561 0.670206 0.651659
0.646715 0.676307 0.657761
0.694888 0.682288 0.663741
0.742261 0.688168 0.669622
0.788959 0.693966 0.675419
0.396348 0.704047 0.644009
0.459813 0.711925 0.651887
0.514777 0.718749 0.658710
0.566933 0.725223 0.665185
0.617345 0.731481 0.671443
0.666498 0.737583 0.677545
0.714671 0.743563 0.683525
0.762044 0.749444 0.689406
0.808742 0.755241 0.695203
0.415850 0.764450 0.663510
0.479315 0.772329 0.671389
0.534279 0.779152 0.678212
0.586435 0.785626 0.684687
0.636847 0.791884 0.690945
0.686000 0.797986 0.697047
0.734173 0.803966 0.703027
0.781546 0.809847 0.708907
0.828244 0.815644 0.714705
0.245616 0.233016 0.534531
0.309080 0.240894 0.542410
0.364045 0.247717 0.549233
0.416201 0.254192 0.555707
0.466612 0.260450 0.561965
0.515765 0.266552 0.568067
0.563938 0.272532 0.574047
0.611311 0.278413 0.579928
0.658010 0.284210 0.585725
0.272119 0.315105 0.561035
0.335584 0.322984 0.568913
0.390548 0.329807 0.575736
0.442704 0.336282 0.582211
0.493116 0.342540 0.588469
0.542269 0.348641 0.594571
0.590442 0.354622 0.600551
0.637815 0.360502 0.606432
0.684513 0.366300 0.612229
0.295073 0.386200 0.583988
0.358538 0.394079 0.591867
0.413502 0.400902 0.598690
0.465658 0.407377 0.605165
0.516070 0.413635 0.611423
0.565223 0.419737 0.617524
0.613396 0.425717 0.623505
0.660769 0.431597 0.629385
0.707467 0.437395 0.635182
0.316854 0.453663 0.605769
0.380318 0.461541 0.613648
0.435283 0.468364 0.620471
0.487439 0.474839 0.626945
0.537850 0.481097 0.633203
0.587004 0.487199 0.639305
0.635177 0.493179 0.645285
0.682549 0.499060 0.651166
0.729248 0.504857 0.656963
0.337906 0.518869 0.626822
0.401371 0.526747 0.634700
0.456335 0.533570 0.641523
0.508491 0.540045 0.647998
0.558903 0.546303 0.654256
0.608056 0.552405 0.660358
0.656229 0.558385 0.666338
0.703602 0.564266 0.672219
0.750300 0.570063 0.678016
0.358433 0.582447 0.647349
0.421898 0.590325 0.655227
0.476862 0.597148 0.662050
0.529018 0.603623 0.668525
0.579430 0.609881 0.674783
0.628583 0.615983 0.680885
0.676756 0.621963 0.686865
0.724129 0.627844 0.692746
0.770827 0.633641 0.698543
0.378551 0.644757 0.667466
0.442015 0.652636 0.675344
0.496980 0.659459 0.682168
0.549136 0.665933 0.688642
0.599547 0.672191 0.694900
0.648700 0.678293 0.701002
0.696873 0.684273 0.706982
0.744246 0.690154 0.712863
0.790945 0.695951 0.718660
0.398334 0.706033 0.687250
0.461799 0.713911 0.695128
0.516763 0.720734 0.701951
0.568919 0.727209 0.708426
0.619331 0.733467 0.714684
0.668484 0.739569 0.720786
0.716657 0.745549 0.726766
0.764030 0.751430 0.732646
0.810728 0.757227 0.738444
0.417836 0.766436 0.706751
0.481301 0.774314 0.714630
0.536265 0.781138 0.721453
0.588421 0.787612 0.727928
0.638832 0.793870 0.734186
0.687986 0.799972 0.740287
0.736159 0.805952 0.746267
0.783531 0.811833 0.752148
0.830230 0.817630 0.757945
0.247579 0.234979 0.577279
0.311043 0.242857 0.585157
0.366008 0.249681 0.591981
0.418164 0.256155 0.598455
0.468575 0.262413 0.604713
0.517729 0.268515 0.610815
0.565902 0.274495 0.616795
0.613274 0.280376 0.622676
0.659973 0.286173 0.628473
0.274082 0.317069 0.603782
0.337547 0.324947 0.611661
0.392511 0.331770 0.618484
0.444667 0.338245 0.624959
0.495079 0.344503 0.631217
0.544232 0.350605 0.637318
0.592405 0.356585 0.643299
0.639778 0.362466 0.649179
0.686476 0.368263 0.654976
0.297036 0.388164 0.626736
0.360501 0.396042 0.634615
0.415465 0.402865 0.641438
0.467621 0.409340 0.647912
0.518033 0.415598 0.654170
0.567186 0.421700 0.660272
0.615359 0.427680 0.666252
0.662732 0.433561 0.672133
0.709430 0.439358 0.677930
0.318817 0.455626 0.648517
0.382282 0.463504 0.656395
0.437246 0.470327 0.663219
0.489402 0.476802 0.669693
0.539813 0.483060 0.675951
0.588967 0.489162 0.682053
0.637140 0.495142 0.688033
0.684512 0.501023 0.693914
0.731211 0.506820 0.699711
0.339869 0.520832 0.669569
0.403334 0.528710 0.677448
0.458298 0.535533 0.684271
0.510454 0.542008 0.690746
0.560866 0.548266 0.697004
0.610019 0.554368 0.703105
0.658192 0.560348 0.709086
0.705565 0.566229 0.714966
0.752263 0.572026 0.720763
0.360396 0.584410 0.690096
0.423861 0.592288 0.697975
0.478825 0.599112 0.704798
0.530981 0.605586 0.711272
0.581393 0.611844 0.717530
0.630546 0.617946 0.723632
0.678719 0.623926 0.729612
0.726092 0.629807 0.735493
0.772790 0.635604 0.741290
0.380514 0.646720 0.710214
0.443978 0.654599 0.718092
0.498943 0.661422 0.724915
0.551099 0.667896 0.731390
0.601510 0.674155 0.737648
0.650663 0.680256 0.743750
0.698836 0.686236 0.749730
0.746209 0.692117 0.755611
0.792908 0.697914 0.761408
0.400297 0.707996 0.729997
0.463762 0.715874 0.737876
0.518726 0.722697 0.744699
0.570882 0.729172 0.751173
0.621294 0.735430 0.757431
0.670447 0.741532 0.763533
0.718620 0.747512 0.769513
0.765993 0.753393 0.775394
0.812691 0.759190 0.781191
0.419799 0.768399 0.749499
0.483264 0.776277 0.757377
0.538228 0.783101 0.764201
0.590384 0.789575 0.770675
0.640796 0.795833 0.776933
0.689949 0.801935 0.783035
0.738122 0.807915 0.789015
0.785495 0.813796 0.794896
0.832193 0.819593 0.800693
