Fotico/Resources/LUTs/sf_haze.cube
TITLE "Haze"
LUT_3D_SIZE 33
DOMAIN_MIN 0.0 0.0 0.0
DOMAIN_MAX 1.0 1.0 1.0
0.230597 0.217997 0.207497
0.248823 0.220260 0.209760
0.264607 0.222219 0.211719
0.279585 0.224079 0.213579
0.294062 0.225876 0.215376
0.308178 0.227628 0.217128
0.322012 0.229345 0.218845
0.335616 0.231034 0.220534
0.349027 0.232699 0.222199
0.362270 0.234343 0.223843
0.375367 0.235969 0.225469
0.388333 0.237579 0.227079
0.401182 0.239174 0.228674
0.413924 0.240755 0.230255
0.426569 0.242325 0.231825
0.439123 0.243884 0.233384
0.451594 0.245432 0.234932
0.463987 0.246970 0.236470
0.476307 0.248500 0.238000
0.488559 0.250021 0.239521
0.500747 0.251533 0.241033
0.512874 0.253039 0.242539
0.524943 0.254537 0.244037
0.536958 0.256029 0.245529
0.548920 0.257514 0.247014
0.560833 0.258992 0.248492
0.572698 0.260465 0.249965
0.584517 0.261933 0.251433
0.596293 0.263394 0.252894
0.608027 0.264851 0.254351
0.619720 0.266303 0.255803
0.631375 0.267749 0.257249
0.642992 0.269192 0.258692
0.238209 0.241572 0.215109
0.256434 0.243834 0.217371
0.272218 0.245793 0.219331
0.287196 0.247653 0.221190
0.301673 0.249450 0.222987
0.315789 0.251202 0.224739
0.329623 0.252920 0.226457
0.343227 0.254608 0.228145
0.356638 0.256273 0.229810
0.369881 0.257917 0.231454
0.382978 0.259543 0.233080
0.395945 0.261153 0.234690
0.408793 0.262748 0.236285
0.421536 0.264329 0.237867
0.434180 0.265899 0.239436
0.446734 0.267458 0.240995
0.459205 0.269006 0.242543
0.471598 0.270544 0.244081
0.483918 0.272074 0.245611
0.496171 0.273595 0.247132
0.508358 0.275108 0.248645
0.520485 0.276613 0.250150
0.532554 0.278111 0.251648
0.544569 0.279603 0.253140
0.556531 0.281088 0.254625
0.568444 0.282566 0.256104
0.580309 0.284039 0.257576
0.592128 0.285507 0.259044
0.603904 0.286968 0.260506
0.615638 0.288425 0.261962
0.627331 0.289877 0.263414
0.638986 0.291323 0.264861
0.650603 0.292766 0.266303
0.244800 0.261988 0.221700
0.263026 0.264251 0.223963
0.278810 0.266210 0.225922
0.293788 0.268069 0.227782
0.308265 0.269867 0.229579
0.322380 0.271619 0.231331
0.336214 0.273336 0.233048
0.349819 0.275025 0.234737
0.363229 0.276690 0.236402
0.376473 0.278334 0.238046
0.389570 0.279960 0.239672
0.402536 0.281569 0.241281
0.415385 0.283164 0.242876
0.428127 0.284746 0.244458
0.440772 0.286316 0.246028
0.453326 0.287874 0.247586
0.465797 0.289422 0.249135
0.478190 0.290961 0.250673
0.490510 0.292490 0.252202
0.502762 0.294011 0.253723
0.514950 0.295524 0.255236
0.527077 0.297030 0.256742
0.539146 0.298528 0.258240
0.551161 0.300019 0.259731
0.563123 0.301504 0.261216
0.575036 0.302983 0.262695
0.586901 0.304456 0.264168
0.598720 0.305923 0.265635
0.610496 0.307385 0.267097
0.622230 0.308842 0.268554
0.633923 0.310293 0.270006
0.645577 0.311740 0.271452
0.657194 0.313182 0.272894
0.251055 0.281362 0.227955
0.269281 0.283624 0.230218
0.285065 0.285584 0.232177
0.300043 0.287443 0.234036
0.314520 0.289240 0.235834
0.328635 0.290992 0.237586
0.342469 0.292710 0.239303
0.356074 0.294398 0.240992
0.369484 0.296063 0.242657
0.382728 0.297707 0.244301
0.395825 0.299333 0.245927
0.408791 0.300943 0.247536
0.421640 0.302538 0.249131
0.434382 0.304120 0.250713
0.447027 0.305689 0.252283
0.459581 0.307248 0.253841
0.472052 0.308796 0.255389
0.484445 0.310334 0.256928
0.496765 0.311864 0.258457
0.509017 0.313385 0.259978
0.521205 0.314898 0.261491
0.533332 0.316403 0.262997
0.545401 0.317901 0.264495
0.557416 0.319393 0.265986
0.569378 0.320878 0.267471
0.581290 0.322357 0.268950
0.593156 0.323829 0.270423
0.604975 0.325297 0.271890
0.616751 0.326759 0.273352
0.628485 0.328215 0.274809
0.640178 0.329667 0.276260
0.651832 0.331114 0.277707
0.663449 0.332556 0.279149
0.257101 0.300087 0.234001
0.275326 0.302350 0.236263
0.291111 0.304309 0.238223
0.306089 0.306168 0.240082
0.320566 0.307966 0.241879
0.334681 0.309718 0.243632
0.348515 0.311435 0.245349
0.362119 0.313124 0.247038
0.375530 0.314789 0.248703
0.388774 0.316433 0.250347
0.401871 0.318059 0.251972
0.414837 0.319668 0.253582
0.427686 0.321263 0.255177
0.440428 0.322845 0.256759
0.453072 0.324415 0.258329
0.465627 0.325973 0.259887
0.478097 0.327521 0.261435
0.490491 0.329060 0.262974
0.502811 0.330589 0.264503
0.515063 0.332110 0.266024
0.527251 0.333623 0.267537
0.539377 0.335129 0.269042
0.551447 0.336627 0.270541
0.563461 0.338118 0.272032
0.575424 0.339603 0.273517
0.587336 0.341082 0.274996
0.599201 0.342555 0.276469
0.611021 0.344022 0.277936
0.622796 0.345484 0.279398
0.634530 0.346941 0.280855
0.646224 0.348392 0.282306
0.657878 0.349839 0.283753
0.669495 0.351281 0.285195
0.262996 0.318345 0.239896
0.281221 0.320608 0.242158
0.297006 0.322567 0.244118
0.311983 0.324426 0.245977
0.326460 0.326224 0.247774
0.340576 0.327976 0.249526
0.354410 0.329693 0.251244
0.368014 0.331382 0.252933
0.381425 0.333047 0.254597
0.394668 0.334691 0.256241
0.407765 0.336317 0.257867
0.420732 0.337926 0.259477
0.433581 0.339521 0.261072
0.446323 0.341103 0.262654
0.458967 0.342673 0.264223
0.471521 0.344231 0.265782
0.483992 0.345779 0.267330
0.496385 0.347318 0.268868
0.508706 0.348847 0.270398
0.520958 0.350368 0.271919
0.533145 0.351881 0.273432
0.545272 0.353387 0.274937
0.557342 0.354885 0.276435
0.569356 0.356376 0.277927
0.581318 0.357861 0.279412
0.593231 0.359340 0.280891
0.605096 0.360813 0.282364
0.616915 0.362280 0.283831
0.628691 0.363742 0.285293
0.640425 0.365199 0.286749
0.652118 0.366650 0.288201
0.663773 0.368097 0.289648
0.675390 0.369539 0.291090
0.268773 0.336239 0.245673
0.286998 0.338502 0.247935
0.302783 0.340461 0.249895
0.317761 0.342320 0.251754
0.332238 0.344118 0.253551
0.346353 0.345870 0.255304
0.360187 0.347587 0.257021
0.373791 0.349276 0.258710
0.387202 0.350941 0.260375
0.400446 0.352585 0.262019
0.413543 0.354211 0.263644
0.426509 0.355820 0.265254
0.439358 0.357415 0.266849
0.452100 0.358997 0.268431
0.464744 0.360567 0.270001
0.477299 0.362125 0.271559
0.489769 0.363673 0.273107
0.502163 0.365212 0.274646
0.514483 0.366741 0.276175
0.526735 0.368262 0.277696
0.538923 0.369775 0.279209
0.551050 0.371281 0.280714
0.563119 0.372779 0.282213
0.575133 0.374270 0.283704
0.587096 0.375755 0.285189
0.599008 0.377234 0.286668
0.610873 0.378707 0.288141
0.622693 0.380174 0.289608
0.634469 0.381636 0.291070
0.646202 0.383093 0.292527
0.657896 0.384544 0.293978
0.669550 0.385991 0.295425
0.681167 0.387433 0.296867
0.274454 0.353836 0.251354
0.292680 0.356098 0.253617
0.308464 0.358058 0.255576
0.323442 0.359917 0.257436
0.337919 0.361714 0.259233
0.352034 0.363467 0.260985
0.365868 0.365184 0.262702
0.379473 0.366873 0.264391
0.392883 0.368538 0.266056
0.406127 0.370182 0.267700
0.419224 0.371807 0.269326
0.432190 0.373417 0.270935
0.445039 0.375012 0.272530
0.457781 0.376594 0.274112
0.470426 0.378164 0.275682
0.482980 0.379722 0.277240
0.495451 0.381270 0.278788
0.507844 0.382809 0.280327
0.520164 0.384338 0.281856
0.532416 0.385859 0.283377
0.544604 0.387372 0.284890
0.556731 0.388877 0.286396
0.568800 0.390376 0.287894
0.580815 0.391867 0.289385
0.592777 0.393352 0.290870
0.604690 0.394831 0.292349
0.616555 0.396304 0.293822
0.628374 0.397771 0.295289
0.640150 0.399233 0.296751
0.651884 0.400689 0.298208
0.663577 0.402141 0.299659
0.675231 0.403588 0.301106
0.686848 0.405030 0.302548
0.280055 0.371182 0.256955
0.298280 0.373445 0.259217
0.314065 0.375404 0.261177
0.329042 0.377263 0.263036
0.343519 0.379061 0.264833
0.357635 0.380813 0.266585
0.371469 0.382530 0.268303
0.385073 0.384219 0.269992
0.398484 0.385884 0.271656
0.411727 0.387528 0.273300
0.424824 0.389154 0.274926
0.437791 0.390763 0.276536
0.450640 0.392358 0.278131
0.463382 0.393940 0.279713
0.476026 0.395510 0.281282
0.488580 0.397068 0.282841
0.501051 0.398616 0.284389
0.513444 0.400155 0.285927
0.525765 0.401684 0.287457
0.538017 0.403205 0.288978
0.550204 0.404718 0.290491
0.562331 0.406224 0.291996
0.574401 0.407722 0.293494
0.586415 0.409213 0.294986
0.598377 0.410698 0.296471
0.610290 0.412177 0.297950
0.622155 0.413650 0.299423
0.633974 0.415117 0.300890
0.645750 0.416579 0.302352
0.657484 0.418036 0.303808
0.669177 0.419487 0.305260
0.680832 0.420934 0.306707
0.692449 0.422376 0.308149
0.285585 0.388312 0.262485
0.303811 0.390575 0.264748
0.319595 0.392534 0.266707
0.334573 0.394394 0.268567
0.349050 0.396191 0.270364
0.363165 0.397943 0.272116
0.377000 0.399660 0.273833
0.390604 0.401349 0.275522
0.404014 0.403014 0.277187
0.417258 0.404658 0.278831
0.430355 0.406284 0.280457
0.443321 0.407894 0.282067
0.456170 0.409489 0.283662
0.468912 0.411070 0.285243
0.481557 0.412640 0.286813
0.494111 0.414198 0.288371
0.506582 0.415747 0.289920
0.518975 0.417285 0.291458
0.531295 0.418814 0.292987
0.543547 0.420335 0.294508
0.555735 0.421848 0.296021
0.567862 0.423354 0.297527
0.579931 0.424852 0.299025
0.591946 0.426344 0.300517
0.603908 0.427829 0.302002
0.615821 0.429307 0.303480
0.627686 0.430780 0.304953
0.639505 0.432248 0.306421
0.651281 0.433709 0.307882
0.663015 0.435166 0.309339
0.674708 0.436618 0.310791
0.686363 0.438064 0.312237
0.697979 0.439506 0.313679
0.291055 0.405253 0.267955
0.309280 0.407515 0.270217
0.325065 0.409475 0.272177
0.340042 0.411334 0.274036
0.354519 0.413131 0.275833
0.368635 0.414884 0.277585
0.382469 0.416601 0.279303
0.396073 0.418290 0.280992
0.409484 0.419955 0.282656
0.422727 0.421599 0.284300
0.435824 0.423224 0.285926
0.448791 0.424834 0.287536
0.461640 0.426429 0.289131
0.474382 0.428011 0.290713
0.487026 0.429581 0.292282
0.499580 0.431139 0.293841
0.512051 0.432687 0.295389
0.524444 0.434226 0.296927
0.536765 0.435755 0.298457
0.549017 0.437276 0.299978
0.561204 0.438789 0.301491
0.573331 0.440294 0.302996
0.585401 0.441793 0.304494
0.597415 0.443284 0.305986
0.609377 0.444769 0.307471
0.621290 0.446248 0.308950
0.633155 0.447721 0.310423
0.644975 0.449188 0.311890
0.656750 0.450650 0.313352
0.668484 0.452106 0.314808
0.680177 0.453558 0.316260
0.691832 0.455005 0.317707
0.703449 0.456447 0.319149
0.296470 0.422025 0.273370
0.314695 0.424287 0.275632
0.330480 0.426246 0.277592
0.345457 0.428106 0.279451
0.359934 0.429903 0.281248
0.374050 0.431655 0.283000
0.387884 0.433373 0.284718
0.401488 0.435061 0.286407
0.414899 0.436726 0.288071
0.428142 0.438370 0.289715
0.441239 0.439996 0.291341
0.454206 0.441606 0.292951
0.467055 0.443201 0.294546
0.479797 0.444783 0.296128
0.492441 0.446352 0.297697
0.504995 0.447911 0.299256
0.517466 0.449459 0.300804
0.529859 0.450997 0.302342
0.542180 0.452527 0.303872
0.554432 0.454048 0.305393
0.566619 0.455561 0.306906
0.578746 0.457066 0.308411
0.590815 0.458564 0.309909
0.602830 0.460056 0.311401
0.614792 0.461541 0.312886
0.626705 0.463020 0.314365
0.638570 0.464492 0.315838
0.650389 0.465960 0.317305
0.662165 0.467422 0.318767
0.673899 0.468878 0.320223
0.685592 0.470330 0.321675
0.697247 0.471777 0.323122
0.708864 0.473219 0.324564
0.301836 0.438644 0.278736
0.320061 0.440907 0.280998
0.335845 0.442866 0.282957
0.350823 0.444725 0.284817
0.365300 0.446523 0.286614
0.379416 0.448275 0.288366
0.393250 0.449992 0.290084
0.406854 0.451681 0.291772
0.420265 0.453346 0.293437
0.433508 0.454990 0.295081
0.446605 0.456616 0.296707
0.459572 0.458225 0.298317
0.472420 0.459820 0.299912
0.485163 0.461402 0.301493
0.497807 0.462972 0.303063
0.510361 0.464530 0.304622
0.522832 0.466078 0.306170
0.535225 0.467617 0.307708
0.547545 0.469146 0.309238
0.559797 0.470667 0.310759
0.571985 0.472180 0.312272
0.584112 0.473686 0.313777
0.596181 0.475184 0.315275
0.608196 0.476675 0.316767
0.620158 0.478160 0.318252
0.632071 0.479639 0.319730
0.643936 0.481112 0.321203
0.655755 0.482579 0.322671
0.667531 0.484041 0.324132
0.679265 0.485498 0.325589
0.690958 0.486949 0.327041
0.702613 0.488396 0.328487
0.714230 0.489838 0.329930
0.307157 0.455126 0.284057
0.325382 0.457388 0.286319
0.341167 0.459348 0.288279
0.356144 0.461207 0.290138
0.370621 0.463004 0.291935
0.384737 0.464756 0.293687
0.398571 0.466474 0.295405
0.412175 0.468163 0.297094
0.425586 0.469827 0.298758
0.438829 0.471471 0.300402
0.451926 0.473097 0.302028
0.464893 0.474707 0.303638
0.477742 0.476302 0.305233
0.490484 0.477884 0.306815
0.503128 0.479453 0.308384
0.515682 0.481012 0.309943
0.528153 0.482560 0.311491
0.540546 0.484098 0.313029
0.552867 0.485628 0.314559
0.565119 0.487149 0.316080
0.577306 0.488662 0.317593
0.589433 0.490167 0.319098
0.601503 0.491665 0.320596
0.613517 0.493157 0.322088
0.625479 0.494642 0.323573
0.637392 0.496121 0.325052
0.649257 0.497594 0.326525
0.661077 0.499061 0.327992
0.672852 0.500523 0.329454
0.684586 0.501979 0.330910
0.696279 0.503431 0.332362
0.707934 0.504878 0.333809
0.719551 0.506320 0.335251
0.312437 0.471481 0.289337
0.330663 0.473743 0.291600
0.346447 0.475703 0.293559
0.361425 0.477562 0.295418
0.375902 0.479359 0.297216
0.390017 0.481112 0.298968
0.403851 0.482829 0.300685
0.417456 0.484518 0.302374
0.430866 0.486183 0.304039
0.444110 0.487827 0.305683
0.457207 0.489452 0.307309
0.470173 0.491062 0.308918
0.483022 0.492657 0.310513
0.495764 0.494239 0.312095
0.508409 0.495809 0.313665
0.520963 0.497367 0.315223
0.533434 0.498915 0.316771
0.545827 0.500454 0.318310
0.558147 0.501983 0.319839
0.570399 0.503504 0.321360
0.582587 0.505017 0.322873
0.594714 0.506522 0.324379
0.606783 0.508021 0.325877
0.618797 0.509512 0.327368
0.630760 0.510997 0.328853
0.642672 0.512476 0.330332
0.654537 0.513949 0.331805
0.666357 0.515416 0.333272
0.678133 0.516878 0.334734
0.689867 0.518335 0.336191
0.701560 0.519786 0.337642
0.713214 0.521233 0.339089
0.724831 0.522675 0.340531
0.317680 0.487720 0.294580
0.335905 0.489982 0.296842
0.351690 0.491942 0.298802
0.366668 0.493801 0.300661
0.381145 0.495598 0.302458
0.395260 0.497350 0.304211
0.409094 0.499068 0.305928
0.422698 0.500756 0.307617
0.436109 0.502421 0.309282
0.449353 0.504065 0.310926
0.462450 0.505691 0.312552
0.475416 0.507301 0.314161
0.488265 0.508896 0.315756
0.501007 0.510478 0.317338
0.513651 0.512047 0.318908
0.526206 0.513606 0.320466
0.538677 0.515154 0.322014
0.551070 0.516692 0.323553
0.563390 0.518222 0.325082
0.575642 0.519743 0.326603
0.587830 0.521256 0.328116
0.599957 0.522761 0.329621
0.612026 0.524259 0.331120
0.624040 0.525751 0.332611
0.636003 0.527236 0.334096
0.647915 0.528715 0.335575
0.659780 0.530187 0.337048
0.671600 0.531655 0.338515
0.683376 0.533117 0.339977
0.695109 0.534573 0.341434
0.706803 0.536025 0.342885
0.718457 0.537472 0.344332
0.730074 0.538914 0.345774
0.322888 0.503850 0.299788
0.341113 0.506113 0.302050
0.356898 0.508072 0.304010
0.371876 0.509931 0.305869
0.386353 0.511729 0.307666
0.400468 0.513481 0.309419
0.414302 0.515198 0.311136
0.427906 0.516887 0.312825
0.441317 0.518552 0.314490
0.454561 0.520196 0.316134
0.467658 0.521822 0.317759
0.480624 0.523431 0.319369
0.493473 0.525026 0.320964
0.506215 0.526608 0.322546
0.518859 0.528178 0.324116
0.531414 0.529736 0.325674
0.543884 0.531284 0.327222
0.556278 0.532823 0.328761
0.568598 0.534352 0.330290
0.580850 0.535873 0.331811
0.593038 0.537386 0.333324
0.605164 0.538892 0.334829
0.617234 0.540390 0.336328
0.629248 0.541881 0.337819
0.641211 0.543366 0.339304
0.653123 0.544845 0.340783
0.664988 0.546318 0.342256
0.676808 0.547785 0.343723
0.688583 0.549247 0.345185
0.700317 0.550704 0.346642
0.712011 0.552155 0.348093
0.723665 0.553602 0.349540
0.735282 0.555044 0.350982
0.328063 0.519880 0.304963
0.346289 0.522143 0.307226
0.362073 0.524102 0.309185
0.377051 0.525962 0.311045
0.391528 0.527759 0.312842
0.405644 0.529511 0.314594
0.419478 0.531228 0.316311
0.433082 0.532917 0.318000
0.446493 0.534582 0.319665
0.459736 0.536226 0.321309
0.472833 0.537852 0.322935
0.485799 0.539461 0.324545
0.498648 0.541057 0.326140
0.511390 0.542638 0.327721
0.524035 0.544208 0.329291
0.536589 0.545766 0.330850
0.549060 0.547315 0.332398
0.561453 0.548853 0.333936
0.573773 0.550382 0.335466
0.586025 0.551903 0.336986
0.598213 0.553416 0.338499
0.610340 0.554922 0.340005
0.622409 0.556420 0.341503
0.634424 0.557911 0.342995
0.646386 0.559396 0.344480
0.658299 0.560875 0.345958
0.670164 0.562348 0.347431
0.681983 0.563815 0.348899
0.693759 0.565277 0.350360
0.705493 0.566734 0.351817
0.717186 0.568186 0.353269
0.728841 0.569632 0.354715
0.740457 0.571074 0.356157
0.333209 0.535816 0.310109
0.351434 0.538079 0.312371
0.367218 0.540038 0.314330
0.382196 0.541898 0.316190
0.396673 0.543695 0.317987
0.410789 0.545447 0.319739
0.424623 0.547164 0.321457
0.438227 0.548853 0.323145
0.451638 0.550518 0.324810
0.464881 0.552162 0.326454
0.477978 0.553788 0.328080
0.490945 0.555397 0.329690
0.503793 0.556993 0.331285
0.516536 0.558574 0.332867
0.529180 0.560144 0.334436
0.541734 0.561702 0.335995
0.554205 0.563251 0.337543
0.566598 0.564789 0.339081
0.578918 0.566318 0.340611
0.591170 0.567839 0.342132
0.603358 0.569352 0.343645
0.615485 0.570858 0.345150
0.627554 0.572356 0.346648
0.639569 0.573848 0.348140
0.651531 0.575332 0.349625
0.663444 0.576811 0.351104
0.675309 0.578284 0.352576
0.687128 0.579751 0.354044
0.698904 0.581213 0.355506
0.710638 0.582670 0.356962
0.722331 0.584122 0.358414
0.733986 0.585568 0.359860
0.745603 0.587010 0.361303
0.338325 0.551664 0.315225
0.356551 0.553926 0.317488
0.372335 0.555886 0.319447
0.387313 0.557745 0.321306
0.401790 0.559542 0.323104
0.415905 0.561295 0.324856
0.429739 0.563012 0.326573
0.443344 0.564701 0.328262
0.456754 0.566366 0.329927
0.469998 0.568010 0.331571
0.483095 0.569636 0.333197
0.496061 0.571245 0.334806
0.508910 0.572840 0.336401
0.521652 0.574422 0.337983
0.534296 0.575992 0.339553
0.546851 0.577550 0.341111
0.559322 0.579098 0.342659
0.571715 0.580637 0.344198
0.584035 0.582166 0.345727
0.596287 0.583687 0.347248
0.608475 0.585200 0.348761
0.620602 0.586705 0.350267
0.632671 0.588204 0.351765
0.644685 0.589695 0.353256
0.656648 0.591180 0.354741
0.668560 0.592659 0.356220
0.680425 0.594132 0.357693
0.692245 0.595599 0.359160
0.704021 0.597061 0.360622
0.715754 0.598518 0.362079
0.727448 0.599969 0.363530
0.739102 0.601416 0.364977
0.750719 0.602858 0.366419
0.343415 0.567428 0.320315
0.361640 0.569691 0.322577
0.377425 0.571650 0.324537
0.392402 0.573510 0.326396
0.406879 0.575307 0.328193
0.420995 0.577059 0.329946
0.434829 0.578776 0.331663
0.448433 0.580465 0.333352
0.461844 0.582130 0.335016
0.475088 0.583774 0.336660
0.488184 0.585400 0.338286
0.501151 0.587010 0.339896
0.514000 0.588605 0.341491
0.526742 0.590186 0.343073
0.539386 0.591756 0.344642
0.551941 0.593315 0.346201
0.564411 0.594863 0.347749
0.576804 0.596401 0.349288
0.589125 0.597931 0.350817
0.601377 0.599452 0.352338
0.613564 0.600964 0.353851
0.625691 0.602470 0.355356
0.637761 0.603968 0.356855
0.649775 0.605460 0.358346
0.661737 0.606945 0.359831
0.673650 0.608423 0.361310
0.685515 0.609896 0.362783
0.697335 0.611364 0.364250
0.709110 0.612825 0.365712
0.720844 0.614282 0.367168
0.732538 0.615734 0.368620
0.744192 0.617180 0.370067
0.755809 0.618623 0.371509
0.348479 0.583114 0.325379
0.366705 0.585377 0.327642
0.382489 0.587336 0.329601
0.397467 0.589195 0.331460
0.411944 0.590993 0.333258
0.426059 0.592745 0.335010
0.439893 0.594462 0.336727
0.453498 0.596151 0.338416
0.466908 0.597816 0.340081
0.480152 0.599460 0.341725
0.493249 0.601086 0.343351
0.506215 0.602695 0.344960
0.519064 0.604290 0.346555
0.531806 0.605872 0.348137
0.544451 0.607442 0.349707
0.557005 0.609000 0.351265
0.569476 0.610548 0.352813
0.581869 0.612087 0.354352
0.594189 0.613616 0.355881
0.606441 0.615137 0.357402
0.618629 0.616650 0.358915
0.630756 0.618156 0.360421
0.642825 0.619654 0.361919
0.654839 0.621145 0.363410
0.666802 0.622630 0.364895
0.678714 0.624109 0.366374
0.690579 0.625582 0.367847
0.702399 0.627049 0.369314
0.714175 0.628511 0.370776
0.725908 0.629968 0.372233
0.737602 0.631419 0.373684
0.749256 0.632866 0.375131
0.760873 0.634308 0.376573
0.353519 0.598725 0.330419
0.371745 0.600988 0.332682
0.387529 0.602947 0.334641
0.402507 0.604807 0.336501
0.416984 0.606604 0.338298
0.431100 0.608356 0.340050
0.444934 0.610074 0.341767
0.458538 0.611762 0.343456
0.471948 0.613427 0.345121
0.485192 0.615071 0.346765
0.498289 0.616697 0.348391
0.511255 0.618307 0.350001
0.524104 0.619902 0.351596
0.536846 0.621483 0.353177
0.549491 0.623053 0.354747
0.562045 0.624612 0.356306
0.574516 0.626160 0.357854
0.586909 0.627698 0.359392
0.599229 0.629228 0.360922
0.611481 0.630749 0.362442
0.623669 0.632262 0.363955
0.635796 0.633767 0.365461
0.647865 0.635265 0.366959
0.659880 0.636757 0.368451
0.671842 0.638242 0.369936
0.683755 0.639720 0.371414
0.695620 0.641193 0.372887
0.707439 0.642661 0.374355
0.719215 0.644122 0.375816
0.730949 0.645579 0.377273
0.742642 0.647031 0.378725
0.754297 0.648477 0.380171
0.765913 0.649920 0.381613
0.358537 0.614266 0.335437
0.376762 0.616528 0.337699
0.392547 0.618488 0.339659
0.407524 0.620347 0.341518
0.422001 0.622144 0.343315
0.436117 0.623897 0.345067
0.449951 0.625614 0.346785
0.463555 0.627303 0.348474
0.476966 0.628968 0.350138
0.490209 0.630612 0.351782
0.503306 0.632237 0.353408
0.516273 0.633847 0.355018
0.529122 0.635442 0.356613
0.541864 0.637024 0.358195
0.554508 0.638594 0.359764
0.567062 0.640152 0.361323
0.579533 0.641700 0.362871
0.591926 0.643239 0.364409
0.604247 0.644768 0.365939
0.616499 0.646289 0.367460
0.628686 0.647802 0.368973
0.640813 0.649307 0.370478
0.652883 0.650806 0.371976
0.664897 0.652297 0.373468
0.676859 0.653782 0.374953
0.688772 0.655261 0.376432
0.700637 0.656734 0.377905
0.712457 0.658201 0.379372
0.724232 0.659663 0.380834
0.735966 0.661119 0.382290
0.747659 0.662571 0.383742
0.759314 0.664018 0.385189
0.770931 0.665460 0.386631
0.363532 0.629739 0.340432
0.381758 0.632001 0.342695
0.397542 0.633961 0.344654
0.412520 0.635820 0.346514
0.426997 0.637617 0.348311
0.441112 0.639370 0.350063
0.454947 0.641087 0.351780
0.468551 0.642776 0.353469
0.481961 0.644441 0.355134
0.495205 0.646085 0.356778
0.508302 0.647710 0.358404
0.521268 0.649320 0.360014
0.534117 0.650915 0.361609
0.546859 0.652497 0.363190
0.559504 0.654067 0.364760
0.572058 0.655625 0.366318
0.584529 0.657173 0.367867
0.596922 0.658712 0.369405
0.609242 0.660241 0.370934
0.621494 0.661762 0.372455
0.633682 0.663275 0.373968
0.645809 0.664780 0.375474
0.657878 0.666279 0.376972
0.669893 0.667770 0.378464
0.681855 0.669255 0.379949
0.693768 0.670734 0.381427
0.705633 0.672207 0.382900
0.717452 0.673674 0.384368
0.729228 0.675136 0.385829
0.740962 0.676592 0.387286
0.752655 0.678044 0.388738
0.764310 0.679491 0.390184
0.775926 0.680933 0.391626
0.368507 0.645147 0.345407
0.386733 0.647410 0.347670
0.402517 0.649369 0.349629
0.417495 0.651229 0.351488
0.431972 0.653026 0.353286
0.446087 0.654778 0.355038
0.459921 0.656496 0.356755
0.473526 0.658184 0.358444
0.486936 0.659849 0.360109
0.500180 0.661493 0.361753
0.513277 0.663119 0.363379
0.526243 0.664729 0.364988
0.539092 0.666324 0.366583
0.551834 0.667905 0.368165
0.564479 0.669475 0.369735
0.577033 0.671034 0.371293
0.589504 0.672582 0.372841
0.601897 0.674120 0.374380
0.614217 0.675650 0.375909
0.626469 0.677171 0.377430
0.638657 0.678684 0.378943
0.650784 0.680189 0.380449
0.662853 0.681687 0.381947
0.674868 0.683179 0.383438
0.686830 0.684664 0.384923
0.698742 0.686142 0.386402
0.710608 0.687615 0.387875
0.722427 0.689083 0.389342
0.734203 0.690544 0.390804
0.745937 0.692001 0.392261
0.757630 0.693453 0.393712
0.769284 0.694899 0.395159
0.780901 0.696342 0.396601
0.373462 0.660495 0.350362
0.391688 0.662757 0.352625
0.407472 0.664717 0.354584
0.422450 0.666576 0.356443
0.436927 0.668373 0.358241
0.451042 0.670125 0.359993
0.464876 0.671843 0.361710
0.478481 0.673531 0.363399
0.491891 0.675196 0.365064
0.505135 0.676840 0.366708
0.518232 0.678466 0.368334
0.531198 0.680076 0.369943
0.544047 0.681671 0.371538
0.556789 0.683253 0.373120
0.569434 0.684822 0.374690
0.581988 0.686381 0.376248
0.594459 0.687929 0.377796
0.606852 0.689467 0.379335
0.619172 0.690997 0.380864
0.631424 0.692518 0.382385
0.643612 0.694031 0.383898
0.655739 0.695536 0.385404
0.667808 0.697034 0.386902
0.679822 0.698526 0.388393
0.691785 0.700011 0.389878
0.703697 0.701490 0.391357
0.715562 0.702962 0.392830
0.727382 0.704430 0.394297
