Fotico/Resources/LUTs/sf_haze.cube
TITLE "Haze"
LUT_3D_SIZE 5
DOMAIN_MIN 0.0 0.0 0.0
DOMAIN_MAX 1.0 1.0 1.0
0.230597 0.217997 0.207497
0.349027 0.232699 0.222199
0.451594 0.245432 0.234932
0.548920 0.257514 0.247014
0.642992 0.269192 0.258692
0.280055 0.371182 0.256955
0.398484 0.385884 0.271656
0.501051 0.398616 0.284389
0.598377 0.410698 0.296471
0.692449 0.422376 0.308149
0.322888 0.503850 0.299788
0.441317 0.518552 0.314490
0.543884 0.531284 0.327222
0.641211 0.543366 0.339304
0.735282 0.555044 0.350982
0.363532 0.629739 0.340432
0.481961 0.644441 0.355134
0.584529 0.657173 0.367867
0.681855 0.669255 0.379949
0.775926 0.680933 0.391626
0.402818 0.751418 0.379718
0.521247 0.766119 0.394419
0.623814 0.778852 0.407152
0.721140 0.790934 0.419234
0.815212 0.802612 0.430912
0.235341 0.222741 0.310785
0.353770 0.237442 0.325487
0.456337 0.250175 0.338220
0.553663 0.262257 0.350302
0.647735 0.273935 0.361980
0.284798 0.375925 0.360243
0.403227 0.390627 0.374944
0.505794 0.403360 0.387677
0.603121 0.415442 0.399759
0.697192 0.427120 0.411437
0.327631 0.508594 0.403076
0.446060 0.523295 0.417778
0.548628 0.536028 0.430510
0.645954 0.548110 0.442592
0.740025 0.559788 0.454270
0.368276 0.634482 0.443720
0.486705 0.649184 0.458422
0.589272 0.661916 0.471155
0.686598 0.673998 0.483237
0.780670 0.685676 0.494914
0.407561 0.756161 0.483006
0.525990 0.770863 0.497707
0.628557 0.783595 0.510440
0.725884 0.795677 0.522522
0.819955 0.807355 0.534200
0.239572 0.226972 0.402930
0.358001 0.241674 0.417632
0.460569 0.254407 0.430364
0.557895 0.266488 0.442446
0.651966 0.278166 0.454124
0.289030 0.380157 0.452388
0.407459 0.394859 0.467089
0.510026 0.407591 0.479822
0.607352 0.419673 0.491904
0.701424 0.431351 0.503582
0.331863 0.512825 0.495221
0.450292 0.527527 0.509922
0.552859 0.540259 0.522655
0.650185 0.552341 0.534737
0.744257 0.564019 0.546415
0.372507 0.638714 0.535865
0.490936 0.653415 0.550567
0.593504 0.666148 0.563299
0.690830 0.678230 0.575381
0.784901 0.689908 0.587059
0.411792 0.760392 0.575150
0.530222 0.775094 0.589852
0.632789 0.787827 0.602585
0.730115 0.799909 0.614667
0.824187 0.811587 0.626345
0.243630 0.231030 0.491290
0.362059 0.245732 0.505992
0.464627 0.258464 0.518725
0.561953 0.270546 0.530806
0.656024 0.282224 0.542484
0.293087 0.384215 0.540748
0.411516 0.398916 0.555449
0.514084 0.411649 0.568182
0.611410 0.423731 0.580264
0.705481 0.435409 0.591942
0.335921 0.516883 0.583581
0.454350 0.531584 0.598282
0.556917 0.544317 0.611015
0.654243 0.556399 0.623097
0.748315 0.568077 0.634775
0.376565 0.642771 0.624225
0.494994 0.657473 0.638927
0.597561 0.670206 0.651659
0.694888 0.682288 0.663741
0.788959 0.693966 0.675419
0.415850 0.764450 0.663510
0.534279 0.779152 0.678212
0.636847 0.791884 0.690945
0.734173 0.803966 0.703027
0.828244 0.815644 0.714705
0.247579 0.234979 0.577279
0.366008 0.249681 0.591981
0.468575 0.262413 0.604713
0.565902 0.274495 0.616795
0.659973 0.286173 0.628473
0.297036 0.388164 0.626736
0.415465 0.402865 0.641438
0.518033 0.415598 0.654170
0.615359 0.427680 0.666252
0.709430 0.439358 0.677930
0.339869 0.520832 0.669569
0.458298 0.535533 0.684271
0.560866 0.548266 0.697004
0.658192 0.560348 0.709086
0.752263 0.572026 0.720763
0.380514 0.646720 0.710214
0.498943 0.661422 0.724915
0.601510 0.674155 0.737648
0.698836 0.686236 0.749730
0.792908 0.697914 0.761408
0.419799 0.768399 0.749499
0.538228 0.783101 0.764201
0.640796 0.795833 0.776933
0.738122 0.807915 0.789015
0.832193 0.819593 0.800693
