Fotico/Resources/LUTs/sf_ivory.cube
TITLE "Ivory"
LUT_3D_SIZE 5
DOMAIN_MIN 0.0 0.0 0.0
DOMAIN_MAX 1.0 1.0 1.0
0.224666 0.196430 0.161330
0.368301 0.212989 0.177889
0.489007 0.226904 0.191804
0.602347 0.239970 0.204870
0.711153 0.252513 0.217413
0.280370 0.379210 0.217034
0.424004 0.395768 0.233592
0.544711 0.409683 0.247507
0.658051 0.422749 0.260573
0.766857 0.435293 0.273117
0.327182 0.532813 0.263846
0.470816 0.549372 0.280404
0.591523 0.563287 0.294319
0.704863 0.576353 0.307385
0.813669 0.588896 0.319929
0.371136 0.677042 0.307800
0.514771 0.693600 0.324359
0.635478 0.707515 0.338274
0.748817 0.720581 0.351340
0.857623 0.733125 0.363883
0.413333 0.815501 0.349997
0.556967 0.832059 0.366555
0.677674 0.845975 0.380471
0.791014 0.859041 0.393537
0.890000 0.871584 0.406080
0.230013 0.201777 0.287500
0.373647 0.218335 0.304059
0.494354 0.232250 0.317974
0.607694 0.245316 0.331040
0.716500 0.257860 0.343583
0.285716 0.384556 0.343204
0.429351 0.401115 0.359762
0.550058 0.415030 0.373678
0.663397 0.428096 0.386744
0.772203 0.440639 0.399287
0.332528 0.538160 0.390016
0.476163 0.554718 0.406574
0.596869 0.568633 0.420489
0.710209 0.581699 0.433555
0.819015 0.594243 0.446099
0.376483 0.682388 0.433971
0.520118 0.698947 0.450529
0.640824 0.712862 0.464444
0.754164 0.725928 0.477510
0.862970 0.738471 0.490054
0.418680 0.820848 0.476167
0.562314 0.837406 0.492726
0.683021 0.851321 0.506641
0.796361 0.864387 0.519707
0.890000 0.876931 0.532250
0.234643 0.206407 0.396772
0.378278 0.222966 0.413330
0.498985 0.236881 0.427246
0.612324 0.249947 0.440312
0.721130 0.262490 0.452855
0.290347 0.389187 0.452476
0.433981 0.405745 0.469034
0.554688 0.419661 0.482949
0.668028 0.432727 0.496015
0.776834 0.445270 0.508559
0.337159 0.542790 0.499287
0.480793 0.559349 0.515846
0.601500 0.573264 0.529761
0.714840 0.586330 0.542827
0.823646 0.598873 0.555370
0.381114 0.687019 0.543242
0.524748 0.703577 0.559801
0.645455 0.717493 0.573716
0.758795 0.730559 0.586782
0.867601 0.743102 0.599325
0.423310 0.825478 0.585439
0.566945 0.842037 0.601997
0.687651 0.855952 0.615913
0.800991 0.869018 0.628979
0.890000 0.881561 0.641522
0.239037 0.210801 0.500460
0.382672 0.227360 0.517018
0.503378 0.241275 0.530934
0.616718 0.254341 0.544000
0.725524 0.266884 0.556543
0.294741 0.393581 0.556163
0.438375 0.410139 0.572722
0.559082 0.424054 0.586637
0.672422 0.437120 0.599703
0.781228 0.449664 0.612246
0.341553 0.547184 0.602975
0.485187 0.563743 0.619534
0.605894 0.577658 0.633449
0.719234 0.590724 0.646515
0.828040 0.603267 0.659058
0.385508 0.691413 0.646930
0.529142 0.707971 0.663489
0.649849 0.721887 0.677404
0.763189 0.734953 0.690470
0.871995 0.747496 0.703013
0.427704 0.829872 0.689127
0.571339 0.846431 0.705685
0.692045 0.860346 0.719600
0.805385 0.873412 0.732666
0.890000 0.885955 0.745210
0.243284 0.215048 0.600680
0.386919 0.231607 0.617239
0.507625 0.245522 0.631154
0.620965 0.258588 0.644220
0.729771 0.271131 0.656763
0.298988 0.397828 0.656384
0.442622 0.414386 0.672942
0.563329 0.428301 0.686857
0.676669 0.441367 0.699923
0.785475 0.453911 0.712467
0.345800 0.551431 0.703196
0.489434 0.567990 0.719754
0.610141 0.581905 0.733669
0.723481 0.594971 0.746735
0.832287 0.607514 0.759279
0.389755 0.695660 0.747151
0.533389 0.712218 0.763709
0.654096 0.726134 0.777624
0.767436 0.739200 0.790690
0.876242 0.751743 0.803234
0.431951 0.834119 0.789347
0.575586 0.850678 0.805906
0.696292 0.864593 0.819821
0.809632 0.877659 0.832887
0.890000 0.890000 0.845430
