Fotico/Resources/LUTs/sf_ivory.cube
TITLE "Ivory"
LUT_3D_SIZE 9
DOMAIN_MIN 0.0 0.0 0.0
DOMAIN_MAX 1.0 1.0 1.0
0.224666 0.196430 0.161330
0.302712 0.205427 0.170327
0.368301 0.212989 0.177889
0.429886 0.220088 0.184988
0.489007 0.226904 0.191804
0.546362 0.233516 0.198416
0.602347 0.239970 0.204870
0.657218 0.246295 0.211195
0.711153 0.252513 0.217413
0.254934 0.295747 0.191598
0.332980 0.304744 0.200595
0.398568 0.312305 0.208156
0.460153 0.319405 0.215256
0.519275 0.326220 0.222071
0.576630 0.332832 0.228683
0.632615 0.339286 0.235137
0.687486 0.345612 0.241463
0.741421 0.351830 0.247681
0.280370 0.379210 0.217034
0.358416 0.388207 0.226031
0.424004 0.395768 0.233592
0.485589 0.402868 0.240692
0.544711 0.409683 0.247507
0.602066 0.416295 0.254119
0.658051 0.422749 0.260573
0.712922 0.429075 0.266899
0.766857 0.435293 0.273117
0.304253 0.457579 0.240917
0.382300 0.466576 0.249915
0.447888 0.474137 0.257476
0.509473 0.481237 0.264575
0.568595 0.488053 0.271391
0.625949 0.494665 0.278003
0.681934 0.501119 0.284457
0.736805 0.507444 0.290783
0.790740 0.513662 0.297000
0.327182 0.532813 0.263846
0.405228 0.541810 0.272843
0.470816 0.549372 0.280404
0.532401 0.556471 0.287504
0.591523 0.563287 0.294319
0.648878 0.569899 0.300931
0.704863 0.576353 0.307385
0.759734 0.582678 0.313711
0.813669 0.588896 0.319929
0.349425 0.605799 0.286089
0.427471 0.614796 0.295086
0.493059 0.622357 0.302647
0.554644 0.629457 0.309747
0.613766 0.636273 0.316562
0.671121 0.642885 0.323174
0.727106 0.649339 0.329628
0.781977 0.655664 0.335954
0.835912 0.661882 0.342172
0.371136 0.677042 0.307800
0.449183 0.686039 0.316798
0.514771 0.693600 0.324359
0.576356 0.700700 0.331459
0.635478 0.707515 0.338274
0.692832 0.714127 0.344886
0.748817 0.720581 0.351340
0.803688 0.726907 0.357666
0.857623 0.733125 0.363883
0.392416 0.746867 0.329080
0.470463 0.755864 0.338078
0.536051 0.763425 0.345639
0.597636 0.770525 0.352738
0.656757 0.777341 0.359554
0.714112 0.783953 0.366166
0.770097 0.790407 0.372620
0.824968 0.796732 0.378946
0.878903 0.802950 0.385163
0.413333 0.815501 0.349997
0.491379 0.824498 0.358994
0.556967 0.832059 0.366555
0.618553 0.839159 0.373655
0.677674 0.845975 0.380471
0.735029 0.852587 0.387083
0.791014 0.859041 0.393537
0.845885 0.865366 0.399862
0.890000 0.871584 0.406080
0.227531 0.199295 0.228943
0.305578 0.208293 0.237940
0.371166 0.215854 0.245501
0.432751 0.222953 0.252601
0.491873 0.229769 0.259417
0.549227 0.236381 0.266029
0.605212 0.242835 0.272483
0.660083 0.249161 0.278808
0.714018 0.255378 0.285026
0.257799 0.298612 0.259211
0.335845 0.307609 0.268208
0.401433 0.315170 0.275769
0.463018 0.322270 0.282869
0.522140 0.329085 0.289684
0.579495 0.335697 0.296296
0.635480 0.342151 0.302750
0.690351 0.348477 0.309076
0.744286 0.354695 0.315294
0.283235 0.382075 0.284647
0.361281 0.391072 0.293644
0.426869 0.398633 0.301205
0.488454 0.405733 0.308305
0.547576 0.412549 0.315120
0.604931 0.419161 0.321732
0.660916 0.425615 0.328186
0.715787 0.431940 0.334512
0.769722 0.438158 0.340730
0.307119 0.460444 0.308530
0.385165 0.469441 0.317528
0.450753 0.477002 0.325089
0.512338 0.484102 0.332188
0.571460 0.490918 0.339004
0.628815 0.497530 0.345616
0.684800 0.503984 0.352070
0.739671 0.510309 0.358396
0.793606 0.516527 0.364613
0.330047 0.535678 0.331459
0.408093 0.544676 0.340456
0.473681 0.552237 0.348017
0.535266 0.559336 0.355117
0.594388 0.566152 0.361932
0.651743 0.572764 0.368544
0.707728 0.579218 0.374998
0.762599 0.585544 0.381324
0.816534 0.591761 0.387542
0.352290 0.608664 0.353702
0.430336 0.617662 0.362699
0.495924 0.625223 0.370260
0.557509 0.632322 0.377360
0.616631 0.639138 0.384175
0.673986 0.645750 0.390787
0.729971 0.652204 0.397241
0.784842 0.658530 0.403567
0.838777 0.664747 0.409785
0.374002 0.679907 0.375413
0.452048 0.688904 0.384411
0.517636 0.696465 0.391972
0.579221 0.703565 0.399071
0.638343 0.710381 0.405887
0.695698 0.716993 0.412499
0.751683 0.723447 0.418953
0.806554 0.729772 0.425279
0.860489 0.735990 0.431496
0.395281 0.749732 0.396693
0.473328 0.758729 0.405690
0.538916 0.766291 0.413252
0.600501 0.773390 0.420351
0.659623 0.780206 0.427167
0.716977 0.786818 0.433779
0.772962 0.793272 0.440233
0.827833 0.799597 0.446558
0.881768 0.805815 0.452776
0.416198 0.818366 0.417610
0.494244 0.827364 0.426607
0.559833 0.834925 0.434168
0.621418 0.842024 0.441268
0.680539 0.848840 0.448084
0.737894 0.855452 0.454696
0.793879 0.861906 0.461150
0.848750 0.868232 0.467475
0.890000 0.874449 0.473693
0.230013 0.201777 0.287500
0.308059 0.210774 0.296498
0.373647 0.218335 0.304059
0.435232 0.225435 0.311158
0.494354 0.232250 0.317974
0.551709 0.238862 0.324586
0.607694 0.245316 0.331040
0.662565 0.251642 0.337366
0.716500 0.257860 0.343583
0.260280 0.301093 0.317768
0.338327 0.310091 0.326765
0.403915 0.317652 0.334326
0.465500 0.324751 0.341426
0.524621 0.331567 0.348242
0.581976 0.338179 0.354853
0.637961 0.344633 0.361308
0.692832 0.350959 0.367633
0.746767 0.357176 0.373851
0.285716 0.384556 0.343204
0.363763 0.393554 0.352201
0.429351 0.401115 0.359762
0.490936 0.408214 0.366862
0.550058 0.415030 0.373678
0.607412 0.421642 0.380290
0.663397 0.428096 0.386744
0.718268 0.434422 0.393069
0.772203 0.440639 0.399287
0.309600 0.462926 0.367088
0.387646 0.471923 0.376085
0.453234 0.479484 0.383646
0.514820 0.486584 0.390746
0.573941 0.493399 0.397561
0.631296 0.500011 0.404173
0.687281 0.506465 0.410627
0.742152 0.512791 0.416953
0.796087 0.519009 0.423171
0.332528 0.538160 0.390016
0.410574 0.547157 0.399013
0.476163 0.554718 0.406574
0.537748 0.561818 0.413674
0.596869 0.568633 0.420489
0.654224 0.575245 0.427101
0.710209 0.581699 0.433555
0.765080 0.588025 0.439881
0.819015 0.594243 0.446099
0.354771 0.611146 0.412259
0.432818 0.620143 0.421256
0.498406 0.627704 0.428817
0.559991 0.634804 0.435917
0.619112 0.641619 0.442733
0.676467 0.648231 0.449344
0.732452 0.654685 0.455799
0.787323 0.661011 0.462124
0.841258 0.667229 0.468342
0.376483 0.682388 0.433971
0.454529 0.691386 0.442968
0.520118 0.698947 0.450529
0.581703 0.706046 0.457629
0.640824 0.712862 0.464444
0.698179 0.719474 0.471056
0.754164 0.725928 0.477510
0.809035 0.732254 0.483836
0.862970 0.738471 0.490054
0.397763 0.752214 0.455250
0.475809 0.761211 0.464248
0.541397 0.768772 0.471809
0.602982 0.775872 0.478908
0.662104 0.782687 0.485724
0.719459 0.789299 0.492336
0.775444 0.795753 0.498790
0.830315 0.802079 0.505116
0.884250 0.808297 0.511333
0.418680 0.820848 0.476167
0.496726 0.829845 0.485165
0.562314 0.837406 0.492726
0.623899 0.844506 0.499825
0.683021 0.851321 0.506641
0.740376 0.857933 0.513253
0.796361 0.864387 0.519707
0.851232 0.870713 0.526033
0.890000 0.876931 0.532250
0.232367 0.204131 0.343065
0.310414 0.213129 0.352063
0.376002 0.220690 0.359624
0.437587 0.227789 0.366723
0.496709 0.234605 0.373539
0.554063 0.241217 0.380151
0.610048 0.247671 0.386605
0.664919 0.253997 0.392931
0.718854 0.260214 0.399148
0.262635 0.303448 0.373333
0.340681 0.312445 0.382330
0.406269 0.320006 0.389891
0.467854 0.327106 0.396991
0.526976 0.333922 0.403806
0.584331 0.340534 0.410418
0.640316 0.346988 0.416872
0.695187 0.353313 0.423198
0.749122 0.359531 0.429416
0.288071 0.386911 0.398769
0.366117 0.395908 0.407766
0.431705 0.403469 0.415327
0.493291 0.410569 0.422427
0.552412 0.417385 0.429243
0.609767 0.423997 0.435854
0.665752 0.430451 0.442309
0.720623 0.436776 0.448634
0.774558 0.442994 0.454852
0.311955 0.465280 0.422652
0.390001 0.474277 0.431650
0.455589 0.481839 0.439211
0.517174 0.488938 0.446311
0.576296 0.495754 0.453126
0.633651 0.502366 0.459738
0.689636 0.508820 0.466192
0.744507 0.515145 0.472518
0.798442 0.521363 0.478735
0.334883 0.540514 0.445581
0.412929 0.549512 0.454578
0.478517 0.557073 0.462139
0.540102 0.564172 0.469239
0.599224 0.570988 0.476054
0.656579 0.577600 0.482666
0.712564 0.584054 0.489120
0.767435 0.590380 0.495446
0.821370 0.596597 0.501664
0.357126 0.613500 0.467824
0.435172 0.622498 0.476821
0.500760 0.630059 0.484382
0.562345 0.637158 0.491482
0.621467 0.643974 0.498297
0.678822 0.650586 0.504909
0.734807 0.657040 0.511363
0.789678 0.663366 0.517689
0.843613 0.669583 0.523907
0.378838 0.684743 0.489536
0.456884 0.693740 0.498533
0.522472 0.701301 0.506094
0.584057 0.708401 0.513194
0.643179 0.715217 0.520009
0.700534 0.721829 0.526621
0.756519 0.728283 0.533075
0.811390 0.734608 0.539401
0.865325 0.740826 0.545619
0.400118 0.754568 0.510815
0.478164 0.763566 0.519813
0.543752 0.771127 0.527374
0.605337 0.778226 0.534473
0.664459 0.785042 0.541289
0.721814 0.791654 0.547901
0.777799 0.798108 0.554355
0.832670 0.804434 0.560681
0.886605 0.810651 0.566898
0.421034 0.823202 0.531732
0.499081 0.832200 0.540729
0.564669 0.839761 0.548291
0.626254 0.846860 0.555390
0.685376 0.853676 0.562206
0.742730 0.860288 0.568818
0.798715 0.866742 0.575272
0.853586 0.873068 0.581597
0.890000 0.879285 0.587815
0.234643 0.206407 0.396772
0.312690 0.215405 0.405769
0.378278 0.222966 0.413330
0.439863 0.230065 0.420430
0.498985 0.236881 0.427246
0.556339 0.243493 0.433858
0.612324 0.249947 0.440312
0.667195 0.256273 0.446637
0.721130 0.262490 0.452855
0.264911 0.305724 0.427040
0.342957 0.314721 0.436037
0.408545 0.322282 0.443598
0.470130 0.329382 0.450698
0.529252 0.336197 0.457513
0.586607 0.342809 0.464125
0.642592 0.349263 0.470579
0.697463 0.355589 0.476905
0.751398 0.361807 0.483123
0.290347 0.389187 0.452476
0.368393 0.398184 0.461473
0.433981 0.405745 0.469034
0.495566 0.412845 0.476134
0.554688 0.419661 0.482949
0.612043 0.426273 0.489561
0.668028 0.432727 0.496015
0.722899 0.439052 0.502341
0.776834 0.445270 0.508559
0.314231 0.467556 0.476359
0.392277 0.476553 0.485357
0.457865 0.484114 0.492918
0.519450 0.491214 0.500017
0.578572 0.498030 0.506833
0.635927 0.504642 0.513445
0.691912 0.511096 0.519899
0.746783 0.517421 0.526225
0.800718 0.523639 0.532442
0.337159 0.542790 0.499287
0.415205 0.551788 0.508285
0.480793 0.559349 0.515846
0.542378 0.566448 0.522946
0.601500 0.573264 0.529761
0.658855 0.579876 0.536373
0.714840 0.586330 0.542827
0.769711 0.592656 0.549153
0.823646 0.598873 0.555370
0.359402 0.615776 0.521531
0.437448 0.624773 0.530528
0.503036 0.632335 0.538089
0.564621 0.639434 0.545189
0.623743 0.646250 0.552004
0.681098 0.652862 0.558616
0.737083 0.659316 0.565070
0.791954 0.665641 0.571396
0.845889 0.671859 0.577614
0.381114 0.687019 0.543242
0.459160 0.696016 0.552240
0.524748 0.703577 0.559801
0.586333 0.710677 0.566900
0.645455 0.717493 0.573716
0.702810 0.724105 0.580328
0.758795 0.730559 0.586782
0.813666 0.736884 0.593108
0.867601 0.743102 0.599325
0.402393 0.756844 0.564522
0.480440 0.765841 0.573519
0.546028 0.773403 0.581081
0.607613 0.780502 0.588180
0.666735 0.787318 0.594996
0.724089 0.793930 0.601608
0.780074 0.800384 0.608062
0.834945 0.806709 0.614387
0.888880 0.812927 0.620605
0.423310 0.825478 0.585439
0.501356 0.834476 0.594436
0.566945 0.842037 0.601997
0.628530 0.849136 0.609097
0.687651 0.855952 0.615913
0.745006 0.862564 0.622525
0.800991 0.869018 0.628979
0.855862 0.875344 0.635304
0.890000 0.881561 0.641522
0.236862 0.208626 0.449138
0.314909 0.217624 0.458135
0.380497 0.225185 0.465696
0.442082 0.232284 0.472796
0.501204 0.239100 0.479612
0.558558 0.245712 0.486224
0.614543 0.252166 0.492678
0.669414 0.258492 0.499003
0.723349 0.264709 0.505221
0.267130 0.307943 0.479406
0.345176 0.316940 0.488403
0.410764 0.324501 0.495964
0.472349 0.331601 0.503064
0.531471 0.338417 0.509879
0.588826 0.345029 0.516491
0.644811 0.351483 0.522945
0.699682 0.357808 0.529271
0.753617 0.364026 0.535489
0.292566 0.391406 0.504842
0.370612 0.400403 0.513839
0.436200 0.407964 0.521400
0.497786 0.415064 0.528500
0.556907 0.421880 0.535315
0.614262 0.428492 0.541927
0.670247 0.434946 0.548381
0.725118 0.441271 0.554707
0.779053 0.447489 0.560925
0.316450 0.469775 0.528725
0.394496 0.478772 0.537723
0.460084 0.486334 0.545284
0.521669 0.493433 0.552383
0.580791 0.500249 0.559199
0.638146 0.506861 0.565811
0.694131 0.513315 0.572265
0.749002 0.519640 0.578591
0.802937 0.525858 0.584808
0.339378 0.545009 0.551653
0.417424 0.554007 0.560651
0.483012 0.561568 0.568212
0.544597 0.568667 0.575312
0.603719 0.575483 0.582127
0.661074 0.582095 0.588739
0.717059 0.588549 0.595193
0.771930 0.594875 0.601519
0.825865 0.601092 0.607737
0.361621 0.617995 0.573897
0.439667 0.626993 0.582894
0.505255 0.634554 0.590455
0.566840 0.641653 0.597555
0.625962 0.648469 0.604370
0.683317 0.655081 0.610982
0.739302 0.661535 0.617436
0.794173 0.667861 0.623762
0.848108 0.674078 0.629980
0.383333 0.689238 0.595608
0.461379 0.698235 0.604606
0.526967 0.705796 0.612167
0.588552 0.712896 0.619266
0.647674 0.719712 0.626082
0.705029 0.726324 0.632694
0.761014 0.732778 0.639148
0.815885 0.739103 0.645474
0.869820 0.745321 0.651691
0.404613 0.759063 0.616888
0.482659 0.768061 0.625885
0.548247 0.775622 0.633447
0.609832 0.782721 0.640546
0.668954 0.789537 0.647362
0.726309 0.796149 0.653974
0.782294 0.802603 0.660428
0.837165 0.808929 0.666753
0.890000 0.815146 0.672971
0.425529 0.827697 0.637805
0.503576 0.836695 0.646802
0.569164 0.844256 0.654363
0.630749 0.851355 0.661463
0.689871 0.858171 0.668279
0.747225 0.864783 0.674891
0.803210 0.871237 0.681345
0.858081 0.877563 0.687670
0.890000 0.883780 0.693888
0.239037 0.210801 0.500460
0.317083 0.219799 0.509457
0.382672 0.227360 0.517018
0.444257 0.234459 0.524118
0.503378 0.241275 0.530934
0.560733 0.247887 0.537546
0.616718 0.254341 0.544000
0.671589 0.260667 0.550325
0.725524 0.266884 0.556543
0.269305 0.310118 0.530727
0.347351 0.319115 0.539725
0.412939 0.326676 0.547286
0.474524 0.333776 0.554385
0.533646 0.340591 0.561201
0.591001 0.347203 0.567813
0.646986 0.353657 0.574267
0.701857 0.359983 0.580593
0.755792 0.366201 0.586810
0.294741 0.393581 0.556163
0.372787 0.402578 0.565161
0.438375 0.410139 0.572722
0.499960 0.417239 0.579821
0.559082 0.424054 0.586637
0.616437 0.430666 0.593249
0.672422 0.437120 0.599703
0.727293 0.443446 0.606029
0.781228 0.449664 0.612246
0.318624 0.471950 0.580047
0.396671 0.480947 0.589044
0.462259 0.488508 0.596605
0.523844 0.495608 0.603705
0.582966 0.502424 0.610521
0.640320 0.509036 0.617133
0.696305 0.515490 0.623587
0.751176 0.521815 0.629912
0.805111 0.528033 0.636130
0.341553 0.547184 0.602975
0.419599 0.556182 0.611973
0.485187 0.563743 0.619534
0.546772 0.570842 0.626633
0.605894 0.577658 0.633449
0.663249 0.584270 0.640061
0.719234 0.590724 0.646515
0.774105 0.597050 0.652841
0.828040 0.603267 0.659058
0.363796 0.620170 0.625218
0.441842 0.629167 0.634216
0.507430 0.636729 0.641777
0.569015 0.643828 0.648876
0.628137 0.650644 0.655692
0.685492 0.657256 0.662304
0.741477 0.663710 0.668758
0.796348 0.670035 0.675084
0.850283 0.676253 0.681301
0.385508 0.691413 0.646930
0.463554 0.700410 0.655927
0.529142 0.707971 0.663489
0.590727 0.715071 0.670588
0.649849 0.721887 0.677404
0.707204 0.728499 0.684016
0.763189 0.734953 0.690470
0.818060 0.741278 0.696795
0.871995 0.747496 0.703013
0.406787 0.761238 0.668210
0.484834 0.770235 0.677207
0.550422 0.777796 0.684768
0.612007 0.784896 0.691868
0.671129 0.791712 0.698684
0.728483 0.798324 0.705296
0.784468 0.804778 0.711750
0.839339 0.811103 0.718075
0.890000 0.817321 0.724293
0.427704 0.829872 0.689127
0.505750 0.838869 0.698124
0.571339 0.846431 0.705685
0.632924 0.853530 0.712785
0.692045 0.860346 0.719600
0.749400 0.866958 0.726212
0.805385 0.873412 0.732666
0.860256 0.879737 0.738992
0.890000 0.885955 0.745210
0.241176 0.212940 0.550929
0.319222 0.221937 0.559927
0.384810 0.229498 0.567488
0.446396 0.236598 0.574587
0.505517 0.243414 0.581403
0.562872 0.250026 0.588015
0.618857 0.256480 0.594469
0.673728 0.262805 0.600795
0.727663 0.269023 0.607012
0.271443 0.312256 0.581197
0.349490 0.321254 0.590194
0.415078 0.328815 0.597755
0.476663 0.335914 0.604855
0.535785 0.342730 0.611670
0.593139 0.349342 0.618282
0.649124 0.355796 0.624736
0.703995 0.362122 0.631062
0.757930 0.368339 0.637280
0.296880 0.395719 0.606633
0.374926 0.404717 0.615630
0.440514 0.412278 0.623191
0.502099 0.419378 0.630291
0.561221 0.426193 0.637106
0.618576 0.432805 0.643718
0.674561 0.439259 0.650172
0.729432 0.445585 0.656498
0.783367 0.451803 0.662716
0.320763 0.474089 0.630516
0.398809 0.483086 0.639514
0.464398 0.490647 0.647075
0.525983 0.497747 0.654175
0.585104 0.504562 0.660990
0.642459 0.511174 0.667602
0.698444 0.517628 0.674056
0.753315 0.523954 0.680382
0.807250 0.530172 0.686599
0.343691 0.549323 0.653445
0.421738 0.558320 0.662442
0.487326 0.565881 0.670003
0.548911 0.572981 0.677103
0.608033 0.579797 0.683918
0.665387 0.586409 0.690530
0.721372 0.592863 0.696984
0.776243 0.599188 0.703310
0.830178 0.605406 0.709528
0.365934 0.622309 0.675688
0.443981 0.631306 0.684685
0.509569 0.638867 0.692246
0.571154 0.645967 0.699346
0.630276 0.652783 0.706161
0.687630 0.659394 0.712773
0.743615 0.665849 0.719227
0.798486 0.672174 0.725553
0.852421 0.678392 0.731771
0.387646 0.693552 0.697400
0.465693 0.702549 0.706397
0.531281 0.710110 0.713958
0.592866 0.717210 0.721058
0.651987 0.724025 0.727873
0.709342 0.730637 0.734485
0.765327 0.737091 0.740939
0.820198 0.743417 0.747265
0.874133 0.749635 0.753483
0.408926 0.763377 0.718679
0.486972 0.772374 0.727677
0.552560 0.779935 0.735238
0.614146 0.787035 0.742337
0.673267 0.793850 0.749153
0.730622 0.800462 0.755765
0.786607 0.806916 0.762219
0.841478 0.813242 0.768545
0.890000 0.819460 0.774762
0.429843 0.832011 0.739596
0.507889 0.841008 0.748593
0.573477 0.848569 0.756155
0.635062 0.855669 0.763254
0.694184 0.862485 0.770070
0.751539 0.869096 0.776682
0.807524 0.875551 0.783136
0.862395 0.881876 0.789461
0.890000 0.888094 0.795679
0.243284 0.215048 0.600680
0.321330 0.224046 0.609678
0.386919 0.231607 0.617239
0.448504 0.238706 0.624338
0.507625 0.245522 0.631154
0.564980 0.252134 0.637766
0.620965 0.258588 0.644220
0.675836 0.264914 0.650546
0.729771 0.271131 0.656763
0.273552 0.314365 0.630948
0.351598 0.323362 0.639945
0.417186 0.330923 0.647506
0.478771 0.338023 0.654606
0.537893 0.344838 0.661421
0.595248 0.351450 0.668033
0.651233 0.357904 0.674487
0.706104 0.364230 0.680813
0.760039 0.370448 0.687031
0.298988 0.397828 0.656384
0.377034 0.406825 0.665381
0.442622 0.414386 0.672942
0.504207 0.421486 0.680042
0.563329 0.428301 0.686857
0.620684 0.434913 0.693469
0.676669 0.441367 0.699923
0.731540 0.447693 0.706249
0.785475 0.453911 0.712467
0.322871 0.476197 0.680267
0.400918 0.485194 0.689265
0.466506 0.492755 0.696826
0.528091 0.499855 0.703925
0.587213 0.506671 0.710741
0.644567 0.513283 0.717353
0.700552 0.519737 0.723807
0.755423 0.526062 0.730133
0.809358 0.532280 0.736350
0.345800 0.551431 0.703196
0.423846 0.560428 0.712193
0.489434 0.567990 0.719754
0.551019 0.575089 0.726854
0.610141 0.581905 0.733669
0.667496 0.588517 0.740281
0.723481 0.594971 0.746735
0.778352 0.601296 0.753061
0.832287 0.607514 0.759279
0.368043 0.624417 0.725439
0.446089 0.633414 0.734436
0.511677 0.640975 0.741997
0.573262 0.648075 0.749097
0.632384 0.654891 0.755912
0.689739 0.661503 0.762524
0.745724 0.667957 0.768978
0.800595 0.674282 0.775304
0.854530 0.680500 0.781522
0.389755 0.695660 0.747151
0.467801 0.704657 0.756148
0.533389 0.712218 0.763709
0.594974 0.719318 0.770809
0.654096 0.726134 0.777624
0.711451 0.732746 0.784236
0.767436 0.739200 0.790690
0.822307 0.745525 0.797016
0.876242 0.751743 0.803234
0.411034 0.765485 0.768430
0.489081 0.774482 0.777428
0.554669 0.782043 0.784989
0.616254 0.789143 0.792088
0.675376 0.795959 0.798904
0.732730 0.802571 0.805516
0.788715 0.809025 0.811970
0.843586 0.815350 0.818296
0.890000 0.821568 0.824513
0.431951 0.834119 0.789347
0.509997 0.843116 0.798344
0.575586 0.850678 0.805906
0.637171 0.857777 0.813005
0.696292 0.864593 0.819821
0.753647 0.871205 0.826433
0.809632 0.877659 0.832887
0.864503 0.883984 0.839212
0.890000 0.890000 0.845430
