Fotico/Resources/LUTs/sf_ivory.cube
TITLE "Ivory"
LUT_3D_SIZE 33
DOMAIN_MIN 0.0 0.0 0.0
DOMAIN_MAX 1.0 1.0 1.0
0.224666 0.196430 0.161330
0.247709 0.199087 0.163987
0.267074 0.201319 0.166219
0.285257 0.203415 0.168315
0.302712 0.205427 0.170327
0.319646 0.207380 0.172280
0.336176 0.209285 0.174185
0.352376 0.211153 0.176053
0.368301 0.212989 0.177889
0.383987 0.214797 0.179697
0.399465 0.216581 0.181481
0.414759 0.218344 0.183244
0.429886 0.220088 0.184988
0.444862 0.221815 0.186715
0.459701 0.223525 0.188425
0.474413 0.225221 0.190121
0.489007 0.226904 0.191804
0.503493 0.228574 0.193474
0.517876 0.230232 0.195132
0.532164 0.231879 0.196779
0.546362 0.233516 0.198416
0.560475 0.235143 0.200043
0.574508 0.236760 0.201660
0.588464 0.238369 0.203269
0.602347 0.239970 0.204870
0.616161 0.241562 0.206462
0.629909 0.243147 0.208047
0.643594 0.244725 0.209625
0.657218 0.246295 0.211195
0.670784 0.247859 0.212759
0.684294 0.249417 0.214317
0.697749 0.250968 0.215868
0.711153 0.252513 0.217413
0.233603 0.225753 0.170267
0.256646 0.228410 0.172923
0.276010 0.230642 0.175155
0.294193 0.232738 0.177252
0.311649 0.234750 0.179264
0.328583 0.236703 0.181216
0.345112 0.238608 0.183122
0.361313 0.240476 0.184989
0.377237 0.242312 0.186825
0.392923 0.244120 0.188633
0.408402 0.245904 0.190418
0.423695 0.247667 0.192181
0.438822 0.249411 0.193925
0.453799 0.251138 0.195651
0.468637 0.252848 0.197362
0.483349 0.254544 0.199058
0.497944 0.256227 0.200740
0.512429 0.257897 0.202410
0.526813 0.259555 0.204068
0.541101 0.261202 0.205715
0.555299 0.262839 0.207352
0.569412 0.264466 0.208979
0.583444 0.266083 0.210597
0.597400 0.267692 0.212206
0.611284 0.269293 0.213806
0.625098 0.270885 0.215399
0.638846 0.272470 0.216984
0.652531 0.274048 0.218561
0.666155 0.275618 0.220132
0.679720 0.277182 0.221696
0.693230 0.278740 0.223253
0.706686 0.280291 0.224804
0.720090 0.281836 0.226350
0.241113 0.250395 0.177777
0.264156 0.253052 0.180433
0.283520 0.255284 0.182665
0.301703 0.257380 0.184762
0.319159 0.259393 0.186774
0.336093 0.261345 0.188726
0.352622 0.263250 0.190632
0.368823 0.265118 0.192499
0.384747 0.266954 0.194335
0.400433 0.268762 0.196143
0.415912 0.270547 0.197928
0.431205 0.272310 0.199691
0.446332 0.274054 0.201435
0.461309 0.275780 0.203161
0.476147 0.277491 0.204872
0.490859 0.279187 0.206568
0.505454 0.280869 0.208250
0.519939 0.282539 0.209920
0.534323 0.284197 0.211578
0.548611 0.285844 0.213225
0.562809 0.287481 0.214862
0.576921 0.289108 0.216489
0.590954 0.290726 0.218107
0.604910 0.292335 0.219716
0.618794 0.293935 0.221316
0.632608 0.295528 0.222909
0.646356 0.297113 0.224494
0.660041 0.298690 0.226071
0.673665 0.300261 0.227642
0.687230 0.301825 0.229206
0.700740 0.303382 0.230763
0.714196 0.304933 0.232314
0.727600 0.306479 0.233860
0.248164 0.273534 0.184828
0.271207 0.276190 0.187485
0.290572 0.278423 0.189717
0.308755 0.280519 0.191813
0.326210 0.282531 0.193825
0.343144 0.284483 0.195778
0.359674 0.286389 0.197683
0.375874 0.288256 0.199551
0.391799 0.290092 0.201387
0.407485 0.291901 0.203195
0.422963 0.293685 0.204979
0.438257 0.295448 0.206742
0.453384 0.297192 0.208486
0.468360 0.298918 0.210213
0.483199 0.300629 0.211923
0.497911 0.302325 0.213619
0.512505 0.304008 0.215302
0.526991 0.305677 0.216972
0.541374 0.307336 0.218630
0.555662 0.308983 0.220277
0.569860 0.310619 0.221914
0.583973 0.312246 0.223541
0.598006 0.313864 0.225158
0.611962 0.315473 0.226767
0.625845 0.317074 0.228368
0.639659 0.318666 0.229960
0.653407 0.320251 0.231545
0.667092 0.321829 0.233123
0.680716 0.323399 0.234693
0.694282 0.324963 0.236257
0.707792 0.326520 0.237815
0.721247 0.328072 0.239366
0.734651 0.329617 0.240911
0.254934 0.295747 0.191598
0.277977 0.298403 0.194254
0.297341 0.300635 0.196486
0.315524 0.302732 0.198583
0.332980 0.304744 0.200595
0.349914 0.306696 0.202547
0.366443 0.308602 0.204453
0.382644 0.310469 0.206320
0.398568 0.312305 0.208156
0.414255 0.314113 0.209964
0.429733 0.315898 0.211749
0.445026 0.317661 0.213512
0.460153 0.319405 0.215256
0.475130 0.321131 0.216982
0.489968 0.322842 0.218693
0.504680 0.324538 0.220389
0.519275 0.326220 0.222071
0.533760 0.327890 0.223741
0.548144 0.329548 0.225399
0.562432 0.331195 0.227047
0.576630 0.332832 0.228683
0.590743 0.334459 0.230310
0.604775 0.336077 0.231928
0.618731 0.337686 0.233537
0.632615 0.339286 0.235137
0.646429 0.340879 0.236730
0.660177 0.342464 0.238315
0.673862 0.344041 0.239892
0.687486 0.345612 0.241463
0.701051 0.347176 0.243027
0.714561 0.348733 0.244584
0.728017 0.350284 0.246135
0.741421 0.351830 0.247681
0.261501 0.317296 0.198165
0.284544 0.319952 0.200821
0.303909 0.322184 0.203054
0.322092 0.324281 0.205150
0.339547 0.326293 0.207162
0.356481 0.328245 0.209114
0.373010 0.330151 0.211020
0.389211 0.332018 0.212888
0.405135 0.333854 0.214723
0.420822 0.335662 0.216532
0.436300 0.337447 0.218316
0.451593 0.339210 0.220079
0.466720 0.340954 0.221823
0.481697 0.342680 0.223549
0.496536 0.344391 0.225260
0.511247 0.346087 0.226956
0.525842 0.347769 0.228639
0.540328 0.349439 0.230308
0.554711 0.351097 0.231967
0.568999 0.352744 0.233614
0.583197 0.354381 0.235251
0.597310 0.356008 0.236877
0.611342 0.357626 0.238495
0.625298 0.359235 0.240104
0.639182 0.360835 0.241705
0.652996 0.362428 0.243297
0.666744 0.364013 0.244882
0.680429 0.365590 0.246460
0.694053 0.367161 0.248030
0.707619 0.368725 0.249594
0.721128 0.370282 0.251151
0.734584 0.371833 0.252703
0.747988 0.373379 0.254248
0.267911 0.338330 0.204575
0.290954 0.340986 0.207232
0.310319 0.343219 0.209464
0.328502 0.345315 0.211560
0.345957 0.347327 0.213573
0.362891 0.349279 0.215525
0.379421 0.351185 0.217430
0.395621 0.353052 0.219298
0.411546 0.354888 0.221134
0.427232 0.356697 0.222942
0.442710 0.358481 0.224726
0.458004 0.360244 0.226489
0.473131 0.361988 0.228233
0.488107 0.363714 0.229960
0.502946 0.365425 0.231670
0.517658 0.367121 0.233366
0.532252 0.368804 0.235049
0.546738 0.370473 0.236719
0.561121 0.372132 0.238377
0.575409 0.373779 0.240024
0.589607 0.375416 0.241661
0.603720 0.377042 0.243288
0.617753 0.378660 0.244906
0.631709 0.380269 0.246514
0.645592 0.381870 0.248115
0.659406 0.383462 0.249707
0.673155 0.385047 0.251292
0.686839 0.386625 0.252870
0.700463 0.388195 0.254441
0.714029 0.389759 0.256004
0.727539 0.391316 0.257562
0.740994 0.392868 0.259113
0.754398 0.394413 0.260658
0.274194 0.358946 0.210858
0.297237 0.361602 0.213514
0.316602 0.363834 0.215747
0.334785 0.365931 0.217843
0.352240 0.367943 0.219855
0.369174 0.369895 0.221808
0.385704 0.371801 0.223713
0.401904 0.373668 0.225581
0.417828 0.375504 0.227416
0.433515 0.377312 0.229225
0.448993 0.379097 0.231009
0.464286 0.380860 0.232772
0.479414 0.382604 0.234516
0.494390 0.384330 0.236243
0.509229 0.386041 0.237953
0.523941 0.387737 0.239649
0.538535 0.389419 0.241332
0.553021 0.391089 0.243002
0.567404 0.392747 0.244660
0.581692 0.394394 0.246307
0.595890 0.396031 0.247944
0.610003 0.397658 0.249571
0.624035 0.399276 0.251188
0.637992 0.400885 0.252797
0.651875 0.402485 0.254398
0.665689 0.404078 0.255990
0.679437 0.405663 0.257575
0.693122 0.407240 0.259153
0.706746 0.408811 0.260723
0.720312 0.410375 0.262287
0.733822 0.411932 0.263845
0.747277 0.413483 0.265396
0.760681 0.415029 0.266941
0.280370 0.379210 0.217034
0.303413 0.381866 0.219690
0.322777 0.384099 0.221923
0.340960 0.386195 0.224019
0.358416 0.388207 0.226031
0.375350 0.390159 0.227983
0.391879 0.392065 0.229889
0.408080 0.393932 0.231756
0.424004 0.395768 0.233592
0.439691 0.397576 0.235400
0.455169 0.399361 0.237185
0.470462 0.401124 0.238948
0.485589 0.402868 0.240692
0.500566 0.404594 0.242418
0.515404 0.406305 0.244129
0.530116 0.408001 0.245825
0.544711 0.409683 0.247507
0.559196 0.411353 0.249177
0.573580 0.413011 0.250835
0.587868 0.414659 0.252483
0.602066 0.416295 0.254119
0.616179 0.417922 0.255746
0.630211 0.419540 0.257364
0.644167 0.421149 0.258973
0.658051 0.422749 0.260573
0.671865 0.424342 0.262166
0.685613 0.425927 0.263751
0.699298 0.427504 0.265328
0.712922 0.429075 0.266899
0.726487 0.430639 0.268463
0.739997 0.432196 0.270020
0.753453 0.433748 0.271572
0.766857 0.435293 0.273117
0.286453 0.399171 0.223117
0.309496 0.401828 0.225774
0.328861 0.404060 0.228006
0.347044 0.406156 0.230102
0.364499 0.408169 0.232114
0.381433 0.410121 0.234067
0.397963 0.412026 0.235972
0.414163 0.413894 0.237840
0.430088 0.415730 0.239676
0.445774 0.417538 0.241484
0.461252 0.419322 0.243268
0.476546 0.421085 0.245031
0.491673 0.422829 0.246775
0.506649 0.424556 0.248502
0.521488 0.426266 0.250212
0.536200 0.427962 0.251908
0.550794 0.429645 0.253591
0.565280 0.431315 0.255261
0.579663 0.432973 0.256919
0.593951 0.434620 0.258566
0.608149 0.436257 0.260203
0.622262 0.437884 0.261830
0.636295 0.439502 0.263447
0.650251 0.441110 0.265056
0.664134 0.442711 0.266657
0.677948 0.444303 0.268249
0.691696 0.445888 0.269834
0.705381 0.447466 0.271412
0.719005 0.449037 0.272982
0.732571 0.450600 0.274546
0.746081 0.452158 0.276104
0.759536 0.453709 0.277655
0.772940 0.455254 0.279200
0.292456 0.418868 0.229120
0.315499 0.421524 0.231776
0.334864 0.423757 0.234009
0.353047 0.425853 0.236105
0.370502 0.427865 0.238117
0.387436 0.429817 0.240069
0.403965 0.431723 0.241975
0.420166 0.433590 0.243842
0.436090 0.435426 0.245678
0.451777 0.437235 0.247487
0.467255 0.439019 0.249271
0.482548 0.440782 0.251034
0.497675 0.442526 0.252778
0.512652 0.444252 0.254504
0.527491 0.445963 0.256215
0.542202 0.447659 0.257911
0.556797 0.449342 0.259594
0.571283 0.451011 0.261263
0.585666 0.452670 0.262922
0.599954 0.454317 0.264569
0.614152 0.455954 0.266205
0.628265 0.457580 0.267832
0.642297 0.459198 0.269450
0.656253 0.460807 0.271059
0.670137 0.462408 0.272660
0.683951 0.464000 0.274252
0.697699 0.465585 0.275837
0.711384 0.467163 0.277415
0.725008 0.468733 0.278985
0.738574 0.470297 0.280549
0.752083 0.471854 0.282106
0.765539 0.473406 0.283658
0.778943 0.474951 0.285203
0.298387 0.438329 0.235051
0.321430 0.440986 0.237707
0.340795 0.443218 0.239940
0.358978 0.445314 0.242036
0.376433 0.447326 0.244048
0.393367 0.449279 0.246000
0.409896 0.451184 0.247906
0.426097 0.453052 0.249773
0.442021 0.454888 0.251609
0.457708 0.456696 0.253418
0.473186 0.458480 0.255202
0.488479 0.460243 0.256965
0.503606 0.461987 0.258709
0.518583 0.463714 0.260435
0.533422 0.465424 0.262146
0.548133 0.467120 0.263842
0.562728 0.468803 0.265525
0.577214 0.470473 0.267194
0.591597 0.472131 0.268853
0.605885 0.473778 0.270500
0.620083 0.475415 0.272136
0.634196 0.477042 0.273763
0.648228 0.478659 0.275381
0.662184 0.480268 0.276990
0.676068 0.481869 0.278591
0.689882 0.483461 0.280183
0.703630 0.485046 0.281768
0.717315 0.486624 0.283346
0.730939 0.488194 0.284916
0.744505 0.489758 0.286480
0.758014 0.491316 0.288037
0.771470 0.492867 0.289589
0.784874 0.494412 0.291134
0.304253 0.457579 0.240917
0.327296 0.460235 0.243574
0.346661 0.462468 0.245806
0.364844 0.464564 0.247902
0.382300 0.466576 0.249915
0.399234 0.468528 0.251867
0.415763 0.470434 0.253772
0.431964 0.472302 0.255640
0.447888 0.474137 0.257476
0.463574 0.475946 0.259284
0.479052 0.477730 0.261068
0.494346 0.479493 0.262832
0.509473 0.481237 0.264575
0.524449 0.482963 0.266302
0.539288 0.484674 0.268013
0.554000 0.486370 0.269709
0.568595 0.488053 0.271391
0.583080 0.489722 0.273061
0.597464 0.491381 0.274719
0.611751 0.493028 0.276366
0.625949 0.494665 0.278003
0.640062 0.496291 0.279630
0.654095 0.497909 0.281248
0.668051 0.499518 0.282857
0.681934 0.501119 0.284457
0.695749 0.502711 0.286050
0.709497 0.504296 0.287634
0.723181 0.505874 0.289212
0.736805 0.507444 0.290783
0.750371 0.509008 0.292347
0.763881 0.510565 0.293904
0.777337 0.512117 0.295455
0.790740 0.513662 0.297000
0.310061 0.476637 0.246725
0.333104 0.479293 0.249382
0.352469 0.481526 0.251614
0.370652 0.483622 0.253710
0.388108 0.485634 0.255723
0.405042 0.487586 0.257675
0.421571 0.489492 0.259580
0.437772 0.491360 0.261448
0.453696 0.493195 0.263284
0.469382 0.495004 0.265092
0.484861 0.496788 0.266877
0.500154 0.498551 0.268640
0.515281 0.500295 0.270383
0.530257 0.502021 0.272110
0.545096 0.503732 0.273821
0.559808 0.505428 0.275517
0.574403 0.507111 0.277199
0.588888 0.508780 0.278869
0.603272 0.510439 0.280527
0.617560 0.512086 0.282174
0.631757 0.513723 0.283811
0.645870 0.515349 0.285438
0.659903 0.516967 0.287056
0.673859 0.518576 0.288665
0.687742 0.520177 0.290265
0.701557 0.521769 0.291858
0.715305 0.523354 0.293443
0.728989 0.524932 0.295020
0.742613 0.526502 0.296591
0.756179 0.528066 0.298155
0.769689 0.529623 0.299712
0.783145 0.531175 0.301263
0.796548 0.532720 0.302808
0.315816 0.495520 0.252480
0.338859 0.498176 0.255137
0.358224 0.500408 0.257369
0.376407 0.502505 0.259465
0.393862 0.504517 0.261477
0.410796 0.506469 0.263430
0.427326 0.508375 0.265335
0.443526 0.510242 0.267203
0.459450 0.512078 0.269039
0.475137 0.513886 0.270847
0.490615 0.515671 0.272631
0.505909 0.517434 0.274394
0.521036 0.519178 0.276138
0.536012 0.520904 0.277865
0.550851 0.522615 0.279575
0.565563 0.524311 0.281271
0.580157 0.525993 0.282954
0.594643 0.527663 0.284624
0.609026 0.529321 0.286282
0.623314 0.530968 0.287929
0.637512 0.532605 0.289566
0.651625 0.534232 0.291193
0.665658 0.535850 0.292810
0.679614 0.537459 0.294419
0.693497 0.539059 0.296020
0.707311 0.540652 0.297612
0.721059 0.542237 0.299197
0.734744 0.543814 0.300775
0.748368 0.545385 0.302345
0.761934 0.546949 0.303909
0.775444 0.548506 0.305467
0.788899 0.550057 0.307018
0.802303 0.551603 0.308563
0.321522 0.514241 0.258186
0.344565 0.516897 0.260842
0.363929 0.519130 0.263074
0.382112 0.521226 0.265171
0.399568 0.523238 0.267183
0.416502 0.525190 0.269135
0.433031 0.527096 0.271041
0.449232 0.528964 0.272908
0.465156 0.530799 0.274744
0.480842 0.532608 0.276552
0.496321 0.534392 0.278337
0.511614 0.536155 0.280100
0.526741 0.537899 0.281844
0.541718 0.539626 0.283570
0.556556 0.541336 0.285281
0.571268 0.543032 0.286977
0.585863 0.544715 0.288659
0.600348 0.546385 0.290329
0.614732 0.548043 0.291987
0.629020 0.549690 0.293634
0.643218 0.551327 0.295271
0.657331 0.552954 0.296898
0.671363 0.554571 0.298516
0.685319 0.556180 0.300125
0.699203 0.557781 0.301725
0.713017 0.559373 0.303318
0.726765 0.560958 0.304903
0.740450 0.562536 0.306480
0.754074 0.564106 0.308051
0.767639 0.565670 0.309615
0.781149 0.567228 0.311172
0.794605 0.568779 0.312723
0.808009 0.570324 0.314269
0.327182 0.532813 0.263846
0.350225 0.535470 0.266502
0.369589 0.537702 0.268734
0.387772 0.539798 0.270831
0.405228 0.541810 0.272843
0.422162 0.543763 0.274795
0.438691 0.545668 0.276701
0.454892 0.547536 0.278568
0.470816 0.549372 0.280404
0.486502 0.551180 0.282212
0.501981 0.552964 0.283997
0.517274 0.554727 0.285760
0.532401 0.556471 0.287504
0.547378 0.558198 0.289230
0.562216 0.559908 0.290941
0.576928 0.561604 0.292637
0.591523 0.563287 0.294319
0.606008 0.564957 0.295989
0.620392 0.566615 0.297647
0.634680 0.568262 0.299294
0.648878 0.569899 0.300931
0.662991 0.571526 0.302558
0.677023 0.573143 0.304176
0.690979 0.574752 0.305785
0.704863 0.576353 0.307385
0.718677 0.577945 0.308978
0.732425 0.579530 0.310563
0.746110 0.581108 0.312140
0.759734 0.582678 0.313711
0.773299 0.584242 0.315275
0.786809 0.585800 0.316832
0.800265 0.587351 0.318383
0.813669 0.588896 0.319929
0.332799 0.551246 0.269463
0.355842 0.553903 0.272120
0.375207 0.556135 0.274352
0.393390 0.558231 0.276448
0.410846 0.560244 0.278461
0.427779 0.562196 0.280413
0.444309 0.564101 0.282318
0.460509 0.565969 0.284186
0.476434 0.567805 0.286022
0.492120 0.569613 0.287830
0.507598 0.571397 0.289614
0.522892 0.573161 0.291377
0.538019 0.574904 0.293121
0.552995 0.576631 0.294848
0.567834 0.578342 0.296558
0.582546 0.580038 0.298254
0.597140 0.581720 0.299937
0.611626 0.583390 0.301607
0.626009 0.585048 0.303265
0.640297 0.586695 0.304912
0.654495 0.588332 0.306549
0.668608 0.589959 0.308176
0.682641 0.591577 0.309794
0.696597 0.593186 0.311402
0.710480 0.594786 0.313003
0.724295 0.596379 0.314595
0.738043 0.597963 0.316180
0.751727 0.599541 0.317758
0.765351 0.601112 0.319329
0.778917 0.602676 0.320892
0.792427 0.604233 0.322450
0.805883 0.605784 0.324001
0.819286 0.607329 0.325546
0.338377 0.569550 0.275041
0.361420 0.572206 0.277698
0.380785 0.574439 0.279930
0.398968 0.576535 0.282026
0.416424 0.578547 0.284039
0.433358 0.580499 0.285991
0.449887 0.582405 0.287896
0.466088 0.584273 0.289764
0.482012 0.586108 0.291600
0.497698 0.587917 0.293408
0.513177 0.589701 0.295193
0.528470 0.591464 0.296956
0.543597 0.593208 0.298699
0.558573 0.594934 0.300426
0.573412 0.596645 0.302137
0.588124 0.598341 0.303833
0.602719 0.600024 0.305515
0.617204 0.601693 0.307185
0.631588 0.603352 0.308843
0.645876 0.604999 0.310490
0.660073 0.606636 0.312127
0.674186 0.608262 0.313754
0.688219 0.609880 0.315372
0.702175 0.611489 0.316981
0.716058 0.613090 0.318581
0.729873 0.614682 0.320174
0.743621 0.616267 0.321759
0.757305 0.617845 0.323336
0.770929 0.619415 0.324907
0.784495 0.620979 0.326471
0.798005 0.622536 0.328028
0.811461 0.624088 0.329579
0.824864 0.625633 0.331124
0.343918 0.587732 0.280582
0.366961 0.590388 0.283239
0.386326 0.592621 0.285471
0.404509 0.594717 0.287567
0.421965 0.596729 0.289580
0.438899 0.598681 0.291532
0.455428 0.600587 0.293437
0.471629 0.602454 0.295305
0.487553 0.604290 0.297141
0.503239 0.606098 0.298949
0.518718 0.607883 0.300734
0.534011 0.609646 0.302497
0.549138 0.611390 0.304241
0.564114 0.613116 0.305967
0.578953 0.614827 0.307678
0.593665 0.616523 0.309374
0.608260 0.618205 0.311056
0.622745 0.619875 0.312726
0.637129 0.621533 0.314384
0.651417 0.623181 0.316031
0.665614 0.624817 0.317668
0.679727 0.626444 0.319295
0.693760 0.628062 0.320913
0.707716 0.629671 0.322522
0.721600 0.631271 0.324122
0.735414 0.632864 0.325715
0.749162 0.634449 0.327300
0.762846 0.636026 0.328877
0.776471 0.637597 0.330448
0.790036 0.639161 0.332012
0.803546 0.640718 0.333569
0.817002 0.642270 0.335120
0.830406 0.643815 0.336666
0.349425 0.605799 0.286089
0.372468 0.608455 0.288745
0.391832 0.610688 0.290977
0.410015 0.612784 0.293074
0.427471 0.614796 0.295086
0.444405 0.616748 0.297038
0.460934 0.618654 0.298944
0.477135 0.620522 0.300811
0.493059 0.622357 0.302647
0.508746 0.624166 0.304455
0.524224 0.625950 0.306240
0.539517 0.627713 0.308003
0.554644 0.629457 0.309747
0.569621 0.631184 0.311473
0.584459 0.632894 0.313184
0.599171 0.634590 0.314880
0.613766 0.636273 0.316562
0.628251 0.637943 0.318232
0.642635 0.639601 0.319890
0.656923 0.641248 0.321538
0.671121 0.642885 0.323174
0.685234 0.644512 0.324801
0.699266 0.646129 0.326419
0.713222 0.647738 0.328028
0.727106 0.649339 0.329628
0.740920 0.650931 0.331221
0.754668 0.652516 0.332806
0.768353 0.654094 0.334383
0.781977 0.655664 0.335954
0.795542 0.657228 0.337518
0.809052 0.658786 0.339075
0.822508 0.660337 0.340626
0.835912 0.661882 0.342172
0.354898 0.623758 0.291562
0.377941 0.626415 0.294218
0.397306 0.628647 0.296451
0.415489 0.630743 0.298547
0.432944 0.632755 0.300559
0.449878 0.634708 0.302511
0.466407 0.636613 0.304417
0.482608 0.638481 0.306284
0.498532 0.640317 0.308120
0.514219 0.642125 0.309929
0.529697 0.643909 0.311713
0.544990 0.645672 0.313476
0.560117 0.647416 0.315220
0.575094 0.649143 0.316946
0.589933 0.650853 0.318657
0.604644 0.652549 0.320353
0.619239 0.654232 0.322036
0.633725 0.655902 0.323705
0.648108 0.657560 0.325364
0.662396 0.659207 0.327011
0.676594 0.660844 0.328647
0.690707 0.662471 0.330274
0.704739 0.664088 0.331892
0.718695 0.665697 0.333501
0.732579 0.667298 0.335102
0.746393 0.668890 0.336694
0.760141 0.670475 0.338279
0.773826 0.672053 0.339857
0.787450 0.673623 0.341427
0.801016 0.675187 0.342991
0.814525 0.676745 0.344548
0.827981 0.678296 0.346100
0.841385 0.679841 0.347645
0.360340 0.641615 0.297004
0.383383 0.644271 0.299660
0.402748 0.646504 0.301893
0.420931 0.648600 0.303989
0.438386 0.650612 0.306001
0.455320 0.652564 0.307953
0.471849 0.654470 0.309859
0.488050 0.656338 0.311726
0.503974 0.658173 0.313562
0.519661 0.659982 0.315371
0.535139 0.661766 0.317155
0.550432 0.663529 0.318918
0.565559 0.665273 0.320662
0.580536 0.667000 0.322388
0.595375 0.668710 0.324099
0.610086 0.670406 0.325795
0.624681 0.672089 0.327478
0.639167 0.673759 0.329147
0.653550 0.675417 0.330806
0.667838 0.677064 0.332453
0.682036 0.678701 0.334090
0.696149 0.680328 0.335716
0.710181 0.681945 0.337334
0.724137 0.683554 0.338943
0.738021 0.685155 0.340544
0.751835 0.686747 0.342136
0.765583 0.688332 0.343721
0.779268 0.689910 0.345299
0.792892 0.691480 0.346869
0.806458 0.693044 0.348433
0.819967 0.694602 0.349990
0.833423 0.696153 0.351542
0.846827 0.697698 0.353087
0.365752 0.659375 0.302416
0.388795 0.662031 0.305073
0.408160 0.664263 0.307305
0.426343 0.666360 0.309401
0.443799 0.668372 0.311414
0.460732 0.670324 0.313366
0.477262 0.672230 0.315271
0.493462 0.674097 0.317139
0.509387 0.675933 0.318975
0.525073 0.677741 0.320783
0.540551 0.679526 0.322567
0.555845 0.681289 0.324330
0.570972 0.683033 0.326074
0.585948 0.684759 0.327801
0.600787 0.686470 0.329511
0.615499 0.688166 0.331207
0.630093 0.689848 0.332890
0.644579 0.691518 0.334560
0.658962 0.693176 0.336218
0.673250 0.694824 0.337865
0.687448 0.696460 0.339502
0.701561 0.698087 0.341129
0.715594 0.699705 0.342747
0.729550 0.701314 0.344355
0.743433 0.702914 0.345956
0.757247 0.704507 0.347548
0.770996 0.706092 0.349133
0.784680 0.707669 0.350711
0.798304 0.709240 0.352282
0.811870 0.710804 0.353845
0.825380 0.712361 0.355403
0.838835 0.713912 0.356954
0.852239 0.715458 0.358499
0.371136 0.677042 0.307800
0.394179 0.679698 0.310457
0.413544 0.681931 0.312689
0.431727 0.684027 0.314785
0.449183 0.686039 0.316798
0.466117 0.687991 0.318750
0.482646 0.689897 0.320655
0.498847 0.691764 0.322523
0.514771 0.693600 0.324359
0.530457 0.695409 0.326167
0.545936 0.697193 0.327952
0.561229 0.698956 0.329715
0.576356 0.700700 0.331459
0.591332 0.702426 0.333185
0.606171 0.704137 0.334896
0.620883 0.705833 0.336592
0.635478 0.707515 0.338274
0.649963 0.709185 0.339944
0.664347 0.710844 0.341602
0.678635 0.712491 0.343249
0.692832 0.714127 0.344886
0.706945 0.715754 0.346513
0.720978 0.717372 0.348131
0.734934 0.718981 0.349740
0.748817 0.720581 0.351340
0.762632 0.722174 0.352933
0.776380 0.723759 0.354518
0.790064 0.725337 0.356095
0.803688 0.726907 0.357666
0.817254 0.728471 0.359230
0.830764 0.730028 0.360787
0.844220 0.731580 0.362338
0.857623 0.733125 0.363883
0.376494 0.694621 0.313158
0.399537 0.697277 0.315814
0.418902 0.699510 0.318047
0.437085 0.701606 0.320143
0.454540 0.703618 0.322155
0.471474 0.705570 0.324107
0.488003 0.707476 0.326013
0.504204 0.709343 0.327880
0.520128 0.711179 0.329716
0.535815 0.712988 0.331525
0.551293 0.714772 0.333309
0.566586 0.716535 0.335072
0.581713 0.718279 0.336816
0.596690 0.720005 0.338542
0.611529 0.721716 0.340253
0.626240 0.723412 0.341949
0.640835 0.725095 0.343632
0.655321 0.726764 0.345301
0.669704 0.728423 0.346960
0.683992 0.730070 0.348607
0.698190 0.731706 0.350243
0.712303 0.733333 0.351870
0.726335 0.734951 0.353488
0.740291 0.736560 0.355097
0.754175 0.738161 0.356698
0.767989 0.739753 0.358290
0.781737 0.741338 0.359875
0.795422 0.742916 0.361453
0.809046 0.744486 0.363023
0.822612 0.746050 0.364587
0.836121 0.747607 0.366144
0.849577 0.749159 0.367696
0.862981 0.750704 0.369241
0.381826 0.712116 0.318490
0.404869 0.714772 0.321146
0.424233 0.717005 0.323378
0.442416 0.719101 0.325475
0.459872 0.721113 0.327487
0.476806 0.723065 0.329439
0.493335 0.724971 0.331345
0.509536 0.726838 0.333212
0.525460 0.728674 0.335048
0.541146 0.730482 0.336856
0.556625 0.732267 0.338641
0.571918 0.734030 0.340404
0.587045 0.735774 0.342148
0.602022 0.737500 0.343874
0.616860 0.739211 0.345585
0.631572 0.740907 0.347281
0.646167 0.742589 0.348963
0.660652 0.744259 0.350633
0.675036 0.745917 0.352291
0.689324 0.747565 0.353938
0.703522 0.749201 0.355575
0.717634 0.750828 0.357202
0.731667 0.752446 0.358820
0.745623 0.754055 0.360429
0.759507 0.755655 0.362029
0.773321 0.757248 0.363622
0.787069 0.758833 0.365207
0.800754 0.760410 0.366784
