Fotico/Resources/LUTs/sf_muse.cube
TITLE "Muse"
LUT_3D_SIZE 33
DOMAIN_MIN 0.0 0.0 0.0
DOMAIN_MAX 1.0 1.0 1.0
0.159787 0.130462 0.123400
0.174026 0.131925 0.124776
0.189269 0.133490 0.126250
0.204916 0.135098 0.127762
0.220831 0.136732 0.129301
0.236948 0.138388 0.130859
0.253228 0.140060 0.132433
0.269645 0.141746 0.134020
0.286180 0.143445 0.135619
0.302819 0.145154 0.137227
0.319551 0.146873 0.138845
0.336367 0.148600 0.140471
0.353259 0.150335 0.142104
0.370223 0.152078 0.143744
0.387251 0.153827 0.145390
0.404341 0.155582 0.147042
0.421488 0.157343 0.148700
0.438688 0.159110 0.150363
0.455939 0.160882 0.152030
0.473238 0.162659 0.153703
0.490583 0.164441 0.155380
0.507971 0.166227 0.157061
0.525401 0.168017 0.158746
0.542870 0.169812 0.160434
0.560377 0.171610 0.162127
0.577921 0.173412 0.163823
0.595500 0.175218 0.165523
0.613113 0.177027 0.167225
0.630758 0.178839 0.168931
0.648435 0.180655 0.170640
0.666143 0.182474 0.172352
0.683880 0.184296 0.174067
0.701646 0.186121 0.175784
0.164707 0.148159 0.128030
0.178946 0.149621 0.129407
0.194190 0.151187 0.130881
0.209836 0.152794 0.132393
0.225751 0.154429 0.133932
0.241868 0.156085 0.135490
0.258148 0.157757 0.137064
0.274565 0.159443 0.138651
0.291100 0.161142 0.140250
0.307739 0.162851 0.141858
0.324471 0.164569 0.143476
0.341287 0.166297 0.145101
0.358180 0.168032 0.146735
0.375143 0.169774 0.148374
0.392172 0.171523 0.150021
0.409261 0.173279 0.151673
0.426408 0.175040 0.153331
0.443608 0.176807 0.154993
0.460859 0.178579 0.156661
0.478158 0.180356 0.158334
0.495503 0.182137 0.160010
0.512891 0.183924 0.161691
0.530321 0.185714 0.163376
0.547790 0.187508 0.165065
0.565298 0.189307 0.166758
0.582841 0.191109 0.168454
0.600420 0.192914 0.170153
0.618033 0.194723 0.171856
0.635679 0.196536 0.173562
0.653356 0.198352 0.175271
0.671063 0.200171 0.176983
0.688800 0.201993 0.178698
0.706566 0.203817 0.180415
0.169975 0.167104 0.132988
0.184214 0.168566 0.134364
0.199457 0.170132 0.135838
0.215104 0.171739 0.137351
0.231018 0.173374 0.138889
0.247136 0.175029 0.140448
0.263416 0.176702 0.142021
0.279833 0.178388 0.143609
0.296368 0.180086 0.145207
0.313007 0.181795 0.146816
0.329739 0.183514 0.148433
0.346554 0.185241 0.150059
0.363447 0.186977 0.151692
0.380410 0.188719 0.153332
0.397439 0.190468 0.154978
0.414528 0.192224 0.156630
0.431675 0.193985 0.158288
0.448876 0.195752 0.159951
0.466127 0.197524 0.161619
0.483426 0.199301 0.163291
0.500771 0.201082 0.164968
0.518159 0.202868 0.166649
0.535588 0.204659 0.168334
0.553058 0.206453 0.170023
0.570565 0.208251 0.171715
0.588109 0.210053 0.173411
0.605688 0.211859 0.175111
0.623301 0.213668 0.176814
0.640946 0.215481 0.178519
0.658623 0.217297 0.180228
0.676331 0.219115 0.181940
0.694068 0.220937 0.183655
0.711833 0.222762 0.185373
0.175381 0.186550 0.138077
0.189620 0.188012 0.139453
0.204864 0.189578 0.140927
0.220510 0.191185 0.142440
0.236425 0.192820 0.143978
0.252542 0.194476 0.145536
0.268822 0.196148 0.147110
0.285239 0.197834 0.148697
0.301774 0.199533 0.150296
0.318413 0.201242 0.151904
0.335145 0.202961 0.153522
0.351961 0.204688 0.155148
0.368854 0.206423 0.156781
0.385817 0.208165 0.158421
0.402846 0.209915 0.160067
0.419935 0.211670 0.161719
0.437082 0.213431 0.163377
0.454282 0.215198 0.165040
0.471533 0.216970 0.166707
0.488833 0.218747 0.168380
0.506177 0.220529 0.170057
0.523565 0.222315 0.171738
0.540995 0.224105 0.173423
0.558464 0.225899 0.175111
0.575972 0.227698 0.176804
0.593515 0.229500 0.178500
0.611094 0.231305 0.180200
0.628707 0.233115 0.181902
0.646353 0.234927 0.183608
0.664030 0.236743 0.185317
0.681737 0.238562 0.187029
0.699474 0.240384 0.188744
0.717240 0.242209 0.190461
0.180881 0.206329 0.143252
0.195120 0.207792 0.144629
0.210363 0.209358 0.146103
0.226010 0.210965 0.147615
0.241925 0.212600 0.149154
0.258042 0.214255 0.150712
0.274322 0.215927 0.152286
0.290739 0.217614 0.153873
0.307274 0.219312 0.155472
0.323913 0.221021 0.157080
0.340645 0.222740 0.158698
0.357461 0.224467 0.160323
0.374353 0.226202 0.161957
0.391316 0.227945 0.163597
0.408345 0.229694 0.165243
0.425435 0.231449 0.166895
0.442581 0.233211 0.168553
0.459782 0.234977 0.170215
0.477033 0.236749 0.171883
0.494332 0.238526 0.173556
0.511677 0.240308 0.175232
0.529065 0.242094 0.176913
0.546494 0.243884 0.178598
0.563964 0.245679 0.180287
0.581471 0.247477 0.181980
0.599015 0.249279 0.183676
0.616594 0.251085 0.185375
0.634207 0.252894 0.187078
0.651852 0.254707 0.188784
0.669529 0.256522 0.190493
0.687237 0.258341 0.192205
0.704974 0.260163 0.193920
0.722739 0.261988 0.195637
0.186450 0.226360 0.148494
0.200689 0.227823 0.149871
0.215932 0.229388 0.151344
0.231579 0.230996 0.152857
0.247494 0.232630 0.154396
0.263611 0.234286 0.155954
0.279891 0.235958 0.157528
0.296308 0.237644 0.159115
0.312843 0.239343 0.160713
0.329482 0.241052 0.162322
0.346214 0.242771 0.163939
0.363030 0.244498 0.165565
0.379922 0.246233 0.167198
0.396886 0.247976 0.168838
0.413914 0.249725 0.170484
0.431004 0.251480 0.172137
0.448151 0.253241 0.173794
0.465351 0.255008 0.175457
0.482602 0.256780 0.177125
0.499901 0.258557 0.178797
0.517246 0.260339 0.180474
0.534634 0.262125 0.182155
0.552064 0.263915 0.183840
0.569533 0.265710 0.185529
0.587040 0.267508 0.187222
0.604584 0.269310 0.188918
0.622163 0.271116 0.190617
0.639776 0.272925 0.192320
0.657421 0.274737 0.194026
0.675098 0.276553 0.195735
0.692806 0.278372 0.197447
0.710543 0.280194 0.199161
0.728309 0.282019 0.200879
0.192076 0.246594 0.153789
0.206315 0.248056 0.155165
0.221558 0.249622 0.156639
0.237205 0.251229 0.158152
0.253119 0.252864 0.159690
0.269236 0.254519 0.161248
0.285517 0.256192 0.162822
0.301934 0.257878 0.164409
0.318469 0.259576 0.166008
0.335108 0.261285 0.167617
0.351839 0.263004 0.169234
0.368655 0.264731 0.170860
0.385548 0.266467 0.172493
0.402511 0.268209 0.174133
0.419540 0.269958 0.175779
0.436629 0.271714 0.177431
0.453776 0.273475 0.179089
0.470977 0.275242 0.180752
0.488228 0.277014 0.182420
0.505527 0.278791 0.184092
0.522871 0.280572 0.185769
0.540260 0.282358 0.187450
0.557689 0.284149 0.189135
0.575159 0.285943 0.190824
0.592666 0.287741 0.192516
0.610210 0.289543 0.194212
0.627789 0.291349 0.195912
0.645401 0.293158 0.197614
0.663047 0.294971 0.199320
0.680724 0.296787 0.201029
0.698432 0.298605 0.202741
0.716169 0.300427 0.204456
0.733934 0.302252 0.206173
0.197749 0.266997 0.159128
0.211987 0.268460 0.160505
0.227231 0.270025 0.161978
0.242878 0.271633 0.163491
0.258792 0.273267 0.165029
0.274909 0.274923 0.166588
0.291189 0.276595 0.168161
0.307606 0.278281 0.169749
0.324142 0.279980 0.171347
0.340781 0.281689 0.172956
0.357512 0.283408 0.174573
0.374328 0.285135 0.176199
0.391221 0.286870 0.177832
0.408184 0.288613 0.179472
0.425213 0.290362 0.181118
0.442302 0.292117 0.182770
0.459449 0.293878 0.184428
0.476649 0.295645 0.186091
0.493901 0.297417 0.187759
0.511200 0.299194 0.189431
0.528544 0.300976 0.191108
0.545933 0.302762 0.192789
0.563362 0.304552 0.194474
0.580831 0.306347 0.196163
0.598339 0.308145 0.197855
0.615883 0.309947 0.199551
0.633462 0.311753 0.201251
0.651074 0.313562 0.202954
0.668720 0.315374 0.204660
0.686397 0.317190 0.206368
0.704104 0.319009 0.208080
0.721841 0.320831 0.209795
0.739607 0.322656 0.211513
0.203462 0.287547 0.164506
0.217701 0.289010 0.165882
0.232944 0.290576 0.167356
0.248591 0.292183 0.168868
0.264506 0.293818 0.170407
0.280623 0.295473 0.171965
0.296903 0.297145 0.173539
0.313320 0.298832 0.175126
0.329855 0.300530 0.176725
0.346494 0.302239 0.178333
0.363226 0.303958 0.179951
0.380042 0.305685 0.181577
0.396935 0.307420 0.183210
0.413898 0.309163 0.184850
0.430926 0.310912 0.186496
0.448016 0.312667 0.188148
0.465163 0.314429 0.189806
0.482363 0.316196 0.191469
0.499614 0.317968 0.193136
0.516913 0.319744 0.194809
0.534258 0.321526 0.196486
0.551646 0.323312 0.198167
0.569076 0.325102 0.199852
0.586545 0.326897 0.201540
0.604052 0.328695 0.203233
0.621596 0.330497 0.204929
0.639175 0.332303 0.206629
0.656788 0.334112 0.208331
0.674434 0.335925 0.210037
0.692111 0.337740 0.211746
0.709818 0.339559 0.213458
0.727555 0.341381 0.215173
0.745321 0.343206 0.216890
0.209212 0.308227 0.169917
0.223451 0.309689 0.171294
0.238694 0.311255 0.172767
0.254341 0.312862 0.174280
0.270256 0.314497 0.175818
0.286373 0.316153 0.177377
0.302653 0.317825 0.178950
0.319070 0.319511 0.180538
0.335605 0.321210 0.182136
0.352244 0.322919 0.183745
0.368976 0.324637 0.185362
0.385792 0.326365 0.186988
0.402684 0.328100 0.188621
0.419647 0.329842 0.190261
0.436676 0.331592 0.191907
0.453766 0.333347 0.193559
0.470912 0.335108 0.195217
0.488113 0.336875 0.196880
0.505364 0.338647 0.198548
0.522663 0.340424 0.200220
0.540008 0.342206 0.201897
0.557396 0.343992 0.203578
0.574825 0.345782 0.205263
0.592295 0.347576 0.206952
0.609802 0.349375 0.208644
0.627346 0.351177 0.210340
0.644925 0.352982 0.212040
0.662538 0.354792 0.213743
0.680183 0.356604 0.215449
0.697860 0.358420 0.217157
0.715568 0.360239 0.218869
0.733305 0.362061 0.220584
0.751070 0.363886 0.222302
0.214994 0.329022 0.175359
0.229232 0.330484 0.176735
0.244476 0.332050 0.178209
0.260123 0.333657 0.179721
0.276037 0.335292 0.181260
0.292154 0.336948 0.182818
0.308434 0.338620 0.184392
0.324851 0.340306 0.185979
0.341387 0.342005 0.187578
0.358025 0.343714 0.189186
0.374757 0.345432 0.190804
0.391573 0.347160 0.192430
0.408466 0.348895 0.194063
0.425429 0.350637 0.195703
0.442458 0.352386 0.197349
0.459547 0.354142 0.199001
0.476694 0.355903 0.200659
0.493894 0.357670 0.202322
0.511146 0.359442 0.203989
0.528445 0.361219 0.205662
0.545789 0.363000 0.207339
0.563178 0.364787 0.209020
0.580607 0.366577 0.210705
0.598076 0.368371 0.212393
0.615584 0.370170 0.214086
0.633128 0.371972 0.215782
0.650707 0.373777 0.217482
0.668319 0.375586 0.219184
0.685965 0.377399 0.220890
0.703642 0.379215 0.222599
0.721349 0.381034 0.224311
0.739086 0.382856 0.226026
0.756852 0.384680 0.227743
0.220804 0.349921 0.180828
0.235043 0.351384 0.182204
0.250286 0.352949 0.183678
0.265933 0.354557 0.185190
0.281848 0.356191 0.186729
0.297965 0.357847 0.188287
0.314245 0.359519 0.189861
0.330662 0.361205 0.191448
0.347197 0.362904 0.193047
0.363836 0.364613 0.194655
0.380568 0.366332 0.196273
0.397384 0.368059 0.197899
0.414277 0.369794 0.199532
0.431240 0.371537 0.201172
0.448268 0.373286 0.202818
0.465358 0.375041 0.204470
0.482505 0.376802 0.206128
0.499705 0.378569 0.207790
0.516956 0.380341 0.209458
0.534255 0.382118 0.211131
0.551600 0.383900 0.212807
0.568988 0.385686 0.214488
0.586418 0.387476 0.216174
0.603887 0.389271 0.217862
0.621394 0.391069 0.219555
0.638938 0.392871 0.221251
0.656517 0.394677 0.222950
0.674130 0.396486 0.224653
0.691776 0.398298 0.226359
0.709453 0.400114 0.228068
0.727160 0.401933 0.229780
0.744897 0.403755 0.231495
0.762663 0.405580 0.233212
0.226641 0.370916 0.186321
0.240880 0.372378 0.187698
0.256124 0.373944 0.189172
0.271770 0.375551 0.190684
0.287685 0.377186 0.192223
0.303802 0.378842 0.193781
0.320082 0.380514 0.195355
0.336499 0.382200 0.196942
0.353034 0.383899 0.198541
0.369673 0.385608 0.200149
0.386405 0.387326 0.201767
0.403221 0.389054 0.203392
0.420114 0.390789 0.205025
0.437077 0.392531 0.206665
0.454106 0.394280 0.208312
0.471195 0.396036 0.209964
0.488342 0.397797 0.211621
0.505542 0.399564 0.213284
0.522793 0.401336 0.214952
0.540093 0.403113 0.216625
0.557437 0.404894 0.218301
0.574825 0.406680 0.219982
0.592255 0.408471 0.221667
0.609724 0.410265 0.223356
0.627232 0.412064 0.225049
0.644776 0.413866 0.226745
0.662355 0.415671 0.228444
0.679967 0.417480 0.230147
0.697613 0.419293 0.231853
0.715290 0.421109 0.233562
0.732997 0.422928 0.235274
0.750734 0.424750 0.236989
0.768500 0.426574 0.238706
0.232503 0.391998 0.191838
0.246742 0.393461 0.193215
0.261985 0.395026 0.194688
0.277632 0.396634 0.196201
0.293547 0.398268 0.197740
0.309664 0.399924 0.199298
0.325944 0.401596 0.200872
0.342361 0.403283 0.202459
0.358896 0.404981 0.204057
0.375535 0.406690 0.205666
0.392267 0.408409 0.207284
0.409083 0.410136 0.208909
0.425975 0.411871 0.210542
0.442939 0.413614 0.212182
0.459967 0.415363 0.213829
0.477057 0.417118 0.215481
0.494204 0.418879 0.217138
0.511404 0.420646 0.218801
0.528655 0.422418 0.220469
0.545954 0.424195 0.222141
0.563299 0.425977 0.223818
0.580687 0.427763 0.225499
0.598117 0.429553 0.227184
0.615586 0.431348 0.228873
0.633093 0.433146 0.230566
0.650637 0.434948 0.232262
0.668216 0.436754 0.233961
0.685829 0.438563 0.235664
0.703474 0.440375 0.237370
0.721151 0.442191 0.239079
0.738859 0.444010 0.240791
0.756596 0.445832 0.242505
0.774362 0.447657 0.244223
0.238387 0.413162 0.197376
0.252626 0.414624 0.198753
0.267870 0.416190 0.200227
0.283516 0.417797 0.201739
0.299431 0.419432 0.203278
0.315548 0.421088 0.204836
0.331828 0.422760 0.206410
0.348245 0.424446 0.207997
0.364780 0.426145 0.209595
0.381419 0.427854 0.211204
0.398151 0.429572 0.212822
0.414967 0.431300 0.214447
0.431860 0.433035 0.216080
0.448823 0.434777 0.217720
0.465852 0.436527 0.219367
0.482941 0.438282 0.221019
0.500088 0.440043 0.222676
0.517288 0.441810 0.224339
0.534539 0.443582 0.226007
0.551838 0.445359 0.227679
0.569183 0.447141 0.229356
0.586571 0.448927 0.231037
0.604001 0.450717 0.232722
0.621470 0.452511 0.234411
0.638978 0.454310 0.236104
0.656521 0.456112 0.237800
0.674100 0.457917 0.239499
0.691713 0.459727 0.241202
0.709359 0.461539 0.242908
0.727036 0.463355 0.244617
0.744743 0.465174 0.246329
0.762480 0.466996 0.248043
0.780246 0.468821 0.249761
0.244293 0.434401 0.202934
0.258532 0.435864 0.204311
0.273775 0.437430 0.205785
0.289422 0.439037 0.207297
0.305336 0.440672 0.208836
0.321454 0.442327 0.210394
0.337734 0.443999 0.211968
0.354151 0.445686 0.213555
0.370686 0.447384 0.215153
0.387325 0.449093 0.216762
0.404057 0.450812 0.218380
0.420872 0.452539 0.220005
0.437765 0.454274 0.221638
0.454728 0.456017 0.223278
0.471757 0.457766 0.224925
0.488846 0.459521 0.226577
0.505993 0.461283 0.228234
0.523194 0.463050 0.229897
0.540445 0.464822 0.231565
0.557744 0.466598 0.233237
0.575089 0.468380 0.234914
0.592477 0.470166 0.236595
0.609906 0.471956 0.238280
0.627376 0.473751 0.239969
0.644883 0.475549 0.241662
0.662427 0.477351 0.243358
0.680006 0.479157 0.245057
0.697619 0.480966 0.246760
0.715264 0.482779 0.248466
0.732941 0.484594 0.250175
0.750649 0.486413 0.251887
0.768386 0.488235 0.253601
0.786151 0.490060 0.255319
0.250218 0.455712 0.208511
0.264457 0.457174 0.209887
0.279700 0.458740 0.211361
0.295347 0.460347 0.212874
0.311262 0.461982 0.214412
0.327379 0.463638 0.215970
0.343659 0.465310 0.217544
0.360076 0.466996 0.219131
0.376611 0.468695 0.220730
0.393250 0.470404 0.222339
0.409982 0.472122 0.223956
0.426797 0.473850 0.225582
0.443690 0.475585 0.227215
0.460653 0.477327 0.228855
0.477682 0.479077 0.230501
0.494772 0.480832 0.232153
0.511918 0.482593 0.233811
0.529119 0.484360 0.235474
0.546370 0.486132 0.237142
0.563669 0.487909 0.238814
0.581014 0.489691 0.240491
0.598402 0.491477 0.242172
0.615831 0.493267 0.243857
0.633301 0.495061 0.245546
0.650808 0.496860 0.247238
0.668352 0.498662 0.248934
0.685931 0.500467 0.250634
0.703544 0.502277 0.252336
0.721189 0.504089 0.254042
0.738866 0.505905 0.255751
0.756574 0.507724 0.257463
0.774311 0.509546 0.259178
0.792076 0.511371 0.260895
0.256161 0.477089 0.214105
0.270400 0.478552 0.215481
0.285644 0.480117 0.216955
0.301290 0.481725 0.218468
0.317205 0.483359 0.220006
0.333322 0.485015 0.221564
0.349602 0.486687 0.223138
0.366019 0.488373 0.224725
0.382554 0.490072 0.226324
0.399193 0.491781 0.227933
0.415925 0.493500 0.229550
0.432741 0.495227 0.231176
0.449634 0.496962 0.232809
0.466597 0.498705 0.234449
0.483626 0.500454 0.236095
0.500715 0.502209 0.237747
0.517862 0.503970 0.239405
0.535062 0.505737 0.241068
0.552313 0.507509 0.242736
0.569612 0.509286 0.244408
0.586957 0.511068 0.246085
0.604345 0.512854 0.247766
0.621775 0.514644 0.249451
0.639244 0.516439 0.251140
0.656752 0.518237 0.252832
0.674295 0.520039 0.254528
0.691874 0.521845 0.256228
0.709487 0.523654 0.257930
0.727133 0.525466 0.259636
0.744810 0.527282 0.261345
0.762517 0.529101 0.263057
0.780254 0.530923 0.264772
0.798020 0.532748 0.266489
0.262122 0.498529 0.219715
0.276361 0.499992 0.221092
0.291605 0.501558 0.222565
0.307251 0.503165 0.224078
0.323166 0.504800 0.225617
0.339283 0.506455 0.227175
0.355563 0.508127 0.228749
0.371980 0.509814 0.230336
0.388515 0.511512 0.231934
0.405154 0.513221 0.233543
0.421886 0.514940 0.235161
0.438702 0.516667 0.236786
0.455595 0.518402 0.238419
0.472558 0.520145 0.240059
0.489587 0.521894 0.241706
0.506676 0.523649 0.243358
0.523823 0.525411 0.245015
0.541023 0.527177 0.246678
0.558274 0.528949 0.248346
0.575574 0.530726 0.250018
0.592918 0.532508 0.251695
0.610306 0.534294 0.253376
0.627736 0.536084 0.255061
0.645205 0.537879 0.256750
0.662713 0.539677 0.258443
0.680257 0.541479 0.260139
0.697836 0.543285 0.261838
0.715448 0.545094 0.263541
0.733094 0.546907 0.265247
0.750771 0.548722 0.266956
0.768478 0.550541 0.268668
0.786215 0.552363 0.270382
0.803981 0.554188 0.272100
0.268100 0.520029 0.225341
0.282339 0.521492 0.226718
0.297582 0.523058 0.228192
0.313229 0.524665 0.229704
0.329144 0.526300 0.231243
0.345261 0.527955 0.232801
0.361541 0.529627 0.234375
0.377958 0.531314 0.235962
0.394493 0.533012 0.237560
0.411132 0.534721 0.239169
0.427864 0.536440 0.240787
0.444680 0.538167 0.242412
0.461572 0.539902 0.244045
0.478536 0.541645 0.245685
0.495564 0.543394 0.247332
0.512654 0.545149 0.248984
0.529801 0.546911 0.250641
0.547001 0.548677 0.252304
0.564252 0.550449 0.253972
0.581551 0.552226 0.255644
0.598896 0.554008 0.257321
0.616284 0.555794 0.259002
0.633714 0.557584 0.260687
0.651183 0.559379 0.262376
0.668690 0.561177 0.264069
0.686234 0.562979 0.265765
0.703813 0.564785 0.267464
0.721426 0.566594 0.269167
0.739072 0.568406 0.270873
0.756749 0.570222 0.272582
0.774456 0.572041 0.274294
0.792193 0.573863 0.276008
0.809959 0.575688 0.277726
0.274094 0.541586 0.230982
0.288333 0.543048 0.232359
0.303576 0.544614 0.233832
0.319223 0.546221 0.235345
0.335137 0.547856 0.236884
0.351254 0.549512 0.238442
0.367535 0.551184 0.240016
0.383952 0.552870 0.241603
0.400487 0.554569 0.243201
0.417126 0.556278 0.244810
0.433858 0.557996 0.246428
0.450673 0.559724 0.248053
0.467566 0.561459 0.249686
0.484529 0.563201 0.251326
0.501558 0.564950 0.252973
0.518647 0.566706 0.254625
0.535794 0.568467 0.256282
0.552995 0.570234 0.257945
0.570246 0.572006 0.259613
0.587545 0.573783 0.261285
0.604889 0.575564 0.262962
0.622278 0.577351 0.264643
0.639707 0.579141 0.266328
0.657177 0.580935 0.268017
0.674684 0.582734 0.269710
0.692228 0.584536 0.271406
0.709807 0.586341 0.273105
0.727420 0.588151 0.274808
0.745065 0.589963 0.276514
0.762742 0.591779 0.278223
0.780450 0.593598 0.279935
0.798187 0.595420 0.281649
0.815952 0.597244 0.283367
0.280102 0.563196 0.236637
0.294341 0.564659 0.238014
0.309584 0.566225 0.239488
0.325231 0.567832 0.241000
0.341146 0.569467 0.242539
0.357263 0.571122 0.244097
0.373543 0.572794 0.245671
0.389960 0.574481 0.247258
0.406495 0.576179 0.248856
0.423134 0.577888 0.250465
0.439866 0.579607 0.252083
0.456682 0.581334 0.253708
0.473574 0.583069 0.255341
0.490538 0.584812 0.256981
0.507566 0.586561 0.258628
0.524656 0.588316 0.260280
0.541803 0.590078 0.261937
0.559003 0.591844 0.263600
0.576254 0.593616 0.265268
0.593553 0.595393 0.266940
0.610898 0.597175 0.268617
0.628286 0.598961 0.270298
0.645716 0.600751 0.271983
0.663185 0.602546 0.273672
0.680692 0.604344 0.275365
0.698236 0.606146 0.277061
0.715815 0.607952 0.278760
0.733428 0.609761 0.280463
0.751073 0.611574 0.282169
0.768750 0.613389 0.283878
0.786458 0.615208 0.285590
0.804195 0.617030 0.287304
0.821961 0.618855 0.289022
0.286125 0.584858 0.242306
0.300364 0.586321 0.243682
0.315607 0.587887 0.245156
0.331254 0.589494 0.246669
0.347169 0.591129 0.248207
0.363286 0.592784 0.249765
0.379566 0.594457 0.251339
0.395983 0.596143 0.252926
0.412518 0.597841 0.254525
0.429157 0.599550 0.256134
0.445889 0.601269 0.257751
0.462705 0.602996 0.259377
0.479597 0.604732 0.261010
0.496560 0.606474 0.262650
0.513589 0.608223 0.264296
0.530679 0.609979 0.265948
0.547825 0.611740 0.267606
0.565026 0.613507 0.269269
0.582277 0.615279 0.270937
0.599576 0.617056 0.272609
0.616921 0.618837 0.274286
0.634309 0.620623 0.275967
0.651739 0.622414 0.277652
0.669208 0.624208 0.279341
0.686715 0.626006 0.281033
0.704259 0.627808 0.282729
0.721838 0.629614 0.284429
0.739451 0.631423 0.286131
0.757096 0.633236 0.287837
0.774773 0.635051 0.289546
0.792481 0.636870 0.291258
0.810218 0.638692 0.292973
0.827984 0.640517 0.294690
0.292161 0.606570 0.247987
0.306400 0.608032 0.249364
0.321644 0.609598 0.250837
0.337290 0.611205 0.252350
0.353205 0.612840 0.253889
0.369322 0.614496 0.255447
0.385602 0.616168 0.257021
0.402019 0.617854 0.258608
0.418554 0.619553 0.260206
0.435193 0.621262 0.261815
0.451925 0.622980 0.263433
0.468741 0.624708 0.265058
0.485634 0.626443 0.266691
0.502597 0.628185 0.268331
0.519626 0.629935 0.269978
0.536715 0.631690 0.271630
0.553862 0.633451 0.273287
0.571062 0.635218 0.274950
0.588313 0.636990 0.276618
0.605613 0.638767 0.278290
0.622957 0.640549 0.279967
0.640345 0.642335 0.281648
0.657775 0.644125 0.283333
0.675244 0.645919 0.285022
0.692752 0.647718 0.286715
0.710296 0.649520 0.288411
0.727874 0.651325 0.290110
0.745487 0.653135 0.291813
0.763133 0.654947 0.293519
0.780810 0.656763 0.295228
0.798517 0.658582 0.296940
0.816254 0.660404 0.298654
0.834020 0.662228 0.300372
0.298211 0.628328 0.253681
0.312450 0.629791 0.255058
0.327693 0.631357 0.256531
0.343340 0.632964 0.258044
0.359255 0.634599 0.259582
0.375372 0.636254 0.261141
0.391652 0.637927 0.262715
0.408069 0.639613 0.264302
0.424604 0.641311 0.265900
0.441243 0.643020 0.267509
0.457975 0.644739 0.269126
0.474791 0.646466 0.270752
0.491683 0.648202 0.272385
0.508647 0.649944 0.274025
0.525675 0.651693 0.275671
0.542765 0.653449 0.277323
0.559912 0.655210 0.278981
0.577112 0.656977 0.280644
0.594363 0.658749 0.282312
0.611662 0.660526 0.283984
0.629007 0.662307 0.285661
0.646395 0.664093 0.287342
0.663825 0.665884 0.289027
0.681294 0.667678 0.290716
0.698801 0.669476 0.292408
0.716345 0.671278 0.294104
0.733924 0.673084 0.295804
0.751537 0.674893 0.297507
0.769182 0.676706 0.299213
0.786859 0.678521 0.300922
0.804567 0.680340 0.302633
0.822304 0.682162 0.304348
0.840070 0.683987 0.306066
0.304273 0.650133 0.259387
0.318512 0.651595 0.260763
0.333756 0.653161 0.262237
0.349402 0.654768 0.263750
0.365317 0.656403 0.265288
0.381434 0.658058 0.266846
0.397714 0.659731 0.268420
0.414131 0.661417 0.270007
0.430666 0.663115 0.271606
0.447305 0.664825 0.273214
0.464037 0.666543 0.274832
0.480853 0.668270 0.276458
0.497746 0.670006 0.278091
0.514709 0.671748 0.279731
0.531738 0.673497 0.281377
0.548827 0.675253 0.283029
0.565974 0.677014 0.284687
0.583174 0.678781 0.286350
0.600425 0.680553 0.288017
0.617725 0.682330 0.289690
0.635069 0.684111 0.291367
0.652457 0.685897 0.293048
0.669887 0.687688 0.294733
0.687356 0.689482 0.296422
0.704864 0.691280 0.298114
0.722407 0.693082 0.299810
0.739986 0.694888 0.301510
0.757599 0.696697 0.303212
0.775245 0.698510 0.304918
0.792922 0.700326 0.306627
0.810629 0.702144 0.308339
0.828366 0.703966 0.310054
0.846132 0.705791 0.311771
0.310348 0.671980 0.265104
0.324587 0.673443 0.266480
0.339830 0.675009 0.267954
0.355477 0.676616 0.269467
0.371392 0.678251 0.271005
0.387509 0.679906 0.272563
0.403789 0.681578 0.274137
0.420206 0.683265 0.275724
0.436741 0.684963 0.277323
0.453380 0.686672 0.278932
0.470112 0.688391 0.280549
0.486928 0.690118 0.282175
0.503820 0.691853 0.283808
0.520783 0.693596 0.285448
0.537812 0.695345 0.287094
0.554902 0.697100 0.288746
0.572048 0.698862 0.290404
0.589249 0.700628 0.292067
0.606500 0.702400 0.293735
0.623799 0.704177 0.295407
0.641144 0.705959 0.297084
0.658532 0.707745 0.298765
0.675961 0.709535 0.300450
0.693431 0.711330 0.302139
0.710938 0.713128 0.303831
0.728482 0.714930 0.305527
0.746061 0.716736 0.307227
0.763674 0.718545 0.308929
