Fotico/Resources/LUTs/sf_matte.cube
TITLE "Matte"
LUT_3D_SIZE 9
DOMAIN_MIN 0.0 0.0 0.0
DOMAIN_MAX 1.0 1.0 1.0
0.185000 0.185000 0.185000
0.245148 0.190023 0.190023
0.305295 0.195045 0.195045
0.365443 0.200068 0.200068
0.425591 0.205091 0.205091
0.485738 0.210113 0.210113
0.545886 0.215136 0.215136
0.606034 0.220159 0.220159
0.666181 0.225181 0.225181
0.201897 0.257022 0.201897
0.262044 0.262044 0.206919
0.322192 0.267067 0.211942
0.382340 0.272090 0.216965
0.442487 0.277112 0.221987
0.502635 0.282135 0.227010
0.562783 0.287158 0.232033
0.622930 0.292180 0.237055
0.683078 0.297203 0.242078
0.218793 0.329043 0.218793
0.278941 0.334066 0.223816
0.339089 0.339089 0.228839
0.399236 0.344111 0.233861
0.459384 0.349134 0.238884
0.519532 0.354157 0.243907
0.579679 0.359179 0.248929
0.639827 0.364202 0.253952
0.699975 0.369225 0.258975
0.235690 0.401065 0.235690
0.295837 0.406087 0.240712
0.355985 0.411110 0.245735
0.416133 0.416133 0.250758
0.476280 0.421156 0.255781
0.536428 0.426178 0.260803
0.596576 0.431201 0.265826
0.656724 0.436224 0.270849
0.716871 0.441246 0.275871
0.252586 0.473086 0.252586
0.312734 0.478109 0.257609
0.372882 0.483132 0.262632
0.433029 0.488154 0.267654
0.493177 0.493177 0.272677
0.553325 0.498200 0.277700
0.613472 0.503222 0.282722
0.673620 0.508245 0.287745
0.733768 0.513268 0.292768
0.269483 0.545108 0.269483
0.329631 0.550131 0.274506
0.389778 0.555153 0.279528
0.449926 0.560176 0.284551
0.510074 0.565199 0.289574
0.570221 0.570221 0.294596
0.630369 0.575244 0.299619
0.690517 0.580267 0.304642
0.750664 0.585289 0.309664
0.286380 0.617130 0.286380
0.346527 0.622152 0.291402
0.406675 0.627175 0.296425
0.466823 0.632198 0.301448
0.526970 0.637220 0.306470
0.587118 0.642243 0.311493
0.647266 0.647266 0.316516
0.707413 0.652288 0.321538
0.767561 0.657311 0.326561
0.303276 0.689151 0.303276
0.363424 0.694174 0.308299
0.423572 0.699197 0.313322
0.483719 0.704219 0.318344
0.543867 0.709242 0.323367
0.604015 0.714265 0.328390
0.664162 0.719287 0.333412
0.724310 0.724310 0.338435
0.784458 0.729333 0.343458
0.320173 0.761173 0.320173
0.380320 0.766195 0.325195
0.440468 0.771218 0.330218
0.500616 0.776241 0.335241
0.560763 0.781264 0.340263
0.620911 0.786286 0.345286
0.681059 0.791309 0.350309
0.741207 0.796332 0.355332
0.801354 0.801354 0.360354
0.186685 0.186685 0.241154
0.246833 0.191708 0.246177
0.306981 0.196731 0.251200
0.367128 0.201753 0.256222
0.427276 0.206776 0.261245
0.487424 0.211799 0.266268
0.547571 0.216821 0.271290
0.607719 0.221844 0.276313
0.667867 0.226867 0.281336
0.203582 0.258707 0.258051
0.263730 0.263730 0.263073
0.323877 0.268752 0.268096
0.384025 0.273775 0.273119
0.444173 0.278798 0.278141
0.504320 0.283820 0.283164
0.564468 0.288843 0.288187
0.624616 0.293866 0.293209
0.684763 0.298888 0.298232
0.220479 0.330729 0.274947
0.280626 0.335751 0.279970
0.340774 0.340774 0.284993
0.400922 0.345797 0.290015
0.461069 0.350819 0.295038
0.521217 0.355842 0.300061
0.581365 0.360865 0.305083
0.641512 0.365887 0.310106
0.701660 0.370910 0.315129
0.237375 0.402750 0.291844
0.297523 0.407773 0.296867
0.357671 0.412796 0.301889
0.417818 0.417818 0.306912
0.477966 0.422841 0.311935
0.538114 0.427864 0.316957
0.598261 0.432886 0.321980
0.658409 0.437909 0.327003
0.718557 0.442932 0.332025
0.254272 0.474772 0.308741
0.314419 0.479794 0.313763
0.374567 0.484817 0.318786
0.434715 0.489840 0.323809
0.494863 0.494863 0.328831
0.555010 0.499885 0.333854
0.615158 0.504908 0.338877
0.675306 0.509931 0.343899
0.735453 0.514953 0.348922
0.271168 0.546793 0.325637
0.331316 0.551816 0.330660
0.391464 0.556839 0.335683
0.451611 0.561861 0.340705
0.511759 0.566884 0.345728
0.571907 0.571907 0.350751
0.632054 0.576929 0.355773
0.692202 0.581952 0.360796
0.752350 0.586975 0.365819
0.288065 0.618815 0.342534
0.348213 0.623838 0.347556
0.408360 0.628860 0.352579
0.468508 0.633883 0.357602
0.528656 0.638906 0.362624
0.588803 0.643928 0.367647
0.648951 0.648951 0.372670
0.709099 0.653974 0.377692
0.769246 0.658996 0.382715
0.304962 0.690837 0.359430
0.365109 0.695859 0.364453
0.425257 0.700882 0.369476
0.485405 0.705905 0.374498
0.545552 0.710927 0.379521
0.605700 0.715950 0.384544
0.665848 0.720973 0.389566
0.725995 0.725995 0.394589
0.786143 0.731018 0.399612
0.321858 0.762858 0.376327
0.382006 0.767881 0.381350
0.442154 0.772904 0.386372
0.502301 0.777926 0.391395
0.562449 0.782949 0.396418
0.622597 0.787972 0.401440
0.682744 0.792994 0.406463
0.742892 0.798017 0.411486
0.803040 0.803040 0.416508
0.188371 0.188371 0.297308
0.248519 0.193394 0.302331
0.308666 0.198416 0.307354
0.368814 0.203439 0.312376
0.428962 0.208462 0.317399
0.489109 0.213484 0.322422
0.549257 0.218507 0.327444
0.609405 0.223530 0.332467
0.669552 0.228552 0.337490
0.205267 0.260392 0.314205
0.265415 0.265415 0.319228
0.325563 0.270438 0.324250
0.385710 0.275460 0.329273
0.445858 0.280483 0.334296
0.506006 0.285506 0.339318
0.566153 0.290528 0.344341
0.626301 0.295551 0.349364
0.686449 0.300574 0.354386
0.222164 0.332414 0.331102
0.282312 0.337437 0.336124
0.342459 0.342459 0.341147
0.402607 0.347482 0.346170
0.462755 0.352505 0.351192
0.522902 0.357527 0.356215
0.583050 0.362550 0.361238
0.643198 0.367573 0.366260
0.703345 0.372595 0.371283
0.239061 0.404436 0.347998
0.299208 0.409458 0.353021
0.359356 0.414481 0.358043
0.419504 0.419504 0.363066
0.479651 0.424526 0.368089
0.539799 0.429549 0.373112
0.599947 0.434572 0.378134
0.660094 0.439594 0.383157
0.720242 0.444617 0.388180
0.255957 0.476457 0.364895
0.316105 0.481480 0.369917
0.376253 0.486503 0.374940
0.436400 0.491525 0.379963
0.496548 0.496548 0.384985
0.556696 0.501571 0.390008
0.616843 0.506593 0.395031
0.676991 0.511616 0.400053
0.737139 0.516639 0.405076
0.272854 0.548479 0.381791
0.333002 0.553502 0.386814
0.393149 0.558524 0.391837
0.453297 0.563547 0.396859
0.513445 0.568570 0.401882
0.573592 0.573592 0.406905
0.633740 0.578615 0.411927
0.693888 0.583638 0.416950
0.754035 0.588660 0.421973
0.289750 0.620500 0.398688
0.349898 0.625523 0.403711
0.410046 0.630546 0.408733
0.470193 0.635568 0.413756
0.530341 0.640591 0.418779
0.590489 0.645614 0.423801
0.650636 0.650636 0.428824
0.710784 0.655659 0.433847
0.770932 0.660682 0.438869
0.306647 0.692522 0.415585
0.366795 0.697545 0.420607
0.426942 0.702567 0.425630
0.487090 0.707590 0.430653
0.547238 0.712613 0.435675
0.607385 0.717635 0.440698
0.667533 0.722658 0.445721
0.727681 0.727681 0.450743
0.787828 0.732703 0.455766
0.323544 0.764544 0.432481
0.383691 0.769566 0.437504
0.443839 0.774589 0.442526
0.503987 0.779612 0.447549
0.564134 0.784634 0.452572
0.624282 0.789657 0.457595
0.684430 0.794680 0.462617
0.744577 0.799702 0.467640
0.804725 0.804725 0.472663
0.190056 0.190056 0.353463
0.250204 0.195079 0.358485
0.310352 0.200102 0.363508
0.370499 0.205124 0.368531
0.430647 0.210147 0.373553
0.490795 0.215170 0.378576
0.550942 0.220192 0.383599
0.611090 0.225215 0.388621
0.671238 0.230238 0.393644
0.206953 0.262078 0.370359
0.267101 0.267101 0.375382
0.327248 0.272123 0.380404
0.387396 0.277146 0.385427
0.447544 0.282169 0.390450
0.507691 0.287191 0.395472
0.567839 0.292214 0.400495
0.627987 0.297237 0.405518
0.688134 0.302259 0.410541
0.223849 0.334099 0.387256
0.283997 0.339122 0.392278
0.344145 0.344145 0.397301
0.404292 0.349167 0.402324
0.464440 0.354190 0.407346
0.524588 0.359213 0.412369
0.584736 0.364236 0.417392
0.644883 0.369258 0.422414
0.705031 0.374281 0.427437
0.240746 0.406121 0.404152
0.300894 0.411144 0.409175
0.361041 0.416166 0.414198
0.421189 0.421189 0.419220
0.481337 0.426212 0.424243
0.541484 0.431234 0.429266
0.601632 0.436257 0.434288
0.661780 0.441280 0.439311
0.721927 0.446302 0.444334
0.257643 0.478143 0.421049
0.317790 0.483165 0.426072
0.377938 0.488188 0.431094
0.438086 0.493211 0.436117
0.498233 0.498233 0.441140
0.558381 0.503256 0.446162
0.618529 0.508279 0.451185
0.678676 0.513301 0.456208
0.738824 0.518324 0.461230
0.274539 0.550164 0.437946
0.334687 0.555187 0.442968
0.394835 0.560210 0.447991
0.454982 0.565232 0.453014
0.515130 0.570255 0.458036
0.575278 0.575278 0.463059
0.635425 0.580300 0.468082
0.695573 0.585323 0.473104
0.755721 0.590346 0.478127
0.291436 0.622186 0.454842
0.351584 0.627209 0.459865
0.411731 0.632231 0.464887
0.471879 0.637254 0.469910
0.532027 0.642277 0.474933
0.592174 0.647299 0.479955
0.652322 0.652322 0.484978
0.712470 0.657345 0.490001
0.772617 0.662367 0.495024
0.308332 0.694207 0.471739
0.368480 0.699230 0.476761
0.428628 0.704253 0.481784
0.488775 0.709275 0.486807
0.548923 0.714298 0.491829
0.609071 0.719321 0.496852
0.669219 0.724344 0.501875
0.729366 0.729366 0.506897
0.789514 0.734389 0.511920
0.325229 0.766229 0.488635
0.385377 0.771252 0.493658
0.445524 0.776274 0.498681
0.505672 0.781297 0.503703
0.565820 0.786320 0.508726
0.625967 0.791342 0.513749
0.686115 0.796365 0.518771
0.746263 0.801388 0.523794
0.806410 0.806410 0.528817
0.191742 0.191742 0.409617
0.251889 0.196764 0.414639
0.312037 0.201787 0.419662
0.372185 0.206810 0.424685
0.432332 0.211832 0.429707
0.492480 0.216855 0.434730
0.552628 0.221878 0.439753
0.612775 0.226900 0.444775
0.672923 0.231923 0.449798
0.208638 0.263763 0.426513
0.268786 0.268786 0.431536
0.328934 0.273809 0.436559
0.389081 0.278831 0.441581
0.449229 0.283854 0.446604
0.509377 0.288877 0.451627
0.569524 0.293899 0.456649
0.629672 0.298922 0.461672
0.689820 0.303945 0.466695
0.225535 0.335785 0.443410
0.285683 0.340808 0.448433
0.345830 0.345830 0.453455
0.405978 0.350853 0.458478
0.466126 0.355876 0.463501
0.526273 0.360898 0.468523
0.586421 0.365921 0.473546
0.646569 0.370944 0.478569
0.706716 0.375966 0.483591
0.242431 0.407806 0.460306
0.302579 0.412829 0.465329
0.362727 0.417852 0.470352
0.422875 0.422875 0.475375
0.483022 0.427897 0.480397
0.543170 0.432920 0.485420
0.603318 0.437943 0.490443
0.663465 0.442965 0.495465
0.723613 0.447988 0.500488
0.259328 0.479828 0.477203
0.319476 0.484851 0.482226
0.379623 0.489873 0.487248
0.439771 0.494896 0.492271
0.499919 0.499919 0.497294
0.560066 0.504941 0.502316
0.620214 0.509964 0.507339
0.680362 0.514987 0.512362
0.740509 0.520009 0.517384
0.276225 0.551850 0.494100
0.336372 0.556872 0.499122
0.396520 0.561895 0.504145
0.456668 0.566918 0.509168
0.516815 0.571940 0.514190
0.576963 0.576963 0.519213
0.637111 0.581986 0.524236
0.697258 0.587008 0.529258
0.757406 0.592031 0.534281
0.293121 0.623871 0.510996
0.353269 0.628894 0.516019
0.413417 0.633917 0.521042
0.473564 0.638939 0.526064
0.533712 0.643962 0.531087
0.593860 0.648985 0.536110
0.654007 0.654007 0.541132
0.714155 0.659030 0.546155
0.774303 0.664053 0.551178
0.310018 0.695893 0.527893
0.370166 0.700916 0.532916
0.430313 0.705938 0.537938
0.490461 0.710961 0.542961
0.550609 0.715984 0.547984
0.610756 0.721006 0.553006
0.670904 0.726029 0.558029
0.731052 0.731052 0.563052
0.791199 0.736074 0.568074
0.326914 0.767914 0.544789
0.387062 0.772937 0.549812
0.447210 0.777960 0.554835
0.507358 0.782983 0.559858
0.567505 0.788005 0.564880
0.627653 0.793028 0.569903
0.687801 0.798051 0.574926
0.747948 0.803073 0.579948
0.808096 0.808096 0.584971
0.193427 0.193427 0.465771
0.253575 0.198450 0.470794
0.313722 0.203472 0.475816
0.373870 0.208495 0.480839
0.434018 0.213518 0.485862
0.494165 0.218540 0.490884
0.554313 0.223563 0.495907
0.614461 0.228586 0.500930
0.674608 0.233608 0.505952
0.210324 0.265449 0.482667
0.270471 0.270471 0.487690
0.330619 0.275494 0.492713
0.390767 0.280517 0.497735
0.450914 0.285539 0.502758
0.511062 0.290562 0.507781
0.571210 0.295585 0.512803
0.631357 0.300607 0.517826
0.691505 0.305630 0.522849
0.227220 0.337470 0.499564
0.287368 0.342493 0.504587
0.347516 0.347516 0.509609
0.407663 0.352538 0.514632
0.467811 0.357561 0.519655
0.527959 0.362584 0.524677
0.588106 0.367606 0.529700
0.648254 0.372629 0.534723
0.708402 0.377652 0.539745
0.244117 0.409492 0.516461
0.304265 0.414515 0.521483
0.364412 0.419537 0.526506
0.424560 0.424560 0.531529
0.484708 0.429583 0.536551
0.544855 0.434605 0.541574
0.605003 0.439628 0.546597
0.665151 0.444651 0.551619
0.725298 0.449673 0.556642
0.261013 0.481513 0.533357
0.321161 0.486536 0.538380
0.381309 0.491559 0.543403
0.441457 0.496582 0.548425
0.501604 0.501604 0.553448
0.561752 0.506627 0.558471
0.621900 0.511650 0.563493
0.682047 0.516672 0.568516
0.742195 0.521695 0.573539
0.277910 0.553535 0.550254
0.338058 0.558558 0.555277
0.398205 0.563580 0.560299
0.458353 0.568603 0.565322
0.518501 0.573626 0.570345
0.578648 0.578648 0.575367
0.638796 0.583671 0.580390
0.698944 0.588694 0.585413
0.759091 0.593716 0.590435
0.294807 0.625557 0.567150
0.354954 0.630579 0.572173
0.415102 0.635602 0.577196
0.475250 0.640625 0.582218
0.535397 0.645647 0.587241
0.595545 0.650670 0.592264
0.655693 0.655693 0.597286
0.715840 0.660715 0.602309
0.775988 0.665738 0.607332
0.311703 0.697578 0.584047
0.371851 0.702601 0.589070
0.431999 0.707624 0.594092
0.492146 0.712646 0.599115
0.552294 0.717669 0.604138
0.612442 0.722692 0.609160
0.672589 0.727714 0.614183
0.732737 0.732737 0.619206
0.792885 0.737760 0.624228
0.328600 0.769600 0.600944
0.388748 0.774623 0.605966
0.448895 0.779645 0.610989
0.509043 0.784668 0.616012
0.569191 0.789691 0.621034
0.629338 0.794713 0.626057
0.689486 0.799736 0.631080
0.749634 0.804759 0.636102
0.809781 0.809781 0.641125
0.195113 0.195113 0.521925
0.255260 0.200135 0.526948
0.315408 0.205158 0.531970
0.375556 0.210181 0.536993
0.435703 0.215203 0.542016
0.495851 0.220226 0.547038
0.555999 0.225249 0.552061
0.616146 0.230271 0.557084
0.676294 0.235294 0.562106
0.212009 0.267134 0.538822
0.272157 0.272157 0.543844
0.332304 0.277179 0.548867
0.392452 0.282202 0.553890
0.452600 0.287225 0.558912
0.512747 0.292247 0.563935
0.572895 0.297270 0.568958
0.633043 0.302293 0.573980
0.693191 0.307316 0.579003
0.228906 0.339156 0.555718
0.289053 0.344178 0.560741
0.349201 0.349201 0.565764
0.409349 0.354224 0.570786
0.469496 0.359246 0.575809
0.529644 0.364269 0.580832
0.589792 0.369292 0.585854
0.649939 0.374314 0.590877
0.710087 0.379337 0.595900
0.245802 0.411177 0.572615
0.305950 0.416200 0.577637
0.366098 0.421223 0.582660
0.426245 0.426245 0.587683
0.486393 0.431268 0.592706
0.546541 0.436291 0.597728
0.606688 0.441313 0.602751
0.666836 0.446336 0.607774
0.726984 0.451359 0.612796
0.262699 0.483199 0.589511
0.322847 0.488222 0.594534
0.382994 0.493244 0.599557
0.443142 0.498267 0.604579
0.503290 0.503290 0.609602
0.563437 0.508312 0.614625
0.623585 0.513335 0.619647
0.683733 0.518358 0.624670
0.743880 0.523380 0.629693
0.279596 0.555221 0.606408
0.339743 0.560243 0.611431
0.399891 0.565266 0.616453
0.460039 0.570289 0.621476
0.520186 0.575311 0.626499
0.580334 0.580334 0.631521
0.640482 0.585357 0.636544
0.700629 0.590379 0.641567
0.760777 0.595402 0.646589
0.296492 0.627242 0.623305
0.356640 0.632265 0.628327
0.416787 0.637287 0.633350
0.476935 0.642310 0.638373
0.537083 0.647333 0.643395
0.597230 0.652355 0.648418
0.657378 0.657378 0.653441
0.717526 0.662401 0.658463
0.777674 0.667424 0.663486
0.313389 0.699264 0.640201
0.373536 0.704286 0.645224
0.433684 0.709309 0.650247
0.493832 0.714332 0.655269
0.553979 0.719354 0.660292
0.614127 0.724377 0.665315
0.674275 0.729400 0.670337
0.734422 0.734422 0.675360
0.794570 0.739445 0.680383
0.330285 0.771285 0.657098
0.390433 0.776308 0.662120
0.450581 0.781331 0.667143
0.510728 0.786353 0.672166
0.570876 0.791376 0.677189
0.631024 0.796399 0.682211
0.691171 0.801421 0.687234
0.751319 0.806444 0.692257
0.811467 0.811467 0.697279
0.196798 0.196798 0.578079
0.256946 0.201821 0.583102
0.317093 0.206843 0.588125
0.377241 0.211866 0.593147
0.437389 0.216889 0.598170
0.497536 0.221911 0.603193
0.557684 0.226934 0.608215
0.617832 0.231957 0.613238
0.677979 0.236979 0.618261
0.213695 0.268820 0.594976
0.273842 0.273842 0.599998
0.333990 0.278865 0.605021
0.394138 0.283888 0.610044
0.454285 0.288910 0.615066
0.514433 0.293933 0.620089
0.574581 0.298956 0.625112
0.634728 0.303978 0.630135
0.694876 0.309001 0.635157
0.230591 0.340841 0.611872
0.290739 0.345864 0.616895
0.350886 0.350886 0.621918
0.411034 0.355909 0.626940
0.471182 0.360932 0.631963
0.531330 0.365955 0.636986
0.591477 0.370977 0.642008
0.651625 0.376000 0.647031
0.711773 0.381023 0.652054
0.247488 0.412863 0.628769
0.307635 0.417885 0.633792
0.367783 0.422908 0.638814
0.427931 0.427931 0.643837
0.488078 0.432953 0.648860
0.548226 0.437976 0.653882
0.608374 0.442999 0.658905
0.668521 0.448021 0.663928
0.728669 0.453044 0.668950
0.264384 0.484884 0.645666
0.324532 0.489907 0.650688
0.384680 0.494930 0.655711
0.444827 0.499952 0.660734
0.504975 0.504975 0.665756
0.565123 0.509998 0.670779
0.625270 0.515020 0.675802
0.685418 0.520043 0.680824
0.745566 0.525066 0.685847
0.281281 0.556906 0.662562
0.341429 0.561929 0.667585
0.401576 0.566951 0.672608
0.461724 0.571974 0.677630
0.521872 0.576997 0.682653
0.582019 0.582019 0.687676
0.642167 0.587042 0.692698
0.702315 0.592065 0.697721
0.762462 0.597087 0.702744
0.298178 0.628928 0.679459
0.358325 0.633950 0.684481
0.418473 0.638973 0.689504
0.478621 0.643996 0.694527
0.538768 0.649018 0.699549
0.598916 0.654041 0.704572
0.659064 0.659064 0.709595
0.719211 0.664086 0.714618
0.779359 0.669109 0.719640
0.315074 0.700949 0.696355
0.375222 0.705972 0.701378
0.435369 0.710994 0.706401
0.495517 0.716017 0.711423
0.555665 0.721040 0.716446
0.615813 0.726063 0.721469
0.675960 0.731085 0.726491
0.736108 0.736108 0.731514
0.796256 0.741131 0.736537
0.331971 0.772971 0.713252
0.392118 0.777993 0.718275
0.452266 0.783016 0.723297
0.512414 0.788039 0.728320
0.572561 0.793061 0.733343
0.632709 0.798084 0.738365
0.692857 0.803107 0.743388
0.753004 0.808129 0.748411
0.813152 0.813152 0.753433
0.198483 0.198483 0.634233
0.258631 0.203506 0.639256
0.318779 0.208529 0.644279
0.378926 0.213551 0.649301
0.439074 0.218574 0.654324
0.499222 0.223597 0.659347
0.559369 0.228619 0.664369
0.619517 0.233642 0.669392
0.679665 0.238665 0.674415
0.215380 0.270505 0.651130
0.275528 0.275528 0.656153
0.335675 0.280550 0.661175
0.395823 0.285573 0.666198
0.455971 0.290596 0.671221
0.516118 0.295618 0.676243
0.576266 0.300641 0.681266
0.636414 0.305664 0.686289
0.696561 0.310686 0.691311
0.232277 0.342527 0.668027
0.292424 0.347549 0.673049
0.352572 0.352572 0.678072
0.412720 0.357595 0.683095
0.472867 0.362617 0.688117
0.533015 0.367640 0.693140
0.593163 0.372663 0.698163
0.653310 0.377685 0.703185
0.713458 0.382708 0.708208
0.249173 0.414548 0.684923
0.309321 0.419571 0.689946
0.369469 0.424594 0.694968
0.429616 0.429616 0.699991
0.489764 0.434639 0.705014
0.549912 0.439662 0.710037
0.610059 0.444684 0.715059
0.670207 0.449707 0.720082
0.730355 0.454730 0.725105
0.266070 0.486570 0.701820
0.326217 0.491592 0.706842
0.386365 0.496615 0.711865
0.446513 0.501638 0.716888
0.506660 0.506660 0.721910
0.566808 0.511683 0.726933
0.626956 0.516706 0.731956
0.687103 0.521728 0.736978
0.747251 0.526751 0.742001
0.282966 0.558591 0.718716
0.343114 0.563614 0.723739
0.403262 0.568637 0.728762
0.463409 0.573659 0.733784
0.523557 0.578682 0.738807
0.583705 0.583705 0.743830
0.643852 0.588727 0.748852
0.704000 0.593750 0.753875
0.764148 0.598773 0.758898
0.299863 0.630613 0.735613
0.360011 0.635636 0.740636
0.420158 0.640658 0.745658
0.480306 0.645681 0.750681
0.540454 0.650704 0.755704
0.600601 0.655726 0.760726
0.660749 0.660749 0.765749
0.720897 0.665772 0.770772
0.781044 0.670794 0.775794
0.316760 0.702635 0.752510
0.376907 0.707657 0.757532
0.437055 0.712680 0.762555
0.497203 0.717703 0.767578
0.557350 0.722725 0.772600
0.617498 0.727748 0.777623
0.677646 0.732771 0.782646
0.737793 0.737793 0.787668
0.797941 0.742816 0.792691
0.333656 0.774656 0.769406
0.393804 0.779679 0.774429
0.453952 0.784701 0.779451
0.514099 0.789724 0.784474
0.574247 0.794747 0.789497
0.634395 0.799770 0.794520
0.694542 0.804792 0.799542
0.754690 0.809815 0.804565
0.814838 0.814838 0.809588
