Fotico/Resources/LUTs/sf_muse.cube
TITLE "Muse"
LUT_3D_SIZE 5
DOMAIN_MIN 0.0 0.0 0.0
DOMAIN_MAX 1.0 1.0 1.0
0.159787 0.130462 0.123400
0.286180 0.143445 0.135619
0.421488 0.157343 0.148700
0.560377 0.171610 0.162127
0.701646 0.186121 0.175784
0.203462 0.287547 0.164506
0.329855 0.300530 0.176725
0.465163 0.314429 0.189806
0.604052 0.328695 0.203233
0.745321 0.343206 0.216890
0.250218 0.455712 0.208511
0.376611 0.468695 0.220730
0.511918 0.482593 0.233811
0.650808 0.496860 0.247238
0.792076 0.511371 0.260895
0.298211 0.628328 0.253681
0.424604 0.641311 0.265900
0.559912 0.655210 0.278981
0.698801 0.669476 0.292408
0.840070 0.683987 0.306066
0.347026 0.803901 0.299625
0.473419 0.816884 0.311844
0.608727 0.830783 0.324925
0.747617 0.845049 0.338352
0.888885 0.859560 0.352010
0.163667 0.134342 0.220984
0.290060 0.147325 0.233203
0.425368 0.161223 0.246284
0.564257 0.175490 0.259711
0.705526 0.190001 0.273368
0.207342 0.291427 0.262090
0.333735 0.304410 0.274309
0.469043 0.318309 0.287390
0.607932 0.332575 0.300817
0.749201 0.347086 0.314474
0.254098 0.459592 0.306095
0.380491 0.472575 0.318314
0.515798 0.486473 0.331395
0.654688 0.500740 0.344822
0.795956 0.515251 0.358480
0.302091 0.632209 0.351265
0.428484 0.645191 0.363484
0.563792 0.659090 0.376565
0.702681 0.673356 0.389993
0.843950 0.687867 0.403650
0.350906 0.807781 0.397209
0.477299 0.820764 0.409428
0.612607 0.834663 0.422509
0.751497 0.848929 0.435936
0.892765 0.863440 0.449594
0.168104 0.138779 0.332576
0.294497 0.151762 0.344795
0.429805 0.165660 0.357876
0.568694 0.179927 0.371303
0.709963 0.194438 0.384961
0.211779 0.295864 0.373682
0.338172 0.308847 0.385901
0.473480 0.322746 0.398982
0.612369 0.337012 0.412409
0.753638 0.351523 0.426067
0.258535 0.464029 0.417687
0.384928 0.477012 0.429906
0.520235 0.490910 0.442987
0.659125 0.505177 0.456415
0.800393 0.519688 0.470072
0.306528 0.636646 0.462857
0.432921 0.649628 0.475077
0.568229 0.663527 0.488157
0.707118 0.677793 0.501585
0.848387 0.692304 0.515242
0.355343 0.812218 0.508801
0.481736 0.825201 0.521020
0.617044 0.839100 0.534101
0.755934 0.853366 0.547529
0.897202 0.867877 0.561186
0.172779 0.143454 0.450148
0.299172 0.156437 0.462367
0.434479 0.170335 0.475448
0.573369 0.184602 0.488875
0.714638 0.199113 0.502532
0.216454 0.300539 0.491254
0.342847 0.313522 0.503473
0.478155 0.327421 0.516554
0.617044 0.341687 0.529981
0.758313 0.356198 0.543638
0.263210 0.468704 0.535259
0.389603 0.481687 0.547478
0.524910 0.495585 0.560559
0.663800 0.509852 0.573986
0.805068 0.524362 0.587643
0.311203 0.641320 0.580429
0.437596 0.654303 0.592648
0.572903 0.668202 0.605729
0.711793 0.682468 0.619156
0.853062 0.696979 0.632814
0.360018 0.816893 0.626373
0.486411 0.829876 0.638592
0.621719 0.843775 0.651673
0.760608 0.858041 0.665100
0.901877 0.872552 0.678758
0.177615 0.148290 0.571779
0.304008 0.161273 0.583998
0.439316 0.175171 0.597079
0.578205 0.189438 0.610506
0.719474 0.203949 0.624164
0.221290 0.305375 0.612885
0.347683 0.318358 0.625104
0.482991 0.332257 0.638185
0.621880 0.346523 0.651612
0.763149 0.361034 0.665270
0.268046 0.473540 0.656890
0.394439 0.486523 0.669109
0.529746 0.500421 0.682190
0.668636 0.514688 0.695617
0.809904 0.529199 0.709275
0.316039 0.646156 0.702060
0.442432 0.659139 0.714279
0.577740 0.673038 0.727360
0.716629 0.687304 0.740788
0.857898 0.701815 0.754445
0.364854 0.821729 0.748004
0.491247 0.834712 0.760223
0.626555 0.848611 0.773304
0.765445 0.862877 0.786732
0.906713 0.877388 0.800389
