Fotico/Resources/LUTs/sf_muse.cube
TITLE "Muse"
LUT_3D_SIZE 9
DOMAIN_MIN 0.0 0.0 0.0
DOMAIN_MAX 1.0 1.0 1.0
0.159787 0.130462 0.123400
0.220831 0.136732 0.129301
0.286180 0.143445 0.135619
0.353259 0.150335 0.142104
0.421488 0.157343 0.148700
0.490583 0.164441 0.155380
0.560377 0.171610 0.162127
0.630758 0.178839 0.168931
0.701646 0.186121 0.175784
0.180881 0.206329 0.143252
0.241925 0.212600 0.149154
0.307274 0.219312 0.155472
0.374353 0.226202 0.161957
0.442581 0.233211 0.168553
0.511677 0.240308 0.175232
0.581471 0.247477 0.181980
0.651852 0.254707 0.188784
0.722739 0.261988 0.195637
0.203462 0.287547 0.164506
0.264506 0.293818 0.170407
0.329855 0.300530 0.176725
0.396935 0.307420 0.183210
0.465163 0.314429 0.189806
0.534258 0.321526 0.196486
0.604052 0.328695 0.203233
0.674434 0.335925 0.210037
0.745321 0.343206 0.216890
0.226641 0.370916 0.186321
0.287685 0.377186 0.192223
0.353034 0.383899 0.198541
0.420114 0.390789 0.205025
0.488342 0.397797 0.211621
0.557437 0.404894 0.218301
0.627232 0.412064 0.225049
0.697613 0.419293 0.231853
0.768500 0.426574 0.238706
0.250218 0.455712 0.208511
0.311262 0.461982 0.214412
0.376611 0.468695 0.220730
0.443690 0.475585 0.227215
0.511918 0.482593 0.233811
0.581014 0.489691 0.240491
0.650808 0.496860 0.247238
0.721189 0.504089 0.254042
0.792076 0.511371 0.260895
0.274094 0.541586 0.230982
0.335137 0.547856 0.236884
0.400487 0.554569 0.243201
0.467566 0.561459 0.249686
0.535794 0.568467 0.256282
0.604889 0.575564 0.262962
0.674684 0.582734 0.269710
0.745065 0.589963 0.276514
0.815952 0.597244 0.283367
0.298211 0.628328 0.253681
0.359255 0.634599 0.259582
0.424604 0.641311 0.265900
0.491683 0.648202 0.272385
0.559912 0.655210 0.278981
0.629007 0.662307 0.285661
0.698801 0.669476 0.292408
0.769182 0.676706 0.299213
0.840070 0.683987 0.306066
0.322531 0.715800 0.276571
0.383575 0.722071 0.282472
0.448924 0.728783 0.288790
0.516004 0.735673 0.295275
0.584232 0.742682 0.301871
0.653327 0.749779 0.308551
0.723122 0.756948 0.315298
0.793503 0.764178 0.322102
0.864390 0.771459 0.328955
0.347026 0.803901 0.299625
0.408070 0.810172 0.305526
0.473419 0.816884 0.311844
0.540499 0.823775 0.318329
0.608727 0.830783 0.324925
0.677822 0.837880 0.331605
0.747617 0.845049 0.338352
0.817998 0.852279 0.345156
0.888885 0.859560 0.352010
0.161597 0.132272 0.168924
0.222641 0.138542 0.174826
0.287990 0.145255 0.181143
0.355070 0.152145 0.187628
0.423298 0.159154 0.194224
0.492393 0.166251 0.200904
0.562187 0.173420 0.207652
0.632569 0.180649 0.214456
0.703456 0.187931 0.221309
0.182691 0.208139 0.188777
0.243735 0.214410 0.194679
0.309084 0.221122 0.200996
0.376163 0.228012 0.207481
0.444391 0.235021 0.214077
0.513487 0.242118 0.220757
0.583281 0.249287 0.227505
0.653662 0.256517 0.234309
0.724550 0.263798 0.241162
0.205272 0.289357 0.210030
0.266316 0.295628 0.215932
0.331665 0.302340 0.222249
0.398745 0.309231 0.228734
0.466973 0.316239 0.235330
0.536068 0.323336 0.242010
0.605863 0.330505 0.248758
0.676244 0.337735 0.255562
0.747131 0.345016 0.262415
0.228452 0.372726 0.231846
0.289495 0.378996 0.237747
0.354845 0.385709 0.244065
0.421924 0.392599 0.250550
0.490152 0.399607 0.257146
0.559247 0.406705 0.263826
0.629042 0.413874 0.270573
0.699423 0.421103 0.277378
0.770310 0.428384 0.284231
0.252028 0.457522 0.254035
0.313072 0.463792 0.259937
0.378421 0.470505 0.266255
0.445500 0.477395 0.272740
0.513728 0.484403 0.279336
0.582824 0.491501 0.286015
0.652618 0.498670 0.292763
0.722999 0.505899 0.299567
0.793887 0.513181 0.306420
0.275904 0.543396 0.276507
0.336948 0.549666 0.282408
0.402297 0.556379 0.288726
0.469376 0.563269 0.295211
0.537604 0.570277 0.301807
0.606700 0.577375 0.308487
0.676494 0.584544 0.315234
0.746875 0.591773 0.322038
0.817762 0.599055 0.328892
0.300021 0.630139 0.299206
0.361065 0.636409 0.305107
0.426414 0.643121 0.311425
0.493494 0.650012 0.317910
0.561722 0.657020 0.324506
0.630817 0.664117 0.331186
0.700611 0.671286 0.337933
0.770993 0.678516 0.344737
0.841880 0.685797 0.351590
0.324341 0.717610 0.322095
0.385385 0.723881 0.327997
0.450734 0.730593 0.334314
0.517814 0.737484 0.340799
0.586042 0.744492 0.347395
0.655137 0.751589 0.354075
0.724932 0.758758 0.360823
0.795313 0.765988 0.367627
0.866200 0.773269 0.374480
0.348837 0.805712 0.345150
0.409880 0.811982 0.351051
0.475230 0.818694 0.357369
0.542309 0.825585 0.363854
0.610537 0.832593 0.370450
0.679632 0.839690 0.377129
0.749427 0.846859 0.383877
0.819808 0.854089 0.390681
0.890695 0.861370 0.397534
0.163667 0.134342 0.220984
0.224711 0.140612 0.226885
0.290060 0.147325 0.233203
0.357139 0.154215 0.239688
0.425368 0.161223 0.246284
0.494463 0.168321 0.252964
0.564257 0.175490 0.259711
0.634638 0.182719 0.266515
0.705526 0.190001 0.273368
0.184761 0.210209 0.240837
0.245805 0.216480 0.246738
0.311154 0.223192 0.253056
0.378233 0.230082 0.259541
0.446461 0.237091 0.266137
0.515557 0.244188 0.272817
0.585351 0.251357 0.279564
0.655732 0.258587 0.286368
0.726619 0.265868 0.293221
0.207342 0.291427 0.262090
0.268386 0.297698 0.267991
0.333735 0.304410 0.274309
0.400815 0.311301 0.280794
0.469043 0.318309 0.287390
0.538138 0.325406 0.294070
0.607932 0.332575 0.300817
0.678314 0.339805 0.307621
0.749201 0.347086 0.314474
0.230522 0.374796 0.283906
0.291565 0.381066 0.289807
0.356915 0.387779 0.296125
0.423994 0.394669 0.302610
0.492222 0.401677 0.309206
0.561317 0.408774 0.315886
0.631112 0.415944 0.322633
0.701493 0.423173 0.329437
0.772380 0.430454 0.336290
0.254098 0.459592 0.306095
0.315142 0.465862 0.311996
0.380491 0.472575 0.318314
0.447570 0.479465 0.324799
0.515798 0.486473 0.331395
0.584894 0.493571 0.338075
0.654688 0.500740 0.344822
0.725069 0.507969 0.351627
0.795956 0.515251 0.358480
0.277974 0.545466 0.328566
0.339017 0.551736 0.334468
0.404367 0.558449 0.340786
0.471446 0.565339 0.347271
0.539674 0.572347 0.353867
0.608770 0.579445 0.360546
0.678564 0.586614 0.367294
0.748945 0.593843 0.374098
0.819832 0.601124 0.380951
0.302091 0.632209 0.351265
0.363135 0.638479 0.357167
0.428484 0.645191 0.363484
0.495563 0.652082 0.369969
0.563792 0.659090 0.376565
0.632887 0.666187 0.383245
0.702681 0.673356 0.389993
0.773062 0.680586 0.396797
0.843950 0.687867 0.403650
0.326411 0.719680 0.374155
0.387455 0.725951 0.380056
0.452804 0.732663 0.386374
0.519884 0.739554 0.392859
0.588112 0.746562 0.399455
0.657207 0.753659 0.406135
0.727002 0.760828 0.412882
0.797383 0.768058 0.419686
0.868270 0.775339 0.426539
0.350906 0.807781 0.397209
0.411950 0.814052 0.403111
0.477299 0.820764 0.409428
0.544379 0.827655 0.415913
0.612607 0.834663 0.422509
0.681702 0.841760 0.429189
0.751497 0.848929 0.435936
0.821878 0.856159 0.442741
0.892765 0.863440 0.449594
0.165848 0.136523 0.275833
0.226892 0.142793 0.281734
0.292241 0.149506 0.288052
0.359320 0.156396 0.294537
0.427548 0.163404 0.301133
0.496644 0.170502 0.307813
0.566438 0.177671 0.314560
0.636819 0.184900 0.321364
0.707707 0.192182 0.328218
0.186942 0.212390 0.295686
0.247985 0.218660 0.301587
0.313335 0.225373 0.307905
0.380414 0.232263 0.314390
0.448642 0.239272 0.320986
0.517738 0.246369 0.327666
0.587532 0.253538 0.334413
0.657913 0.260767 0.341217
0.728800 0.268049 0.348070
0.209523 0.293608 0.316939
0.270567 0.299879 0.322840
0.335916 0.306591 0.329158
0.402995 0.313481 0.335643
0.471224 0.320490 0.342239
0.540319 0.327587 0.348919
0.610113 0.334756 0.355666
0.680494 0.341986 0.362470
0.751382 0.349267 0.369324
0.232702 0.376977 0.338755
0.293746 0.383247 0.344656
0.359095 0.389959 0.350974
0.426175 0.396850 0.357459
0.494403 0.403858 0.364055
0.563498 0.410955 0.370735
0.633293 0.418124 0.377482
0.703674 0.425354 0.384286
0.774561 0.432635 0.391139
0.256279 0.461773 0.360944
0.317322 0.468043 0.366846
0.382672 0.474756 0.373163
0.449751 0.481646 0.379648
0.517979 0.488654 0.386244
0.587074 0.495751 0.392924
0.656869 0.502921 0.399672
0.727250 0.510150 0.406476
0.798137 0.517431 0.413329
0.280155 0.547647 0.383416
0.341198 0.553917 0.389317
0.406548 0.560630 0.395635
0.473627 0.567520 0.402120
0.541855 0.574528 0.408716
0.610950 0.581625 0.415396
0.680745 0.588795 0.422143
0.751126 0.596024 0.428947
0.822013 0.603305 0.435800
0.304272 0.634389 0.406114
0.365316 0.640660 0.412016
0.430665 0.647372 0.418334
0.497744 0.654262 0.424818
0.565972 0.661271 0.431414
0.635068 0.668368 0.438094
0.704862 0.675537 0.444842
0.775243 0.682767 0.451646
0.846131 0.690048 0.458499
0.328592 0.721861 0.429004
0.389636 0.728132 0.434905
0.454985 0.734844 0.441223
0.522065 0.741734 0.447708
0.590293 0.748743 0.454304
0.659388 0.755840 0.460984
0.729182 0.763009 0.467731
0.799564 0.770239 0.474536
0.870451 0.777520 0.481389
0.353087 0.809962 0.452058
0.414131 0.816233 0.457960
0.479480 0.822945 0.464277
0.546560 0.829835 0.470762
0.614788 0.836844 0.477358
0.683883 0.843941 0.484038
0.753678 0.851110 0.490786
0.824059 0.858340 0.497590
0.894946 0.865621 0.504443
0.168104 0.138779 0.332576
0.229148 0.145049 0.338477
0.294497 0.151762 0.344795
0.361576 0.158652 0.351280
0.429805 0.165660 0.357876
0.498900 0.172758 0.364556
0.568694 0.179927 0.371303
0.639075 0.187156 0.378107
0.709963 0.194438 0.384961
0.189198 0.214646 0.352429
0.250242 0.220917 0.358330
0.315591 0.227629 0.364648
0.382670 0.234519 0.371133
0.450898 0.241528 0.377729
0.519994 0.248625 0.384409
0.589788 0.255794 0.391156
0.660169 0.263024 0.397960
0.731056 0.270305 0.404813
0.211779 0.295864 0.373682
0.272823 0.302135 0.379583
0.338172 0.308847 0.385901
0.405252 0.315738 0.392386
0.473480 0.322746 0.398982
0.542575 0.329843 0.405662
0.612369 0.337012 0.412409
0.682751 0.344242 0.419213
0.753638 0.351523 0.426067
0.234959 0.379233 0.395498
0.296002 0.385503 0.401399
0.361352 0.392216 0.407717
0.428431 0.399106 0.414202
0.496659 0.406114 0.420798
0.565754 0.413211 0.427478
0.635549 0.420381 0.434225
0.705930 0.427610 0.441029
0.776817 0.434891 0.447882
0.258535 0.464029 0.417687
0.319579 0.470299 0.423589
0.384928 0.477012 0.429906
0.452007 0.483902 0.436391
0.520235 0.490910 0.442987
0.589331 0.498008 0.449667
0.659125 0.505177 0.456415
0.729506 0.512406 0.463219
0.800393 0.519688 0.470072
0.282411 0.549903 0.440159
0.343454 0.556173 0.446060
0.408804 0.562886 0.452378
0.475883 0.569776 0.458863
0.544111 0.576784 0.465459
0.613207 0.583882 0.472139
0.683001 0.591051 0.478886
0.753382 0.598280 0.485690
0.824269 0.605562 0.492543
0.306528 0.636646 0.462857
0.367572 0.642916 0.468759
0.432921 0.649628 0.475077
0.500000 0.656519 0.481561
0.568229 0.663527 0.488157
0.637324 0.670624 0.494837
0.707118 0.677793 0.501585
0.777500 0.685023 0.508389
0.848387 0.692304 0.515242
0.330848 0.724117 0.485747
0.391892 0.730388 0.491648
0.457241 0.737100 0.497966
0.524321 0.743991 0.504451
0.592549 0.750999 0.511047
0.661644 0.758096 0.517727
0.731439 0.765265 0.524474
0.801820 0.772495 0.531279
0.872707 0.779776 0.538132
0.355343 0.812218 0.508801
0.416387 0.818489 0.514703
0.481736 0.825201 0.521020
0.548816 0.832092 0.527505
0.617044 0.839100 0.534101
0.686139 0.846197 0.540781
0.755934 0.853366 0.547529
0.826315 0.860596 0.554333
0.897202 0.867877 0.561186
0.170418 0.141093 0.390770
0.231462 0.147363 0.396672
0.296811 0.154076 0.402989
0.363890 0.160966 0.409474
0.432118 0.167974 0.416070
0.501214 0.175072 0.422750
0.571008 0.182241 0.429498
0.641389 0.189470 0.436302
0.712277 0.196752 0.443155
0.191512 0.216960 0.410623
0.252555 0.223230 0.416524
0.317905 0.229943 0.422842
0.384984 0.236833 0.429327
0.453212 0.243842 0.435923
0.522308 0.250939 0.442603
0.592102 0.258108 0.449350
0.662483 0.265337 0.456155
0.733370 0.272619 0.463008
0.214093 0.298178 0.431876
0.275137 0.304449 0.437778
0.340486 0.311161 0.444095
0.407565 0.318051 0.450580
0.475794 0.325060 0.457176
0.544889 0.332157 0.463856
0.614683 0.339326 0.470604
0.685064 0.346556 0.477408
0.755952 0.353837 0.484261
0.237272 0.381547 0.453692
0.298316 0.387817 0.459593
0.363665 0.394529 0.465911
0.430745 0.401420 0.472396
0.498973 0.408428 0.478992
0.568068 0.415525 0.485672
0.637863 0.422694 0.492419
0.708244 0.429924 0.499223
0.779131 0.437205 0.506077
0.260849 0.466343 0.475881
0.321892 0.472613 0.481783
0.387242 0.479326 0.488100
0.454321 0.486216 0.494585
0.522549 0.493224 0.501181
0.591644 0.500321 0.507861
0.661439 0.507491 0.514609
0.731820 0.514720 0.521413
0.802707 0.522001 0.528266
0.284725 0.552217 0.498353
0.345768 0.558487 0.504254
0.411118 0.565200 0.510572
0.478197 0.572090 0.517057
0.546425 0.579098 0.523653
0.615520 0.586195 0.530333
0.685315 0.593365 0.537080
0.755696 0.600594 0.543884
0.826583 0.607875 0.550737
0.308842 0.638959 0.521052
0.369886 0.645230 0.526953
0.435235 0.651942 0.533271
0.502314 0.658832 0.539756
0.570542 0.665841 0.546352
0.639638 0.672938 0.553032
0.709432 0.680107 0.559779
0.779813 0.687337 0.566583
0.850701 0.694618 0.573436
0.333162 0.726431 0.543941
0.394206 0.732702 0.549843
0.459555 0.739414 0.556160
0.526635 0.746304 0.562645
0.594863 0.753313 0.569241
0.663958 0.760410 0.575921
0.733752 0.767579 0.582669
0.804134 0.774809 0.589473
0.875021 0.782090 0.596326
0.357657 0.814532 0.566995
0.418701 0.820803 0.572897
0.484050 0.827515 0.579215
0.551130 0.834405 0.585700
0.619358 0.841414 0.592296
0.688453 0.848511 0.598975
0.758248 0.855680 0.605723
0.828629 0.862910 0.612527
0.899516 0.870191 0.619380
0.172779 0.143454 0.450148
0.233823 0.149724 0.456049
0.299172 0.156437 0.462367
0.366251 0.163327 0.468852
0.434479 0.170335 0.475448
0.503575 0.177433 0.482128
0.573369 0.184602 0.488875
0.643750 0.191831 0.495679
0.714638 0.199113 0.502532
0.193873 0.219321 0.470000
0.254916 0.225591 0.475902
0.320266 0.232304 0.482220
0.387345 0.239194 0.488705
0.455573 0.246202 0.495301
0.524668 0.253300 0.501980
0.594463 0.260469 0.508728
0.664844 0.267698 0.515532
0.735731 0.274980 0.522385
0.216454 0.300539 0.491254
0.277498 0.306809 0.497155
0.342847 0.313522 0.503473
0.409926 0.320412 0.509958
0.478155 0.327421 0.516554
0.547250 0.334518 0.523234
0.617044 0.341687 0.529981
0.687425 0.348916 0.536785
0.758313 0.356198 0.543638
0.239633 0.383908 0.513069
0.300677 0.390178 0.518971
0.366026 0.396890 0.525289
0.433106 0.403781 0.531773
0.501334 0.410789 0.538369
0.570429 0.417886 0.545049
0.640224 0.425055 0.551797
0.710605 0.432285 0.558601
0.781492 0.439566 0.565454
0.263210 0.468704 0.535259
0.324253 0.474974 0.541160
0.389603 0.481687 0.547478
0.456682 0.488577 0.553963
0.524910 0.495585 0.560559
0.594005 0.502682 0.567239
0.663800 0.509852 0.573986
0.734181 0.517081 0.580790
0.805068 0.524362 0.587643
0.287085 0.554578 0.557730
0.348129 0.560848 0.563632
0.413478 0.567560 0.569949
0.480558 0.574451 0.576434
0.548786 0.581459 0.583030
0.617881 0.588556 0.589710
0.687676 0.595725 0.596458
0.758057 0.602955 0.603262
0.828944 0.610236 0.610115
0.311203 0.641320 0.580429
0.372247 0.647591 0.586330
0.437596 0.654303 0.592648
0.504675 0.661193 0.599133
0.572903 0.668202 0.605729
0.641999 0.675299 0.612409
0.711793 0.682468 0.619156
0.782174 0.689698 0.625961
0.853062 0.696979 0.632814
0.335523 0.728792 0.603319
0.396567 0.735062 0.609220
0.461916 0.741775 0.615538
0.528995 0.748665 0.622023
0.597224 0.755674 0.628619
0.666319 0.762771 0.635299
0.736113 0.769940 0.642046
0.806494 0.777169 0.648850
0.877382 0.784451 0.655703
0.360018 0.816893 0.626373
0.421062 0.823164 0.632274
0.486411 0.829876 0.638592
0.553491 0.836766 0.645077
0.621719 0.843775 0.651673
0.690814 0.850872 0.658353
0.760608 0.858041 0.665100
0.830990 0.865271 0.671904
0.901877 0.872552 0.678758
0.175180 0.145855 0.510527
0.236223 0.152125 0.516429
0.301573 0.158837 0.522747
0.368652 0.165728 0.529232
0.436880 0.172736 0.535828
0.505975 0.179833 0.542507
0.575770 0.187003 0.549255
0.646151 0.194232 0.556059
0.717038 0.201513 0.562912
0.196273 0.221722 0.530380
0.257317 0.227992 0.536282
0.322666 0.234705 0.542599
0.389746 0.241595 0.549084
0.457974 0.248603 0.555680
0.527069 0.255701 0.562360
0.596864 0.262870 0.569108
0.667245 0.270099 0.575912
0.738132 0.277381 0.582765
0.218855 0.302940 0.551633
0.279899 0.309210 0.557535
0.345248 0.315923 0.563853
0.412327 0.322813 0.570338
0.480555 0.329821 0.576934
0.549651 0.336919 0.583613
0.619445 0.344088 0.590361
0.689826 0.351317 0.597165
0.760713 0.358599 0.604018
0.242034 0.386308 0.573449
0.303078 0.392579 0.579351
0.368427 0.399291 0.585668
0.435506 0.406181 0.592153
0.503735 0.413190 0.598749
0.572830 0.420287 0.605429
0.642624 0.427456 0.612177
0.713005 0.434686 0.618981
0.783893 0.441967 0.625834
0.265610 0.471104 0.595639
0.326654 0.477375 0.601540
0.392003 0.484087 0.607858
0.459083 0.490978 0.614343
0.527311 0.497986 0.620939
0.596406 0.505083 0.627619
0.666201 0.512252 0.634366
0.736582 0.519482 0.641170
0.807469 0.526763 0.648023
0.289486 0.556978 0.618110
0.350530 0.563249 0.624012
0.415879 0.569961 0.630329
0.482959 0.576851 0.636814
0.551187 0.583860 0.643410
0.620282 0.590957 0.650090
0.690076 0.598126 0.656837
0.760458 0.605356 0.663642
0.831345 0.612637 0.670495
0.313604 0.643721 0.640809
0.374647 0.649991 0.646710
0.439997 0.656704 0.653028
0.507076 0.663594 0.659513
0.575304 0.670602 0.666109
0.644400 0.677700 0.672789
0.714194 0.684869 0.679536
0.784575 0.692098 0.686340
0.855462 0.699380 0.693194
0.337924 0.731193 0.663698
0.398968 0.737463 0.669600
0.464317 0.744176 0.675918
0.531396 0.751066 0.682403
0.599624 0.758074 0.688999
0.668720 0.765172 0.695678
0.738514 0.772341 0.702426
0.808895 0.779570 0.709230
0.879783 0.786852 0.716083
0.362419 0.819294 0.686753
0.423463 0.825564 0.692654
0.488812 0.832277 0.698972
0.555891 0.839167 0.705457
0.624119 0.846175 0.712053
0.693215 0.853273 0.718733
0.763009 0.860442 0.725480
0.833390 0.867671 0.732284
0.904278 0.874953 0.739137
0.177615 0.148290 0.571779
0.238659 0.154560 0.577680
0.304008 0.161273 0.583998
0.371087 0.168163 0.590483
0.439316 0.175171 0.597079
0.508411 0.182269 0.603759
0.578205 0.189438 0.610506
0.648586 0.196667 0.617310
0.719474 0.203949 0.624164
0.198709 0.224157 0.591632
0.259753 0.230428 0.597533
0.325102 0.237140 0.603851
0.392181 0.244030 0.610336
0.460409 0.251039 0.616932
0.529505 0.258136 0.623612
0.599299 0.265305 0.630359
0.669680 0.272535 0.637163
0.740567 0.279816 0.644016
0.221290 0.305375 0.612885
0.282334 0.311646 0.618786
0.347683 0.318358 0.625104
0.414763 0.325248 0.631589
0.482991 0.332257 0.638185
0.552086 0.339354 0.644865
0.621880 0.346523 0.651612
0.692262 0.353753 0.658416
0.763149 0.361034 0.665270
0.244469 0.388744 0.634701
0.305513 0.395014 0.640602
0.370862 0.401727 0.646920
0.437942 0.408617 0.653405
0.506170 0.415625 0.660001
0.575265 0.422722 0.666681
0.645060 0.429892 0.673428
0.715441 0.437121 0.680232
0.786328 0.444402 0.687085
0.268046 0.473540 0.656890
0.329090 0.479810 0.662792
0.394439 0.486523 0.669109
0.461518 0.493413 0.675594
0.529746 0.500421 0.682190
0.598842 0.507519 0.688870
0.668636 0.514688 0.695617
0.739017 0.521917 0.702422
0.809904 0.529199 0.709275
0.291922 0.559414 0.679362
0.352965 0.565684 0.685263
0.418315 0.572397 0.691581
0.485394 0.579287 0.698066
0.553622 0.586295 0.704662
0.622717 0.593392 0.711341
0.692512 0.600562 0.718089
0.762893 0.607791 0.724893
0.833780 0.615072 0.731746
0.316039 0.646156 0.702060
0.377083 0.652427 0.707962
0.442432 0.659139 0.714279
0.509511 0.666030 0.720764
0.577740 0.673038 0.727360
0.646835 0.680135 0.734040
0.716629 0.687304 0.740788
0.787010 0.694534 0.747592
0.857898 0.701815 0.754445
0.340359 0.733628 0.724950
0.401403 0.739899 0.730851
0.466752 0.746611 0.737169
0.533832 0.753501 0.743654
0.602060 0.760510 0.750250
0.671155 0.767607 0.756930
0.740950 0.774776 0.763677
0.811331 0.782006 0.770481
0.882218 0.789287 0.777335
0.364854 0.821729 0.748004
0.425898 0.828000 0.753906
0.491247 0.834712 0.760223
0.558327 0.841603 0.766708
0.626555 0.848611 0.773304
0.695650 0.855708 0.779984
0.765445 0.862877 0.786732
0.835826 0.870107 0.793536
0.906713 0.877388 0.800389
