Fotico/Resources/LUTs/sf_matte.cube
TITLE "Matte"
LUT_3D_SIZE 5
DOMAIN_MIN 0.0 0.0 0.0
DOMAIN_MAX 1.0 1.0 1.0
0.185000 0.185000 0.185000
0.305295 0.195045 0.195045
0.425591 0.205091 0.205091
0.545886 0.215136 0.215136
0.666181 0.225181 0.225181
0.218793 0.329043 0.218793
0.339089 0.339089 0.228839
0.459384 0.349134 0.238884
0.579679 0.359179 0.248929
0.699975 0.369225 0.258975
0.252586 0.473086 0.252586
0.372882 0.483132 0.262632
0.493177 0.493177 0.272677
0.613472 0.503222 0.282722
0.733768 0.513268 0.292768
0.286380 0.617130 0.286380
0.406675 0.627175 0.296425
0.526970 0.637220 0.306470
0.647266 0.647266 0.316516
0.767561 0.657311 0.326561
0.320173 0.761173 0.320173
0.440468 0.771218 0.330218
0.560763 0.781264 0.340263
0.681059 0.791309 0.350309
0.801354 0.801354 0.360354
0.188371 0.188371 0.297308
0.308666 0.198416 0.307354
0.428962 0.208462 0.317399
0.549257 0.218507 0.327444
0.669552 0.228552 0.337490
0.222164 0.332414 0.331102
0.342459 0.342459 0.341147
0.462755 0.352505 0.351192
0.583050 0.362550 0.361238
0.703345 0.372595 0.371283
0.255957 0.476457 0.364895
0.376253 0.486503 0.374940
0.496548 0.496548 0.384985
0.616843 0.506593 0.395031
0.737139 0.516639 0.405076
0.289750 0.620500 0.398688
0.410046 0.630546 0.408733
0.530341 0.640591 0.418779
0.650636 0.650636 0.428824
0.770932 0.660682 0.438869
0.323544 0.764544 0.432481
0.443839 0.774589 0.442526
0.564134 0.784634 0.452572
0.684430 0.794680 0.462617
0.804725 0.804725 0.472663
0.191742 0.191742 0.409617
0.312037 0.201787 0.419662
0.432332 0.211832 0.429707
0.552628 0.221878 0.439753
0.672923 0.231923 0.449798
0.225535 0.335785 0.443410
0.345830 0.345830 0.453455
0.466126 0.355876 0.463501
0.586421 0.365921 0.473546
0.706716 0.375966 0.483591
0.259328 0.479828 0.477203
0.379623 0.489873 0.487248
0.499919 0.499919 0.497294
0.620214 0.509964 0.507339
0.740509 0.520009 0.517384
0.293121 0.623871 0.510996
0.413417 0.633917 0.521042
0.533712 0.643962 0.531087
0.654007 0.654007 0.541132
0.774303 0.664053 0.551178
0.326914 0.767914 0.544789
0.447210 0.777960 0.554835
0.567505 0.788005 0.564880
0.687801 0.798051 0.574926
0.808096 0.808096 0.584971
0.195113 0.195113 0.521925
0.315408 0.205158 0.531970
0.435703 0.215203 0.542016
0.555999 0.225249 0.552061
0.676294 0.235294 0.562106
0.228906 0.339156 0.555718
0.349201 0.349201 0.565764
0.469496 0.359246 0.575809
0.589792 0.369292 0.585854
0.710087 0.379337 0.595900
0.262699 0.483199 0.589511
0.382994 0.493244 0.599557
0.503290 0.503290 0.609602
0.623585 0.513335 0.619647
0.743880 0.523380 0.629693
0.296492 0.627242 0.623305
0.416787 0.637287 0.633350
0.537083 0.647333 0.643395
0.657378 0.657378 0.653441
0.777674 0.667424 0.663486
0.330285 0.771285 0.657098
0.450581 0.781331 0.667143
0.570876 0.791376 0.677189
0.691171 0.801421 0.687234
0.811467 0.811467 0.697279
0.198483 0.198483 0.634233
0.318779 0.208529 0.644279
0.439074 0.218574 0.654324
0.559369 0.228619 0.664369
0.679665 0.238665 0.674415
0.232277 0.342527 0.668027
0.352572 0.352572 0.678072
0.472867 0.362617 0.688117
0.593163 0.372663 0.698163
0.713458 0.382708 0.708208
0.266070 0.486570 0.701820
0.386365 0.496615 0.711865
0.506660 0.506660 0.721910
0.626956 0.516706 0.731956
0.747251 0.526751 0.742001
0.299863 0.630613 0.735613
0.420158 0.640658 0.745658
0.540454 0.650704 0.755704
0.660749 0.660749 0.765749
0.781044 0.670794 0.775794
0.333656 0.774656 0.769406
0.453952 0.784701 0.779451
0.574247 0.794747 0.789497
0.694542 0.804792 0.799542
0.814838 0.814838 0.809588
