Fotico/Resources/LUTs/sf_matte.cube
TITLE "Matte"
LUT_3D_SIZE 33
DOMAIN_MIN 0.0 0.0 0.0
DOMAIN_MAX 1.0 1.0 1.0
0.185000 0.185000 0.185000
0.200037 0.186256 0.186256
0.215074 0.187511 0.187511
0.230111 0.188767 0.188767
0.245148 0.190023 0.190023
0.260185 0.191278 0.191278
0.275222 0.192534 0.192534
0.290258 0.193790 0.193790
0.305295 0.195045 0.195045
0.320332 0.196301 0.196301
0.335369 0.197557 0.197557
0.350406 0.198812 0.198812
0.365443 0.200068 0.200068
0.380480 0.201324 0.201324
0.395517 0.202579 0.202579
0.410554 0.203835 0.203835
0.425591 0.205091 0.205091
0.440628 0.206346 0.206346
0.455665 0.207602 0.207602
0.470701 0.208858 0.208858
0.485738 0.210113 0.210113
0.500775 0.211369 0.211369
0.515812 0.212625 0.212625
0.530849 0.213880 0.213880
0.545886 0.215136 0.215136
0.560923 0.216392 0.216392
0.575960 0.217647 0.217647
0.590997 0.218903 0.218903
0.606034 0.220159 0.220159
0.621071 0.221414 0.221414
0.636108 0.222670 0.222670
0.651144 0.223926 0.223926
0.666181 0.225181 0.225181
0.189224 0.203005 0.189224
0.204261 0.204261 0.190480
0.219298 0.205517 0.191735
0.234335 0.206772 0.192991
0.249372 0.208028 0.194247
0.264409 0.209284 0.195502
0.279446 0.210539 0.196758
0.294483 0.211795 0.198014
0.309520 0.213051 0.199269
0.324556 0.214306 0.200525
0.339593 0.215562 0.201781
0.354630 0.216818 0.203037
0.369667 0.218073 0.204292
0.384704 0.219329 0.205548
0.399741 0.220585 0.206804
0.414778 0.221840 0.208059
0.429815 0.223096 0.209315
0.444852 0.224352 0.210571
0.459889 0.225607 0.211826
0.474926 0.226863 0.213082
0.489963 0.228119 0.214338
0.504999 0.229374 0.215593
0.520036 0.230630 0.216849
0.535073 0.231886 0.218105
0.550110 0.233141 0.219360
0.565147 0.234397 0.220616
0.580184 0.235653 0.221872
0.595221 0.236908 0.223127
0.610258 0.238164 0.224383
0.625295 0.239420 0.225639
0.640332 0.240675 0.226894
0.655369 0.241931 0.228150
0.670406 0.243187 0.229406
0.193448 0.221011 0.193448
0.208485 0.222266 0.194704
0.223522 0.223522 0.195960
0.238559 0.224778 0.197215
0.253596 0.226033 0.198471
0.268633 0.227289 0.199727
0.283670 0.228545 0.200982
0.298707 0.229800 0.202238
0.313744 0.231056 0.203494
0.328781 0.232312 0.204749
0.343817 0.233567 0.206005
0.358854 0.234823 0.207261
0.373891 0.236079 0.208516
0.388928 0.237334 0.209772
0.403965 0.238590 0.211028
0.419002 0.239846 0.212283
0.434039 0.241101 0.213539
0.449076 0.242357 0.214795
0.464113 0.243613 0.216050
0.479150 0.244869 0.217306
0.494187 0.246124 0.218562
0.509224 0.247380 0.219817
0.524261 0.248636 0.221073
0.539297 0.249891 0.222329
0.554334 0.251147 0.223584
0.569371 0.252403 0.224840
0.584408 0.253658 0.226096
0.599445 0.254914 0.227351
0.614482 0.256170 0.228607
0.629519 0.257425 0.229863
0.644556 0.258681 0.231118
0.659593 0.259937 0.232374
0.674630 0.261192 0.233630
0.197672 0.239016 0.197672
0.212709 0.240272 0.198928
0.227746 0.241528 0.200184
0.242783 0.242783 0.201439
0.257820 0.244039 0.202695
0.272857 0.245295 0.203951
0.287894 0.246550 0.205206
0.302931 0.247806 0.206462
0.317968 0.249062 0.207718
0.333005 0.250317 0.208973
0.348042 0.251573 0.210229
0.363079 0.252829 0.211485
0.378115 0.254084 0.212740
0.393152 0.255340 0.213996
0.408189 0.256596 0.215252
0.423226 0.257851 0.216507
0.438263 0.259107 0.217763
0.453300 0.260363 0.219019
0.468337 0.261618 0.220274
0.483374 0.262874 0.221530
0.498411 0.264130 0.222786
0.513448 0.265385 0.224041
0.528485 0.266641 0.225297
0.543522 0.267897 0.226553
0.558559 0.269152 0.227809
0.573595 0.270408 0.229064
0.588632 0.271664 0.230320
0.603669 0.272919 0.231576
0.618706 0.274175 0.232831
0.633743 0.275431 0.234087
0.648780 0.276686 0.235343
0.663817 0.277942 0.236598
0.678854 0.279198 0.237854
0.201897 0.257022 0.201897
0.216934 0.258277 0.203152
0.231970 0.259533 0.204408
0.247007 0.260789 0.205664
0.262044 0.262044 0.206919
0.277081 0.263300 0.208175
0.292118 0.264556 0.209431
0.307155 0.265811 0.210686
0.322192 0.267067 0.211942
0.337229 0.268323 0.213198
0.352266 0.269578 0.214453
0.367303 0.270834 0.215709
0.382340 0.272090 0.216965
0.397377 0.273345 0.218220
0.412413 0.274601 0.219476
0.427450 0.275857 0.220732
0.442487 0.277112 0.221987
0.457524 0.278368 0.223243
0.472561 0.279624 0.224499
0.487598 0.280879 0.225754
0.502635 0.282135 0.227010
0.517672 0.283391 0.228266
0.532709 0.284646 0.229521
0.547746 0.285902 0.230777
0.562783 0.287158 0.232033
0.577820 0.288413 0.233288
0.592856 0.289669 0.234544
0.607893 0.290925 0.235800
0.622930 0.292180 0.237055
0.637967 0.293436 0.238311
0.653004 0.294692 0.239567
0.668041 0.295947 0.240822
0.683078 0.297203 0.242078
0.206121 0.275027 0.206121
0.221158 0.276283 0.207376
0.236195 0.277538 0.208632
0.251232 0.278794 0.209888
0.266268 0.280050 0.211143
0.281305 0.281305 0.212399
0.296342 0.282561 0.213655
0.311379 0.283817 0.214910
0.326416 0.285072 0.216166
0.341453 0.286328 0.217422
0.356490 0.287584 0.218677
0.371527 0.288839 0.219933
0.386564 0.290095 0.221189
0.401601 0.291351 0.222444
0.416638 0.292606 0.223700
0.431675 0.293862 0.224956
0.446711 0.295118 0.226211
0.461748 0.296373 0.227467
0.476785 0.297629 0.228723
0.491822 0.298885 0.229978
0.506859 0.300140 0.231234
0.521896 0.301396 0.232490
0.536933 0.302652 0.233745
0.551970 0.303907 0.235001
0.567007 0.305163 0.236257
0.582044 0.306419 0.237512
0.597081 0.307674 0.238768
0.612118 0.308930 0.240024
0.627154 0.310186 0.241279
0.642191 0.311441 0.242535
0.657228 0.312697 0.243791
0.672265 0.313953 0.245046
0.687302 0.315208 0.246302
0.210345 0.293032 0.210345
0.225382 0.294288 0.211601
0.240419 0.295544 0.212856
0.255456 0.296799 0.214112
0.270493 0.298055 0.215368
0.285529 0.299311 0.216623
0.300566 0.300566 0.217879
0.315603 0.301822 0.219135
0.330640 0.303078 0.220390
0.345677 0.304333 0.221646
0.360714 0.305589 0.222902
0.375751 0.306845 0.224157
0.390788 0.308100 0.225413
0.405825 0.309356 0.226669
0.420862 0.310612 0.227924
0.435899 0.311867 0.229180
0.450936 0.313123 0.230436
0.465973 0.314379 0.231691
0.481009 0.315634 0.232947
0.496046 0.316890 0.234203
0.511083 0.318146 0.235458
0.526120 0.319401 0.236714
0.541157 0.320657 0.237970
0.556194 0.321913 0.239225
0.571231 0.323168 0.240481
0.586268 0.324424 0.241737
0.601305 0.325680 0.242992
0.616342 0.326935 0.244248
0.631379 0.328191 0.245504
0.646416 0.329447 0.246759
0.661452 0.330702 0.248015
0.676489 0.331958 0.249271
0.691526 0.333214 0.250526
0.214569 0.311038 0.214569
0.229606 0.312293 0.215825
0.244643 0.313549 0.217080
0.259680 0.314805 0.218336
0.274717 0.316060 0.219592
0.289754 0.317316 0.220847
0.304791 0.318572 0.222103
0.319827 0.319827 0.223359
0.334864 0.321083 0.224614
0.349901 0.322339 0.225870
0.364938 0.323594 0.227126
0.379975 0.324850 0.228381
0.395012 0.326106 0.229637
0.410049 0.327361 0.230893
0.425086 0.328617 0.232148
0.440123 0.329873 0.233404
0.455160 0.331129 0.234660
0.470197 0.332384 0.235915
0.485234 0.333640 0.237171
0.500271 0.334896 0.238427
0.515307 0.336151 0.239682
0.530344 0.337407 0.240938
0.545381 0.338663 0.242194
0.560418 0.339918 0.243449
0.575455 0.341174 0.244705
0.590492 0.342430 0.245961
0.605529 0.343685 0.247216
0.620566 0.344941 0.248472
0.635603 0.346197 0.249728
0.650640 0.347452 0.250983
0.665677 0.348708 0.252239
0.680714 0.349964 0.253495
0.695750 0.351219 0.254750
0.218793 0.329043 0.218793
0.233830 0.330299 0.220049
0.248867 0.331555 0.221305
0.263904 0.332810 0.222560
0.278941 0.334066 0.223816
0.293978 0.335322 0.225072
0.309015 0.336577 0.226327
0.324052 0.337833 0.227583
0.339089 0.339089 0.228839
0.354125 0.340344 0.230094
0.369162 0.341600 0.231350
0.384199 0.342856 0.232606
0.399236 0.344111 0.233861
0.414273 0.345367 0.235117
0.429310 0.346623 0.236373
0.444347 0.347878 0.237628
0.459384 0.349134 0.238884
0.474421 0.350390 0.240140
0.489458 0.351645 0.241395
0.504495 0.352901 0.242651
0.519532 0.354157 0.243907
0.534568 0.355412 0.245162
0.549605 0.356668 0.246418
0.564642 0.357924 0.247674
0.579679 0.359179 0.248929
0.594716 0.360435 0.250185
0.609753 0.361691 0.251441
0.624790 0.362946 0.252696
0.639827 0.364202 0.253952
0.654864 0.365458 0.255208
0.669901 0.366713 0.256463
0.684938 0.367969 0.257719
0.699975 0.369225 0.258975
0.223017 0.347049 0.223017
0.238054 0.348304 0.224273
0.253091 0.349560 0.225529
0.268128 0.350816 0.226784
0.283165 0.352071 0.228040
0.298202 0.353327 0.229296
0.313239 0.354583 0.230551
0.328276 0.355838 0.231807
0.343313 0.357094 0.233063
0.358350 0.358350 0.234318
0.373387 0.359605 0.235574
0.388423 0.360861 0.236830
0.403460 0.362117 0.238085
0.418497 0.363372 0.239341
0.433534 0.364628 0.240597
0.448571 0.365884 0.241852
0.463608 0.367139 0.243108
0.478645 0.368395 0.244364
0.493682 0.369651 0.245619
0.508719 0.370906 0.246875
0.523756 0.372162 0.248131
0.538793 0.373418 0.249386
0.553830 0.374673 0.250642
0.568866 0.375929 0.251898
0.583903 0.377185 0.253153
0.598940 0.378440 0.254409
0.613977 0.379696 0.255665
0.629014 0.380952 0.256920
0.644051 0.382207 0.258176
0.659088 0.383463 0.259432
0.674125 0.384719 0.260687
0.689162 0.385974 0.261943
0.704199 0.387230 0.263199
0.227241 0.365054 0.227241
0.242278 0.366310 0.228497
0.257315 0.367565 0.229753
0.272352 0.368821 0.231009
0.287389 0.370077 0.232264
0.302426 0.371332 0.233520
0.317463 0.372588 0.234776
0.332500 0.373844 0.236031
0.347537 0.375099 0.237287
0.362574 0.376355 0.238543
0.377611 0.377611 0.239798
0.392648 0.378866 0.241054
0.407685 0.380122 0.242310
0.422721 0.381378 0.243565
0.437758 0.382633 0.244821
0.452795 0.383889 0.246077
0.467832 0.385145 0.247332
0.482869 0.386400 0.248588
0.497906 0.387656 0.249844
0.512943 0.388912 0.251099
0.527980 0.390167 0.252355
0.543017 0.391423 0.253611
0.558054 0.392679 0.254866
0.573091 0.393934 0.256122
0.588128 0.395190 0.257378
0.603164 0.396446 0.258633
0.618201 0.397701 0.259889
0.633238 0.398957 0.261145
0.648275 0.400213 0.262400
0.663312 0.401468 0.263656
0.678349 0.402724 0.264912
0.693386 0.403980 0.266167
0.708423 0.405235 0.267423
0.231466 0.383059 0.231466
0.246503 0.384315 0.232721
0.261539 0.385571 0.233977
0.276576 0.386826 0.235233
0.291613 0.388082 0.236488
0.306650 0.389338 0.237744
0.321687 0.390593 0.239000
0.336724 0.391849 0.240255
0.351761 0.393105 0.241511
0.366798 0.394360 0.242767
0.381835 0.395616 0.244022
0.396872 0.396872 0.245278
0.411909 0.398127 0.246534
0.426946 0.399383 0.247789
0.441983 0.400639 0.249045
0.457019 0.401894 0.250301
0.472056 0.403150 0.251556
0.487093 0.404406 0.252812
0.502130 0.405661 0.254068
0.517167 0.406917 0.255323
0.532204 0.408173 0.256579
0.547241 0.409428 0.257835
0.562278 0.410684 0.259090
0.577315 0.411940 0.260346
0.592352 0.413195 0.261602
0.607389 0.414451 0.262857
0.622426 0.415707 0.264113
0.637462 0.416962 0.265369
0.652499 0.418218 0.266624
0.667536 0.419474 0.267880
0.682573 0.420729 0.269136
0.697610 0.421985 0.270391
0.712647 0.423241 0.271647
0.235690 0.401065 0.235690
0.250727 0.402320 0.236945
0.265764 0.403576 0.238201
0.280801 0.404832 0.239457
0.295837 0.406087 0.240712
0.310874 0.407343 0.241968
0.325911 0.408599 0.243224
0.340948 0.409854 0.244479
0.355985 0.411110 0.245735
0.371022 0.412366 0.246991
0.386059 0.413621 0.248246
0.401096 0.414877 0.249502
0.416133 0.416133 0.250758
0.431170 0.417388 0.252013
0.446207 0.418644 0.253269
0.461244 0.419900 0.254525
0.476280 0.421156 0.255781
0.491317 0.422411 0.257036
0.506354 0.423667 0.258292
0.521391 0.424923 0.259548
0.536428 0.426178 0.260803
0.551465 0.427434 0.262059
0.566502 0.428690 0.263315
0.581539 0.429945 0.264570
0.596576 0.431201 0.265826
0.611613 0.432457 0.267082
0.626650 0.433712 0.268337
0.641687 0.434968 0.269593
0.656724 0.436224 0.270849
0.671760 0.437479 0.272104
0.686797 0.438735 0.273360
0.701834 0.439991 0.274616
0.716871 0.441246 0.275871
0.239914 0.419070 0.239914
0.254951 0.420326 0.241170
0.269988 0.421582 0.242425
0.285025 0.422837 0.243681
0.300062 0.424093 0.244937
0.315099 0.425349 0.246192
0.330135 0.426604 0.247448
0.345172 0.427860 0.248704
0.360209 0.429116 0.249959
0.375246 0.430371 0.251215
0.390283 0.431627 0.252471
0.405320 0.432883 0.253726
0.420357 0.434138 0.254982
0.435394 0.435394 0.256238
0.450431 0.436650 0.257493
0.465468 0.437905 0.258749
0.480505 0.439161 0.260005
0.495542 0.440417 0.261260
0.510578 0.441672 0.262516
0.525615 0.442928 0.263772
0.540652 0.444184 0.265027
0.555689 0.445439 0.266283
0.570726 0.446695 0.267539
0.585763 0.447951 0.268794
0.600800 0.449206 0.270050
0.615837 0.450462 0.271306
0.630874 0.451718 0.272561
0.645911 0.452973 0.273817
0.660948 0.454229 0.275073
0.675985 0.455485 0.276328
0.691022 0.456740 0.277584
0.706058 0.457996 0.278840
0.721095 0.459252 0.280095
0.244138 0.437076 0.244138
0.259175 0.438331 0.245394
0.274212 0.439587 0.246649
0.289249 0.440843 0.247905
0.304286 0.442098 0.249161
0.319323 0.443354 0.250416
0.334360 0.444610 0.251672
0.349397 0.445865 0.252928
0.364433 0.447121 0.254183
0.379470 0.448377 0.255439
0.394507 0.449632 0.256695
0.409544 0.450888 0.257950
0.424581 0.452144 0.259206
0.439618 0.453399 0.260462
0.454655 0.454655 0.261717
0.469692 0.455911 0.262973
0.484729 0.457166 0.264229
0.499766 0.458422 0.265484
0.514803 0.459678 0.266740
0.529840 0.460933 0.267996
0.544876 0.462189 0.269251
0.559913 0.463445 0.270507
0.574950 0.464700 0.271763
0.589987 0.465956 0.273018
0.605024 0.467212 0.274274
0.620061 0.468467 0.275530
0.635098 0.469723 0.276785
0.650135 0.470979 0.278041
0.665172 0.472234 0.279297
0.680209 0.473490 0.280552
0.695246 0.474746 0.281808
0.710283 0.476001 0.283064
0.725320 0.477257 0.284320
0.248362 0.455081 0.248362
0.263399 0.456337 0.249618
0.278436 0.457592 0.250874
0.293473 0.458848 0.252129
0.308510 0.460104 0.253385
0.323547 0.461359 0.254641
0.338584 0.462615 0.255896
0.353621 0.463871 0.257152
0.368658 0.465126 0.258408
0.383695 0.466382 0.259663
0.398731 0.467638 0.260919
0.413768 0.468893 0.262175
0.428805 0.470149 0.263430
0.443842 0.471405 0.264686
0.458879 0.472660 0.265942
0.473916 0.473916 0.267197
0.488953 0.475172 0.268453
0.503990 0.476427 0.269709
0.519027 0.477683 0.270964
0.534064 0.478939 0.272220
0.549101 0.480194 0.273476
0.564138 0.481450 0.274731
0.579174 0.482706 0.275987
0.594211 0.483961 0.277243
0.609248 0.485217 0.278498
0.624285 0.486473 0.279754
0.639322 0.487728 0.281010
0.654359 0.488984 0.282265
0.669396 0.490240 0.283521
0.684433 0.491495 0.284777
0.699470 0.492751 0.286032
0.714507 0.494007 0.287288
0.729544 0.495262 0.288544
0.252586 0.473086 0.252586
0.267623 0.474342 0.253842
0.282660 0.475598 0.255098
0.297697 0.476853 0.256353
0.312734 0.478109 0.257609
0.327771 0.479365 0.258865
0.342808 0.480620 0.260120
0.357845 0.481876 0.261376
0.372882 0.483132 0.262632
0.387919 0.484387 0.263887
0.402956 0.485643 0.265143
0.417993 0.486899 0.266399
0.433029 0.488154 0.267654
0.448066 0.489410 0.268910
0.463103 0.490666 0.270166
0.478140 0.491921 0.271421
0.493177 0.493177 0.272677
0.508214 0.494433 0.273933
0.523251 0.495688 0.275188
0.538288 0.496944 0.276444
0.553325 0.498200 0.277700
0.568362 0.499455 0.278955
0.583399 0.500711 0.280211
0.598436 0.501967 0.281467
0.613472 0.503222 0.282722
0.628509 0.504478 0.283978
0.643546 0.505734 0.285234
0.658583 0.506989 0.286489
0.673620 0.508245 0.287745
0.688657 0.509501 0.289001
0.703694 0.510756 0.290256
0.718731 0.512012 0.291512
0.733768 0.513268 0.292768
0.256811 0.491092 0.256811
0.271847 0.492347 0.258066
0.286884 0.493603 0.259322
0.301921 0.494859 0.260578
0.316958 0.496114 0.261833
0.331995 0.497370 0.263089
0.347032 0.498626 0.264345
0.362069 0.499881 0.265600
0.377106 0.501137 0.266856
0.392143 0.502393 0.268112
0.407180 0.503648 0.269367
0.422217 0.504904 0.270623
0.437254 0.506160 0.271879
0.452290 0.507415 0.273134
0.467327 0.508671 0.274390
0.482364 0.509927 0.275646
0.497401 0.511182 0.276901
0.512438 0.512438 0.278157
0.527475 0.513694 0.279413
0.542512 0.514950 0.280668
0.557549 0.516205 0.281924
0.572586 0.517461 0.283180
0.587623 0.518717 0.284435
0.602660 0.519972 0.285691
0.617697 0.521228 0.286947
0.632734 0.522484 0.288202
0.647770 0.523739 0.289458
0.662807 0.524995 0.290714
0.677844 0.526251 0.291969
0.692881 0.527506 0.293225
0.707918 0.528762 0.294481
0.722955 0.530018 0.295736
0.737992 0.531273 0.296992
0.261035 0.509097 0.261035
0.276072 0.510353 0.262290
0.291109 0.511609 0.263546
0.306145 0.512864 0.264802
0.321182 0.514120 0.266057
0.336219 0.515376 0.267313
0.351256 0.516631 0.268569
0.366293 0.517887 0.269824
0.381330 0.519143 0.271080
0.396367 0.520398 0.272336
0.411404 0.521654 0.273591
0.426441 0.522910 0.274847
0.441478 0.524165 0.276103
0.456515 0.525421 0.277358
0.471552 0.526677 0.278614
0.486588 0.527932 0.279870
0.501625 0.529188 0.281125
0.516662 0.530444 0.282381
0.531699 0.531699 0.283637
0.546736 0.532955 0.284892
0.561773 0.534211 0.286148
0.576810 0.535466 0.287404
0.591847 0.536722 0.288659
0.606884 0.537978 0.289915
0.621921 0.539233 0.291171
0.636958 0.540489 0.292426
0.651995 0.541745 0.293682
0.667032 0.543000 0.294938
0.682068 0.544256 0.296193
0.697105 0.545512 0.297449
0.712142 0.546767 0.298705
0.727179 0.548023 0.299960
0.742216 0.549279 0.301216
0.265259 0.527103 0.265259
0.280296 0.528358 0.266515
0.295333 0.529614 0.267770
0.310370 0.530870 0.269026
0.325407 0.532125 0.270282
0.340443 0.533381 0.271537
0.355480 0.534637 0.272793
0.370517 0.535892 0.274049
0.385554 0.537148 0.275304
0.400591 0.538404 0.276560
0.415628 0.539659 0.277816
0.430665 0.540915 0.279071
0.445702 0.542171 0.280327
0.460739 0.543426 0.281583
0.475776 0.544682 0.282838
0.490813 0.545938 0.284094
0.505850 0.547193 0.285350
0.520886 0.548449 0.286605
0.535923 0.549705 0.287861
0.550960 0.550960 0.289117
0.565997 0.552216 0.290372
0.581034 0.553472 0.291628
0.596071 0.554727 0.292884
0.611108 0.555983 0.294139
0.626145 0.557239 0.295395
0.641182 0.558494 0.296651
0.656219 0.559750 0.297906
0.671256 0.561006 0.299162
0.686293 0.562261 0.300418
0.701329 0.563517 0.301673
0.716366 0.564773 0.302929
0.731403 0.566028 0.304185
0.746440 0.567284 0.305440
0.269483 0.545108 0.269483
0.284520 0.546364 0.270739
0.299557 0.547619 0.271994
0.314594 0.548875 0.273250
0.329631 0.550131 0.274506
0.344668 0.551386 0.275761
0.359705 0.552642 0.277017
0.374741 0.553898 0.278273
0.389778 0.555153 0.279528
0.404815 0.556409 0.280784
0.419852 0.557665 0.282040
0.434889 0.558920 0.283295
0.449926 0.560176 0.284551
0.464963 0.561432 0.285807
0.480000 0.562687 0.287062
0.495037 0.563943 0.288318
0.510074 0.565199 0.289574
0.525111 0.566454 0.290829
0.540148 0.567710 0.292085
0.555184 0.568966 0.293341
0.570221 0.570221 0.294596
0.585258 0.571477 0.295852
0.600295 0.572733 0.297108
0.615332 0.573988 0.298363
0.630369 0.575244 0.299619
0.645406 0.576500 0.300875
0.660443 0.577755 0.302130
0.675480 0.579011 0.303386
0.690517 0.580267 0.304642
0.705554 0.581522 0.305897
0.720591 0.582778 0.307153
0.735627 0.584034 0.308409
0.750664 0.585289 0.309664
0.273707 0.563113 0.273707
0.288744 0.564369 0.274963
0.303781 0.565625 0.276218
0.318818 0.566880 0.277474
0.333855 0.568136 0.278730
0.348892 0.569392 0.279985
0.363929 0.570647 0.281241
0.378966 0.571903 0.282497
0.394002 0.573159 0.283752
0.409039 0.574414 0.285008
0.424076 0.575670 0.286264
0.439113 0.576926 0.287520
0.454150 0.578181 0.288775
0.469187 0.579437 0.290031
0.484224 0.580693 0.291287
0.499261 0.581948 0.292542
0.514298 0.583204 0.293798
0.529335 0.584460 0.295054
0.544372 0.585715 0.296309
0.559409 0.586971 0.297565
0.574446 0.588227 0.298821
0.589482 0.589482 0.300076
0.604519 0.590738 0.301332
0.619556 0.591994 0.302588
0.634593 0.593249 0.303843
0.649630 0.594505 0.305099
0.664667 0.595761 0.306355
0.679704 0.597016 0.307610
0.694741 0.598272 0.308866
0.709778 0.599528 0.310122
0.724815 0.600783 0.311377
0.739852 0.602039 0.312633
0.754889 0.603295 0.313889
0.277931 0.581119 0.277931
0.292968 0.582374 0.279187
0.308005 0.583630 0.280443
0.323042 0.584886 0.281698
0.338079 0.586141 0.282954
0.353116 0.587397 0.284210
0.368153 0.588653 0.285465
0.383190 0.589908 0.286721
0.398227 0.591164 0.287977
0.413264 0.592420 0.289232
0.428300 0.593675 0.290488
0.443337 0.594931 0.291744
0.458374 0.596187 0.292999
0.473411 0.597442 0.294255
0.488448 0.598698 0.295511
0.503485 0.599954 0.296766
0.518522 0.601209 0.298022
0.533559 0.602465 0.299278
0.548596 0.603721 0.300533
0.563633 0.604977 0.301789
0.578670 0.606232 0.303045
0.593707 0.607488 0.304300
0.608744 0.608744 0.305556
0.623780 0.609999 0.306812
0.638817 0.611255 0.308067
0.653854 0.612511 0.309323
0.668891 0.613766 0.310579
0.683928 0.615022 0.311834
0.698965 0.616278 0.313090
0.714002 0.617533 0.314346
0.729039 0.618789 0.315601
0.744076 0.620045 0.316857
0.759113 0.621300 0.318113
0.282155 0.599124 0.282155
0.297192 0.600380 0.283411
0.312229 0.601636 0.284667
0.327266 0.602891 0.285922
0.342303 0.604147 0.287178
0.357340 0.605403 0.288434
0.372377 0.606658 0.289689
0.387414 0.607914 0.290945
0.402451 0.609170 0.292201
0.417488 0.610425 0.293456
0.432525 0.611681 0.294712
0.447562 0.612937 0.295968
0.462598 0.614192 0.297223
0.477635 0.615448 0.298479
0.492672 0.616704 0.299735
0.507709 0.617959 0.300990
0.522746 0.619215 0.302246
0.537783 0.620471 0.303502
0.552820 0.621726 0.304757
0.567857 0.622982 0.306013
0.582894 0.624238 0.307269
0.597931 0.625493 0.308524
0.612968 0.626749 0.309780
0.628005 0.628005 0.311036
0.643042 0.629260 0.312291
0.658078 0.630516 0.313547
0.673115 0.631772 0.314803
0.688152 0.633027 0.316059
0.703189 0.634283 0.317314
0.718226 0.635539 0.318570
0.733263 0.636794 0.319826
0.748300 0.638050 0.321081
0.763337 0.639306 0.322337
0.286380 0.617130 0.286380
0.301417 0.618385 0.287635
0.316453 0.619641 0.288891
0.331490 0.620897 0.290147
0.346527 0.622152 0.291402
0.361564 0.623408 0.292658
0.376601 0.624664 0.293914
0.391638 0.625919 0.295169
0.406675 0.627175 0.296425
0.421712 0.628431 0.297681
0.436749 0.629686 0.298936
0.451786 0.630942 0.300192
0.466823 0.632198 0.301448
0.481860 0.633453 0.302703
0.496896 0.634709 0.303959
0.511933 0.635965 0.305215
0.526970 0.637220 0.306470
0.542007 0.638476 0.307726
0.557044 0.639732 0.308982
0.572081 0.640987 0.310237
0.587118 0.642243 0.311493
0.602155 0.643499 0.312749
0.617192 0.644754 0.314004
0.632229 0.646010 0.315260
0.647266 0.647266 0.316516
0.662303 0.648521 0.317771
0.677339 0.649777 0.319027
0.692376 0.651033 0.320283
0.707413 0.652288 0.321538
0.722450 0.653544 0.322794
0.737487 0.654800 0.324050
0.752524 0.656055 0.325305
0.767561 0.657311 0.326561
0.290604 0.635135 0.290604
0.305641 0.636391 0.291859
0.320678 0.637646 0.293115
0.335715 0.638902 0.294371
0.350751 0.640158 0.295626
0.365788 0.641413 0.296882
0.380825 0.642669 0.298138
0.395862 0.643925 0.299393
0.410899 0.645180 0.300649
0.425936 0.646436 0.301905
0.440973 0.647692 0.303160
0.456010 0.648947 0.304416
0.471047 0.650203 0.305672
0.486084 0.651459 0.306927
0.501121 0.652714 0.308183
0.516158 0.653970 0.309439
0.531194 0.655226 0.310694
0.546231 0.656481 0.311950
0.561268 0.657737 0.313206
0.576305 0.658993 0.314461
0.591342 0.660248 0.315717
0.606379 0.661504 0.316973
0.621416 0.662760 0.318228
0.636453 0.664015 0.319484
0.651490 0.665271 0.320740
0.666527 0.666527 0.321995
0.681564 0.667782 0.323251
0.696601 0.669038 0.324507
0.711637 0.670294 0.325762
0.726674 0.671549 0.327018
0.741711 0.672805 0.328274
0.756748 0.674061 0.329529
0.771785 0.675316 0.330785
0.294828 0.653140 0.294828
0.309865 0.654396 0.296084
0.324902 0.655652 0.297339
0.339939 0.656907 0.298595
0.354976 0.658163 0.299851
0.370012 0.659419 0.301106
0.385049 0.660674 0.302362
0.400086 0.661930 0.303618
0.415123 0.663186 0.304873
0.430160 0.664441 0.306129
0.445197 0.665697 0.307385
0.460234 0.666953 0.308640
0.475271 0.668208 0.309896
0.490308 0.669464 0.311152
0.505345 0.670720 0.312407
0.520382 0.671975 0.313663
0.535419 0.673231 0.314919
0.550456 0.674487 0.316174
0.565492 0.675742 0.317430
0.580529 0.676998 0.318686
0.595566 0.678254 0.319941
0.610603 0.679509 0.321197
0.625640 0.680765 0.322453
0.640677 0.682021 0.323708
0.655714 0.683276 0.324964
0.670751 0.684532 0.326220
0.685788 0.685788 0.327475
0.700825 0.687043 0.328731
