Fotico/Resources/LUTs/sf_noir.cube
TITLE "Noir"
LUT_3D_SIZE 5
DOMAIN_MIN 0.0 0.0 0.0
DOMAIN_MAX 1.0 1.0 1.0
0.128092 0.116773 0.105454
0.156986 0.147538 0.138091
0.189831 0.182671 0.175510
0.224483 0.219697 0.214912
0.260697 0.258094 0.255491
0.237485 0.233532 0.229579
0.274283 0.272368 0.270453
0.312820 0.312332 0.311844
0.353374 0.353374 0.353374
0.395233 0.395233 0.395233
0.368542 0.368542 0.368542
0.410619 0.410619 0.410619
0.453245 0.453245 0.453245
0.496364 0.496364 0.496364
0.539928 0.539928 0.539928
0.512175 0.512175 0.512175
0.555892 0.555892 0.555892
0.600006 0.600006 0.600006
0.644487 0.644487 0.644487
0.689309 0.689309 0.689309
0.660766 0.660766 0.660766
0.705707 0.705707 0.705707
0.750960 0.750960 0.750960
0.796507 0.796507 0.796507
0.842332 0.842332 0.842332
0.136928 0.126159 0.115389
0.167894 0.159196 0.150498
0.201420 0.195070 0.188720
0.236605 0.232597 0.228590
0.273363 0.271405 0.269446
0.249801 0.246588 0.243376
0.287163 0.285818 0.284472
0.326350 0.326150 0.325949
0.367520 0.367520 0.367520
0.409583 0.409583 0.409583
0.382766 0.382766 0.382766
0.425037 0.425037 0.425037
0.467836 0.467836 0.467836
0.511110 0.511110 0.511110
0.554818 0.554818 0.554818
0.526975 0.526975 0.526975
0.570831 0.570831 0.570831
0.615072 0.615072 0.615072
0.659671 0.659671 0.659671
0.704604 0.704604 0.704604
0.675992 0.675992 0.675992
0.721041 0.721041 0.721041
0.766396 0.766396 0.766396
0.812039 0.812039 0.812039
0.857954 0.857954 0.857954
0.147000 0.136883 0.126766
0.179069 0.171152 0.163235
0.213195 0.207655 0.202115
0.248907 0.245643 0.242379
0.286229 0.284845 0.283461
0.262300 0.259783 0.257265
0.300253 0.299393 0.298534
0.340127 0.340092 0.340056
0.381739 0.381739 0.381739
0.423996 0.423996 0.423996
0.397058 0.397058 0.397058
0.439515 0.439515 0.439515
0.482481 0.482481 0.482481
0.525907 0.525907 0.525907
0.569753 0.569753 0.569753
0.541823 0.541823 0.541823
0.585813 0.585813 0.585813
0.630179 0.630179 0.630179
0.674894 0.674894 0.674894
0.719936 0.719936 0.719936
0.691256 0.691256 0.691256
0.736411 0.736411 0.736411
0.781865 0.781865 0.781865
0.827602 0.827602 0.827602
0.873607 0.873607 0.873607
0.157582 0.148175 0.138768
0.190468 0.183352 0.176237
0.225149 0.220408 0.215667
0.261394 0.258828 0.256262
0.299303 0.298411 0.297520
0.274991 0.273110 0.271229
0.313563 0.313094 0.312625
0.354155 0.354155 0.354155
0.396026 0.396026 0.396026
0.438470 0.438470 0.438470
0.411416 0.411416 0.411416
0.454052 0.454052 0.454052
0.497179 0.497179 0.497179
0.540752 0.540752 0.540752
0.584733 0.584733 0.584733
0.556718 0.556718 0.556718
0.600840 0.600840 0.600840
0.645327 0.645327 0.645327
0.690155 0.690155 0.690155
0.735302 0.735302 0.735302
0.706556 0.706556 0.706556
0.751814 0.751814 0.751814
0.797367 0.797367 0.797367
0.843196 0.843196 0.843196
0.889289 0.889289 0.889289
0.168506 0.159851 0.151196
0.202067 0.195762 0.189457
0.237282 0.233316 0.229351
0.274071 0.272146 0.270221
0.312597 0.312103 0.311610
0.287883 0.286566 0.285250
0.327107 0.326919 0.326731
0.368306 0.368306 0.368306
0.410380 0.410380 0.410380
0.453003 0.453003 0.453003
0.425837 0.425837 0.425837
0.468646 0.468646 0.468646
0.511929 0.511929 0.511929
0.555644 0.555644 0.555644
0.599756 0.599756 0.599756
0.571659 0.571659 0.571659
0.615908 0.615908 0.615908
0.660514 0.660514 0.660514
0.705453 0.705453 0.705453
0.750704 0.750704 0.750704
0.721892 0.721892 0.721892
0.767252 0.767252 0.767252
0.812900 0.812900 0.812900
0.858821 0.858821 0.858821
0.905000 0.905000 0.905000
