Fotico/Resources/LUTs/sf_noir.cube
TITLE "Noir"
LUT_3D_SIZE 9
DOMAIN_MIN 0.0 0.0 0.0
DOMAIN_MAX 1.0 1.0 1.0
0.128092 0.116773 0.105454
0.141604 0.131134 0.120664
0.156986 0.147538 0.138091
0.173141 0.164809 0.156477
0.189831 0.182671 0.175510
0.206958 0.200992 0.195025
0.224483 0.219697 0.214912
0.242393 0.238741 0.235090
0.260697 0.258094 0.255491
0.179163 0.171252 0.163342
0.196019 0.189292 0.182566
0.213293 0.207760 0.202227
0.230958 0.226593 0.222228
0.249010 0.245752 0.242494
0.267462 0.265212 0.262963
0.286336 0.284957 0.283577
0.305664 0.304976 0.304289
0.325481 0.325266 0.325050
0.237485 0.233532 0.229579
0.255681 0.252803 0.249926
0.274283 0.272368 0.270453
0.293318 0.292214 0.291109
0.312820 0.312332 0.311844
0.332825 0.332719 0.332612
0.353374 0.353374 0.353374
0.374227 0.374227 0.374227
0.395233 0.395233 0.395233
0.300362 0.299507 0.298651
0.320042 0.319723 0.319403
0.340243 0.340208 0.340173
0.360947 0.360947 0.360947
0.381858 0.381858 0.381858
0.402917 0.402917 0.402917
0.424116 0.424116 0.424116
0.445448 0.445448 0.445448
0.466905 0.466905 0.466905
0.368542 0.368542 0.368542
0.389508 0.389508 0.389508
0.410619 0.410619 0.410619
0.431867 0.431867 0.431867
0.453245 0.453245 0.453245
0.474746 0.474746 0.474746
0.496364 0.496364 0.496364
0.518093 0.518093 0.518093
0.539928 0.539928 0.539928
0.439636 0.439636 0.439636
0.461059 0.461059 0.461059
0.482603 0.482603 0.482603
0.504262 0.504262 0.504262
0.526030 0.526030 0.526030
0.547904 0.547904 0.547904
0.569877 0.569877 0.569877
0.591948 0.591948 0.591948
0.614111 0.614111 0.614111
0.512175 0.512175 0.512175
0.533982 0.533982 0.533982
0.555892 0.555892 0.555892
0.577901 0.577901 0.577901
0.600006 0.600006 0.600006
0.622202 0.622202 0.622202
0.644487 0.644487 0.644487
0.666856 0.666856 0.666856
0.689309 0.689309 0.689309
0.585938 0.585938 0.585938
0.608076 0.608076 0.608076
0.630305 0.630305 0.630305
0.652621 0.652621 0.652621
0.675021 0.675021 0.675021
0.697503 0.697503 0.697503
0.720063 0.720063 0.720063
0.742700 0.742700 0.742700
0.765411 0.765411 0.765411
0.660766 0.660766 0.660766
0.683197 0.683197 0.683197
0.705707 0.705707 0.705707
0.728296 0.728296 0.728296
0.750960 0.750960 0.750960
0.773698 0.773698 0.773698
0.796507 0.796507 0.796507
0.819385 0.819385 0.819385
0.842332 0.842332 0.842332
0.132218 0.121152 0.110087
0.146713 0.136577 0.126441
0.162403 0.153325 0.144248
0.178756 0.170817 0.162878
0.195601 0.188846 0.182090
0.212866 0.207304 0.201742
0.230522 0.226129 0.221736
0.248564 0.245280 0.241996
0.267006 0.264733 0.262460
0.184837 0.177326 0.169814
0.201841 0.195520 0.189199
0.219249 0.214117 0.208985
0.237045 0.233065 0.229084
0.255231 0.252328 0.249426
0.273823 0.271886 0.269950
0.292847 0.291725 0.290603
0.312337 0.311837 0.311336
0.332330 0.332217 0.332104
0.243620 0.240043 0.236465
0.261952 0.259416 0.256880
0.280698 0.279077 0.277456
0.299887 0.299016 0.298144
0.319555 0.319225 0.318895
0.339742 0.339704 0.339665
0.360438 0.360438 0.360438
0.381344 0.381344 0.381344
0.402400 0.402400 0.402400
0.306990 0.306342 0.305694
0.326842 0.326650 0.326457
0.347229 0.347226 0.347223
0.368031 0.368031 0.368031
0.388993 0.388993 0.388993
0.410101 0.410101 0.410101
0.431346 0.431346 0.431346
0.452721 0.452721 0.452721
0.474219 0.474219 0.474219
0.375645 0.375645 0.375645
0.396661 0.396661 0.396661
0.417820 0.417820 0.417820
0.439113 0.439113 0.439113
0.460534 0.460534 0.460534
0.482075 0.482075 0.482075
0.503731 0.503731 0.503731
0.525497 0.525497 0.525497
0.547367 0.547367 0.547367
0.446897 0.446897 0.446897
0.468362 0.468362 0.468362
0.489946 0.489946 0.489946
0.511642 0.511642 0.511642
0.533447 0.533447 0.533447
0.555355 0.555355 0.555355
0.577362 0.577362 0.577362
0.599464 0.599464 0.599464
0.621658 0.621658 0.621658
0.519568 0.519568 0.519568
0.541411 0.541411 0.541411
0.563356 0.563356 0.563356
0.585398 0.585398 0.585398
0.607534 0.607534 0.607534
0.629760 0.629760 0.629760
0.652074 0.652074 0.652074
0.674472 0.674472 0.674472
0.696952 0.696952 0.696952
0.593446 0.593446 0.593446
0.615615 0.615615 0.615615
0.637874 0.637874 0.637874
0.660219 0.660219 0.660219
0.682647 0.682647 0.682647
0.705156 0.705156 0.705156
0.727742 0.727742 0.727742
0.750405 0.750405 0.750405
0.773141 0.773141 0.773141
0.668375 0.668375 0.668375
0.690832 0.690832 0.690832
0.713370 0.713370 0.713370
0.735984 0.735984 0.735984
0.758674 0.758674 0.758674
0.781436 0.781436 0.781436
0.804269 0.804269 0.804269
0.827171 0.827171 0.827171
0.850139 0.850139 0.850139
0.136928 0.126159 0.115389
0.151948 0.142160 0.132372
0.167894 0.159196 0.150498
0.184427 0.176886 0.169346
0.201420 0.195070 0.188720
0.218819 0.213658 0.208497
0.236605 0.232597 0.228590
0.254781 0.251854 0.248926
0.273363 0.271405 0.269446
0.190564 0.183455 0.176346
0.207709 0.201794 0.195879
0.225250 0.220515 0.215780
0.243177 0.239573 0.235968
0.261498 0.258938 0.256378
0.280234 0.278593 0.276951
0.299412 0.298525 0.297637
0.319068 0.318728 0.318388
0.339242 0.339200 0.339157
0.249801 0.246588 0.243376
0.268270 0.266061 0.263852
0.287163 0.285818 0.284472
0.306511 0.305849 0.305187
0.326350 0.326150 0.325949
0.346723 0.346719 0.346715
0.367520 0.367520 0.367520
0.388479 0.388479 0.388479
0.409583 0.409583 0.409583
0.313675 0.313208 0.312742
0.333703 0.333607 0.333511
0.354273 0.354273 0.354273
0.375133 0.375133 0.375133
0.396145 0.396145 0.396145
0.417301 0.417301 0.417301
0.438591 0.438591 0.438591
0.460008 0.460008 0.460008
0.481546 0.481546 0.481546
0.382766 0.382766 0.382766
0.403831 0.403831 0.403831
0.425037 0.425037 0.425037
0.446374 0.446374 0.446374
0.467836 0.467836 0.467836
0.489417 0.489417 0.489417
0.511110 0.511110 0.511110
0.532912 0.532912 0.532912
0.554818 0.554818 0.554818
0.454173 0.454173 0.454173
0.475679 0.475679 0.475679
0.497302 0.497302 0.497302
0.519036 0.519036 0.519036
0.540876 0.540876 0.540876
0.562818 0.562818 0.562818
0.584858 0.584858 0.584858
0.606991 0.606991 0.606991
0.629216 0.629216 0.629216
0.526975 0.526975 0.526975
0.548852 0.548852 0.548852
0.570831 0.570831 0.570831
0.592905 0.592905 0.592905
0.615072 0.615072 0.615072
0.637329 0.637329 0.637329
0.659671 0.659671 0.659671
0.682097 0.682097 0.682097
0.704604 0.704604 0.704604
0.600965 0.600965 0.600965
0.623165 0.623165 0.623165
0.645453 0.645453 0.645453
0.667826 0.667826 0.667826
0.690282 0.690282 0.690282
0.712818 0.712818 0.712818
0.735430 0.735430 0.735430
0.758118 0.758118 0.758118
0.780878 0.780878 0.780878
0.675992 0.675992 0.675992
0.698477 0.698477 0.698477
0.721041 0.721041 0.721041
0.743681 0.743681 0.743681
0.766396 0.766396 0.766396
0.789182 0.789182 0.789182
0.812039 0.812039 0.812039
0.834963 0.834963 0.834963
0.857954 0.857954 0.857954
0.141883 0.131431 0.120979
0.157284 0.147857 0.138429
0.173451 0.165140 0.156830
0.190150 0.183012 0.175874
0.207284 0.201340 0.195396
0.224816 0.220053 0.215289
0.242734 0.239103 0.235472
0.261045 0.258461 0.255877
0.279771 0.278109 0.276447
0.196340 0.189636 0.182932
0.213622 0.208111 0.202600
0.231294 0.226951 0.222607
0.249354 0.246116 0.242878
0.267813 0.265581 0.263349
0.286696 0.285331 0.283966
0.306032 0.305356 0.304679
0.325859 0.325650 0.325441
0.346218 0.346213 0.346208
0.256027 0.253169 0.250311
0.274637 0.272739 0.270841
0.293681 0.292590 0.291499
0.313191 0.312713 0.312235
0.333207 0.333105 0.333003
0.353764 0.353764 0.353764
0.374621 0.374621 0.374621
0.395630 0.395630 0.395630
0.416782 0.416782 0.416782
0.320418 0.320106 0.319794
0.340628 0.340596 0.340564
0.361339 0.361339 0.361339
0.382252 0.382252 0.382252
0.403314 0.403314 0.403314
0.424516 0.424516 0.424516
0.445850 0.445850 0.445850
0.467309 0.467309 0.467309
0.488887 0.488887 0.488887
0.389904 0.389904 0.389904
0.411017 0.411017 0.411017
0.432268 0.432268 0.432268
0.453649 0.453649 0.453649
0.475152 0.475152 0.475152
0.496772 0.496772 0.496772
0.518503 0.518503 0.518503
0.540340 0.540340 0.540340
0.562280 0.562280 0.562280
0.461463 0.461463 0.461463
0.483009 0.483009 0.483009
0.504670 0.504670 0.504670
0.526441 0.526441 0.526441
0.548316 0.548316 0.548316
0.570292 0.570292 0.570292
0.592364 0.592364 0.592364
0.614529 0.614529 0.614529
0.636783 0.636783 0.636783
0.534393 0.534393 0.534393
0.556305 0.556305 0.556305
0.578316 0.578316 0.578316
0.600423 0.600423 0.600423
0.622621 0.622621 0.622621
0.644907 0.644907 0.644907
0.667278 0.667278 0.667278
0.689732 0.689732 0.689732
0.712265 0.712265 0.712265
0.608494 0.608494 0.608494
0.630724 0.630724 0.630724
0.653042 0.653042 0.653042
0.675443 0.675443 0.675443
0.697926 0.697926 0.697926
0.720488 0.720488 0.720488
0.743127 0.743127 0.743127
0.765839 0.765839 0.765839
0.788624 0.788624 0.788624
0.683619 0.683619 0.683619
0.706131 0.706131 0.706131
0.728722 0.728722 0.728722
0.751387 0.751387 0.751387
0.774126 0.774126 0.774126
0.796937 0.796937 0.796937
0.819817 0.819817 0.819817
0.842764 0.842764 0.842764
0.865777 0.865777 0.865777
0.147000 0.136883 0.126766
0.162705 0.153648 0.144592
0.179069 0.171152 0.163235
0.195923 0.189189 0.182456
0.213195 0.207655 0.202115
0.230857 0.226486 0.222115
0.248907 0.245643 0.242379
0.267357 0.265102 0.262847
0.286229 0.284845 0.283461
0.202164 0.195866 0.189568
0.219580 0.214471 0.209361
0.237384 0.233424 0.229465
0.255577 0.252694 0.249810
0.274177 0.272257 0.270337
0.293210 0.292101 0.290992
0.312708 0.312217 0.311727
0.332711 0.332603 0.332495
0.353256 0.353256 0.353256
0.262300 0.259783 0.257265
0.281054 0.279450 0.277845
0.300253 0.299393 0.298534
0.319930 0.319608 0.319286
0.340127 0.340092 0.340056
0.360830 0.360830 0.360830
0.381739 0.381739 0.381739
0.402797 0.402797 0.402797
0.423996 0.423996 0.423996
0.327221 0.327034 0.326848
0.347618 0.347616 0.347613
0.368424 0.368424 0.368424
0.389389 0.389389 0.389389
0.410499 0.410499 0.410499
0.431747 0.431747 0.431747
0.453124 0.453124 0.453124
0.474624 0.474624 0.474624
0.496241 0.496241 0.496241
0.397058 0.397058 0.397058
0.418219 0.418219 0.418219
0.439515 0.439515 0.439515
0.460938 0.460938 0.460938
0.482481 0.482481 0.482481
0.504139 0.504139 0.504139
0.525907 0.525907 0.525907
0.547780 0.547780 0.547780
0.569753 0.569753 0.569753
0.468767 0.468767 0.468767
0.490353 0.490353 0.490353
0.512052 0.512052 0.512052
0.533858 0.533858 0.533858
0.555768 0.555768 0.555768
0.577777 0.577777 0.577777
0.599881 0.599881 0.599881
0.622077 0.622077 0.622077
0.644361 0.644361 0.644361
0.541823 0.541823 0.541823
0.563769 0.563769 0.563769
0.585813 0.585813 0.585813
0.607951 0.607951 0.607951
0.630179 0.630179 0.630179
0.652495 0.652495 0.652495
0.674894 0.674894 0.674894
0.697376 0.697376 0.697376
0.719936 0.719936 0.719936
0.616033 0.616033 0.616033
0.638294 0.638294 0.638294
0.660640 0.660640 0.660640
0.683070 0.683070 0.683070
0.705580 0.705580 0.705580
0.728168 0.728168 0.728168
0.750832 0.750832 0.750832
0.773569 0.773569 0.773569
0.796378 0.796378 0.796378
0.691256 0.691256 0.691256
0.713795 0.713795 0.713795
0.736411 0.736411 0.736411
0.759101 0.759101 0.759101
0.781865 0.781865 0.781865
0.804699 0.804699 0.804699
0.827602 0.827602 0.827602
0.850572 0.850572 0.850572
0.873607 0.873607 0.873607
0.152241 0.142473 0.132705
0.168200 0.159523 0.150847
0.184742 0.177224 0.169706
0.201743 0.195416 0.189089
0.219150 0.214011 0.208873
0.236944 0.232957 0.228970
0.255127 0.252219 0.249310
0.273717 0.271775 0.269833
0.292739 0.291612 0.290486
0.208035 0.202143 0.196250
0.225583 0.220870 0.216157
0.243518 0.239934 0.236351
0.261847 0.259305 0.256764
0.280591 0.278965 0.277340
0.299777 0.298902 0.298027
0.319443 0.319110 0.318778
0.339626 0.339587 0.339548
0.360320 0.360320 0.360320
0.268621 0.266430 0.264239
0.287523 0.286192 0.284861
0.306879 0.306228 0.305577
0.326729 0.326534 0.326340
0.347112 0.347109 0.347106
0.367913 0.367913 0.367913
0.388874 0.388874 0.388874
0.409981 0.409981 0.409981
0.431226 0.431226 0.431226
0.334085 0.333994 0.333902
0.354664 0.354664 0.354664
0.375527 0.375527 0.375527
0.396542 0.396542 0.396542
0.417700 0.417700 0.417700
0.438993 0.438993 0.438993
0.460412 0.460412 0.460412
0.481953 0.481953 0.481953
0.503608 0.503608 0.503608
0.404229 0.404229 0.404229
0.425437 0.425437 0.425437
0.446776 0.446776 0.446776
0.468241 0.468241 0.468241
0.489824 0.489824 0.489824
0.511520 0.511520 0.511520
0.533324 0.533324 0.533324
0.555231 0.555231 0.555231
0.577237 0.577237 0.577237
0.476085 0.476085 0.476085
0.497710 0.497710 0.497710
0.519446 0.519446 0.519446
0.541288 0.541288 0.541288
0.563232 0.563232 0.563232
0.585273 0.585273 0.585273
0.607409 0.607409 0.607409
0.629635 0.629635 0.629635
0.651948 0.651948 0.651948
0.549265 0.549265 0.549265
0.571245 0.571245 0.571245
0.593321 0.593321 0.593321
0.615490 0.615490 0.615490
0.637748 0.637748 0.637748
0.660093 0.660093 0.660093
0.682520 0.682520 0.682520
0.705028 0.705028 0.705028
0.727615 0.727615 0.727615
0.623583 0.623583 0.623583
0.645873 0.645873 0.645873
0.668248 0.668248 0.668248
0.690705 0.690705 0.690705
0.713242 0.713242 0.713242
0.735856 0.735856 0.735856
0.758546 0.758546 0.758546
0.781307 0.781307 0.781307
0.804140 0.804140 0.804140
0.698901 0.698901 0.698901
0.721467 0.721467 0.721467
0.744108 0.744108 0.744108
0.766824 0.766824 0.766824
0.789612 0.789612 0.789612
0.812469 0.812469 0.812469
0.835395 0.835395 0.835395
0.858388 0.858388 0.858388
0.881444 0.881444 0.881444
0.157582 0.148175 0.138768
0.173761 0.165472 0.157183
0.190468 0.183352 0.176237
0.207611 0.201689 0.195767
0.225149 0.220408 0.215667
0.243075 0.239464 0.235854
0.261394 0.258828 0.256262
0.280127 0.278481 0.276835
0.299303 0.298411 0.297520
0.213951 0.208462 0.202974
0.231631 0.227308 0.222986
0.249697 0.246479 0.243261
0.268165 0.265950 0.263736
0.287055 0.285705 0.284355
0.306400 0.305735 0.305069
0.326237 0.326034 0.325832
0.346607 0.346602 0.346598
0.367403 0.367403 0.367403
0.274991 0.273110 0.271229
0.294044 0.292966 0.291888
0.313563 0.313094 0.312625
0.333589 0.333491 0.333394
0.354155 0.354155 0.354155
0.375015 0.375015 0.375015
0.396026 0.396026 0.396026
0.417181 0.417181 0.417181
0.438470 0.438470 0.438470
0.341013 0.340984 0.340955
0.361731 0.361731 0.361731
0.382647 0.382647 0.382647
0.403712 0.403712 0.403712
0.424916 0.424916 0.424916
0.446253 0.446253 0.446253
0.467714 0.467714 0.467714
0.489294 0.489294 0.489294
0.510988 0.510988 0.510988
0.411416 0.411416 0.411416
0.432669 0.432669 0.432669
0.454052 0.454052 0.454052
0.475557 0.475557 0.475557
0.497179 0.497179 0.497179
0.518913 0.518913 0.518913
0.540752 0.540752 0.540752
0.562694 0.562694 0.562694
0.584733 0.584733 0.584733
0.483416 0.483416 0.483416
0.505079 0.505079 0.505079
0.526852 0.526852 0.526852
0.548729 0.548729 0.548729
0.570706 0.570706 0.570706
0.592780 0.592780 0.592780
0.614947 0.614947 0.614947
0.637203 0.637203 0.637203
0.659545 0.659545 0.659545
0.556718 0.556718 0.556718
0.578732 0.578732 0.578732
0.600840 0.600840 0.600840
0.623039 0.623039 0.623039
0.645327 0.645327 0.645327
0.667700 0.667700 0.667700
0.690155 0.690155 0.690155
0.712690 0.712690 0.712690
0.735302 0.735302 0.735302
0.631143 0.631143 0.631143
0.653462 0.653462 0.653462
0.675866 0.675866 0.675866
0.698350 0.698350 0.698350
0.720914 0.720914 0.720914
0.743553 0.743553 0.743553
0.766267 0.766267 0.766267
0.789054 0.789054 0.789054
0.811910 0.811910 0.811910
0.706556 0.706556 0.706556
0.729147 0.729147 0.729147
0.751814 0.751814 0.751814
0.774555 0.774555 0.774555
0.797367 0.797367 0.797367
0.820248 0.820248 0.820248
0.843196 0.843196 0.843196
0.866211 0.866211 0.866211
0.889289 0.889289 0.889289
0.163008 0.153972 0.144936
0.179382 0.171487 0.163592
0.196244 0.189533 0.182822
0.213523 0.208006 0.202488
0.231193 0.226844 0.222494
0.249251 0.246007 0.242763
0.267708 0.265471 0.263233
0.286588 0.285219 0.283850
0.305921 0.305242 0.304562
0.219912 0.214824 0.209737
0.237722 0.233784 0.229846
0.255923 0.253059 0.250195
0.274531 0.272628 0.270725
0.293572 0.292477 0.291382
0.313080 0.312599 0.312117
0.333093 0.332989 0.332886
0.353647 0.353647 0.353647
0.374503 0.374503 0.374503
0.281411 0.279822 0.278233
0.300618 0.299771 0.298924
0.320305 0.319991 0.319677
0.340512 0.340479 0.340447
0.361222 0.361222 0.361222
0.382134 0.382134 0.382134
0.403195 0.403195 0.403195
0.424396 0.424396 0.424396
0.445729 0.445729 0.445729
0.348007 0.348005 0.348004
0.368817 0.368817 0.368817
0.389785 0.389785 0.389785
0.410898 0.410898 0.410898
0.432148 0.432148 0.432148
0.453528 0.453528 0.453528
0.475030 0.475030 0.475030
0.496649 0.496649 0.496649
0.518380 0.518380 0.518380
0.418619 0.418619 0.418619
0.439917 0.439917 0.439917
0.461342 0.461342 0.461342
0.482888 0.482888 0.482888
0.504548 0.504548 0.504548
0.526318 0.526318 0.526318
0.548192 0.548192 0.548192
0.570167 0.570167 0.570167
0.592239 0.592239 0.592239
0.490760 0.490760 0.490760
0.512461 0.512461 0.512461
0.534270 0.534270 0.534270
0.556181 0.556181 0.556181
0.578192 0.578192 0.578192
0.600298 0.600298 0.600298
0.622495 0.622495 0.622495
0.644781 0.644781 0.644781
0.667152 0.667152 0.667152
0.564183 0.564183 0.564183
0.586229 0.586229 0.586229
0.608369 0.608369 0.608369
0.630598 0.630598 0.630598
0.652915 0.652915 0.652915
0.675317 0.675317 0.675317
0.697799 0.697799 0.697799
0.720361 0.720361 0.720361
0.742999 0.742999 0.742999
0.638713 0.638713 0.638713
0.661061 0.661061 0.661061
0.683493 0.683493 0.683493
0.706004 0.706004 0.706004
0.728594 0.728594 0.728594
0.751259 0.751259 0.751259
0.773998 0.773998 0.773998
0.796808 0.796808 0.796808
0.819687 0.819687 0.819687
0.714219 0.714219 0.714219
0.736837 0.736837 0.736837
0.759529 0.759529 0.759529
0.782294 0.782294 0.782294
0.805129 0.805129 0.805129
0.828034 0.828034 0.828034
0.851005 0.851005 0.851005
0.874041 0.874041 0.874041
0.897141 0.897141 0.897141
0.168506 0.159851 0.151196
0.185058 0.177562 0.170066
0.202067 0.195762 0.189457
0.219481 0.214365 0.209248
0.237282 0.233316 0.229351
0.255473 0.252584 0.249695
0.274071 0.272146 0.270221
0.293101 0.291988 0.290875
0.312597 0.312103 0.311610
0.225917 0.221226 0.216535
0.243859 0.240296 0.236733
0.262196 0.259673 0.257150
0.280947 0.279338 0.277728
0.300143 0.299280 0.298417
0.319817 0.319493 0.319169
0.340011 0.339975 0.339939
0.360712 0.360712 0.360712
0.381621 0.381621 0.381621
0.287883 0.286566 0.285250
0.307248 0.306608 0.305967
0.327107 0.326919 0.326731
0.347501 0.347499 0.347496
0.368306 0.368306 0.368306
0.389270 0.389270 0.389270
0.410380 0.410380 0.410380
0.431627 0.431627 0.431627
0.453003 0.453003 0.453003
0.355055 0.355055 0.355055
0.375921 0.375921 0.375921
0.396939 0.396939 0.396939
0.418100 0.418100 0.418100
0.439394 0.439394 0.439394
0.460816 0.460816 0.460816
0.482359 0.482359 0.482359
0.504017 0.504017 0.504017
0.525784 0.525784 0.525784
0.425837 0.425837 0.425837
0.447179 0.447179 0.447179
0.468646 0.468646 0.468646
0.490231 0.490231 0.490231
0.511929 0.511929 0.511929
0.533735 0.533735 0.533735
0.555644 0.555644 0.555644
0.577652 0.577652 0.577652
0.599756 0.599756 0.599756
0.498118 0.498118 0.498118
0.519855 0.519855 0.519855
0.541700 0.541700 0.541700
0.563645 0.563645 0.563645
0.585689 0.585689 0.585689
0.607826 0.607826 0.607826
0.630054 0.630054 0.630054
0.652369 0.652369 0.652369
0.674768 0.674768 0.674768
0.571659 0.571659 0.571659
0.593737 0.593737 0.593737
0.615908 0.615908 0.615908
0.638168 0.638168 0.638168
0.660514 0.660514 0.660514
0.682943 0.682943 0.682943
0.705453 0.705453 0.705453
0.728040 0.728040 0.728040
0.750704 0.750704 0.750704
0.646293 0.646293 0.646293
0.668670 0.668670 0.668670
0.691129 0.691129 0.691129
0.713667 0.713667 0.713667
0.736283 0.736283 0.736283
0.758973 0.758973 0.758973
0.781736 0.781736 0.781736
0.804570 0.804570 0.804570
0.827473 0.827473 0.827473
0.721892 0.721892 0.721892
0.744535 0.744535 0.744535
0.767252 0.767252 0.767252
0.790041 0.790041 0.790041
0.812900 0.812900 0.812900
0.835827 0.835827 0.835827
0.858821 0.858821 0.858821
0.881879 0.881879 0.881879
0.905000 0.905000 0.905000
