Fotico/Resources/LUTs/sf_noir.cube
TITLE "Noir"
LUT_3D_SIZE 33
DOMAIN_MIN 0.0 0.0 0.0
DOMAIN_MAX 1.0 1.0 1.0
0.128092 0.116773 0.105454
0.131038 0.119900 0.108761
0.134404 0.123474 0.112545
0.137945 0.127240 0.116534
0.141604 0.131134 0.120664
0.145352 0.135126 0.124900
0.149172 0.139199 0.129225
0.153053 0.143339 0.133625
0.156986 0.147538 0.138091
0.160966 0.151790 0.142614
0.164987 0.156088 0.147189
0.169047 0.160429 0.151811
0.173141 0.164809 0.156477
0.177269 0.169226 0.161183
0.181427 0.173676 0.165925
0.185615 0.178159 0.170702
0.189831 0.182671 0.175510
0.194074 0.187212 0.180349
0.198344 0.191779 0.185215
0.202638 0.196373 0.190108
0.206958 0.200992 0.195025
0.211303 0.205634 0.199965
0.215672 0.210300 0.204928
0.220065 0.214988 0.209910
0.224483 0.219697 0.214912
0.228924 0.224428 0.219932
0.233389 0.229179 0.224969
0.237879 0.233950 0.230022
0.242393 0.238741 0.235090
0.246932 0.243551 0.240171
0.251495 0.248381 0.245266
0.256083 0.253228 0.250373
0.260697 0.258094 0.255491
0.139265 0.128644 0.118024
0.142959 0.132577 0.122195
0.146735 0.136600 0.126465
0.150578 0.140699 0.130819
0.154479 0.144861 0.135244
0.158430 0.149080 0.139731
0.162425 0.153349 0.144274
0.166461 0.157664 0.148867
0.170534 0.162019 0.153505
0.174640 0.166413 0.158186
0.178779 0.170842 0.162905
0.182949 0.175305 0.167660
0.187147 0.179798 0.172449
0.191373 0.184321 0.177269
0.195626 0.188871 0.182117
0.199904 0.193449 0.186993
0.204208 0.198052 0.191895
0.208537 0.202679 0.196821
0.212891 0.207330 0.201770
0.217269 0.212004 0.206739
0.221671 0.216700 0.211729
0.226097 0.221417 0.216738
0.230547 0.226155 0.221764
0.235021 0.230914 0.226807
0.239520 0.235692 0.231865
0.244042 0.240490 0.236938
0.248590 0.245307 0.242025
0.253162 0.250143 0.247124
0.257760 0.254998 0.252235
0.262383 0.259870 0.257357
0.267032 0.264761 0.262489
0.271708 0.269669 0.267630
0.276410 0.274595 0.272780
0.151992 0.142207 0.132422
0.155912 0.146391 0.136871
0.159880 0.150629 0.141379
0.163890 0.154915 0.145940
0.167940 0.159245 0.150550
0.172025 0.163615 0.155205
0.176144 0.168022 0.159900
0.180294 0.172463 0.164632
0.184474 0.176937 0.169400
0.188682 0.181441 0.174200
0.192918 0.185974 0.179031
0.197180 0.190535 0.183890
0.201468 0.195122 0.188775
0.205781 0.199734 0.193686
0.210119 0.204370 0.198620
0.214482 0.209029 0.203576
0.218868 0.213711 0.208554
0.223279 0.218415 0.213550
0.227714 0.223140 0.218566
0.232173 0.227885 0.223598
0.236656 0.232651 0.228647
0.241163 0.237437 0.233711
0.245695 0.242242 0.238789
0.250252 0.247066 0.243880
0.254833 0.251908 0.248983
0.259440 0.256769 0.254099
0.264073 0.261648 0.259224
0.268731 0.266545 0.264360
0.273416 0.271460 0.269504
0.278128 0.276392 0.274656
0.282868 0.281342 0.279816
0.287635 0.286309 0.284983
0.292431 0.291293 0.290155
0.165360 0.156487 0.147613
0.169423 0.160831 0.152240
0.173521 0.165215 0.156909
0.177651 0.169635 0.161618
0.181812 0.174088 0.166364
0.186003 0.178573 0.171144
0.190221 0.183088 0.175955
0.194467 0.187632 0.180796
0.198738 0.192202 0.185665
0.203036 0.196798 0.190560
0.207358 0.201419 0.195480
0.211705 0.206063 0.200422
0.216076 0.210731 0.205386
0.220471 0.215421 0.210371
0.224891 0.220133 0.215374
0.229335 0.224865 0.220396
0.233802 0.229618 0.225434
0.238294 0.234391 0.230489
0.242810 0.239184 0.235558
0.247351 0.243996 0.240641
0.251917 0.248827 0.245737
0.256508 0.253676 0.250844
0.261124 0.258544 0.255963
0.265766 0.263429 0.261093
0.270434 0.268333 0.266231
0.275129 0.273254 0.271379
0.279851 0.278192 0.276534
0.284600 0.283148 0.281696
0.289378 0.288121 0.286865
0.294184 0.293112 0.292039
0.299020 0.298119 0.297218
0.303885 0.303143 0.302401
0.308781 0.308184 0.307587
0.179163 0.171252 0.163342
0.183335 0.175718 0.168100
0.187535 0.180214 0.172892
0.191764 0.184739 0.177714
0.196019 0.189292 0.182566
0.200300 0.193872 0.187444
0.204606 0.198477 0.192348
0.208938 0.203107 0.197276
0.213293 0.207760 0.202227
0.217673 0.212436 0.207199
0.222078 0.217134 0.212190
0.226506 0.221853 0.217200
0.230958 0.226593 0.222228
0.235435 0.231354 0.227273
0.239935 0.236134 0.232332
0.244461 0.240934 0.237407
0.249010 0.245752 0.242494
0.253585 0.250590 0.247595
0.258185 0.255446 0.252707
0.262811 0.260320 0.257830
0.267462 0.265212 0.262963
0.272140 0.270122 0.268104
0.276845 0.275050 0.273255
0.281577 0.279995 0.278413
0.286336 0.284957 0.283577
0.291124 0.289936 0.288748
0.295941 0.294933 0.293924
0.300787 0.299946 0.299105
0.305664 0.304976 0.304289
0.310571 0.310023 0.309476
0.315509 0.315087 0.314666
0.320479 0.320168 0.319858
0.325481 0.325266 0.325050
0.193310 0.186394 0.179477
0.197575 0.190957 0.184339
0.201865 0.195546 0.189227
0.206180 0.200160 0.194140
0.210521 0.204798 0.199076
0.214885 0.209460 0.204035
0.219274 0.214144 0.209014
0.223687 0.218850 0.214012
0.228124 0.223576 0.219029
0.232585 0.228324 0.224063
0.237070 0.233092 0.229113
0.241580 0.237879 0.234178
0.246114 0.242686 0.239257
0.250673 0.247511 0.244350
0.255257 0.252356 0.249455
0.259866 0.257218 0.254571
0.264501 0.262099 0.259697
0.269162 0.266998 0.264834
0.273850 0.271914 0.269979
0.278564 0.276848 0.275132
0.283306 0.281799 0.280292
0.288076 0.286768 0.285459
0.292875 0.291753 0.290632
0.297702 0.296756 0.295810
0.302559 0.301775 0.300992
0.307447 0.306812 0.306177
0.312365 0.311865 0.311365
0.317314 0.316935 0.316556
0.322296 0.322022 0.321748
0.327310 0.327126 0.326941
0.332358 0.332246 0.332134
0.337440 0.337383 0.337326
0.342557 0.342537 0.342517
0.207758 0.201846 0.195934
0.212107 0.206493 0.200879
0.216480 0.211163 0.205845
0.220878 0.215855 0.210831
0.225300 0.220568 0.215836
0.229745 0.225303 0.220860
0.234215 0.230057 0.225900
0.238709 0.234832 0.230955
0.243228 0.239627 0.236026
0.247771 0.244440 0.241110
0.252339 0.249273 0.246207
0.256932 0.254124 0.251316
0.261551 0.258993 0.256436
0.266195 0.263881 0.261566
0.270866 0.268786 0.266706
0.275563 0.273708 0.271854
0.280287 0.278649 0.277010
0.285040 0.283606 0.282173
0.289820 0.288581 0.287342
0.294629 0.293573 0.292516
0.299467 0.298581 0.297696
0.304335 0.303607 0.302879
0.309233 0.308650 0.308066
0.314163 0.313709 0.313255
0.319124 0.318785 0.318446
0.324118 0.323878 0.323639
0.329144 0.328988 0.328831
0.334205 0.334114 0.334024
0.339299 0.339258 0.339216
0.344429 0.344418 0.344407
0.349595 0.349595 0.349595
0.354786 0.354786 0.354786
0.359987 0.359987 0.359987
0.222485 0.217568 0.212651
0.226915 0.222289 0.217663
0.231370 0.227031 0.222693
0.235849 0.231794 0.227738
0.240352 0.236576 0.232800
0.244879 0.241377 0.237875
0.249431 0.246198 0.242964
0.254008 0.251037 0.248066
0.258611 0.255895 0.253179
0.263238 0.260770 0.258302
0.267892 0.265664 0.263436
0.272573 0.270576 0.268579
0.277280 0.275505 0.273730
0.282014 0.280451 0.278889
0.286777 0.285415 0.284054
0.291567 0.290396 0.289225
0.296387 0.295394 0.294401
0.301236 0.300409 0.299582
0.306115 0.305441 0.304767
0.311024 0.310490 0.309955
0.315965 0.315555 0.315145
0.320938 0.320637 0.320336
0.325944 0.325736 0.325529
0.330983 0.330852 0.330722
0.336055 0.335985 0.335914
0.341163 0.341134 0.341106
0.346306 0.346301 0.346296
0.351484 0.351484 0.351484
0.356678 0.356678 0.356678
0.361883 0.361883 0.361883
0.367098 0.367098 0.367098
0.372323 0.372323 0.372323
0.377557 0.377557 0.377557
0.237485 0.233532 0.229579
0.241997 0.238321 0.234646
0.246533 0.243130 0.239726
0.251095 0.247957 0.244820
0.255681 0.252803 0.249926
0.260292 0.257668 0.255043
0.264930 0.262550 0.260170
0.269593 0.267450 0.265307
0.274283 0.272368 0.270453
0.279000 0.277304 0.275607
0.283745 0.282257 0.280768
0.288517 0.287227 0.285936
0.293318 0.292214 0.291109
0.298149 0.297218 0.296287
0.303009 0.302239 0.301469
0.307899 0.307277 0.306655
0.312820 0.312332 0.311844
0.317772 0.317403 0.317035
0.322757 0.322492 0.322227
0.327774 0.327597 0.327420
0.332825 0.332719 0.332612
0.337911 0.337858 0.337805
0.343031 0.343013 0.342996
0.348187 0.348186 0.348184
0.353374 0.353374 0.353374
0.358572 0.358572 0.358572
0.363781 0.363781 0.363781
0.368999 0.368999 0.368999
0.374227 0.374227 0.374227
0.379465 0.379465 0.379465
0.384712 0.384712 0.384712
0.389968 0.389968 0.389968
0.395233 0.395233 0.395233
0.252761 0.249719 0.246677
0.257357 0.254572 0.251787
0.261978 0.259443 0.256908
0.266624 0.264332 0.262040
0.271298 0.269239 0.267180
0.275997 0.274163 0.272329
0.280724 0.279105 0.277485
0.285479 0.284064 0.282649
0.290262 0.289040 0.287819
0.295074 0.294034 0.292994
0.299914 0.299044 0.298173
0.304785 0.304071 0.303357
0.309687 0.309115 0.308544
0.314619 0.314176 0.313733
0.319583 0.319254 0.318925
0.324580 0.324348 0.324117
0.329609 0.329460 0.329310
0.334673 0.334588 0.334503
0.339771 0.339733 0.339695
0.344904 0.344894 0.344885
0.350073 0.350073 0.350073
0.355265 0.355265 0.355265
0.360467 0.360467 0.360467
0.365679 0.365679 0.365679
0.370901 0.370901 0.370901
0.376133 0.376133 0.376133
0.381374 0.381374 0.381374
0.386624 0.386624 0.386624
0.391884 0.391884 0.391884
0.397152 0.397152 0.397152
0.402430 0.402430 0.402430
0.407716 0.407716 0.407716
0.413011 0.413011 0.413011
0.268323 0.266116 0.263910
0.273005 0.271030 0.269054
0.277715 0.275960 0.274205
0.282452 0.280908 0.279364
0.287217 0.285874 0.284530
0.292010 0.290856 0.289702
0.296833 0.295856 0.294879
0.301684 0.300872 0.300060
0.306566 0.305906 0.305245
0.311479 0.310956 0.310433
0.316423 0.316023 0.315623
0.321398 0.321107 0.320815
0.326407 0.326207 0.326008
0.331449 0.331325 0.331201
0.336525 0.336459 0.336393
0.341635 0.341610 0.341584
0.346782 0.346778 0.346774
0.351962 0.351962 0.351962
0.357158 0.357158 0.357158
0.362364 0.362364 0.362364
0.367579 0.367579 0.367579
0.372805 0.372805 0.372805
0.378040 0.378040 0.378040
0.383284 0.383284 0.383284
0.388538 0.388538 0.388538
0.393801 0.393801 0.393801
0.399073 0.399073 0.399073
0.404353 0.404353 0.404353
0.409643 0.409643 0.409643
0.414941 0.414941 0.414941
0.420247 0.420247 0.420247
0.425562 0.425562 0.425562
0.430885 0.430885 0.430885
0.284184 0.282714 0.281244
0.288959 0.287686 0.286413
0.293763 0.292674 0.291586
0.298595 0.297680 0.296765
0.303458 0.302703 0.301947
0.308351 0.307742 0.307134
0.313275 0.312799 0.312322
0.318230 0.317872 0.317513
0.323218 0.322962 0.322705
0.328239 0.328069 0.327898
0.333293 0.333192 0.333091
0.338381 0.338332 0.338283
0.343505 0.343489 0.343474
0.348664 0.348663 0.348663
0.353852 0.353852 0.353852
0.359052 0.359052 0.359052
0.364261 0.364261 0.364261
0.369481 0.369481 0.369481
0.374710 0.374710 0.374710
0.379948 0.379948 0.379948
0.385196 0.385196 0.385196
0.390453 0.390453 0.390453
0.395719 0.395719 0.395719
0.400994 0.400994 0.400994
0.406278 0.406278 0.406278
0.411570 0.411570 0.411570
0.416872 0.416872 0.416872
0.422181 0.422181 0.422181
0.427499 0.427499 0.427499
0.432825 0.432825 0.432825
0.438159 0.438159 0.438159
0.443501 0.443501 0.443501
0.448851 0.448851 0.448851
0.300362 0.299507 0.298651
0.305236 0.304536 0.303835
0.310140 0.309581 0.309022
0.315075 0.314644 0.314212
0.320042 0.319723 0.319403
0.325042 0.324819 0.324596
0.330075 0.329932 0.329789
0.335141 0.335061 0.334982
0.340243 0.340208 0.340173
0.345379 0.345371 0.345363
0.350551 0.350551 0.350551
0.355744 0.355744 0.355744
0.360947 0.360947 0.360947
0.366160 0.366160 0.366160
0.371383 0.371383 0.371383
0.376616 0.376616 0.376616
0.381858 0.381858 0.381858
0.387109 0.387109 0.387109
0.392369 0.392369 0.392369
0.397638 0.397638 0.397638
0.402917 0.402917 0.402917
0.408204 0.408204 0.408204
0.413499 0.413499 0.413499
0.418804 0.418804 0.418804
0.424116 0.424116 0.424116
0.429437 0.429437 0.429437
0.434766 0.434766 0.434766
0.440103 0.440103 0.440103
0.445448 0.445448 0.445448
0.450800 0.450800 0.450800
0.456161 0.456161 0.456161
0.461529 0.461529 0.461529
0.466905 0.466905 0.466905
0.316880 0.316491 0.316102
0.321859 0.321576 0.321294
0.326870 0.326678 0.326487
0.331915 0.331797 0.331679
0.336994 0.336933 0.336872
0.342108 0.342086 0.342063
0.347258 0.347255 0.347252
0.352441 0.352441 0.352441
0.357637 0.357637 0.357637
0.362844 0.362844 0.362844
0.368061 0.368061 0.368061
0.373287 0.373287 0.373287
0.378523 0.378523 0.378523
0.383768 0.383768 0.383768
0.389023 0.389023 0.389023
0.394286 0.394286 0.394286
0.399559 0.399559 0.399559
0.404841 0.404841 0.404841
0.410131 0.410131 0.410131
0.415430 0.415430 0.415430
0.420737 0.420737 0.420737
0.426052 0.426052 0.426052
0.431376 0.431376 0.431376
0.436708 0.436708 0.436708
0.442048 0.442048 0.442048
0.447396 0.447396 0.447396
0.452751 0.452751 0.452751
0.458114 0.458114 0.458114
0.463485 0.463485 0.463485
0.468863 0.468863 0.468863
0.474249 0.474249 0.474249
0.479642 0.479642 0.479642
0.485042 0.485042 0.485042
0.333761 0.333665 0.333570
0.338852 0.338807 0.338762
0.343979 0.343966 0.343952
0.349142 0.349141 0.349141
0.354331 0.354331 0.354331
0.359532 0.359532 0.359532
0.364742 0.364742 0.364742
0.369962 0.369962 0.369962
0.375192 0.375192 0.375192
0.380431 0.380431 0.380431
0.385680 0.385680 0.385680
0.390938 0.390938 0.390938
0.396205 0.396205 0.396205
0.401481 0.401481 0.401481
0.406766 0.406766 0.406766
0.412059 0.412059 0.412059
0.417361 0.417361 0.417361
0.422671 0.422671 0.422671
0.427990 0.427990 0.427990
0.433316 0.433316 0.433316
0.438651 0.438651 0.438651
0.443994 0.443994 0.443994
0.449344 0.449344 0.449344
0.454703 0.454703 0.454703
0.460069 0.460069 0.460069
0.465442 0.465442 0.465442
0.470823 0.470823 0.470823
0.476212 0.476212 0.476212
0.481607 0.481607 0.481607
0.487010 0.487010 0.487010
0.492420 0.492420 0.492420
0.497837 0.497837 0.497837
0.503261 0.503261 0.503261
0.351030 0.351030 0.351030
0.356223 0.356223 0.356223
0.361427 0.361427 0.361427
0.366641 0.366641 0.366641
0.371865 0.371865 0.371865
0.377098 0.377098 0.377098
0.382341 0.382341 0.382341
0.387593 0.387593 0.387593
0.392855 0.392855 0.392855
0.398125 0.398125 0.398125
0.403404 0.403404 0.403404
0.408692 0.408692 0.408692
0.413988 0.413988 0.413988
0.419293 0.419293 0.419293
0.424606 0.424606 0.424606
0.429928 0.429928 0.429928
0.435258 0.435258 0.435258
0.440595 0.440595 0.440595
0.445941 0.445941 0.445941
0.451294 0.451294 0.451294
0.456655 0.456655 0.456655
0.462024 0.462024 0.462024
0.467400 0.467400 0.467400
0.472784 0.472784 0.472784
0.478175 0.478175 0.478175
0.483573 0.483573 0.483573
0.488979 0.488979 0.488979
0.494391 0.494391 0.494391
0.499811 0.499811 0.499811
0.505237 0.505237 0.505237
0.510671 0.510671 0.510671
0.516111 0.516111 0.516111
0.521557 0.521557 0.521557
0.368542 0.368542 0.368542
0.373769 0.373769 0.373769
0.379006 0.379006 0.379006
0.384252 0.384252 0.384252
0.389508 0.389508 0.389508
0.394772 0.394772 0.394772
0.400046 0.400046 0.400046
0.405328 0.405328 0.405328
0.410619 0.410619 0.410619
0.415918 0.415918 0.415918
0.421226 0.421226 0.421226
0.426543 0.426543 0.426543
0.431867 0.431867 0.431867
0.437200 0.437200 0.437200
0.442540 0.442540 0.442540
0.447889 0.447889 0.447889
0.453245 0.453245 0.453245
0.458609 0.458609 0.458609
0.463981 0.463981 0.463981
0.469360 0.469360 0.469360
0.474746 0.474746 0.474746
0.480140 0.480140 0.480140
0.485541 0.485541 0.485541
0.490949 0.490949 0.490949
0.496364 0.496364 0.496364
0.501786 0.501786 0.501786
0.507215 0.507215 0.507215
0.512650 0.512650 0.512650
0.518093 0.518093 0.518093
0.523542 0.523542 0.523542
0.528998 0.528998 0.528998
0.534460 0.534460 0.534460
0.539928 0.539928 0.539928
0.386165 0.386165 0.386165
0.391423 0.391423 0.391423
0.396691 0.396691 0.396691
0.401968 0.401968 0.401968
0.407253 0.407253 0.407253
0.412547 0.412547 0.412547
0.417850 0.417850 0.417850
0.423161 0.423161 0.423161
0.428480 0.428480 0.428480
0.433808 0.433808 0.433808
0.439143 0.439143 0.439143
0.444487 0.444487 0.444487
0.449838 0.449838 0.449838
0.455197 0.455197 0.455197
0.460564 0.460564 0.460564
0.465938 0.465938 0.465938
0.471320 0.471320 0.471320
0.476709 0.476709 0.476709
0.482105 0.482105 0.482105
0.487509 0.487509 0.487509
0.492919 0.492919 0.492919
0.498337 0.498337 0.498337
0.503761 0.503761 0.503761
0.509193 0.509193 0.509193
0.514631 0.514631 0.514631
0.520076 0.520076 0.520076
0.525527 0.525527 0.525527
0.530985 0.530985 0.530985
0.536450 0.536450 0.536450
0.541921 0.541921 0.541921
0.547398 0.547398 0.547398
0.552882 0.552882 0.552882
0.558372 0.558372 0.558372
0.403891 0.403891 0.403891
0.409180 0.409180 0.409180
0.414477 0.414477 0.414477
0.419783 0.419783 0.419783
0.425097 0.425097 0.425097
0.430419 0.430419 0.430419
0.435749 0.435749 0.435749
0.441088 0.441088 0.441088
0.446434 0.446434 0.446434
0.451788 0.451788 0.451788
0.457150 0.457150 0.457150
0.462520 0.462520 0.462520
0.467896 0.467896 0.467896
0.473281 0.473281 0.473281
0.478673 0.478673 0.478673
0.484072 0.484072 0.484072
0.489478 0.489478 0.489478
0.494891 0.494891 0.494891
0.500311 0.500311 0.500311
0.505738 0.505738 0.505738
0.511172 0.511172 0.511172
0.516613 0.516613 0.516613
0.522060 0.522060 0.522060
0.527514 0.527514 0.527514
0.532974 0.532974 0.532974
0.538441 0.538441 0.538441
0.543914 0.543914 0.543914
0.549394 0.549394 0.549394
0.554880 0.554880 0.554880
0.560372 0.560372 0.560372
0.565870 0.565870 0.565870
0.571374 0.571374 0.571374
0.576885 0.576885 0.576885
0.421716 0.421716 0.421716
0.427033 0.427033 0.427033
0.432359 0.432359 0.432359
0.437692 0.437692 0.437692
0.443033 0.443033 0.443033
0.448382 0.448382 0.448382
0.453739 0.453739 0.453739
0.459104 0.459104 0.459104
0.464476 0.464476 0.464476
0.469856 0.469856 0.469856
0.475243 0.475243 0.475243
0.480637 0.480637 0.480637
0.486039 0.486039 0.486039
0.491448 0.491448 0.491448
0.496863 0.496863 0.496863
0.502286 0.502286 0.502286
0.507715 0.507715 0.507715
0.513152 0.513152 0.513152
0.518595 0.518595 0.518595
0.524045 0.524045 0.524045
0.529501 0.529501 0.529501
0.534964 0.534964 0.534964
0.540433 0.540433 0.540433
0.545909 0.545909 0.545909
0.551390 0.551390 0.551390
0.556879 0.556879 0.556879
0.562373 0.562373 0.562373
0.567873 0.567873 0.567873
0.573380 0.573380 0.573380
0.578892 0.578892 0.578892
0.584411 0.584411 0.584411
0.589935 0.589935 0.589935
0.595465 0.595465 0.595465
0.439636 0.439636 0.439636
0.444980 0.444980 0.444980
0.450332 0.450332 0.450332
0.455692 0.455692 0.455692
0.461059 0.461059 0.461059
0.466434 0.466434 0.466434
0.471816 0.471816 0.471816
0.477206 0.477206 0.477206
0.482603 0.482603 0.482603
0.488007 0.488007 0.488007
0.493418 0.493418 0.493418
0.498837 0.498837 0.498837
0.504262 0.504262 0.504262
0.509694 0.509694 0.509694
0.515133 0.515133 0.515133
0.520578 0.520578 0.520578
0.526030 0.526030 0.526030
0.531489 0.531489 0.531489
0.536954 0.536954 0.536954
0.542426 0.542426 0.542426
0.547904 0.547904 0.547904
0.553388 0.553388 0.553388
0.558878 0.558878 0.558878
0.564375 0.564375 0.564375
0.569877 0.569877 0.569877
0.575386 0.575386 0.575386
0.580901 0.580901 0.580901
0.586421 0.586421 0.586421
0.591948 0.591948 0.591948
0.597480 0.597480 0.597480
0.603018 0.603018 0.603018
0.608562 0.608562 0.608562
0.614111 0.614111 0.614111
0.457645 0.457645 0.457645
0.463015 0.463015 0.463015
0.468393 0.468393 0.468393
0.473778 0.473778 0.473778
0.479170 0.479170 0.479170
0.484570 0.484570 0.484570
0.489976 0.489976 0.489976
0.495390 0.495390 0.495390
0.500811 0.500811 0.500811
0.506239 0.506239 0.506239
0.511673 0.511673 0.511673
0.517114 0.517114 0.517114
0.522562 0.522562 0.522562
0.528017 0.528017 0.528017
0.533478 0.533478 0.533478
0.538945 0.538945 0.538945
0.544419 0.544419 0.544419
0.549899 0.549899 0.549899
0.555386 0.555386 0.555386
0.560879 0.560879 0.560879
0.566377 0.566377 0.566377
0.571882 0.571882 0.571882
0.577393 0.577393 0.577393
0.582910 0.582910 0.582910
0.588433 0.588433 0.588433
0.593961 0.593961 0.593961
0.599495 0.599495 0.599495
0.605036 0.605036 0.605036
0.610581 0.610581 0.610581
0.616133 0.616133 0.616133
0.621690 0.621690 0.621690
0.627252 0.627252 0.627252
0.632820 0.632820 0.632820
0.475740 0.475740 0.475740
0.481135 0.481135 0.481135
0.486537 0.486537 0.486537
0.491947 0.491947 0.491947
0.497363 0.497363 0.497363
0.502786 0.502786 0.502786
0.508216 0.508216 0.508216
0.513653 0.513653 0.513653
0.519097 0.519097 0.519097
0.524547 0.524547 0.524547
0.530004 0.530004 0.530004
0.535468 0.535468 0.535468
0.540937 0.540937 0.540937
0.546414 0.546414 0.546414
0.551896 0.551896 0.551896
0.557385 0.557385 0.557385
0.562880 0.562880 0.562880
0.568381 0.568381 0.568381
0.573888 0.573888 0.573888
0.579401 0.579401 0.579401
0.584920 0.584920 0.584920
0.590445 0.590445 0.590445
0.595975 0.595975 0.595975
0.601512 0.601512 0.601512
0.607054 0.607054 0.607054
0.612602 0.612602 0.612602
0.618155 0.618155 0.618155
0.623714 0.623714 0.623714
0.629278 0.629278 0.629278
0.634848 0.634848 0.634848
0.640424 0.640424 0.640424
0.646004 0.646004 0.646004
0.651590 0.651590 0.651590
0.493918 0.493918 0.493918
0.499337 0.499337 0.499337
0.504762 0.504762 0.504762
0.510195 0.510195 0.510195
0.515634 0.515634 0.515634
0.521081 0.521081 0.521081
0.526533 0.526533 0.526533
0.531993 0.531993 0.531993
0.537458 0.537458 0.537458
0.542930 0.542930 0.542930
0.548409 0.548409 0.548409
0.553894 0.553894 0.553894
0.559385 0.559385 0.559385
0.564882 0.564882 0.564882
0.570385 0.570385 0.570385
0.575894 0.575894 0.575894
0.581409 0.581409 0.581409
0.586931 0.586931 0.586931
0.592458 0.592458 0.592458
0.597990 0.597990 0.597990
0.603529 0.603529 0.603529
0.609073 0.609073 0.609073
0.614623 0.614623 0.614623
0.620178 0.620178 0.620178
0.625739 0.625739 0.625739
0.631306 0.631306 0.631306
0.636878 0.636878 0.636878
0.642455 0.642455 0.642455
0.648037 0.648037 0.648037
0.653625 0.653625 0.653625
0.659219 0.659219 0.659219
0.664817 0.664817 0.664817
0.670421 0.670421 0.670421
0.512175 0.512175 0.512175
0.517616 0.517616 0.517616
0.523065 0.523065 0.523065
0.528520 0.528520 0.528520
0.533982 0.533982 0.533982
0.539450 0.539450 0.539450
0.544924 0.544924 0.544924
0.550405 0.550405 0.550405
0.555892 0.555892 0.555892
0.561385 0.561385 0.561385
0.566885 0.566885 0.566885
0.572390 0.572390 0.572390
0.577901 0.577901 0.577901
0.583419 0.583419 0.583419
0.588942 0.588942 0.588942
0.594471 0.594471 0.594471
0.600006 0.600006 0.600006
0.605547 0.605547 0.605547
0.611093 0.611093 0.611093
0.616645 0.616645 0.616645
0.622202 0.622202 0.622202
0.627765 0.627765 0.627765
0.633334 0.633334 0.633334
0.638907 0.638907 0.638907
0.644487 0.644487 0.644487
0.650071 0.650071 0.650071
0.655661 0.655661 0.655661
0.661256 0.661256 0.661256
0.666856 0.666856 0.666856
0.672462 0.672462 0.672462
0.678072 0.678072 0.678072
0.683688 0.683688 0.683688
0.689309 0.689309 0.689309
0.530508 0.530508 0.530508
0.535972 0.535972 0.535972
0.541442 0.541442 0.541442
0.546919 0.546919 0.546919
0.552402 0.552402 0.552402
0.557891 0.557891 0.557891
0.563387 0.563387 0.563387
0.568888 0.568888 0.568888
0.574396 0.574396 0.574396
0.579909 0.579909 0.579909
0.585429 0.585429 0.585429
0.590954 0.590954 0.590954
0.596486 0.596486 0.596486
0.602022 0.602022 0.602022
0.607565 0.607565 0.607565
0.613113 0.613113 0.613113
0.618667 0.618667 0.618667
0.624227 0.624227 0.624227
0.629792 0.629792 0.629792
0.635362 0.635362 0.635362
0.640938 0.640938 0.640938
0.646519 0.646519 0.646519
0.652106 0.652106 0.652106
0.657697 0.657697 0.657697
0.663294 0.663294 0.663294
0.668897 0.668897 0.668897
0.674504 0.674504 0.674504
0.680116 0.680116 0.680116
0.685734 0.685734 0.685734
0.691356 0.691356 0.691356
0.696984 0.696984 0.696984
0.702616 0.702616 0.702616
0.708253 0.708253 0.708253
0.548914 0.548914 0.548914
0.554400 0.554400 0.554400
0.559891 0.559891 0.559891
0.565389 0.565389 0.565389
0.570893 0.570893 0.570893
0.576402 0.576402 0.576402
0.581918 0.581918 0.581918
0.587440 0.587440 0.587440
0.592967 0.592967 0.592967
0.598501 0.598501 0.598501
0.604040 0.604040 0.604040
0.609584 0.609584 0.609584
0.615135 0.615135 0.615135
0.620691 0.620691 0.620691
0.626252 0.626252 0.626252
0.631819 0.631819 0.631819
0.637392 0.637392 0.637392
0.642969 0.642969 0.642969
0.648552 0.648552 0.648552
0.654141 0.654141 0.654141
0.659735 0.659735 0.659735
0.665333 0.665333 0.665333
0.670937 0.670937 0.670937
0.676547 0.676547 0.676547
0.682161 0.682161 0.682161
0.687780 0.687780 0.687780
0.693404 0.693404 0.693404
0.699034 0.699034 0.699034
