Fotico/Resources/LUTs/super8.cube
# Super 8
LUT_3D_SIZE 9
0.040000 0.030000 0.020000
0.069347 0.030000 0.020000
0.145712 0.030000 0.020000
0.243780 0.030000 0.022848
0.358838 0.030674 0.029630
0.484897 0.036939 0.036840
0.614908 0.043689 0.044458
0.740924 0.050915 0.052467
0.784761 0.053705 0.055524
0.040000 0.071946 0.022979
0.090784 0.078331 0.028560
0.172559 0.085573 0.034879
0.274786 0.093456 0.041744
0.392470 0.101893 0.049083
0.519420 0.110840 0.056854
0.648430 0.120265 0.065033
0.771423 0.130148 0.073602
0.813610 0.133912 0.076865
0.051574 0.162738 0.042862
0.115229 0.171020 0.048925
0.202209 0.180300 0.055765
0.308301 0.190274 0.063170
0.428221 0.200819 0.071057
0.555568 0.211867 0.079380
0.682979 0.223370 0.088111
0.802239 0.235294 0.097229
0.842482 0.239802 0.100693
0.072812 0.276685 0.064920
0.142180 0.286304 0.071445
0.233990 0.297003 0.078784
0.343511 0.308415 0.086706
0.465168 0.320385 0.095117
0.592354 0.332828 0.103967
0.717541 0.345683 0.113223
0.832379 0.358907 0.122862
0.870408 0.363881 0.126517
0.096681 0.406254 0.088980
0.171385 0.416605 0.095943
0.267583 0.428054 0.103754
0.380040 0.440194 0.112163
0.502889 0.452852 0.121067
0.629320 0.465928 0.130412
0.751640 0.479353 0.140161
0.861365 0.493076 0.150287
0.896911 0.498214 0.154121
0.123013 0.543216 0.114904
0.202634 0.553663 0.122276
0.302740 0.565160 0.130529
0.417602 0.577285 0.139392
0.541071 0.589856 0.148756
0.666130 0.602766 0.158561
0.784924 0.615940 0.168766
0.888835 0.629323 0.179342
0.921630 0.634313 0.183341
0.151635 0.678818 0.142562
0.235727 0.688702 0.150314
0.339234 0.699520 0.158975
0.455947 0.710861 0.168258
0.579439 0.722545 0.178045
0.702491 0.734463 0.188271
0.817089 0.746540 0.198893
0.914478 0.758716 0.209880
0.944250 0.763232 0.214028
0.182369 0.803892 0.171825
0.270464 0.812537 0.179926
0.376844 0.821931 0.188960
0.494835 0.831699 0.198625
0.617738 0.841674 0.208797
0.738136 0.851753 0.219405
0.847854 0.861862 0.230404
0.938003 0.871943 0.241759
0.964479 0.875653 0.246041
0.215029 0.908927 0.202562
0.306644 0.915643 0.210979
0.415352 0.922851 0.220351
0.534033 0.930240 0.230361
0.655721 0.937667 0.240877
0.772803 0.945041 0.251826
0.876948 0.952294 0.263159
0.959135 0.959374 0.274840
0.982039 0.961937 0.279240
0.040000 0.030000 0.055401
0.071404 0.030000 0.061734
0.148330 0.030000 0.068867
0.246834 0.030000 0.076575
0.362176 0.032292 0.084769
0.488347 0.038641 0.093402
0.618281 0.045474 0.102441
0.744018 0.052783 0.111865
0.787699 0.055603 0.115441
0.040000 0.074027 0.076734
0.093028 0.080470 0.083481
0.175320 0.087775 0.091061
0.277937 0.095721 0.099230
0.395857 0.104224 0.107893
0.522868 0.113235 0.116995
0.651750 0.122725 0.126502
0.774413 0.132672 0.136390
0.816423 0.136460 0.140137
0.053450 0.165449 0.100554
0.117655 0.173773 0.107707
0.205105 0.183098 0.115723
0.311539 0.193118 0.124342
0.431644 0.203710 0.133461
0.559001 0.214803 0.143019
0.686229 0.226351 0.152980
0.805103 0.238319 0.163316
0.845150 0.242843 0.167227
0.074901 0.279841 0.126371
0.144777 0.289487 0.133908
0.237010 0.300214 0.142337
0.346823 0.311653 0.151381
0.468613 0.323650 0.160928
0.595755 0.336119 0.170915
0.720704 0.348999 0.181301
0.835101 0.362246 0.192056
0.872913 0.367227 0.196119
0.098972 0.409656 0.153968
0.174140 0.420018 0.161862
0.270713 0.431477 0.170675
0.383410 0.443626 0.180114
0.506340 0.456291 0.190058
0.632672 0.469373 0.200440
0.754700 0.482802 0.211216
0.863926 0.496526 0.222355
0.899233 0.501665 0.226558
0.125491 0.546655 0.183181
0.205532 0.557096 0.191404
0.305965 0.568585 0.200570
0.421016 0.580700 0.210368
0.544511 0.593259 0.220674
0.669416 0.606154 0.231415
0.787862 0.619312 0.242543
0.891216 0.632675 0.254026
0.923751 0.637657 0.258354
0.154286 0.682077 0.213862
0.238753 0.691939 0.222384
0.342537 0.702731 0.231868
0.459388 0.714043 0.241991
0.582852 0.725695 0.252620
0.705695 0.737577 0.263681
0.819887 0.749616 0.275122
0.916660 0.761751 0.286909
0.946150 0.766251 0.291346
0.185177 0.806749 0.245870
0.273602 0.815356 0.254658
0.380210 0.824705 0.264425
0.498286 0.834425 0.274835
0.621107 0.844347 0.285749
0.741239 0.854370 0.297088
0.850493 0.864419 0.308801
0.939969 0.874438 0.320848
0.966140 0.878123 0.325379
0.217978 0.911155 0.279064
0.309878 0.917816 0.288085
0.418764 0.924960 0.298098
0.537477 0.932282 0.308756
0.659028 0.939636 0.319914
0.775787 0.946933 0.331491
0.879410 0.954106 0.343432
0.960864 0.961100 0.355696
0.983442 0.963631 0.360304
0.040000 0.030000 0.117623
0.073555 0.030000 0.125035
0.151057 0.030000 0.133330
0.250009 0.030000 0.142237
0.365641 0.033992 0.151646
0.491921 0.040427 0.161495
0.621770 0.047346 0.171744
0.747213 0.054740 0.182364
0.790730 0.057592 0.186378
0.040000 0.076204 0.142420
0.095372 0.082706 0.150171
0.178194 0.090075 0.158830
0.281211 0.098087 0.168110
0.399370 0.106656 0.177895
0.526439 0.115735 0.188119
0.655184 0.125291 0.198740
0.777498 0.135303 0.209725
0.819325 0.139115 0.213872
0.055415 0.168272 0.169609
0.120186 0.176640 0.177685
0.208119 0.186011 0.186694
0.314902 0.196078 0.196332
0.435192 0.206717 0.206476
0.562554 0.217857 0.217057
0.689589 0.229451 0.228030
0.808058 0.241464 0.239359
0.847900 0.246004 0.243632
0.077086 0.283120 0.198593
0.147483 0.292793 0.206972
0.240150 0.303548 0.216304
0.350260 0.315015 0.226272
0.472183 0.327040 0.236747
0.599273 0.339535 0.247655
0.723973 0.352440 0.258948
0.837906 0.365710 0.270590
0.875491 0.370700 0.274975
0.101364 0.413185 0.229115
0.177008 0.423557 0.237769
0.273965 0.435026 0.247393
0.386907 0.447183 0.257659
0.509915 0.459856 0.268431
0.636139 0.472943 0.279631
0.757858 0.486375 0.291208
0.866562 0.500101 0.303126
0.901621 0.505240 0.307610
0.128076 0.550216 0.260986
0.208547 0.560651 0.269886
0.309313 0.572131 0.279770
0.424556 0.584235 0.290299
0.548074 0.596780 0.301330
0.672814 0.609660 0.312784
0.790892 0.622799 0.324607
0.893665 0.636142 0.336760
0.925928 0.641115 0.341328
0.157048 0.685447 0.294043
0.241899 0.695285 0.303157
0.345966 0.706050 0.313266
0.462954 0.717331 0.324021
0.586385 0.728948 0.335274
0.709005 0.740794 0.346942
0.822771 0.752792 0.358969
0.918902 0.764885 0.371314
0.948097 0.769368 0.375951
0.188100 0.809696 0.328132
0.276863 0.818262 0.337427
0.383702 0.827565 0.347725
0.501861 0.837234 0.358667
0.624592 0.847101 0.370102
0.744443 0.857065 0.381942
0.853211 0.867053 0.394131
0.941984 0.877006 0.406626
0.967838 0.880666 0.411314
0.221045 0.913445 0.363102
0.313237 0.920047 0.372544
0.422301 0.927126 0.382995
0.541043 0.934376 0.394084
0.662447 0.941655 0.405659
0.778867 0.948871 0.417629
0.881944 0.955960 0.429936
0.962633 0.962866 0.442535
0.984871 0.965364 0.447259
0.040000 0.030000 0.185013
0.075616 0.030000 0.193255
0.153661 0.030000 0.202441
0.253032 0.030000 0.212260
0.368934 0.035627 0.222587
0.495314 0.042143 0.233348
0.625077 0.049143 0.244497
0.750236 0.056618 0.256000
0.793595 0.059500 0.260335
0.040000 0.078288 0.212462
0.097614 0.084847 0.220971
0.180936 0.092276 0.230441
0.284327 0.100350 0.240550
0.402708 0.108982 0.251166
0.529828 0.118124 0.262213
0.658436 0.127743 0.273642
0.780415 0.137816 0.285415
0.822065 0.141651 0.289848
0.057300 0.170965 0.242179
0.122604 0.179374 0.250939
0.210991 0.188788 0.260675
0.318100 0.198900 0.271055
0.438563 0.209584 0.281939
0.565924 0.220768 0.293249
0.692770 0.232404 0.304933
0.810850 0.244459 0.316952
0.850495 0.249014 0.321474
0.079178 0.286241 0.273485
0.150067 0.295939 0.282470
0.243141 0.306721 0.292444
0.353528 0.318214 0.303064
0.475572 0.330265 0.314184
0.602609 0.342784 0.325725
0.727066 0.355712 0.337631
0.840555 0.369003 0.349862
0.877922 0.374001 0.354458
0.103651 0.416537 0.306086
0.179744 0.426919 0.315268
0.277061 0.438397 0.325449
0.390230 0.450562 0.336275
0.513307 0.463241 0.347597
0.639424 0.476332 0.359331
0.760846 0.489768 0.371421
0.869049 0.503494 0.383825
0.903869 0.508633 0.388482
0.130545 0.553594 0.339776
0.211421 0.564022 0.349123
0.312499 0.575494 0.359477
0.427919 0.587587 0.370473
0.551453 0.600119 0.381959
0.676032 0.612983 0.393848
0.793757 0.626105 0.406081
0.895972 0.639427 0.418616
0.927975 0.644393 0.423318
0.159684 0.688637 0.374376
0.244896 0.698453 0.383857
0.349227 0.709191 0.394348
0.466340 0.720442 0.405476
0.589735 0.732027 0.417086
0.712139 0.743837 0.429089
0.825494 0.755796 0.441424
0.921011 0.767848 0.454047
0.949925 0.772315 0.458778
0.190887 0.812481 0.409722
0.279967 0.821007 0.419304
0.387021 0.830266 0.429894
0.505254 0.839885 0.441115
0.627895 0.849700 0.452808
0.747475 0.859608 0.464883
0.855776 0.869536 0.477276
0.943876 0.879427 0.489942
0.969428 0.883063 0.494685
0.223968 0.915599 0.445655
0.316431 0.922146 0.455302
0.425662 0.929162 0.465954
0.544426 0.936344 0.477228
0.665686 0.943551 0.488963
0.781779 0.950691 0.501065
0.884333 0.957698 0.513472
0.964291 0.964521 0.526136
0.986204 0.966986 0.530874
0.040000 0.030000 0.256401
0.077629 0.030000 0.265268
0.156194 0.030000 0.275118
0.255968 0.031133 0.285611
0.372126 0.037229 0.296608
0.498598 0.043823 0.308029
0.628273 0.050902 0.319819
0.753152 0.058455 0.331941
0.796357 0.061365 0.336498
0.040000 0.080323 0.285826
0.099801 0.086935 0.294890
0.183601 0.094422 0.304948
0.287350 0.102557 0.315650
0.405942 0.111249 0.326852
0.533107 0.120451 0.338472
0.661579 0.130130 0.350452
0.783228 0.140263 0.362754
0.824704 0.144119 0.367376
0.059143 0.173585 0.317371
0.124960 0.182032 0.326613
0.213781 0.191489 0.336856
0.321202 0.201643 0.347744
0.441828 0.212369 0.359126
0.569183 0.223595 0.370917
0.695842 0.235273 0.383060
0.813540 0.247368 0.395513
0.852992 0.251937 0.400187
0.081221 0.289270 0.350288
0.152581 0.298992 0.359680
0.246045 0.309798 0.370080
0.356696 0.321317 0.381120
0.478853 0.333392 0.392649
0.605834 0.345934 0.404577
0.730050 0.358884 0.416846
0.843104 0.372196 0.429412
0.880259 0.377200 0.434125
0.105881 0.419785 0.384257
0.182404 0.430175 0.393770
0.280065 0.441661 0.404292
0.393450 0.453834 0.415450
0.516590 0.466518 0.427088
0.642599 0.479614 0.439115
0.763727 0.493051 0.451471
0.871441 0.506778 0.464111
0.906028 0.511916 0.468847
0.132949 0.556862 0.419052
0.214213 0.567283 0.428655
0.315590 0.578746 0.439265
0.431176 0.590827 0.450503
0.554722 0.603347 0.462212
0.679140 0.616196 0.474298
0.796518 0.629299 0.486699
0.898189 0.642602 0.499369
0.929938 0.647559 0.504112
0.162248 0.691718 0.454485
0.247806 0.701511 0.464144
0.352388 0.712223 0.474805
0.469619 0.723445 0.486086
0.592973 0.734998 0.497824
0.715164 0.746773 0.509927
0.828118 0.758695 0.522330
0.923035 0.770705 0.534986
0.951675 0.775157 0.539721
0.193596 0.815164 0.490382
0.282979 0.823652 0.500063
0.390237 0.832866 0.510737
0.508538 0.842439 0.522019
0.631087 0.852202 0.533746
0.750399 0.862056 0.545822
0.858245 0.871926 0.558183
0.945689 0.881755 0.570781
0.970946 0.885368 0.575489
0.226807 0.917668 0.526576
0.319530 0.924160 0.536243
0.428917 0.931115 0.546892
0.547698 0.938231 0.558136
0.668815 0.945367 0.569808
0.784587 0.952432 0.581814
0.886629 0.959362 0.594087
0.965874 0.966102 0.606579
0.987472 0.968536 0.611244
0.040000 0.030000 0.330525
0.079610 0.030000 0.339831
0.158680 0.030000 0.350141
0.258842 0.032642 0.361094
0.375247 0.038813 0.372539
0.501804 0.045483 0.384390
0.631389 0.052637 0.396589
0.755990 0.060265 0.409092
0.799043 0.063203 0.413784
0.041454 0.082327 0.361318
0.101951 0.088991 0.370753
0.186215 0.096534 0.381197
0.290310 0.104726 0.392280
0.409103 0.113477 0.403848
0.536307 0.122737 0.415813
0.664641 0.132474 0.428115
0.785963 0.142665 0.440710
0.827270 0.146542 0.445432
0.060960 0.176154 0.394059
0.127274 0.184639 0.403601
0.216516 0.194136 0.414152
0.324238 0.204332 0.425337
0.445017 0.215099 0.436999
0.572363 0.226365 0.449047
0.698834 0.238083 0.461420
0.816155 0.250216 0.474073
0.855418 0.254800 0.478812
0.083231 0.292234 0.427947
0.155049 0.301979 0.437566
0.248889 0.312810 0.448193
0.359795 0.324352 0.459446
0.482057 0.336450 0.471166
0.608979 0.349015 0.483260
0.732957 0.361985 0.495665
0.845581 0.375317 0.508336
0.882527 0.380328 0.513079
0.108073 0.422959 0.462637
0.185013 0.433357 0.472304
0.283007 0.444851 0.482971
0.396598 0.457029 0.494256
0.519794 0.469719 0.505995
0.645694 0.482818 0.518096
0.766531 0.496257 0.530493
0.873763 0.509984 0.543140
0.908121 0.515121 0.547870
0.135310 0.560050 0.497893
0.216950 0.570464 0.507573
0.318613 0.581918 0.518246
0.434358 0.593988 0.529523
0.557911 0.606494 0.541242
0.682168 0.619328 0.553307
0.799203 0.632414 0.565654
0.900338 0.645696 0.578233
0.931839 0.650646 0.582934
0.164763 0.694720 0.533512
0.250656 0.704490 0.543173
0.355479 0.715176 0.553813
0.472820 0.726369 0.565044
0.596132 0.737890 0.576702
0.718109 0.749631 0.588689
0.830668 0.761515 0.600940
0.924994 0.773486 0.613407
0.953365 0.777922 0.618061
0.196252 0.817772 0.569315
0.285928 0.826222 0.578921
0.393381 0.835394 0.589490
0.511744 0.844919 0.600634
0.634199 0.854632 0.612187
0.753246 0.864432 0.624052
0.860642 0.874244 0.636163
0.947441 0.884013 0.648471
0.972408 0.887603 0.653061
0.229588 0.919671 0.605126
0.322562 0.926110 0.614643
0.432098 0.933005 0.625102
0.550892 0.940056 0.636116
0.671863 0.947122 0.647522
0.787317 0.954114 0.659220
0.888856 0.960967 0.671145
0.967402 0.967626 0.683246
0.988689 0.970029 0.687756
0.040000 0.030000 0.406170
0.081570 0.030000 0.415743
0.161131 0.030000 0.426325
0.261671 0.034141 0.437538
0.378313 0.040385 0.449226
0.504950 0.047129 0.461295
0.634443 0.054357 0.473684
0.758766 0.062059 0.486348
0.801668 0.065023 0.491091
0.043056 0.084308 0.437767
0.104076 0.091023 0.447404
0.188791 0.098621 0.458045
0.293221 0.106869 0.469311
0.412208 0.115677 0.481041
0.539445 0.124995 0.493141
0.667640 0.134788 0.505548
0.788638 0.145035 0.518217
0.829776 0.148932 0.522957
0.062760 0.178687 0.471118
0.129558 0.187209 0.480791
0.219210 0.196744 0.491463
0.327222 0.206980 0.502749
0.448149 0.217787 0.514487
0.575481 0.229093 0.526583
0.701764 0.240849 0.538972
0.818710 0.253020 0.551607
0.857785 0.257617 0.556331
0.085220 0.295149 0.505378
0.157482 0.304917 0.515058
0.251689 0.315771 0.525726
0.362840 0.327336 0.536998
0.485202 0.339457 0.548707
0.612061 0.352043 0.560759
0.735801 0.365034 0.573089
0.848000 0.378383 0.585649
0.884739 0.383401 0.590341
0.110239 0.426075 0.540189
0.187584 0.436481 0.549843
0.285900 0.447982 0.560472
0.399690 0.460167 0.571690
0.522938 0.472861 0.583331
0.648725 0.485963 0.595299
0.769274 0.499403 0.607528
0.876027 0.513130 0.619968
0.910160 0.518266 0.624612
0.137640 0.563177 0.575300
0.219645 0.573583 0.584894
0.321587 0.585028 0.595447
0.437483 0.597087 0.606572
0.561039 0.609580 0.618103
0.685133 0.622398 0.629944
0.801828 0.635466 0.642027
0.902432 0.648728 0.654304
0.933687 0.653669 0.658882
0.167244 0.697659 0.610501
0.253461 0.707407 0.620001
0.358517 0.718067 0.630439
0.475963 0.729231 0.641431
0.599229 0.740720 0.652811
0.720993 0.752426 0.664480
0.833158 0.764274 0.676373
0.926901 0.776205 0.688439
0.955006 0.780625 0.692934
0.198869 0.820320 0.645603
0.288829 0.828733 0.654974
0.396470 0.837862 0.665259
0.514889 0.847340 0.676076
0.637249 0.857004 0.687260
0.756031 0.866750 0.698714
0.862981 0.876506 0.710370
0.949143 0.886215 0.722179
0.973824 0.889782 0.726574
0.232327 0.921621 0.680429
0.325543 0.928008 0.689634
0.435222 0.934843 0.699725
0.554024 0.941830 0.710325
0.674849 0.948827 0.721270
0.789987 0.955747 0.732463
0.891027 0.962523 0.743836
0.968882 0.969103 0.755340
0.989862 0.971476 0.759617
0.040000 0.030000 0.482187
0.083514 0.030000 0.491866
0.163556 0.030000 0.502540
0.264464 0.035634 0.513826
0.381336 0.041951 0.525559
0.508047 0.048766 0.537645
0.637444 0.056067 0.550020
0.761491 0.063840 0.562635
0.804243 0.066831 0.567350
0.044650 0.086273 0.514056
0.106181 0.093038 0.523732
0.191338 0.100689 0.534394
0.296093 0.108993 0.545656
0.415267 0.117857 0.557352
0.542534 0.127230 0.569387
0.670588 0.137079 0.581696
0.791262 0.147380 0.594230
0.832231 0.151297 0.598911
0.064548 0.181191 0.547459
0.131819 0.189749 0.557103
0.221871 0.199323 0.567720
0.330165 0.209597 0.578922
0.451233 0.220443 0.590543
0.578548 0.231787 0.602488
0.704641 0.243581 0.614690
0.821214 0.255788 0.627101
0.860103 0.260399 0.631732
0.087192 0.298026 0.581527
0.159890 0.307816 0.591107
0.254454 0.318692 0.601643
0.365842 0.330280 0.612748
0.488299 0.342422 0.624255
0.615092 0.355029 0.636069
0.738593 0.368039 0.648121
0.850368 0.381406 0.660364
0.886902 0.386430 0.664929
0.112384 0.429146 0.615887
0.190125 0.439559 0.625370
0.288755 0.451066 0.635788
0.402737 0.463257 0.646755
0.526032 0.475955 0.658108
0.651705 0.489060 0.669747
0.771964 0.502501 0.681606
0.878244 0.516226 0.693637
0.912152 0.521362 0.698118
0.139946 0.566253 0.650278
0.222307 0.576652 0.659629
0.324519 0.588087 0.669891
0.440561 0.600135 0.680681
0.564117 0.612614 0.691836
0.688047 0.625416 0.703257
0.804402 0.638466 0.714878
0.904479 0.651708 0.726650
0.935490 0.656641 0.731030
0.169697 0.700545 0.684485
0.256231 0.710271 0.693668
0.361513 0.720906 0.703734
0.479058 0.732041 0.714306
0.602274 0.743498 0.725220
0.723824 0.755170 0.736379
0.835598 0.766981 0.747716
0.928762 0.778872 0.759181
0.956604 0.783278 0.763442
0.201456 0.822817 0.718311
0.291691 0.831193 0.727291
0.399513 0.840280 0.737122
0.517985 0.849712 0.747433
0.640246 0.859326 0.758062
0.758764 0.869019 0.768913
0.865272 0.878720 0.779919
0.950802 0.888370 0.791031
0.975200 0.891914 0.795155
0.235032 0.923526 0.751574
0.328483 0.929860 0.760314
0.438299 0.936637 0.769870
0.557105 0.943559 0.779877
0.677783 0.950489 0.790177
0.792606 0.957337 0.800673
0.893151 0.964038 0.811301
0.970321 0.970540 0.822010
0.990998 0.972883 0.825980
0.040000 0.030000 0.557486
0.085448 0.030000 0.567115
0.165960 0.031264 0.577711
0.267227 0.037125 0.588889
0.384323 0.043512 0.600481
0.511103 0.050399 0.612391
0.640402 0.057770 0.624553
0.764171 0.065614 0.636919
0.806773 0.068631 0.641532
0.046241 0.088227 0.589116
0.108272 0.095041 0.598677
0.193860 0.102745 0.609190
0.298935 0.111102 0.620268
0.418288 0.120021 0.631745
0.545581 0.129448 0.643523
0.673491 0.139352 0.655537
0.793841 0.149706 0.667737
0.834644 0.153643 0.672285
0.066328 0.183672 0.622039
0.134063 0.192265 0.631501
0.224505 0.201876 0.641894
0.333075 0.212189 0.652833
0.454278 0.223073 0.664153
0.581572 0.234455 0.675756
0.707474 0.246285 0.687577
0.823675 0.258528 0.699564
0.862379 0.263151 0.704028
0.089153 0.300872 0.655373
0.162277 0.310682 0.664701
0.257189 0.321580 0.674936
0.368808 0.333190 0.685697
0.491354 0.345353 0.696819
0.618079 0.357980 0.708204
0.741340 0.371008 0.719786
0.852694 0.384393 0.731515
0.889024 0.389422 0.735878
0.114515 0.432178 0.688734
0.192643 0.442598 0.697894
0.291579 0.454111 0.707933
0.405747 0.466307 0.718475
0.529085 0.479009 0.729356
0.654641 0.492116 0.740478
0.774611 0.505557 0.751777
0.880418 0.519281 0.763200
0.914103 0.524415 0.767446
0.142234 0.569286 0.721855
0.224944 0.579678 0.730811
0.327419 0.591103 0.740616
0.443601 0.603139 0.750896
0.567151 0.615604 0.761493
0.690916 0.628390 0.772308
0.806931 0.641422 0.783277
0.906485 0.654644 0.794348
0.937255 0.659569 0.798457
0.172129 0.703388 0.754513
0.258971 0.713091 0.763230
0.364474 0.723700 0.772759
0.482113 0.734806 0.782737
0.605276 0.746232 0.793005
0.726611 0.757870 0.803468
0.837995 0.769644 0.814059
0.930584 0.781496 0.824730
0.958164 0.785886 0.828685
0.204018 0.825271 0.786509
0.294522 0.833610 0.794950
0.402520 0.842655 0.804164
0.521039 0.852041 0.813796
0.643200 0.861606 0.823691
0.761453 0.871246 0.833754
0.867519 0.880891 0.843921
0.952422 0.890482 0.854143
0.976540 0.894004 0.857926
0.237709 0.925390 0.817655
0.331390 0.931672 0.825782
0.441337 0.938391 0.834640
0.560145 0.945250 0.843883
0.680673 0.952113 0.853359
0.795180 0.958890 0.862976
0.895233 0.965516 0.872671
0.971723 0.971939 0.882394
0.992100 0.974252 0.885986
