Fotico/Resources/LUTs/super8.cube
# Super 8
LUT_3D_SIZE 5
0.040000 0.030000 0.020000
0.145712 0.030000 0.020000
0.358838 0.030674 0.029630
0.614908 0.043689 0.044458
0.784761 0.053705 0.055524
0.051574 0.162738 0.042862
0.202209 0.180300 0.055765
0.428221 0.200819 0.071057
0.682979 0.223370 0.088111
0.842482 0.239802 0.100693
0.096681 0.406254 0.088980
0.267583 0.428054 0.103754
0.502889 0.452852 0.121067
0.751640 0.479353 0.140161
0.896911 0.498214 0.154121
0.151635 0.678818 0.142562
0.339234 0.699520 0.158975
0.579439 0.722545 0.178045
0.817089 0.746540 0.198893
0.944250 0.763232 0.214028
0.215029 0.908927 0.202562
0.415352 0.922851 0.220351
0.655721 0.937667 0.240877
0.876948 0.952294 0.263159
0.982039 0.961937 0.279240
0.040000 0.030000 0.117623
0.151057 0.030000 0.133330
0.365641 0.033992 0.151646
0.621770 0.047346 0.171744
0.790730 0.057592 0.186378
0.055415 0.168272 0.169609
0.208119 0.186011 0.186694
0.435192 0.206717 0.206476
0.689589 0.229451 0.228030
0.847900 0.246004 0.243632
0.101364 0.413185 0.229115
0.273965 0.435026 0.247393
0.509915 0.459856 0.268431
0.757858 0.486375 0.291208
0.901621 0.505240 0.307610
0.157048 0.685447 0.294043
0.345966 0.706050 0.313266
0.586385 0.728948 0.335274
0.822771 0.752792 0.358969
0.948097 0.769368 0.375951
0.221045 0.913445 0.363102
0.422301 0.927126 0.382995
0.662447 0.941655 0.405659
0.881944 0.955960 0.429936
0.984871 0.965364 0.447259
0.040000 0.030000 0.256401
0.156194 0.030000 0.275118
0.372126 0.037229 0.296608
0.628273 0.050902 0.319819
0.796357 0.061365 0.336498
0.059143 0.173585 0.317371
0.213781 0.191489 0.336856
0.441828 0.212369 0.359126
0.695842 0.235273 0.383060
0.852992 0.251937 0.400187
0.105881 0.419785 0.384257
0.280065 0.441661 0.404292
0.516590 0.466518 0.427088
0.763727 0.493051 0.451471
0.906028 0.511916 0.468847
0.162248 0.691718 0.454485
0.352388 0.712223 0.474805
0.592973 0.734998 0.497824
0.828118 0.758695 0.522330
0.951675 0.775157 0.539721
0.226807 0.917668 0.526576
0.428917 0.931115 0.546892
0.668815 0.945367 0.569808
0.886629 0.959362 0.594087
0.987472 0.968536 0.611244
0.040000 0.030000 0.406170
0.161131 0.030000 0.426325
0.378313 0.040385 0.449226
0.634443 0.054357 0.473684
0.801668 0.065023 0.491091
0.062760 0.178687 0.471118
0.219210 0.196744 0.491463
0.448149 0.217787 0.514487
0.701764 0.240849 0.538972
0.857785 0.257617 0.556331
0.110239 0.426075 0.540189
0.285900 0.447982 0.560472
0.522938 0.472861 0.583331
0.769274 0.499403 0.607528
0.910160 0.518266 0.624612
0.167244 0.697659 0.610501
0.358517 0.718067 0.630439
0.599229 0.740720 0.652811
0.833158 0.764274 0.676373
0.955006 0.780625 0.692934
0.232327 0.921621 0.680429
0.435222 0.934843 0.699725
0.674849 0.948827 0.721270
0.891027 0.962523 0.743836
0.989862 0.971476 0.759617
0.040000 0.030000 0.557486
0.165960 0.031264 0.577711
0.384323 0.043512 0.600481
0.640402 0.057770 0.624553
0.806773 0.068631 0.641532
0.066328 0.183672 0.622039
0.224505 0.201876 0.641894
0.454278 0.223073 0.664153
0.707474 0.246285 0.687577
0.862379 0.263151 0.704028
0.114515 0.432178 0.688734
0.291579 0.454111 0.707933
0.529085 0.479009 0.729356
0.774611 0.505557 0.751777
0.914103 0.524415 0.767446
0.172129 0.703388 0.754513
0.364474 0.723700 0.772759
0.605276 0.746232 0.793005
0.837995 0.769644 0.814059
0.958164 0.785886 0.828685
0.237709 0.925390 0.817655
0.441337 0.938391 0.834640
0.680673 0.952113 0.853359
0.895233 0.965516 0.872671
0.992100 0.974252 0.885986
