Fotico/Resources/LUTs/super8.cube
# Super 8
LUT_3D_SIZE 17
0.040000 0.030000 0.020000
0.040354 0.030000 0.020000
0.069347 0.030000 0.020000
0.104580 0.030000 0.020000
0.145712 0.030000 0.020000
0.192294 0.030000 0.020000
0.243780 0.030000 0.022848
0.299532 0.030000 0.026184
0.358838 0.030674 0.029630
0.420910 0.033745 0.033183
0.484897 0.036939 0.036840
0.549886 0.040254 0.040599
0.614908 0.043689 0.044458
0.678944 0.047243 0.048414
0.740924 0.050915 0.052467
0.784761 0.053705 0.055524
0.784761 0.053705 0.055524
0.040000 0.037329 0.020000
0.049118 0.039839 0.020000
0.079625 0.042583 0.020000
0.116277 0.045512 0.022232
0.158698 0.048604 0.025333
0.206416 0.051844 0.028567
0.258864 0.055225 0.031924
0.315391 0.058740 0.035398
0.375270 0.062384 0.038983
0.437703 0.066154 0.042676
0.501828 0.070047 0.046473
0.566724 0.074061 0.050372
0.631413 0.078194 0.054370
0.694868 0.082444 0.058466
0.756011 0.086809 0.062658
0.799063 0.090109 0.065817
0.799063 0.090109 0.065817
0.040000 0.071946 0.022979
0.058757 0.075004 0.025653
0.090784 0.078331 0.028560
0.128855 0.081864 0.031644
0.172559 0.085573 0.034879
0.221398 0.089441 0.038249
0.274786 0.093456 0.041744
0.332057 0.097608 0.045358
0.392470 0.101893 0.049083
0.455215 0.106305 0.052916
0.519420 0.110840 0.056854
0.584153 0.115494 0.060894
0.648430 0.120265 0.065033
0.711215 0.125150 0.069270
0.771423 0.130148 0.073602
0.813610 0.133912 0.076865
0.813610 0.133912 0.076865
0.041998 0.114011 0.032635
0.069148 0.117562 0.035427
0.102673 0.121410 0.038458
0.142137 0.125483 0.041672
0.187092 0.129744 0.045040
0.237015 0.134171 0.048545
0.291301 0.138750 0.052178
0.349268 0.143469 0.055929
0.410161 0.148322 0.059793
0.473158 0.153301 0.063766
0.537376 0.158402 0.067843
0.601876 0.163620 0.072022
0.665663 0.168952 0.076301
0.727694 0.174393 0.080676
0.786876 0.179943 0.085146
0.828125 0.184112 0.088511
0.828125 0.184112 0.088511
0.051574 0.162738 0.042862
0.080240 0.166717 0.045770
0.115229 0.171020 0.048925
0.156046 0.175561 0.052266
0.202209 0.180300 0.055765
0.253169 0.185210 0.059403
0.308301 0.190274 0.063170
0.366908 0.195480 0.067057
0.428221 0.200819 0.071057
0.491405 0.206284 0.075166
0.555568 0.211867 0.079380
0.619761 0.217564 0.083696
0.682979 0.223370 0.088111
0.744171 0.229281 0.092623
0.802239 0.235294 0.097229
0.842482 0.239802 0.100693
0.842482 0.239802 0.100693
0.061853 0.217269 0.053631
0.091997 0.221609 0.056653
0.128409 0.226293 0.059928
0.170534 0.231227 0.063394
0.217855 0.236363 0.067021
0.269799 0.241675 0.070789
0.325722 0.247142 0.074688
0.384908 0.252750 0.078707
0.446575 0.258490 0.082840
0.509879 0.264351 0.087083
0.573915 0.270327 0.091431
0.637723 0.276412 0.095880
0.700292 0.282601 0.100428
0.760563 0.288889 0.105072
0.817428 0.295272 0.109810
0.856597 0.300050 0.113371
0.856597 0.300050 0.113371
0.072812 0.276685 0.064920
0.104392 0.281315 0.068052
0.142180 0.286304 0.071445
0.185563 0.291551 0.075033
0.233990 0.297003 0.078784
0.286860 0.302632 0.082680
0.343511 0.308415 0.086706
0.403213 0.314336 0.090854
0.465168 0.320385 0.095117
0.528520 0.326552 0.099490
0.592354 0.332828 0.103967
0.655701 0.339207 0.108546
0.717541 0.345683 0.113223
0.776805 0.352252 0.117996
0.832379 0.358907 0.122862
0.870408 0.363881 0.126517
0.870408 0.363881 0.126517
0.084428 0.340017 0.076709
0.117400 0.344865 0.079949
0.156514 0.350080 0.083456
0.201102 0.355557 0.087162
0.250576 0.361240 0.091035
0.304313 0.367098 0.095053
0.361630 0.373107 0.099204
0.421780 0.379251 0.103477
0.483953 0.385516 0.107866
0.547281 0.391893 0.112364
0.610837 0.398373 0.116968
0.673644 0.404949 0.121672
0.734672 0.411614 0.126474
0.792845 0.418363 0.131372
0.847041 0.425190 0.136362
0.883862 0.430284 0.140108
0.883862 0.430284 0.140108
0.096681 0.406254 0.088980
0.130997 0.411244 0.092324
0.171385 0.416605 0.095943
0.217121 0.422228 0.099764
0.267583 0.428054 0.103754
0.322123 0.434051 0.107892
0.380040 0.440194 0.112163
0.440569 0.446466 0.116557
0.502889 0.452852 0.121067
0.566118 0.459343 0.125687
0.629320 0.465928 0.130412
0.691507 0.472600 0.135238
0.751640 0.479353 0.140161
0.808636 0.486180 0.145178
0.861365 0.493076 0.150287
0.896911 0.498214 0.154121
0.896911 0.498214 0.154121
0.109550 0.474347 0.101717
0.145159 0.479402 0.105163
0.186766 0.484827 0.108888
0.233592 0.490509 0.112821
0.284981 0.496390 0.116924
0.340260 0.502434 0.121177
0.398708 0.508617 0.125564
0.459547 0.514920 0.130076
0.521940 0.521330 0.134703
0.584995 0.527835 0.139441
0.647763 0.534425 0.144283
0.709249 0.541092 0.149225
0.768404 0.547829 0.154264
0.824137 0.554629 0.159397
0.875310 0.561488 0.164621
0.909514 0.566592 0.168539
0.909514 0.566592 0.168539
0.123013 0.543216 0.114904
0.159864 0.548258 0.118447
0.202634 0.553663 0.122276
0.250489 0.559316 0.126316
0.302740 0.565160 0.130529
0.358691 0.571158 0.134893
0.417602 0.577285 0.139392
0.478679 0.583522 0.144016
0.541071 0.589856 0.148756
0.603873 0.596274 0.153606
0.666130 0.602766 0.158561
0.726832 0.609324 0.163615
0.784924 0.615940 0.168766
0.839307 0.622609 0.174009
0.888835 0.629323 0.179342
0.921630 0.634313 0.183341
0.921630 0.634313 0.183341
0.137049 0.611751 0.128524
0.175088 0.616701 0.132162
0.218962 0.622000 0.136090
0.267785 0.627536 0.140233
0.320834 0.633250 0.144551
0.377389 0.639107 0.149022
0.436692 0.645080 0.153629
0.497933 0.651153 0.158361
0.560248 0.657309 0.163209
0.622721 0.663538 0.168167
0.684384 0.669828 0.173229
0.744220 0.676172 0.178391
0.801165 0.682561 0.183648
0.854110 0.688989 0.188997
0.901903 0.695450 0.194435
0.933221 0.700244 0.198510
0.933221 0.700244 0.198510
0.151635 0.678818 0.142562
0.190807 0.683595 0.146290
0.235727 0.688702 0.150314
0.285453 0.694029 0.154556
0.339234 0.699520 0.158975
0.396324 0.705139 0.163548
0.455947 0.710861 0.168258
0.517278 0.716668 0.173093
0.579439 0.722545 0.178045
0.641503 0.728480 0.183106
0.702491 0.734463 0.188271
0.761378 0.740486 0.193534
0.817089 0.746540 0.198893
0.868509 0.752619 0.204342
0.914478 0.758716 0.209880
0.944250 0.763232 0.214028
0.944250 0.763232 0.214028
0.166750 0.743258 0.157001
0.206999 0.747780 0.160815
0.252902 0.752608 0.164931
0.303469 0.757636 0.169268
0.357913 0.762809 0.173784
0.415468 0.768092 0.178454
0.475338 0.773463 0.183262
0.536683 0.778902 0.188196
0.598613 0.784396 0.193246
0.660188 0.789933 0.198406
0.720420 0.795502 0.203668
0.778272 0.801095 0.209029
0.832664 0.806704 0.214484
0.882469 0.812323 0.220029
0.926523 0.817945 0.225661
0.954681 0.822100 0.229878
0.954681 0.822100 0.229878
0.182369 0.803892 0.171825
0.223639 0.808077 0.175722
0.270464 0.812537 0.179926
0.321805 0.817172 0.184352
0.376844 0.821931 0.188960
0.434792 0.826781 0.193724
0.494835 0.831699 0.198625
0.556118 0.836668 0.203653
0.617738 0.841674 0.208797
0.678744 0.846706 0.214050
0.738136 0.851753 0.219405
0.794869 0.856807 0.224858
0.847854 0.861862 0.230404
0.895957 0.866909 0.236038
0.938003 0.871943 0.241759
0.964479 0.875653 0.246041
0.964479 0.875653 0.246041
0.198470 0.859520 0.187017
0.240702 0.863286 0.190993
0.288387 0.867288 0.195280
0.340435 0.871437 0.199793
0.395999 0.875685 0.204488
0.454268 0.880002 0.209340
0.514410 0.884366 0.214331
0.575554 0.888761 0.219447
0.636785 0.893173 0.224680
0.697139 0.897592 0.230020
0.755608 0.902008 0.235463
0.811136 0.906414 0.241003
0.862626 0.910801 0.246634
0.908936 0.915164 0.252354
0.948885 0.919496 0.258158
0.973610 0.922675 0.262501
0.973610 0.922675 0.262501
0.215029 0.908927 0.202562
0.258164 0.912188 0.206613
0.306644 0.915643 0.210979
0.359333 0.919211 0.215573
0.415352 0.922851 0.220351
0.473869 0.926533 0.225287
0.534033 0.930240 0.230361
0.594960 0.933955 0.235561
0.655721 0.937667 0.240877
0.715342 0.941365 0.246301
0.772803 0.945041 0.251826
0.827041 0.948686 0.257447
0.876948 0.952294 0.263159
0.921376 0.955859 0.268958
0.959135 0.959374 0.274840
0.982039 0.961937 0.279240
0.982039 0.961937 0.279240
0.040000 0.030000 0.026258
0.041122 0.030000 0.028974
0.070253 0.030000 0.031924
0.105616 0.030000 0.035053
0.146867 0.030000 0.038334
0.193553 0.030000 0.041751
0.245127 0.030000 0.045294
0.300952 0.030000 0.048956
0.360312 0.031386 0.052729
0.422419 0.034476 0.056611
0.486420 0.037688 0.060598
0.551403 0.041022 0.064686
0.616398 0.044475 0.068874
0.680385 0.048047 0.073159
0.742291 0.051737 0.077539
0.786060 0.054541 0.080837
0.786060 0.054541 0.080837
0.040000 0.038080 0.035475
0.049932 0.040604 0.038301
0.080572 0.043363 0.041367
0.117350 0.046307 0.044617
0.159884 0.049415 0.048023
0.207701 0.052672 0.051566
0.260233 0.056068 0.055237
0.316827 0.059599 0.059026
0.376755 0.063260 0.062930
0.439218 0.067046 0.066941
0.503352 0.070956 0.071058
0.568236 0.074986 0.075276
0.632892 0.079136 0.079593
0.696292 0.083402 0.084007
0.757357 0.087784 0.088517
0.800336 0.091096 0.091910
0.800336 0.091096 0.091910
0.040000 0.072863 0.045438
0.059617 0.075933 0.048374
0.091773 0.079273 0.051558
0.129964 0.082820 0.054930
0.173777 0.086543 0.058460
0.222710 0.090425 0.062131
0.276177 0.094454 0.065930
0.333509 0.098621 0.069849
0.393965 0.102920 0.073882
0.456734 0.107346 0.078024
0.520943 0.111896 0.082272
0.585659 0.116564 0.086620
0.649897 0.121350 0.091068
0.712621 0.126249 0.095612
0.772745 0.131260 0.100251
0.814854 0.135035 0.103739
0.814854 0.135035 0.103739
0.042774 0.115077 0.056012
0.070054 0.118638 0.059058
0.103703 0.122498 0.062359
0.143282 0.126583 0.065851
0.188340 0.130856 0.069505
0.238352 0.135295 0.073301
0.292711 0.139886 0.077227
0.350734 0.144617 0.081274
0.411665 0.149482 0.085436
0.474680 0.154474 0.089707
0.538897 0.159587 0.094083
0.603373 0.164817 0.098560
0.667116 0.170161 0.103136
0.729079 0.175615 0.107808
0.788171 0.181176 0.112574
0.829338 0.185354 0.116156
0.829338 0.185354 0.116156
0.052400 0.163934 0.067143
0.081190 0.167922 0.070296
0.116298 0.172234 0.073711
0.157226 0.176785 0.077322
0.203486 0.181534 0.081097
0.254530 0.186454 0.085016
0.309730 0.191528 0.089067
0.368388 0.196745 0.093239
0.429732 0.202094 0.097526
0.492929 0.207569 0.101923
0.557085 0.213162 0.106425
0.621248 0.218869 0.111029
0.684415 0.224685 0.115730
0.745534 0.230606 0.120527
0.803505 0.236629 0.125417
0.843662 0.241144 0.129090
0.843662 0.241144 0.129090
0.062727 0.218573 0.078796
0.092990 0.222921 0.082054
0.129516 0.227613 0.085581
0.171747 0.232555 0.089308
0.219161 0.237699 0.093201
0.271183 0.243019 0.097240
0.327168 0.248494 0.101412
0.386399 0.254111 0.105706
0.448092 0.259858 0.110116
0.511403 0.265728 0.114636
0.575425 0.271712 0.119261
0.639198 0.277805 0.123986
0.701711 0.284001 0.128810
0.761902 0.290297 0.133728
0.818664 0.296687 0.138739
0.857743 0.301470 0.142501
0.857743 0.301470 0.142501
0.073732 0.278077 0.090946
0.105428 0.282714 0.094307
0.143325 0.287709 0.097942
0.186808 0.292961 0.101781
0.235322 0.298420 0.105789
0.288265 0.304055 0.109945
0.344973 0.309844 0.114234
0.404713 0.315772 0.118648
0.466689 0.321827 0.123176
0.530042 0.327999 0.127815
0.593856 0.334281 0.132559
0.657162 0.340665 0.137403
0.718939 0.347147 0.142345
0.778118 0.353720 0.147380
0.833583 0.360381 0.152508
0.871516 0.365358 0.156355
0.871516 0.365358 0.156355
0.085394 0.341476 0.103572
0.118476 0.346328 0.107032
0.157695 0.351547 0.110772
0.202378 0.357028 0.114720
0.251934 0.362716 0.118840
0.305738 0.368577 0.123109
0.363105 0.374590 0.127512
0.423288 0.380738 0.132040
0.485476 0.387007 0.136684
0.548799 0.393388 0.141437
0.612330 0.399872 0.146296
0.675089 0.406450 0.151254
0.736048 0.413118 0.156310
0.794129 0.419870 0.161459
0.848210 0.426700 0.166698
0.884931 0.431796 0.170628
0.884931 0.431796 0.170628
0.097691 0.407756 0.116655
0.132112 0.412748 0.120210
0.172600 0.418112 0.124053
0.218425 0.423737 0.128106
0.268964 0.429566 0.132333
0.323566 0.435565 0.136711
0.381528 0.441709 0.141225
0.442085 0.447983 0.145863
0.504413 0.454371 0.150617
0.567631 0.460863 0.155482
0.630801 0.467449 0.160450
0.692934 0.474122 0.165519
0.752993 0.480876 0.170684
0.809890 0.487703 0.175941
0.862498 0.494599 0.181288
0.897939 0.499738 0.185297
0.897939 0.499738 0.185297
0.110602 0.475869 0.130176
0.146312 0.480925 0.133824
0.188014 0.486351 0.137765
0.234924 0.492033 0.141920
0.286384 0.497914 0.146250
0.341719 0.503958 0.150733
0.400206 0.510141 0.155352
0.461067 0.516444 0.160097
0.523463 0.522853 0.164958
0.586500 0.529357 0.169928
0.649231 0.535945 0.175003
0.710657 0.542611 0.180177
0.769730 0.549347 0.185446
0.825359 0.556146 0.190808
0.876404 0.563002 0.196258
0.910498 0.568105 0.200342
0.910498 0.568105 0.200342
0.124105 0.544735 0.144119
0.161052 0.549776 0.147856
0.203912 0.555179 0.151891
0.251846 0.560831 0.156143
0.304163 0.566673 0.160573
0.360165 0.572669 0.165157
0.419110 0.578793 0.169877
0.480202 0.585028 0.174724
0.542590 0.591359 0.179686
0.605370 0.597774 0.184759
0.667582 0.604263 0.189934
0.728218 0.610817 0.195209
0.786223 0.617430 0.200578
0.840495 0.624094 0.206038
0.889889 0.630804 0.211586
0.922569 0.635790 0.215742
0.922569 0.635790 0.215742
0.138180 0.613243 0.158466
0.176311 0.618190 0.162288
0.220270 0.623486 0.166414
0.269166 0.629018 0.170759
0.322275 0.634728 0.175285
0.378875 0.640581 0.179964
0.438206 0.646550 0.184782
0.499457 0.652618 0.189726
0.561762 0.658769 0.194785
0.624206 0.664992 0.199954
0.685819 0.671277 0.205227
0.745583 0.677615 0.210597
0.802434 0.683998 0.216061
0.855262 0.690419 0.221615
0.902914 0.696874 0.227256
0.934112 0.701663 0.231480
0.934112 0.701663 0.231480
0.152804 0.680258 0.173200
0.192063 0.685030 0.177105
0.237062 0.690132 0.181316
0.286857 0.695454 0.185751
0.340692 0.700939 0.190367
0.397821 0.706552 0.195139
0.457466 0.712268 0.200049
0.518801 0.718068 0.205085
0.580947 0.723937 0.210237
0.642975 0.729865 0.215498
0.703907 0.735840 0.220862
0.762715 0.741854 0.226323
0.818326 0.747899 0.231877
0.869622 0.753969 0.237519
0.915444 0.760058 0.243248
0.945091 0.764567 0.247536
0.945091 0.764567 0.247536
0.167954 0.744622 0.188305
0.208285 0.749138 0.192288
0.254263 0.753959 0.196582
0.304893 0.758979 0.201102
0.359386 0.764144 0.205804
0.416974 0.769419 0.210663
0.476861 0.774781 0.215660
0.538203 0.780211 0.220784
0.600112 0.785696 0.226024
0.661645 0.791222 0.231372
0.721814 0.796781 0.236822
0.779582 0.802364 0.242368
0.833867 0.807962 0.248007
0.883543 0.813570 0.253733
0.927442 0.819181 0.259544
0.955471 0.823327 0.263892
0.955471 0.823327 0.263892
0.183608 0.805155 0.203765
0.224954 0.809333 0.207821
0.271849 0.813784 0.212193
0.323247 0.818409 0.216793
0.378330 0.823158 0.221577
0.436305 0.827997 0.226519
0.496359 0.832905 0.231599
0.557634 0.837862 0.236806
0.619227 0.842857 0.242128
0.680184 0.847876 0.247558
0.739507 0.852910 0.253089
0.796150 0.857952 0.258716
0.849021 0.862993 0.264434
0.896987 0.868027 0.270239
0.938874 0.873047 0.276126
0.965216 0.876746 0.280530
0.965216 0.876746 0.280530
0.199741 0.860658 0.219561
0.242045 0.864414 0.223687
0.289794 0.868405 0.228133
0.341894 0.872543 0.232809
0.397496 0.876778 0.237671
0.455787 0.881083 0.242690
0.515934 0.885433 0.247848
0.577064 0.889814 0.253133
0.638260 0.894213 0.258532
0.698561 0.898617 0.264039
0.756954 0.903019 0.269646
0.812385 0.907409 0.275348
0.863756 0.911781 0.281140
0.909923 0.916128 0.287018
0.949705 0.920443 0.292977
0.974291 0.923610 0.297432
0.974291 0.923610 0.297432
0.216330 0.909913 0.235677
0.259533 0.913163 0.239869
0.308072 0.916605 0.244385
0.360807 0.920160 0.249132
0.416858 0.923785 0.254066
0.475391 0.927453 0.259159
0.535554 0.931144 0.264390
0.596461 0.934844 0.269747
0.657182 0.938539 0.275219
0.716743 0.942221 0.280797
0.774123 0.945879 0.286475
0.828257 0.949507 0.292247
0.878038 0.953097 0.298107
0.922316 0.956643 0.304052
0.959901 0.960139 0.310077
0.982662 0.962688 0.314581
0.982662 0.962688 0.314581
0.040000 0.030000 0.055401
0.042098 0.030000 0.058440
0.071404 0.030000 0.061734
0.106931 0.030000 0.065220
0.148330 0.030000 0.068867
0.195148 0.030000 0.072656
0.246834 0.030000 0.076575
0.302749 0.030000 0.080615
0.362176 0.032292 0.084769
0.424327 0.035405 0.089033
0.488347 0.038641 0.093402
0.553321 0.041998 0.097872
0.618281 0.045474 0.102441
0.682204 0.049070 0.107106
0.744018 0.052783 0.111865
0.787699 0.055603 0.115441
0.787699 0.055603 0.115441
0.040000 0.039036 0.065691
0.050966 0.041577 0.068830
0.081775 0.044354 0.072231
0.118710 0.047319 0.075827
0.161388 0.050446 0.079586
0.209330 0.053723 0.083490
0.261967 0.057140 0.087525
0.318645 0.060692 0.091681
0.378634 0.064373 0.095953
0.441133 0.068180 0.100334
0.505279 0.072111 0.104820
0.570148 0.076162 0.109407
0.634761 0.080332 0.114093
0.698090 0.084619 0.118874
0.759056 0.089021 0.123749
0.801942 0.092348 0.127410
0.801942 0.092348 0.127410
0.040000 0.074027 0.076734
0.060709 0.077114 0.079974
0.093028 0.080470 0.083481
0.131371 0.084034 0.087188
0.175320 0.087775 0.091061
0.224372 0.091674 0.095079
0.277937 0.095721 0.099230
0.335347 0.099906 0.103504
0.395857 0.104224 0.107893
0.458655 0.108668 0.112391
0.522868 0.113235 0.116995
0.587562 0.117922 0.121700
0.651750 0.122725 0.126502
0.714396 0.127643 0.131400
0.774413 0.132672 0.136390
0.816423 0.136460 0.140137
0.816423 0.136460 0.140137
0.043762 0.116429 0.088376
0.071204 0.120004 0.091716
0.105010 0.123878 0.095328
0.144734 0.127978 0.099144
0.189922 0.132266 0.103129
0.240045 0.136720 0.107261
0.294497 0.141326 0.111526
0.352590 0.146074 0.115915
0.413567 0.150954 0.120419
0.476605 0.155961 0.125033
0.540818 0.161090 0.129752
0.605265 0.166335 0.134572
0.668951 0.171694 0.139490
0.730828 0.177163 0.144501
0.789805 0.182739 0.149605
0.830869 0.186928 0.153435
0.830869 0.186928 0.153435
0.053450 0.165449 0.100554
0.082396 0.169449 0.103991
0.117655 0.173773 0.107707
0.158721 0.178337 0.111629
0.205105 0.183098 0.115723
0.256254 0.188031 0.119965
0.311539 0.193118 0.124342
0.370259 0.198348 0.128843
0.431644 0.203710 0.133461
0.494856 0.209197 0.138187
0.559001 0.214803 0.143019
0.623126 0.220522 0.147951
0.686229 0.226351 0.152980
0.747255 0.232284 0.158103
0.805103 0.238319 0.163316
0.845150 0.242843 0.167227
0.845150 0.242843 0.167227
0.063837 0.220226 0.113229
0.094251 0.224584 0.116760
0.130922 0.229285 0.120576
0.173285 0.234237 0.124603
0.220815 0.239392 0.128802
0.272936 0.244722 0.133152
0.328998 0.250207 0.137638
0.388285 0.255834 0.142248
0.450011 0.261592 0.146974
0.513329 0.267471 0.151810
0.577333 0.273465 0.156751
0.641061 0.279568 0.161791
0.703502 0.285774 0.166928
0.763592 0.292079 0.172158
0.820223 0.298478 0.177478
0.859186 0.303268 0.181467
0.859186 0.303268 0.181467
0.074901 0.279841 0.126371
0.106741 0.284484 0.129994
0.144777 0.289487 0.133908
0.188386 0.294747 0.138035
0.237010 0.300214 0.142337
0.290044 0.305856 0.146791
0.346823 0.311653 0.151381
0.406612 0.317588 0.156096
0.468613 0.323650 0.160928
0.531966 0.329830 0.165870
0.595755 0.336119 0.170915
0.659008 0.342511 0.176060
0.720704 0.348999 0.181301
0.779774 0.355579 0.186634
0.835101 0.362246 0.192056
0.872913 0.367227 0.196119
0.872913 0.367227 0.196119
0.086620 0.343322 0.139958
0.119841 0.348179 0.143669
0.159192 0.353404 0.147677
0.203994 0.358890 0.151901
0.253653 0.364583 0.156302
0.307541 0.370449 0.160856
0.364973 0.376467 0.165547
0.425197 0.382620 0.170364
0.487403 0.388894 0.175297
0.550718 0.395279 0.180340
0.614215 0.401767 0.185486
0.676915 0.408350 0.190731
0.737786 0.415022 0.196072
0.795750 0.421777 0.201503
0.849684 0.428610 0.207023
0.886278 0.433709 0.211158
0.886278 0.433709 0.211158
0.098972 0.409656 0.153968
0.133526 0.414651 0.157765
0.174140 0.420018 0.161862
0.220078 0.425645 0.166179
0.270713 0.431477 0.170675
0.325392 0.437479 0.175326
0.383410 0.443626 0.180114
0.444001 0.449901 0.185028
0.506340 0.456291 0.190058
0.569543 0.462785 0.195197
0.632672 0.469373 0.200440
0.694737 0.476047 0.205781
0.754700 0.482802 0.211216
0.811472 0.489630 0.216742
0.863926 0.496526 0.222355
0.899233 0.501665 0.226558
0.899233 0.501665 0.226558
0.111936 0.477794 0.168382
0.147773 0.482851 0.172260
0.189595 0.488277 0.176444
0.236611 0.493960 0.180851
0.288160 0.499841 0.185438
0.343565 0.505885 0.190180
0.402102 0.512067 0.195061
0.462989 0.518369 0.200067
0.525388 0.524778 0.205190
0.588402 0.531280 0.210422
0.651085 0.537868 0.215756
0.712435 0.544532 0.221188
0.771404 0.551265 0.226714
0.826900 0.558062 0.232329
0.877783 0.564916 0.238029
0.911738 0.570016 0.242297
0.911738 0.570016 0.242297
0.125491 0.546655 0.183181
0.162559 0.551695 0.187137
0.205532 0.557096 0.191404
0.253565 0.562746 0.195896
0.305965 0.568585 0.200570
0.362029 0.574578 0.205400
0.421016 0.580700 0.210368
0.482127 0.586932 0.215463
0.544511 0.593259 0.220674
0.607260 0.599670 0.225993
0.669416 0.606154 0.231415
0.729969 0.612704 0.236933
0.787862 0.619312 0.242543
0.841993 0.625971 0.248242
0.891216 0.632675 0.254026
0.923751 0.637657 0.258354
0.923751 0.637657 0.258354
0.139615 0.615128 0.198347
0.177861 0.620071 0.202378
0.221926 0.625363 0.206723
0.270915 0.630890 0.211296
0.324100 0.636596 0.216052
0.380756 0.642443 0.220965
0.440121 0.648406 0.226018
0.501384 0.654468 0.231196
0.563677 0.660613 0.236490
0.626082 0.666829 0.241892
0.687631 0.673107 0.247396
0.747303 0.679437 0.252995
0.804034 0.685812 0.258686
0.856713 0.692226 0.264464
0.904187 0.698672 0.270326
0.935234 0.703453 0.274710
0.935234 0.703453 0.274710
0.154286 0.682077 0.213862
0.193654 0.686844 0.217964
0.238753 0.691939 0.222384
0.288634 0.697254 0.227033
0.342537 0.702731 0.231868
0.399715 0.708336 0.236860
0.459388 0.714043 0.241991
0.520726 0.719834 0.247248
0.582852 0.725695 0.252620
0.644835 0.731612 0.258100
0.705695 0.737577 0.263681
0.764404 0.743581 0.269356
0.819887 0.749616 0.275122
0.871026 0.755675 0.280974
0.916660 0.761751 0.286909
0.946150 0.766251 0.291346
0.946150 0.766251 0.291346
0.169481 0.746344 0.229709
0.209915 0.750852 0.233877
0.255987 0.755664 0.238368
0.306695 0.760675 0.243090
0.361249 0.765829 0.247998
0.418879 0.771094 0.253064
0.478786 0.776445 0.258269
0.540125 0.781863 0.263600
0.602006 0.787336 0.269046
0.663486 0.792850 0.274598
0.723575 0.798395 0.280251
0.781235 0.803964 0.285998
0.835384 0.809549 0.291833
0.884895 0.815143 0.297754
0.928599 0.820739 0.303756
0.956464 0.824873 0.308242
0.956464 0.824873 0.308242
0.185177 0.806749 0.245870
0.226621 0.810916 0.250101
0.273602 0.815356 0.254658
0.325073 0.819969 0.259448
0.380210 0.824705 0.264425
0.438220 0.829531 0.269560
0.498286 0.834425 0.274835
0.559550 0.839368 0.280234
0.621107 0.844347 0.285749
0.682004 0.849351 0.291369
0.741239 0.854370 0.297088
0.797766 0.859395 0.302901
0.850493 0.864419 0.308801
0.898286 0.869436 0.314785
0.939969 0.874438 0.320848
0.966140 0.878123 0.325379
0.966140 0.878123 0.325379
0.201351 0.862092 0.262327
0.243746 0.865835 0.266618
0.291575 0.869813 0.271236
0.343740 0.873936 0.276090
0.399390 0.878156 0.281131
0.457708 0.882444 0.286331
0.517859 0.886778 0.291670
0.578971 0.891142 0.297133
0.640125 0.895522 0.302711
0.700356 0.899909 0.308394
0.758653 0.904291 0.314175
0.813961 0.908662 0.320047
0.865179 0.913014 0.326007
0.911165 0.917341 0.332048
0.950735 0.921636 0.338168
0.975145 0.924787 0.342739
0.975145 0.924787 0.342739
0.217978 0.911155 0.279064
0.261265 0.914390 0.283409
0.309878 0.917816 0.288085
0.362672 0.921353 0.292998
0.418764 0.924960 0.298098
0.477316 0.928610 0.303357
0.537477 0.932282 0.308756
0.598358 0.935961 0.314278
0.659028 0.939636 0.319914
0.718512 0.943296 0.325654
0.775787 0.946933 0.331491
0.829790 0.950538 0.337419
0.879410 0.954106 0.343432
0.923499 0.957628 0.349525
0.960864 0.961100 0.355696
0.983442 0.963631 0.360304
0.983442 0.963631 0.360304
0.040000 0.030000 0.085812
0.043026 0.030000 0.089130
0.072496 0.030000 0.092720
0.108176 0.030000 0.096512
0.149715 0.030000 0.100473
0.196657 0.030000 0.104580
0.248447 0.030000 0.108821
0.304447 0.030142 0.113185
0.363938 0.033153 0.117665
0.426129 0.036289 0.122254
0.490165 0.039546 0.126949
0.555131 0.042925 0.131744
0.620057 0.046423 0.136637
0.683918 0.050041 0.141624
0.745644 0.053776 0.146703
0.789243 0.056612 0.150515
0.789243 0.056612 0.150515
0.040000 0.039944 0.097024
0.051949 0.042502 0.100433
0.082916 0.045297 0.104120
