Fotico/Resources/LUTs/teal_orange.cube
# Teal & Orange
LUT_3D_SIZE 5
0.000000 0.024350 0.042906
0.178159 0.027061 0.015632
0.538448 0.029842 0.000000
0.879391 0.032692 0.000000
1.000000 0.035612 0.000000
0.000000 0.229168 0.025148
0.193756 0.234475 0.002207
0.557681 0.239815 0.000000
0.892552 0.245189 0.000000
1.000000 0.250595 0.000000
0.000000 0.518509 0.010034
0.209767 0.524594 0.000000
0.576840 0.530677 0.000000
0.903974 0.538968 0.000000
1.000000 0.551923 0.000000
0.000000 0.806250 0.000000
0.217907 0.816909 0.000000
0.580698 0.827380 0.000000
0.903974 0.837658 0.000000
1.000000 0.847733 0.000000
0.000000 1.000000 0.000000
0.217907 1.000000 0.000000
0.580698 1.000000 0.000000
0.903974 1.000000 0.000000
1.000000 1.000000 0.000000
0.000000 0.032164 0.305534
0.148362 0.020367 0.271352
0.499930 0.022969 0.218495
0.851533 0.025643 0.169103
1.000000 0.028387 0.123877
0.000000 0.244200 0.271230
0.163056 0.221169 0.238113
0.519236 0.226423 0.187328
0.865743 0.231712 0.140445
1.000000 0.237035 0.098163
0.000000 0.535641 0.237995
0.178215 0.509256 0.206111
0.538518 0.515345 0.157670
0.876793 0.525990 0.118694
1.000000 0.538968 0.085912
0.000000 0.822168 0.215600
0.184375 0.806250 0.193750
0.540462 0.816909 0.154766
0.876793 0.827380 0.118694
1.000000 0.837658 0.085912
0.000000 1.000000 0.215600
0.184375 1.000000 0.193750
0.540462 1.000000 0.154766
0.876793 1.000000 0.118694
1.000000 1.000000 0.085912
0.000000 0.040525 0.646703
0.125239 0.027878 0.610680
0.461412 0.016551 0.574156
0.821729 0.019043 0.514574
1.000000 0.021608 0.454821
0.000000 0.259489 0.610548
0.139116 0.236056 0.574022
0.480694 0.213252 0.537162
0.836890 0.218452 0.477392
1.000000 0.223688 0.417886
0.000000 0.552739 0.573888
0.153497 0.526399 0.537027
0.500000 0.500000 0.500000
0.847267 0.512999 0.451313
1.000000 0.525990 0.403006
0.000000 0.837658 0.551923
0.157866 0.822168 0.525990
0.500000 0.806250 0.500000
0.847267 0.816909 0.451313
1.000000 0.827380 0.403006
0.000000 1.000000 0.551923
0.157866 1.000000 0.525990
0.500000 1.000000 0.500000
0.847267 1.000000 0.451313
1.000000 1.000000 0.403006
0.000000 0.049417 0.929193
0.103551 0.035946 0.905973
0.429777 0.023755 0.880688
0.790174 0.012904 0.853505
1.000000 0.015285 0.806056
0.000000 0.275018 0.905884
0.116543 0.251208 0.880592
0.448965 0.227989 0.853403
0.806187 0.205420 0.824484
1.000000 0.210564 0.774586
0.000000 0.569785 0.880496
0.130081 0.543518 0.853301
0.466272 0.519496 0.827380
0.815625 0.500000 0.806250
1.000000 0.512999 0.764735
0.000000 0.852693 0.867251
0.132800 0.837658 0.847733
0.466272 0.822168 0.827380
0.815625 0.806250 0.806250
1.000000 0.816909 0.764735
0.000000 1.000000 0.867251
0.132800 1.000000 0.847733
0.466272 1.000000 0.827380
0.815625 1.000000 0.806250
1.000000 1.000000 0.764735
0.000952 0.058824 1.000000
0.083407 0.044554 1.000000
0.398386 0.031525 1.000000
0.762964 0.019796 1.000000
0.994220 0.009430 1.000000
0.000000 0.290770 1.000000
0.095449 0.266610 1.000000
0.417413 0.243000 1.000000
0.779607 0.220002 1.000000
0.999109 0.197675 1.000000
0.000000 0.586765 1.000000
0.108076 0.560594 1.000000
0.432675 0.538968 1.000000
0.787803 0.519496 1.000000
1.000000 0.500000 1.000000
0.000000 0.867251 1.000000
0.109309 0.852693 1.000000
0.432675 0.837658 1.000000
0.787803 0.822168 1.000000
1.000000 0.806250 1.000000
0.000000 1.000000 1.000000
0.109309 1.000000 1.000000
0.432675 1.000000 1.000000
0.787803 1.000000 1.000000
1.000000 1.000000 1.000000
