Fotico/Resources/LUTs/teal_orange.cube
# Teal & Orange
LUT_3D_SIZE 17
0.000000 0.024350 0.042906
0.011303 0.025021 0.035460
0.051049 0.025696 0.028425
0.107672 0.026376 0.021812
0.178159 0.027061 0.015632
0.259494 0.027749 0.009895
0.348664 0.028442 0.004614
0.442653 0.029140 0.000000
0.538448 0.029842 0.000000
0.633034 0.030548 0.000000
0.723396 0.031258 0.000000
0.806519 0.031973 0.000000
0.879391 0.032692 0.000000
0.938995 0.033416 0.000000
0.982318 0.034143 0.000000
1.000000 0.034875 0.000000
1.000000 0.035612 0.000000
0.000000 0.062706 0.038228
0.012853 0.063583 0.031036
0.053520 0.064463 0.024262
0.110913 0.065348 0.017917
0.182018 0.066236 0.012011
0.263819 0.067128 0.006557
0.353304 0.068024 0.001563
0.447456 0.068924 0.000000
0.543262 0.069827 0.000000
0.637707 0.070735 0.000000
0.727777 0.071646 0.000000
0.810457 0.072560 0.000000
0.882733 0.073479 0.000000
0.941590 0.074401 0.000000
0.984014 0.075327 0.000000
1.000000 0.076257 0.000000
1.000000 0.077190 0.000000
0.000000 0.110566 0.033707
0.014453 0.111620 0.026774
0.056034 0.112677 0.020265
0.114189 0.113738 0.014192
0.185904 0.114801 0.008566
0.268164 0.115869 0.003397
0.357955 0.116939 0.000000
0.452263 0.118013 0.000000
0.548072 0.119089 0.000000
0.642369 0.120169 0.000000
0.732139 0.121253 0.000000
0.814368 0.122339 0.000000
0.886040 0.123429 0.000000
0.944142 0.124521 0.000000
0.985660 0.125617 0.000000
1.000000 0.126716 0.000000
1.000000 0.127819 0.000000
0.000000 0.166522 0.029346
0.016103 0.167725 0.022676
0.058590 0.168931 0.016437
0.117499 0.170139 0.010640
0.189817 0.171350 0.005297
0.272528 0.172564 0.000418
0.362618 0.173780 0.000000
0.457073 0.174999 0.000000
0.552879 0.176221 0.000000
0.647020 0.177446 0.000000
0.736482 0.178673 0.000000
0.818252 0.179902 0.000000
0.889313 0.181134 0.000000
0.946653 0.182369 0.000000
0.987256 0.183607 0.000000
1.000000 0.184846 0.000000
1.000000 0.186089 0.000000
0.000000 0.229168 0.025148
0.017802 0.230491 0.018745
0.061187 0.231817 0.012779
0.120843 0.233145 0.007263
0.193756 0.234475 0.002207
0.276910 0.235807 0.000000
0.367292 0.237141 0.000000
0.461887 0.238477 0.000000
0.557681 0.239815 0.000000
0.651659 0.241156 0.000000
0.740806 0.242498 0.000000
0.822109 0.243842 0.000000
0.892552 0.245189 0.000000
0.949121 0.246537 0.000000
0.988803 0.247888 0.000000
1.000000 0.249240 0.000000
1.000000 0.250595 0.000000
0.000000 0.297096 0.021115
0.019549 0.298512 0.014983
0.063825 0.299929 0.009296
0.124221 0.301348 0.004064
0.197721 0.302768 0.000000
0.281311 0.304190 0.000000
0.371977 0.305614 0.000000
0.466704 0.307039 0.000000
0.562479 0.308465 0.000000
0.656285 0.309893 0.000000
0.745110 0.311322 0.000000
0.825938 0.312753 0.000000
0.895755 0.314185 0.000000
0.951547 0.315619 0.000000
0.990299 0.317054 0.000000
1.000000 0.318491 0.000000
1.000000 0.319929 0.000000
0.000000 0.368901 0.017250
0.021345 0.370380 0.011393
0.066505 0.371861 0.005988
0.127631 0.373342 0.001046
0.201711 0.374824 0.000000
0.285729 0.376308 0.000000
0.376672 0.377792 0.000000
0.471524 0.379277 0.000000
0.567271 0.380763 0.000000
0.660899 0.382250 0.000000
0.749394 0.383738 0.000000
0.829740 0.385227 0.000000
0.898923 0.386717 0.000000
0.953929 0.388207 0.000000
0.991744 0.389699 0.000000
1.000000 0.391191 0.000000
1.000000 0.392684 0.000000
0.000000 0.443174 0.013555
0.023189 0.444689 0.007978
0.069224 0.446204 0.002860
0.131075 0.447719 0.000000
0.205727 0.449235 0.000000
0.290166 0.450752 0.000000
0.381377 0.452268 0.000000
0.476346 0.453785 0.000000
0.572059 0.455303 0.000000
0.665501 0.456821 0.000000
0.753657 0.458339 0.000000
0.833513 0.459857 0.000000
0.902055 0.461376 0.000000
0.956268 0.462895 0.000000
0.993138 0.464414 0.000000
1.000000 0.467519 0.000000
1.000000 0.470764 0.000000
0.000000 0.518509 0.010034
0.025081 0.520030 0.004741
0.071984 0.521552 0.000000
0.134551 0.523073 0.000000
0.209767 0.524594 0.000000
0.294619 0.526115 0.000000
0.386091 0.527636 0.000000
0.481170 0.529157 0.000000
0.576840 0.530677 0.000000
0.670088 0.532197 0.000000
0.757899 0.533717 0.000000
0.836944 0.535725 0.000000
0.903974 0.538968 0.000000
0.957011 0.542209 0.000000
0.993171 0.545449 0.000000
1.000000 0.548687 0.000000
1.000000 0.551923 0.000000
0.000000 0.593498 0.006688
0.027020 0.594998 0.001683
0.074783 0.596498 0.000000
0.138059 0.597997 0.000000
0.213832 0.599495 0.000000
0.299089 0.600992 0.000000
0.390815 0.602488 0.000000
0.485995 0.603984 0.000000
0.580698 0.606576 0.000000
0.672424 0.609763 0.000000
0.758800 0.612946 0.000000
0.836944 0.616125 0.000000
0.903974 0.619300 0.000000
0.957011 0.622471 0.000000
0.993171 0.625638 0.000000
1.000000 0.628800 0.000000
1.000000 0.631958 0.000000
0.000000 0.666735 0.003521
0.029006 0.668186 0.000000
0.077622 0.669635 0.000000
0.141598 0.671083 0.000000
0.217907 0.672548 0.000000
0.302225 0.675630 0.000000
0.392717 0.678707 0.000000
0.486501 0.681778 0.000000
0.580698 0.684842 0.000000
0.672424 0.687899 0.000000
0.758800 0.690950 0.000000
0.836944 0.693994 0.000000
0.903974 0.697031 0.000000
0.957011 0.700062 0.000000
0.993171 0.703085 0.000000
1.000000 0.706101 0.000000
1.000000 0.709109 0.000000
0.000000 0.736813 0.000534
0.030810 0.738769 0.000000
0.079318 0.741690 0.000000
0.142645 0.744602 0.000000
0.217907 0.747506 0.000000
0.302225 0.750400 0.000000
0.392717 0.753285 0.000000
0.486501 0.756162 0.000000
0.580698 0.759029 0.000000
0.672424 0.761887 0.000000
0.758800 0.764735 0.000000
0.836944 0.767574 0.000000
0.903974 0.770403 0.000000
0.957011 0.773222 0.000000
0.993171 0.776032 0.000000
1.000000 0.778831 0.000000
1.000000 0.781621 0.000000
0.000000 0.806250 0.000000
0.030810 0.808932 0.000000
0.079318 0.811602 0.000000
0.142645 0.814261 0.000000
0.217907 0.816909 0.000000
0.302225 0.819545 0.000000
0.392717 0.822168 0.000000
0.486501 0.824780 0.000000
0.580698 0.827380 0.000000
0.672424 0.829968 0.000000
0.758800 0.832544 0.000000
0.836944 0.835107 0.000000
0.903974 0.837658 0.000000
0.957011 0.840196 0.000000
0.993171 0.842721 0.000000
1.000000 0.845234 0.000000
1.000000 0.847733 0.000000
0.000000 0.869629 0.000000
0.030810 0.871993 0.000000
0.079318 0.874343 0.000000
0.142645 0.876678 0.000000
0.217907 0.879000 0.000000
0.302225 0.881306 0.000000
0.392717 0.883598 0.000000
0.486501 0.885876 0.000000
0.580698 0.888138 0.000000
0.672424 0.890386 0.000000
0.758800 0.892618 0.000000
0.836944 0.894835 0.000000
0.903974 0.897037 0.000000
0.957011 0.899224 0.000000
0.993171 0.901395 0.000000
1.000000 0.903550 0.000000
1.000000 0.905690 0.000000
0.000000 0.924219 0.000000
0.030810 0.926195 0.000000
0.079318 0.928154 0.000000
0.142645 0.930095 0.000000
0.217907 0.932020 0.000000
0.302225 0.933927 0.000000
0.392717 0.935817 0.000000
0.486501 0.937690 0.000000
0.580698 0.939544 0.000000
0.672424 0.941381 0.000000
0.758800 0.943200 0.000000
0.836944 0.945001 0.000000
0.903974 0.946784 0.000000
0.957011 0.948548 0.000000
0.993171 0.950295 0.000000
1.000000 0.952023 0.000000
1.000000 0.953732 0.000000
0.000000 0.968262 0.000000
0.030810 0.969779 0.000000
0.079318 0.971277 0.000000
0.142645 0.972755 0.000000
0.217907 0.974212 0.000000
0.302225 0.975650 0.000000
0.392717 0.977067 0.000000
0.486501 0.978464 0.000000
0.580698 0.979841 0.000000
0.672424 0.981197 0.000000
0.758800 0.982532 0.000000
0.836944 0.983846 0.000000
0.903974 0.985140 0.000000
0.957011 0.986412 0.000000
0.993171 0.987664 0.000000
1.000000 0.988894 0.000000
1.000000 0.990102 0.000000
0.000000 1.000000 0.000000
0.030810 1.000000 0.000000
0.079318 1.000000 0.000000
0.142645 1.000000 0.000000
0.217907 1.000000 0.000000
0.302225 1.000000 0.000000
0.392717 1.000000 0.000000
0.486501 1.000000 0.000000
0.580698 1.000000 0.000000
0.672424 1.000000 0.000000
0.758800 1.000000 0.000000
0.836944 1.000000 0.000000
0.903974 1.000000 0.000000
0.957011 1.000000 0.000000
0.993171 1.000000 0.000000
1.000000 1.000000 0.000000
1.000000 1.000000 0.000000
0.000000 0.026251 0.093695
0.008360 0.023339 0.087697
0.046244 0.024003 0.078296
0.101308 0.024672 0.069248
0.170538 0.025345 0.060566
0.250919 0.026022 0.052260
0.339438 0.026704 0.044340
0.433080 0.027391 0.036819
0.528829 0.028082 0.029706
0.623672 0.028777 0.023014
0.714595 0.029476 0.016752
0.798582 0.030180 0.010932
0.872620 0.030888 0.005565
0.933693 0.031601 0.000661
0.978788 0.032318 0.000000
1.000000 0.033039 0.000000
1.000000 0.033764 0.000000
0.000000 0.065185 0.087676
0.009809 0.061381 0.081810
0.048629 0.062252 0.072627
0.104478 0.063127 0.063805
0.174341 0.064005 0.055356
0.255205 0.064888 0.047289
0.344053 0.065774 0.039616
0.437873 0.066664 0.032347
0.533649 0.067558 0.025494
0.628367 0.068456 0.019068
0.719012 0.069357 0.013080
0.802571 0.070263 0.007540
0.876028 0.071172 0.002460
0.936369 0.072084 0.000000
0.980581 0.073001 0.000000
1.000000 0.073921 0.000000
1.000000 0.074846 0.000000
0.000000 0.113543 0.081789
0.011309 0.108970 0.076058
0.051058 0.110019 0.067098
0.107684 0.111071 0.058506
0.178173 0.112127 0.050293
0.259510 0.113186 0.042470
0.348681 0.114248 0.035047
0.442671 0.115314 0.028036
0.538465 0.116382 0.021447
0.633051 0.117454 0.015292
0.723412 0.118529 0.009582
0.806534 0.119608 0.004326
0.879403 0.120689 0.000000
0.939005 0.121774 0.000000
0.982325 0.122862 0.000000
1.000000 0.123953 0.000000
1.000000 0.125047 0.000000
0.000000 0.169917 0.076037
0.012859 0.164699 0.070443
0.053529 0.165898 0.061711
0.110925 0.167099 0.053354
0.182032 0.168304 0.045382
0.263835 0.169511 0.037806
0.353321 0.170720 0.030638
0.447473 0.171933 0.023889
0.543279 0.173148 0.017568
0.637724 0.174365 0.011688
0.727793 0.175586 0.006259
0.810471 0.176809 0.001293
0.882745 0.178034 0.000000
0.941599 0.179263 0.000000
0.984020 0.180494 0.000000
1.000000 0.181727 0.000000
1.000000 0.182963 0.000000
0.000000 0.232901 0.070423
0.014459 0.227160 0.064970
0.056043 0.228481 0.056469
0.114201 0.229803 0.048350
0.185918 0.231128 0.040624
0.268180 0.232454 0.033300
0.357972 0.233783 0.026391
0.452280 0.235114 0.019907
0.548090 0.236447 0.013859
0.642386 0.237782 0.008258
0.732155 0.239120 0.003116
0.814382 0.240459 0.000000
0.886052 0.241800 0.000000
0.944152 0.243143 0.000000
0.985666 0.244489 0.000000
1.000000 0.245836 0.000000
1.000000 0.247186 0.000000
0.000000 0.301088 0.064950
0.016109 0.294948 0.059640
0.058599 0.296361 0.051375
0.117511 0.297776 0.043499
0.189831 0.299193 0.036021
0.272544 0.300610 0.028954
0.362635 0.302030 0.022308
0.457091 0.303451 0.016094
0.552896 0.304874 0.010323
0.647037 0.306298 0.005006
0.736498 0.307723 0.000153
0.818266 0.309151 0.000000
0.889325 0.310579 0.000000
0.946662 0.312009 0.000000
0.987262 0.313441 0.000000
1.000000 0.314874 0.000000
1.000000 0.316308 0.000000
0.000000 0.373070 0.059620
0.017808 0.366654 0.054455
0.061196 0.368132 0.046431
0.120855 0.369611 0.038801
0.193770 0.371091 0.031578
0.276926 0.372572 0.024771
0.367309 0.374054 0.018392
0.461905 0.375537 0.012453
0.557698 0.377020 0.006962
0.651676 0.378505 0.001933
0.740822 0.379991 0.000000
0.822123 0.381477 0.000000
0.892564 0.382965 0.000000
0.949130 0.384453 0.000000
0.988808 0.385942 0.000000
1.000000 0.387432 0.000000
1.000000 0.388923 0.000000
0.000000 0.447441 0.054437
0.019556 0.440873 0.049419
0.063835 0.442387 0.041639
0.124233 0.443901 0.034261
0.197735 0.445416 0.027295
0.281327 0.446932 0.020753
0.371994 0.448447 0.014646
0.466722 0.449963 0.008985
0.562496 0.451480 0.003780
0.656302 0.452997 0.000000
0.745126 0.454514 0.000000
0.825952 0.456032 0.000000
0.895767 0.457550 0.000000
0.951556 0.459068 0.000000
0.990191 0.461032 0.000000
1.000000 0.464275 0.000000
1.000000 0.467519 0.000000
0.000000 0.522794 0.049401
0.021352 0.516196 0.044534
0.066514 0.517718 0.037003
0.127644 0.519239 0.029880
0.201726 0.520761 0.023177
0.285746 0.522282 0.016904
0.376689 0.523804 0.011073
0.471542 0.525325 0.005694
0.567289 0.526846 0.000778
0.660916 0.528367 0.000000
0.749409 0.529887 0.000000
0.829052 0.532481 0.000000
0.897411 0.535725 0.000000
0.952084 0.538968 0.000000
0.990191 0.542209 0.000000
1.000000 0.545449 0.000000
1.000000 0.548687 0.000000
0.000000 0.597722 0.044517
0.023196 0.591217 0.039803
0.069234 0.592718 0.032525
0.131087 0.594219 0.025661
0.205741 0.595719 0.019225
0.290182 0.597218 0.013225
0.381394 0.598716 0.007674
0.476364 0.600214 0.002582
0.570672 0.603386 0.000000
0.662801 0.606576 0.000000
0.749888 0.609763 0.000000
0.829052 0.612946 0.000000
0.897411 0.616125 0.000000
0.952084 0.619300 0.000000
0.990191 0.622471 0.000000
1.000000 0.625638 0.000000
1.000000 0.628800 0.000000
0.000000 0.670817 0.039786
0.025088 0.664529 0.035229
0.071994 0.665981 0.028207
0.134563 0.667432 0.021608
0.209359 0.669459 0.015828
0.292845 0.672548 0.011106
0.382813 0.675630 0.006685
0.476383 0.678707 0.002570
0.570672 0.681778 0.000000
0.662801 0.684842 0.000000
0.749888 0.687899 0.000000
0.829052 0.690950 0.000000
0.897411 0.693994 0.000000
0.952084 0.697031 0.000000
0.990191 0.700062 0.000000
1.000000 0.703085 0.000000
1.000000 0.706101 0.000000
0.000000 0.740673 0.035212
0.026611 0.735840 0.031738
0.073361 0.738769 0.026150
0.135238 0.741690 0.020845
0.209359 0.744602 0.015828
0.292845 0.747506 0.011106
0.382813 0.750400 0.006685
0.476383 0.753285 0.002570
0.570672 0.756162 0.000000
0.662801 0.759029 0.000000
0.749888 0.761887 0.000000
0.829052 0.764735 0.000000
0.897411 0.767574 0.000000
0.952084 0.770403 0.000000
0.990191 0.773222 0.000000
1.000000 0.776032 0.000000
1.000000 0.778831 0.000000
0.000000 0.810269 0.034832
0.026611 0.806250 0.031738
0.073361 0.808932 0.026150
0.135238 0.811602 0.020845
0.209359 0.814261 0.015828
0.292845 0.816909 0.011106
0.382813 0.819545 0.006685
0.476383 0.822168 0.002570
0.570672 0.824780 0.000000
0.662801 0.827380 0.000000
0.749888 0.829968 0.000000
0.829052 0.832544 0.000000
0.897411 0.835107 0.000000
0.952084 0.837658 0.000000
0.990191 0.840196 0.000000
1.000000 0.842721 0.000000
1.000000 0.845234 0.000000
0.000000 0.873170 0.034832
0.026611 0.869629 0.031738
0.073361 0.871993 0.026150
0.135238 0.874343 0.020845
0.209359 0.876678 0.015828
0.292845 0.879000 0.011106
0.382813 0.881306 0.006685
0.476383 0.883598 0.002570
0.570672 0.885876 0.000000
0.662801 0.888138 0.000000
0.749888 0.890386 0.000000
0.829052 0.892618 0.000000
0.897411 0.894835 0.000000
0.952084 0.897037 0.000000
0.990191 0.899224 0.000000
1.000000 0.901395 0.000000
1.000000 0.903550 0.000000
0.000000 0.927176 0.034832
0.026611 0.924219 0.031738
0.073361 0.926195 0.026150
0.135238 0.928154 0.020845
0.209359 0.930095 0.015828
0.292845 0.932020 0.011106
0.382813 0.933927 0.006685
0.476383 0.935817 0.002570
0.570672 0.937690 0.000000
0.662801 0.939544 0.000000
0.749888 0.941381 0.000000
0.829052 0.943200 0.000000
0.897411 0.945001 0.000000
0.952084 0.946784 0.000000
0.990191 0.948548 0.000000
1.000000 0.950295 0.000000
1.000000 0.952023 0.000000
0.000000 0.970531 0.034832
0.026611 0.968262 0.031738
0.073361 0.969779 0.026150
0.135238 0.971277 0.020845
0.209359 0.972755 0.015828
0.292845 0.974212 0.011106
0.382813 0.975650 0.006685
0.476383 0.977067 0.002570
0.570672 0.978464 0.000000
0.662801 0.979841 0.000000
0.749888 0.981197 0.000000
0.829052 0.982532 0.000000
0.897411 0.983846 0.000000
0.952084 0.985140 0.000000
0.990191 0.986412 0.000000
1.000000 0.987664 0.000000
1.000000 0.988894 0.000000
0.000000 1.000000 0.034832
0.026611 1.000000 0.031738
0.073361 1.000000 0.026150
0.135238 1.000000 0.020845
0.209359 1.000000 0.015828
0.292845 1.000000 0.011106
0.382813 1.000000 0.006685
0.476383 1.000000 0.002570
0.570672 1.000000 0.000000
0.662801 1.000000 0.000000
0.749888 1.000000 0.000000
0.829052 1.000000 0.000000
0.897411 1.000000 0.000000
0.952084 1.000000 0.000000
0.990191 1.000000 0.000000
1.000000 1.000000 0.000000
1.000000 1.000000 0.000000
0.000000 0.028187 0.155826
0.006085 0.025221 0.148720
0.041612 0.022338 0.141721
0.095086 0.022995 0.130659
0.163029 0.023657 0.119893
0.242427 0.024324 0.109436
0.330264 0.024994 0.099298
0.423527 0.025670 0.089491
0.519201 0.026349 0.080024
0.614272 0.027033 0.070910
0.705724 0.027722 0.062158
0.790544 0.028415 0.053781
0.865718 0.029112 0.045789
0.928230 0.029814 0.038192
0.975066 0.030520 0.031003
1.000000 0.031230 0.024231
1.000000 0.031945 0.017888
0.000000 0.067695 0.148694
0.007450 0.063844 0.141696
0.043910 0.060065 0.134807
0.098184 0.060930 0.123928
0.166776 0.061799 0.113353
0.246670 0.062671 0.103094
0.334853 0.063548 0.093160
0.428309 0.064428 0.083563
0.524025 0.065313 0.074314
0.618985 0.066201 0.065424
0.710176 0.067093 0.056904
0.794583 0.067989 0.048765
0.869191 0.068888 0.041018
0.930986 0.069792 0.033673
0.976954 0.070699 0.026742
1.000000 0.071610 0.020235
1.000000 0.072524 0.014164
0.000000 0.116546 0.141671
0.008866 0.111933 0.134783
0.046252 0.107382 0.128007
0.101319 0.108426 0.117316
0.170552 0.109473 0.106936
0.250935 0.110524 0.096877
0.339455 0.111578 0.087152
0.433097 0.112635 0.077770
0.528847 0.113696 0.068743
0.623689 0.114759 0.060082
0.714611 0.115826 0.051797
0.798597 0.116897 0.043900
0.872632 0.117970 0.036402
0.933703 0.119047 0.029313
0.978795 0.120127 0.022645
1.000000 0.121210 0.016408
1.000000 0.122296 0.010613
0.000000 0.173333 0.134758
0.010333 0.168082 0.127983
0.048638 0.162882 0.121323
0.104490 0.164077 0.110824
0.174355 0.165274 0.100642
0.255220 0.166474 0.090790
0.344070 0.167677 0.081277
0.437890 0.168883 0.072114
0.533666 0.170091 0.063313
0.628384 0.171302 0.054885
0.719028 0.172516 0.046840
0.802585 0.173732 0.039190
0.876040 0.174951 0.031945
0.936379 0.176173 0.025116
0.980587 0.177397 0.018715
1.000000 0.178624 0.012752
1.000000 0.179854 0.007238
0.000000 0.236651 0.127958
0.011851 0.230884 0.121299
0.051067 0.225158 0.114757
0.107696 0.226475 0.104454
0.178187 0.227794 0.094476
0.259526 0.229116 0.084833
0.348698 0.230439 0.075537
0.442688 0.231765 0.066598
0.538483 0.233092 0.058028
0.633068 0.234422 0.049837
0.723427 0.235754 0.042036
0.806548 0.237088 0.034636
0.879415 0.238424 0.027649
0.939014 0.239762 0.021085
0.982331 0.241103 0.014955
1.000000 0.242445 0.009269
1.000000 0.243789 0.004040
0.000000 0.305091 0.121274
0.013418 0.298932 0.114733
0.053538 0.292803 0.108312
0.110937 0.294214 0.098210
0.182046 0.295626 0.088439
0.263851 0.297041 0.079011
0.353337 0.298456 0.069936
0.447491 0.299873 0.061224
0.543297 0.301292 0.052889
0.637741 0.302712 0.044939
0.727808 0.304134 0.037386
0.810485 0.305557 0.030242
0.882757 0.306982 0.023516
0.941608 0.308409 0.017221
0.984026 0.309836 0.011366
1.000000 0.311266 0.005963
1.000000 0.312697 0.001024
0.000000 0.377247 0.114710
0.015036 0.370819 0.108289
0.056052 0.364410 0.101992
0.114213 0.365887 0.092094
0.185932 0.367364 0.082535
0.268196 0.368842 0.073325
0.357989 0.370322 0.064475
0.452298 0.371802 0.055996
0.548107 0.373283 0.047899
0.642403 0.374766 0.040195
0.732171 0.376249 0.032895
0.814396 0.377733 0.026010
0.886064 0.379218 0.019550
0.944161 0.380705 0.013528
0.985672 0.382192 0.007953
1.000000 0.383679 0.002836
1.000000 0.385168 0.000000
0.000000 0.451711 0.108266
0.016703 0.445138 0.101969
0.058608 0.438572 0.095798
0.117523 0.440086 0.086109
0.189845 0.441600 0.076766
0.272560 0.443114 0.067778
0.362652 0.444629 0.059158
0.457108 0.446144 0.050915
0.552914 0.447659 0.043061
0.647054 0.449175 0.035607
0.736514 0.450692 0.028564
0.818280 0.452208 0.021942
0.889337 0.453726 0.015753
0.946671 0.455243 0.010007
0.986988 0.457791 0.005279
1.000000 0.461032 0.001268
1.000000 0.464275 0.000000
0.000000 0.527078 0.101946
0.018420 0.520482 0.095776
0.061206 0.513883 0.089733
0.120867 0.515405 0.080258
0.193784 0.516927 0.071134
0.276942 0.518448 0.062374
0.367326 0.519970 0.053987
0.461922 0.521492 0.045985
0.557716 0.523013 0.038378
0.651692 0.524534 0.031178
0.740837 0.526055 0.024396
0.821036 0.529236 0.019140
0.890691 0.532481 0.014221
0.946968 0.535725 0.009599
0.986988 0.538968 0.005279
1.000000 0.542209 0.001268
1.000000 0.545449 0.000000
0.000000 0.601939 0.095753
0.020184 0.595443 0.089711
0.063845 0.588934 0.083800
0.124245 0.590436 0.074542
0.197750 0.591938 0.065643
0.281343 0.593439 0.057114
0.372011 0.594939 0.048965
0.466272 0.596994 0.041664
0.560622 0.600191 0.035618
0.653121 0.603386 0.029845
0.740886 0.606576 0.024350
0.821036 0.609763 0.019140
0.890691 0.612946 0.014221
0.946968 0.616125 0.009599
0.986988 0.619300 0.005279
1.000000 0.622471 0.001268
1.000000 0.625638 0.000000
0.000000 0.674888 0.089689
0.021998 0.668616 0.083779
0.066524 0.662319 0.078001
0.127656 0.663773 0.068966
0.200919 0.666364 0.061381
0.283539 0.669459 0.054552
0.372950 0.672548 0.047977
0.466272 0.675630 0.041664
0.560622 0.678707 0.035618
0.653121 0.681778 0.029845
0.740886 0.684842 0.024350
0.821036 0.687899 0.019140
0.890691 0.690950 0.014221
0.946968 0.693994 0.009599
0.986988 0.697031 0.005279
1.000000 0.700062 0.001268
1.000000 0.703085 0.000000
0.000000 0.744602 0.083853
0.023270 0.740231 0.079784
0.067578 0.735840 0.075781
0.127972 0.738769 0.068459
0.200919 0.741690 0.061381
0.283539 0.744602 0.054552
0.372950 0.747506 0.047977
0.466272 0.750400 0.041664
0.560622 0.753285 0.035618
0.653121 0.756162 0.029845
0.740886 0.759029 0.024350
0.821036 0.761887 0.019140
0.890691 0.764735 0.014221
0.946968 0.767574 0.009599
0.986988 0.770403 0.005279
1.000000 0.773222 0.001268
1.000000 0.776032 0.000000
0.000000 0.814261 0.083853
0.023270 0.810269 0.079784
0.067578 0.806250 0.075781
0.127972 0.808932 0.068459
0.200919 0.811602 0.061381
0.283539 0.814261 0.054552
0.372950 0.816909 0.047977
0.466272 0.819545 0.041664
0.560622 0.822168 0.035618
0.653121 0.824780 0.029845
0.740886 0.827380 0.024350
0.821036 0.829968 0.019140
0.890691 0.832544 0.014221
0.946968 0.835107 0.009599
0.986988 0.837658 0.005279
1.000000 0.840196 0.001268
1.000000 0.842721 0.000000
0.000000 0.876678 0.083853
0.023270 0.873170 0.079784
0.067578 0.869629 0.075781
0.127972 0.871993 0.068459
0.200919 0.874343 0.061381
0.283539 0.876678 0.054552
0.372950 0.879000 0.047977
0.466272 0.881306 0.041664
0.560622 0.883598 0.035618
0.653121 0.885876 0.029845
0.740886 0.888138 0.024350
0.821036 0.890386 0.019140
0.890691 0.892618 0.014221
0.946968 0.894835 0.009599
0.986988 0.897037 0.005279
1.000000 0.899224 0.001268
1.000000 0.901395 0.000000
0.000000 0.930095 0.083853
0.023270 0.927176 0.079784
0.067578 0.924219 0.075781
0.127972 0.926195 0.068459
0.200919 0.928154 0.061381
0.283539 0.930095 0.054552
0.372950 0.932020 0.047977
0.466272 0.933927 0.041664
0.560622 0.935817 0.035618
0.653121 0.937690 0.029845
0.740886 0.939544 0.024350
0.821036 0.941381 0.019140
0.890691 0.943200 0.014221
0.946968 0.945001 0.009599
0.986988 0.946784 0.005279
1.000000 0.948548 0.001268
1.000000 0.950295 0.000000
0.000000 0.972755 0.083853
0.023270 0.970531 0.079784
0.067578 0.968262 0.075781
0.127972 0.969779 0.068459
0.200919 0.971277 0.061381
0.283539 0.972755 0.054552
0.372950 0.974212 0.047977
0.466272 0.975650 0.041664
0.560622 0.977067 0.035618
0.653121 0.978464 0.029845
0.740886 0.979841 0.024350
0.821036 0.981197 0.019140
0.890691 0.982532 0.014221
0.946968 0.983846 0.009599
0.986988 0.985140 0.005279
1.000000 0.986412 0.001268
1.000000 0.987664 0.000000
0.000000 1.000000 0.083853
0.023270 1.000000 0.079784
0.067578 1.000000 0.075781
0.127972 1.000000 0.068459
0.200919 1.000000 0.061381
0.283539 1.000000 0.054552
0.372950 1.000000 0.047977
0.466272 1.000000 0.041664
0.560622 1.000000 0.035618
0.653121 1.000000 0.029845
0.740886 1.000000 0.024350
0.821036 1.000000 0.019140
0.890691 1.000000 0.014221
0.946968 1.000000 0.009599
0.986988 1.000000 0.005279
1.000000 1.000000 0.001268
1.000000 1.000000 0.000000
0.000000 0.030158 0.227154
0.003951 0.027138 0.219168
0.037923 0.024201 0.211266
0.089010 0.021347 0.203449
0.155636 0.021998 0.191020
0.234019 0.022653 0.178831
0.321145 0.023313 0.166894
0.413999 0.023977 0.155220
0.509567 0.024645 0.143818
0.604834 0.025318 0.132702
0.696787 0.025996 0.121880
0.782409 0.026677 0.111364
0.858688 0.027364 0.101166
0.922608 0.028054 0.091296
0.971155 0.028749 0.081765
1.000000 0.029449 0.072584
1.000000 0.030152 0.063764
0.000000 0.070234 0.219139
0.005230 0.066337 0.211237
0.040148 0.062511 0.203421
