Fotico/Resources/LUTs/teal_orange.cube
# Teal & Orange
LUT_3D_SIZE 9
0.000000 0.024350 0.042906
0.051049 0.025696 0.028425
0.178159 0.027061 0.015632
0.348664 0.028442 0.004614
0.538448 0.029842 0.000000
0.723396 0.031258 0.000000
0.879391 0.032692 0.000000
0.982318 0.034143 0.000000
1.000000 0.035612 0.000000
0.000000 0.110566 0.033707
0.056034 0.112677 0.020265
0.185904 0.114801 0.008566
0.357955 0.116939 0.000000
0.548072 0.119089 0.000000
0.732139 0.121253 0.000000
0.886040 0.123429 0.000000
0.985660 0.125617 0.000000
1.000000 0.127819 0.000000
0.000000 0.229168 0.025148
0.061187 0.231817 0.012779
0.193756 0.234475 0.002207
0.367292 0.237141 0.000000
0.557681 0.239815 0.000000
0.740806 0.242498 0.000000
0.892552 0.245189 0.000000
0.988803 0.247888 0.000000
1.000000 0.250595 0.000000
0.000000 0.368901 0.017250
0.066505 0.371861 0.005988
0.201711 0.374824 0.000000
0.376672 0.377792 0.000000
0.567271 0.380763 0.000000
0.749394 0.383738 0.000000
0.898923 0.386717 0.000000
0.991744 0.389699 0.000000
1.000000 0.392684 0.000000
0.000000 0.518509 0.010034
0.071984 0.521552 0.000000
0.209767 0.524594 0.000000
0.386091 0.527636 0.000000
0.576840 0.530677 0.000000
0.757899 0.533717 0.000000
0.903974 0.538968 0.000000
0.993171 0.545449 0.000000
1.000000 0.551923 0.000000
0.000000 0.666735 0.003521
0.077622 0.669635 0.000000
0.217907 0.672548 0.000000
0.392717 0.678707 0.000000
0.580698 0.684842 0.000000
0.758800 0.690950 0.000000
0.903974 0.697031 0.000000
0.993171 0.703085 0.000000
1.000000 0.709109 0.000000
0.000000 0.806250 0.000000
0.079318 0.811602 0.000000
0.217907 0.816909 0.000000
0.392717 0.822168 0.000000
0.580698 0.827380 0.000000
0.758800 0.832544 0.000000
0.903974 0.837658 0.000000
0.993171 0.842721 0.000000
1.000000 0.847733 0.000000
0.000000 0.924219 0.000000
0.079318 0.928154 0.000000
0.217907 0.932020 0.000000
0.392717 0.935817 0.000000
0.580698 0.939544 0.000000
0.758800 0.943200 0.000000
0.903974 0.946784 0.000000
0.993171 0.950295 0.000000
1.000000 0.953732 0.000000
0.000000 1.000000 0.000000
0.079318 1.000000 0.000000
0.217907 1.000000 0.000000
0.392717 1.000000 0.000000
0.580698 1.000000 0.000000
0.758800 1.000000 0.000000
0.903974 1.000000 0.000000
0.993171 1.000000 0.000000
1.000000 1.000000 0.000000
0.000000 0.028187 0.155826
0.041612 0.022338 0.141721
0.163029 0.023657 0.119893
0.330264 0.024994 0.099298
0.519201 0.026349 0.080024
0.705724 0.027722 0.062158
0.865718 0.029112 0.045789
0.975066 0.030520 0.031003
1.000000 0.031945 0.017888
0.000000 0.116546 0.141671
0.046252 0.107382 0.128007
0.170552 0.109473 0.106936
0.339455 0.111578 0.087152
0.528847 0.113696 0.068743
0.714611 0.115826 0.051797
0.872632 0.117970 0.036402
0.978795 0.120127 0.022645
1.000000 0.122296 0.010613
0.000000 0.236651 0.127958
0.051067 0.225158 0.114757
0.178187 0.227794 0.094476
0.348698 0.230439 0.075537
0.538483 0.233092 0.058028
0.723427 0.235754 0.042036
0.879415 0.238424 0.027649
0.982331 0.241103 0.014955
1.000000 0.243789 0.004040
0.000000 0.377247 0.114710
0.056052 0.364410 0.101992
0.185932 0.367364 0.082535
0.357989 0.370322 0.064475
0.548107 0.373283 0.047899
0.732171 0.376249 0.032895
0.886064 0.379218 0.019550
0.985672 0.382192 0.007953
1.000000 0.385168 0.000000
0.000000 0.527078 0.101946
0.061206 0.513883 0.089733
0.193784 0.516927 0.071134
0.367326 0.519970 0.053987
0.557716 0.523013 0.038378
0.740837 0.526055 0.024396
0.890691 0.532481 0.014221
0.986988 0.538968 0.005279
1.000000 0.545449 0.000000
0.000000 0.674888 0.089689
0.066524 0.662319 0.078001
0.200919 0.666364 0.061381
0.372950 0.672548 0.047977
0.560622 0.678707 0.035618
0.740886 0.684842 0.024350
0.890691 0.690950 0.014221
0.986988 0.697031 0.005279
1.000000 0.703085 0.000000
0.000000 0.814261 0.083853
0.067578 0.806250 0.075781
0.200919 0.811602 0.061381
0.372950 0.816909 0.047977
0.560622 0.822168 0.035618
0.740886 0.827380 0.024350
0.890691 0.832544 0.014221
0.986988 0.837658 0.005279
1.000000 0.842721 0.000000
0.000000 0.930095 0.083853
0.067578 0.924219 0.075781
0.200919 0.928154 0.061381
0.372950 0.932020 0.047977
0.560622 0.935817 0.035618
0.740886 0.939544 0.024350
0.890691 0.943200 0.014221
0.986988 0.946784 0.005279
1.000000 0.950295 0.000000
0.000000 1.000000 0.083853
0.067578 1.000000 0.075781
0.200919 1.000000 0.061381
0.372950 1.000000 0.047977
0.560622 1.000000 0.035618
0.740886 1.000000 0.024350
0.890691 1.000000 0.014221
0.986988 1.000000 0.005279
1.000000 1.000000 0.000000
0.000000 0.032164 0.305534
0.034357 0.026099 0.288321
0.148362 0.020367 0.271352
0.312083 0.021659 0.244535
0.499930 0.022969 0.218495
0.687785 0.024297 0.193322
0.851533 0.025643 0.169103
0.967059 0.027006 0.145926
1.000000 0.028387 0.123877
0.000000 0.122628 0.288259
0.038704 0.113306 0.271291
0.155649 0.104229 0.254589
0.321161 0.106300 0.228245
0.509584 0.108385 0.202734
0.696803 0.110482 0.178144
0.858701 0.112593 0.154562
0.971163 0.114717 0.132076
1.000000 0.116854 0.110774
0.000000 0.244200 0.271230
0.043230 0.232605 0.254528
0.163056 0.221169 0.238113
0.330297 0.223792 0.212277
0.519236 0.226423 0.187328
0.705757 0.229063 0.163355
0.865743 0.231712 0.140445
0.975080 0.234370 0.118685
1.000000 0.237035 0.098163
0.000000 0.385623 0.254468
0.047933 0.372739 0.238054
0.170579 0.359929 0.221947
0.339488 0.362877 0.196653
0.528882 0.365828 0.172300
0.714643 0.368784 0.148977
0.872657 0.371744 0.126772
0.978808 0.374707 0.105772
1.000000 0.377675 0.086064
0.000000 0.535641 0.237995
0.052808 0.522455 0.221889
0.178215 0.509256 0.206111
0.348731 0.512300 0.181392
0.538518 0.515345 0.157670
0.722622 0.519496 0.136342
0.876793 0.525990 0.118694
0.979925 0.532481 0.101868
1.000000 0.538968 0.085912
0.000000 0.682998 0.221831
0.057854 0.670494 0.206054
0.184375 0.660156 0.193750
0.353363 0.666364 0.173918
0.540462 0.672548 0.154766
0.722622 0.678707 0.136342
0.876793 0.684842 0.118694
0.979925 0.690950 0.101868
1.000000 0.697031 0.085912
0.000000 0.822168 0.215600
0.058335 0.814261 0.204589
0.184375 0.806250 0.193750
0.353363 0.811602 0.173918
0.540462 0.816909 0.154766
0.722622 0.822168 0.136342
0.876793 0.827380 0.118694
0.979925 0.832544 0.101868
1.000000 0.837658 0.085912
0.000000 0.935817 0.215600
0.058335 0.930095 0.204589
0.184375 0.924219 0.193750
0.353363 0.928154 0.173918
0.540462 0.932020 0.154766
0.722622 0.935817 0.136342
0.876793 0.939544 0.118694
0.979925 0.943200 0.101868
1.000000 0.946784 0.085912
0.000000 1.000000 0.215600
0.058335 1.000000 0.204589
0.184375 1.000000 0.193750
0.353363 1.000000 0.173918
0.540462 1.000000 0.154766
0.722622 1.000000 0.136342
0.876793 1.000000 0.118694
0.979925 1.000000 0.101868
1.000000 1.000000 0.085912
0.000000 0.036277 0.474877
0.027596 0.030001 0.456386
0.136628 0.024052 0.437945
0.294146 0.018438 0.419573
0.480659 0.019703 0.390122
0.669603 0.020985 0.360996
0.836862 0.022286 0.332281
0.958322 0.023605 0.304066
1.000000 0.024941 0.276438
0.000000 0.128812 0.456319
0.031642 0.119334 0.437877
0.143713 0.110096 0.419506
0.303099 0.101108 0.401225
0.490310 0.103158 0.371966
0.678739 0.105222 0.343086
0.844271 0.107300 0.314671
0.962788 0.109391 0.286811
1.000000 0.111495 0.259592
0.000000 0.251813 0.437810
0.035871 0.240118 0.419439
0.150922 0.228578 0.401159
0.312116 0.217200 0.382990
0.499965 0.219809 0.353956
0.687818 0.222427 0.325355
0.851560 0.225054 0.297275
0.967074 0.227690 0.269803
1.000000 0.230334 0.243028
0.000000 0.394027 0.419372
0.040282 0.381100 0.401092
0.158252 0.368241 0.382924
0.321195 0.355459 0.364889
0.509620 0.358399 0.336114
0.696836 0.361344 0.307827
0.858727 0.364294 0.280114
0.971177 0.367247 0.253065
1.000000 0.371200 0.228186
0.000000 0.544195 0.401026
0.044871 0.531021 0.382858
0.165700 0.517830 0.364824
0.330331 0.504628 0.346943
0.519271 0.507673 0.318460
0.704037 0.512999 0.293899
0.862309 0.519496 0.271520
0.972012 0.525990 0.249600
1.000000 0.532481 0.228186
0.000000 0.691063 0.382792
0.049600 0.678707 0.364889
0.170948 0.669459 0.352325
0.333984 0.660156 0.339844
0.520245 0.666364 0.316690
0.704037 0.672548 0.293899
0.862309 0.678707 0.271520
0.972012 0.684842 0.249600
1.000000 0.690950 0.228186
0.000000 0.829968 0.377529
0.049600 0.822168 0.364889
0.170948 0.814261 0.352325
0.333984 0.806250 0.339844
0.520245 0.811602 0.316690
0.704037 0.816909 0.293899
0.862309 0.822168 0.271520
0.972012 0.827380 0.249600
1.000000 0.832544 0.228186
0.000000 0.941381 0.377529
0.049600 0.935817 0.364889
0.170948 0.930095 0.352325
0.333984 0.924219 0.339844
0.520245 0.928154 0.316690
0.704037 0.932020 0.293899
0.862309 0.935817 0.271520
0.972012 0.939544 0.249600
1.000000 0.943200 0.228186
0.000000 1.000000 0.377529
0.049600 1.000000 0.364889
0.170948 1.000000 0.352325
0.333984 1.000000 0.339844
0.520245 1.000000 0.316690
0.704037 1.000000 0.293899
0.862309 1.000000 0.271520
0.972012 1.000000 0.249600
1.000000 1.000000 0.228186
0.000000 0.040525 0.646703
0.021343 0.034040 0.628765
0.125239 0.027878 0.610680
0.279550 0.022046 0.592470
0.461412 0.016551 0.574156
0.651201 0.017788 0.544430
0.821729 0.019043 0.514574
0.948880 0.020316 0.484675
1.000000 0.021608 0.454821
0.000000 0.135093 0.628699
0.025078 0.125463 0.610614
0.132112 0.116068 0.592404
0.288391 0.106917 0.574089
0.471048 0.098018 0.555691
0.660445 0.100047 0.525874
0.829366 0.102091 0.495980
0.953696 0.104148 0.466099
1.000000 0.106218 0.436317
0.000000 0.259489 0.610548
0.029004 0.247697 0.592337
0.139116 0.236056 0.574022
0.297301 0.224571 0.555624
0.480694 0.213252 0.537162
0.669636 0.215847 0.507288
0.836890 0.218452 0.477392
0.958339 0.221065 0.447562
1.000000 0.223688 0.417886
0.000000 0.402456 0.592270
0.033115 0.389489 0.573955
0.146245 0.376585 0.555556
0.306277 0.363752 0.537095
0.490345 0.350998 0.518592
0.678772 0.353932 0.488693
0.844297 0.356870 0.458828
0.962804 0.359813 0.429084
1.000000 0.364889 0.403006
0.000000 0.552739 0.573888
0.037409 0.539580 0.555489
0.153497 0.526399 0.537027
0.315316 0.513203 0.518524
0.500000 0.500000 0.500000
0.685158 0.506500 0.475633
0.847267 0.512999 0.451313
0.963277 0.519496 0.427089
1.000000 0.525990 0.403006
0.000000 0.699081 0.555422
0.041390 0.687899 0.538968
0.157866 0.678707 0.525990
0.318014 0.669459 0.512999
0.500000 0.660156 0.500000
0.685158 0.666364 0.475633
0.847267 0.672548 0.451313
0.963277 0.678707 0.427089
1.000000 0.684842 0.403006
0.000000 0.837658 0.551923
0.041390 0.829968 0.538968
0.157866 0.822168 0.525990
0.318014 0.814261 0.512999
0.500000 0.806250 0.500000
0.685158 0.811602 0.475633
0.847267 0.816909 0.451313
0.963277 0.822168 0.427089
1.000000 0.827380 0.403006
0.000000 0.946784 0.551923
0.041390 0.941381 0.538968
0.157866 0.935817 0.525990
0.318014 0.930095 0.512999
0.500000 0.924219 0.500000
0.685158 0.928154 0.475633
0.847267 0.932020 0.451313
0.963277 0.935817 0.427089
1.000000 0.939544 0.403006
0.000000 1.000000 0.551923
0.041390 1.000000 0.538968
0.157866 1.000000 0.525990
0.318014 1.000000 0.512999
0.500000 1.000000 0.500000
0.685158 1.000000 0.475633
0.847267 1.000000 0.451313
0.963277 1.000000 0.427089
1.000000 1.000000 0.403006
0.000000 0.044906 0.803859
0.015611 0.038216 0.788304
0.114208 0.031844 0.772407
0.265150 0.025796 0.756189
0.445571 0.020081 0.739672
0.632606 0.014706 0.722876
0.806158 0.015915 0.695232
0.938756 0.017143 0.667003
1.000000 0.018388 0.638277
0.000000 0.141471 0.788246
0.019028 0.131692 0.772348
0.120863 0.122143 0.756130
0.273870 0.112833 0.739611
0.455185 0.103769 0.722814
0.641943 0.094959 0.705759
0.814011 0.096968 0.677741
0.943911 0.098991 0.649192
1.000000 0.101027 0.620201
0.000000 0.267224 0.772290
0.022640 0.255340 0.756070
0.127651 0.243600 0.739550
0.282664 0.232012 0.722752
0.464814 0.220585 0.705696
0.651235 0.209325 0.688402
0.821757 0.211907 0.660044
0.948898 0.214497 0.631210
1.000000 0.217097 0.601988
0.000000 0.410909 0.756010
0.026443 0.397904 0.739490
0.134571 0.384958 0.722690
0.291530 0.372079 0.705633
0.474454 0.359273 0.688339
0.660478 0.346548 0.670828
0.829393 0.349475 0.642164
0.953713 0.352406 0.613078
1.000000 0.358597 0.588985
0.000000 0.561269 0.739429
0.030434 0.548130 0.722629
0.141619 0.534963 0.705570
0.300464 0.521776 0.688275
0.483128 0.509749 0.672548
0.666016 0.500000 0.660156
0.831697 0.506500 0.636686
0.953748 0.512999 0.612946
1.000000 0.519496 0.588985
0.000000 0.707049 0.722567
0.033722 0.697031 0.709109
0.145144 0.687899 0.697031
0.302225 0.678707 0.684842
0.483128 0.669459 0.672548
0.666016 0.660156 0.660156
0.831697 0.666364 0.636686
0.953748 0.672548 0.612946
1.000000 0.678707 0.588985
0.000000 0.845234 0.721069
0.033722 0.837658 0.709109
0.145144 0.829968 0.697031
0.302225 0.822168 0.684842
0.483128 0.814261 0.672548
0.666016 0.806250 0.660156
0.831697 0.811602 0.636686
0.953748 0.816909 0.612946
1.000000 0.822168 0.588985
0.000000 0.952023 0.721069
0.033722 0.946784 0.709109
0.145144 0.941381 0.697031
0.302225 0.935817 0.684842
0.483128 0.930095 0.672548
0.666016 0.924219 0.660156
0.831697 0.928154 0.636686
0.953748 0.932020 0.612946
1.000000 0.935817 0.588985
0.000000 1.000000 0.721069
0.033722 1.000000 0.709109
0.145144 1.000000 0.697031
0.302225 1.000000 0.684842
0.483128 1.000000 0.672548
0.666016 1.000000 0.660156
0.831697 1.000000 0.636686
0.953748 1.000000 0.612946
1.000000 1.000000 0.588985
0.000000 0.049417 0.929193
0.010414 0.042525 0.917851
0.103551 0.035946 0.905973
0.250960 0.029687 0.893578
0.429777 0.023755 0.880688
0.617137 0.018158 0.867323
0.790174 0.012904 0.853505
0.927976 0.014085 0.830301
1.000000 0.015285 0.806056
0.000000 0.147944 0.917809
0.013505 0.138018 0.905928
0.109977 0.128318 0.893532
0.259551 0.118852 0.880640
0.439361 0.109628 0.867274
0.626543 0.100652 0.853454
0.798231 0.091933 0.839202
0.933456 0.093921 0.815341
1.000000 0.095922 0.790495
0.000000 0.275018 0.905884
0.016796 0.263043 0.893485
0.116543 0.251208 0.880592
0.268221 0.239521 0.867224
0.448965 0.227989 0.853403
0.635909 0.216619 0.839149
0.806187 0.205420 0.824484
0.938775 0.207987 0.800000
1.000000 0.210564 0.774586
0.000000 0.419384 0.893439
0.020282 0.406345 0.880544
0.123245 0.393360 0.867174
0.276968 0.380436 0.853352
0.458585 0.367582 0.839097
0.645230 0.354803 0.824430
0.814039 0.342109 0.809373
0.943453 0.346074 0.785785
1.000000 0.352325 0.764735
0.000000 0.569785 0.880496
0.023962 0.556668 0.867125
0.130081 0.543518 0.853301
0.285788 0.530343 0.839044
0.466272 0.519496 0.827380
0.649882 0.509749 0.816909
0.815625 0.500000 0.806250
0.943453 0.506500 0.785785
1.000000 0.512999 0.764735
0.000000 0.715104 0.867251
0.026611 0.706101 0.857600
0.132800 0.697031 0.847733
0.286632 0.687899 0.837658
0.466272 0.678707 0.827380
0.649882 0.669459 0.816909
0.815625 0.660156 0.806250
0.943453 0.666364 0.785785
1.000000 0.672548 0.764735
0.000000 0.852693 0.867251
0.026611 0.845234 0.857600
0.132800 0.837658 0.847733
0.286632 0.829968 0.837658
0.466272 0.822168 0.827380
0.649882 0.814261 0.816909
0.815625 0.806250 0.806250
0.943453 0.811602 0.785785
1.000000 0.816909 0.764735
0.000000 0.957094 0.867251
0.026611 0.952023 0.857600
0.132800 0.946784 0.847733
0.286632 0.941381 0.837658
0.466272 0.935817 0.827380
0.649882 0.930095 0.816909
0.815625 0.924219 0.806250
0.943453 0.928154 0.785785
1.000000 0.932020 0.764735
0.000000 1.000000 0.867251
0.026611 1.000000 0.857600
0.132800 1.000000 0.847733
0.286632 1.000000 0.837658
0.466272 1.000000 0.827380
0.649882 1.000000 0.816909
0.815625 1.000000 0.806250
0.943453 1.000000 0.785785
1.000000 1.000000 0.764735
0.000000 0.054057 1.000000
0.005767 0.046967 1.000000
0.093279 0.040184 0.994225
0.236993 0.033716 0.987483
0.414044 0.027570 0.980050
0.601566 0.021755 0.971948
0.776695 0.016278 0.963198
0.916563 0.011145 0.953819
0.999101 0.012298 0.937411
0.000000 0.154508 1.000000
0.008523 0.144440 0.994201
0.099469 0.134592 0.987457
0.245447 0.124974 0.980022
0.423590 0.115592 0.971918
0.611033 0.106453 0.963165
0.784910 0.097567 0.953784
0.922357 0.088939 0.943796
1.000000 0.090905 0.926448
0.000000 0.282867 0.994178
0.011483 0.270806 0.987431
0.105804 0.258879 0.979994
0.253985 0.247095 0.971887
0.433160 0.235461 0.963132
0.620464 0.223985 0.953748
0.793031 0.212674 0.943758
0.927996 0.201536 0.933182
1.000000 0.204089 0.914929
0.000000 0.427878 0.987405
0.014645 0.414808 0.979965
0.112280 0.401788 0.971856
0.262604 0.388823 0.963098
0.442751 0.375923 0.953713
0.629856 0.363094 0.943721
0.801052 0.350344 0.933142
0.932422 0.339844 0.924219
1.000000 0.346074 0.908869
0.000000 0.578285 0.979937
0.018005 0.565192 0.971825
0.118895 0.552062 0.963065
0.271253 0.538968 0.953732
0.449449 0.529236 0.946784
0.633600 0.519496 0.939544
0.801870 0.509749 0.932020
0.932422 0.500000 0.924219
1.000000 0.506500 0.908869
0.000000 0.724039 0.972755
0.020075 0.715104 0.966725
0.120850 0.706101 0.960381
0.271253 0.697031 0.953732
0.449449 0.687899 0.946784
0.633600 0.678707 0.939544
0.801870 0.669459 0.932020
0.932422 0.660156 0.924219
1.000000 0.666364 0.908869
0.000000 0.860033 0.972755
0.020075 0.852693 0.966725
0.120850 0.845234 0.960381
0.271253 0.837658 0.953732
0.449449 0.829968 0.946784
0.633600 0.822168 0.939544
0.801870 0.814261 0.932020
0.932422 0.806250 0.924219
1.000000 0.811602 0.908869
0.000000 0.961996 0.972755
0.020075 0.957094 0.966725
0.120850 0.952023 0.960381
0.271253 0.946784 0.953732
0.449449 0.941381 0.946784
0.633600 0.935817 0.939544
0.801870 0.930095 0.932020
0.932422 0.924219 0.924219
1.000000 0.928154 0.908869
0.000000 1.000000 0.972755
0.020075 1.000000 0.966725
0.120850 1.000000 0.960381
0.271253 1.000000 0.953732
0.449449 1.000000 0.946784
0.633600 1.000000 0.939544
0.801870 1.000000 0.932020
0.932422 1.000000 0.924219
1.000000 1.000000 0.908869
0.000952 0.058824 1.000000
0.001682 0.051538 1.000000
0.083407 0.044554 1.000000
0.223264 0.037880 1.000000
0.398386 0.031525 1.000000
0.585908 0.025494 1.000000
0.762964 0.019796 1.000000
0.906690 0.014439 1.000000
0.994220 0.009430 1.000000
0.000000 0.161163 1.000000
0.004094 0.150955 1.000000
0.089353 0.140963 1.000000
0.231572 0.131195 1.000000
0.407885 0.121658 1.000000
0.595426 0.112361 1.000000
0.771331 0.103310 1.000000
0.912734 0.094513 1.000000
0.996770 0.085978 1.000000
0.000000 0.290770 1.000000
0.006717 0.278625 1.000000
0.095449 0.266610 1.000000
0.239969 0.254732 1.000000
0.417413 0.243000 1.000000
0.604914 0.231421 1.000000
0.779607 0.220002 1.000000
0.918627 0.208750 1.000000
0.999109 0.197675 1.000000
0.000000 0.436390 1.000000
0.009545 0.423292 1.000000
0.101691 0.410239 1.000000
0.248453 0.397237 1.000000
0.426967 0.384294 1.000000
0.614368 0.371418 1.000000
0.787789 0.358616 1.000000
0.922686 0.349197 1.000000
1.000000 0.339844 1.000000
0.000000 0.586765 1.000000
0.012577 0.573701 1.000000
0.108076 0.560594 1.000000
0.256104 0.548687 1.000000
0.432675 0.538968 1.000000
0.617187 0.529236 1.000000
0.787803 0.519496 1.000000
0.922686 0.509749 1.000000
1.000000 0.500000 1.000000
0.000000 0.732902 1.000000
0.014129 0.724039 1.000000
0.109309 0.715104 1.000000
0.256104 0.706101 1.000000
0.432675 0.697031 1.000000
0.617187 0.687899 1.000000
0.787803 0.678707 1.000000
0.922686 0.669459 1.000000
1.000000 0.660156 1.000000
0.000000 0.867251 1.000000
0.014129 0.860033 1.000000
0.109309 0.852693 1.000000
0.256104 0.845234 1.000000
0.432675 0.837658 1.000000
0.617187 0.829968 1.000000
0.787803 0.822168 1.000000
0.922686 0.814261 1.000000
1.000000 0.806250 1.000000
0.000000 0.966725 1.000000
0.014129 0.961996 1.000000
0.109309 0.957094 1.000000
0.256104 0.952023 1.000000
0.432675 0.946784 1.000000
0.617187 0.941381 1.000000
0.787803 0.935817 1.000000
0.922686 0.930095 1.000000
1.000000 0.924219 1.000000
0.000000 1.000000 1.000000
0.014129 1.000000 1.000000
0.109309 1.000000 1.000000
0.256104 1.000000 1.000000
0.432675 1.000000 1.000000
0.617187 1.000000 1.000000
0.787803 1.000000 1.000000
0.922686 1.000000 1.000000
1.000000 1.000000 1.000000
