Fotico/Resources/LUTs/tezza_lush.cube
TITLE "Tezza Lush"
LUT_3D_SIZE 9
DOMAIN_MIN 0.0 0.0 0.0
DOMAIN_MAX 1.0 1.0 1.0
0.137428 0.041166 0.000000
0.276033 0.040150 0.000000
0.414203 0.042102 0.000000
0.545139 0.044551 0.000000
0.678137 0.047229 0.000000
0.819154 0.050002 0.000000
0.952273 0.052462 0.000000
0.970632 0.053616 0.000000
0.973273 0.058218 0.000000
0.141446 0.170831 0.000000
0.305540 0.178277 0.000000
0.464092 0.183375 0.000000
0.606481 0.188145 0.000000
0.740924 0.191813 0.000000
0.875597 0.194690 0.000000
1.000000 0.197134 0.000000
1.000000 0.198164 0.000000
1.000000 0.201739 0.000000
0.150282 0.327601 0.000000
0.325738 0.323083 0.000000
0.495865 0.334834 0.000000
0.634631 0.334005 0.000000
0.765801 0.335051 0.000000
0.898552 0.336804 0.000000
1.000000 0.338675 0.000000
1.000000 0.339605 0.000000
1.000000 0.342673 0.000000
0.143970 0.476807 0.000000
0.333998 0.460188 0.000000
0.501712 0.470609 0.000000
0.656975 0.479615 0.000000
0.787515 0.474300 0.000000
0.919249 0.471720 0.000000
1.000000 0.470955 0.000000
1.000000 0.471337 0.000000
1.000000 0.473774 0.000000
0.133343 0.618449 0.000000
0.334327 0.599566 0.000000
0.499533 0.588367 0.000000
0.655159 0.608657 0.000000
0.803335 0.615553 0.000000
0.934356 0.607587 0.000000
1.000000 0.603271 0.000000
1.000000 0.599226 0.000000
1.000000 0.599322 0.000000
0.122115 0.756992 0.000000
0.330310 0.738675 0.000000
0.504568 0.715676 0.000000
0.646510 0.719111 0.000000
0.798564 0.742424 0.000000
0.943236 0.744500 0.000000
1.000000 0.735368 0.000000
1.000000 0.721668 0.000000
1.000000 0.720856 0.000000
0.121271 0.878541 0.000000
0.324926 0.865780 0.000000
0.506189 0.836921 0.000000
0.646351 0.829809 0.000000
0.780824 0.837852 0.000000
0.934968 0.860147 0.000000
1.000000 0.855573 0.000000
1.000000 0.828822 0.000000
1.000000 0.828383 0.000000
0.121021 0.976167 0.000000
0.318185 0.967246 0.000000
0.503066 0.935947 0.000000
0.644148 0.920249 0.000000
0.772056 0.919138 0.000000
0.911329 0.933414 0.000000
1.000000 0.955665 0.000000
1.000000 0.914724 0.000000
1.000000 0.915413 0.000000
0.151687 1.000000 0.000000
0.331165 1.000000 0.000000
0.497649 1.000000 0.000000
0.640506 1.000000 0.000000
0.766858 0.998187 0.000000
0.896612 1.000000 0.000000
1.000000 1.000000 0.000000
1.000000 0.993270 0.000000
1.000000 0.994127 0.000000
0.133530 0.045466 0.011259
0.272006 0.044880 0.012730
0.411547 0.046782 0.011736
0.544817 0.047125 0.009286
0.679572 0.046939 0.006100
0.822160 0.046351 0.002295
0.957113 0.045461 0.000000
0.966358 0.046495 0.000000
0.975188 0.060757 0.008957
0.139394 0.172698 0.025409
0.318826 0.185230 0.010782
0.492787 0.172088 0.000000
0.636584 0.168687 0.000000
0.773284 0.167663 0.000000
0.910918 0.166436 0.000000
1.000000 0.164824 0.000000
1.000000 0.192464 0.009980
1.000000 0.204285 0.022705
0.144729 0.332443 0.034851
0.324763 0.325982 0.041349
0.521633 0.351323 0.006496
0.685962 0.337545 0.000000
0.838276 0.321277 0.000000
0.980951 0.308036 0.000000
1.000000 0.298937 0.000000
1.000000 0.337291 0.023896
1.000000 0.345204 0.036661
0.140677 0.478560 0.041904
0.329071 0.471428 0.044541
0.496425 0.468091 0.050781
0.682930 0.498454 0.006808
0.840882 0.488356 0.000000
0.998566 0.472626 0.000000
1.000000 0.457719 0.000000
1.000000 0.472393 0.036534
1.000000 0.476342 0.046973
0.134215 0.616816 0.048387
0.322985 0.612423 0.044859
0.498357 0.590993 0.067494
0.649180 0.606017 0.053264
0.830247 0.636439 0.005831
0.997042 0.631095 0.000000
1.000000 0.616161 0.000000
1.000000 0.600987 0.048230
1.000000 0.601744 0.055862
0.127342 0.752744 0.053152
0.316105 0.750163 0.044029
0.502752 0.722875 0.070932
0.644169 0.719171 0.074093
0.791943 0.739356 0.052512
0.972372 0.767716 0.001483
1.000000 0.766389 0.000000
1.000000 0.723726 0.059695
1.000000 0.722882 0.064471
0.122095 0.878748 0.053985
0.309414 0.875249 0.042808
0.501215 0.846980 0.069297
0.644836 0.831766 0.082467
0.776458 0.835607 0.075146
0.927783 0.856664 0.047777
1.000000 0.880955 0.000000
1.000000 0.830900 0.069977
1.000000 0.829968 0.072079
0.120984 0.976891 0.057326
0.302304 0.974905 0.041953
0.495132 0.946634 0.066518
0.642175 0.923996 0.086059
0.769665 0.919367 0.086334
0.905645 0.930455 0.068854
1.000000 0.952869 0.038930
1.000000 0.916851 0.078400
1.000000 0.916779 0.078277
0.152594 1.000000 0.085652
0.327151 1.000000 0.079057
0.493861 1.000000 0.077808
0.637425 1.000000 0.086299
0.764824 0.999320 0.092049
0.892400 1.000000 0.084703
1.000000 1.000000 0.073634
1.000000 0.994303 0.085409
1.000000 0.995177 0.083898
0.136321 0.051101 0.085404
0.271923 0.047202 0.091256
0.413218 0.049873 0.092838
0.547334 0.052847 0.095176
0.681963 0.055861 0.097533
0.823262 0.058849 0.099599
0.955647 0.061150 0.100819
0.980401 0.061499 0.099834
0.981462 0.063598 0.100122
0.131670 0.183790 0.122178
0.302291 0.182447 0.114123
0.464445 0.186779 0.113973
0.609858 0.188003 0.111425
0.746801 0.187890 0.108069
0.884720 0.186992 0.104113
1.000000 0.185929 0.100279
1.000000 0.191001 0.103520
1.000000 0.207102 0.117926
0.148462 0.331191 0.136575
0.318989 0.336859 0.128686
0.509076 0.342565 0.112881
0.670048 0.326317 0.090299
0.807760 0.316170 0.083252
0.943468 0.311158 0.080128
1.000000 0.307996 0.077399
1.000000 0.336576 0.119515
1.000000 0.347904 0.133787
0.154825 0.465237 0.151423
0.315378 0.480599 0.135433
0.493094 0.467175 0.151681
0.673248 0.491943 0.112811
0.827833 0.478144 0.088697
0.984585 0.460970 0.063300
1.000000 0.446535 0.048736
1.000000 0.472860 0.132982
1.000000 0.479010 0.144549
0.150955 0.600738 0.163664
0.309762 0.617287 0.142657
0.497048 0.597392 0.161859
0.643447 0.603261 0.156612
0.821794 0.631101 0.111293
0.982166 0.620822 0.081551
1.000000 0.606301 0.056766
1.000000 0.602275 0.145111
1.000000 0.604155 0.153839
0.143991 0.737182 0.171136
0.304814 0.752582 0.145555
0.496875 0.734530 0.160305
0.642842 0.721251 0.172812
0.785459 0.736341 0.156074
0.964019 0.762652 0.106295
1.000000 0.757556 0.071912
1.000000 0.725332 0.156330
1.000000 0.724732 0.162197
0.137797 0.864081 0.173783
0.299368 0.876016 0.146590
0.490654 0.859268 0.157053
0.643105 0.835741 0.178342
0.772783 0.833974 0.176465
0.920077 0.852656 0.151010
1.000000 0.875891 0.101719
1.000000 0.832642 0.165796
1.000000 0.831348 0.168994
0.132066 0.966569 0.174801
0.293273 0.974487 0.146744
0.481750 0.957880 0.153823
0.638612 0.930825 0.177508
0.767606 0.920615 0.183432
0.899917 0.927169 0.170518
1.000000 0.948458 0.141279
1.000000 0.918749 0.173427
1.000000 0.917949 0.174395
0.153474 1.000000 0.189986
0.324635 1.000000 0.180739
0.489908 1.000000 0.177273
0.632008 1.000000 0.175710
0.762730 1.000000 0.187769
0.888701 0.998783 0.183670
1.000000 1.000000 0.171216
1.000000 0.995615 0.180275
1.000000 0.996107 0.179174
0.142150 0.059882 0.158372
0.269405 0.056774 0.165355
0.415689 0.052499 0.176292
0.551661 0.055639 0.181713
0.687160 0.058715 0.186837
0.828483 0.061703 0.191296
0.959999 0.064220 0.194416
0.986788 0.065462 0.194439
0.987178 0.066406 0.193858
0.161890 0.175413 0.177789
0.306713 0.192226 0.200372
0.463873 0.193657 0.210143
0.605704 0.198681 0.213202
0.738446 0.202145 0.214628
0.872857 0.205176 0.215507
0.997884 0.206860 0.215364
1.000000 0.206648 0.213733
1.000000 0.209885 0.214880
0.130511 0.354158 0.254375
0.315547 0.341318 0.237960
0.492412 0.332862 0.224281
0.635164 0.330970 0.221677
0.771041 0.329665 0.217841
0.908481 0.328212 0.213681
1.000000 0.326714 0.209673
1.000000 0.334440 0.216473
1.000000 0.350563 0.232307
0.139615 0.483196 0.257758
0.326910 0.470139 0.249889
0.492003 0.470897 0.249388
0.660720 0.482988 0.222602
0.814728 0.466608 0.199095
0.958082 0.453146 0.187104
1.000000 0.445835 0.181216
1.000000 0.472335 0.230609
1.000000 0.481644 0.243327
0.150223 0.602735 0.267582
0.322935 0.605050 0.261949
0.488845 0.609959 0.251199
0.638721 0.600878 0.260575
0.812427 0.624555 0.218644
0.969119 0.610614 0.192565
1.000000 0.594703 0.166578
1.000000 0.602866 0.243012
1.000000 0.606507 0.252833
0.154487 0.727864 0.278350
0.316989 0.741667 0.266291
0.482938 0.746317 0.250304
0.641628 0.724520 0.271133
0.779204 0.733255 0.260539
0.955301 0.756939 0.212405
1.000000 0.747122 0.184208
1.000000 0.726487 0.253766
1.000000 0.726501 0.260712
0.153880 0.849023 0.285442
0.310305 0.866030 0.267732
0.474604 0.868107 0.248970
0.639105 0.843951 0.270230
0.770319 0.834182 0.276391
0.912611 0.848763 0.254832
1.000000 0.870406 0.206102
1.000000 0.834156 0.262262
1.000000 0.832686 0.266557
0.150050 0.949609 0.289113
0.303286 0.964983 0.267325
0.465347 0.964270 0.246962
0.630921 0.940927 0.265823
0.765567 0.922163 0.280702
0.894827 0.924178 0.272473
1.000000 0.943870 0.244149
1.000000 0.920509 0.269013
1.000000 0.919056 0.271083
0.154338 1.000000 0.293791
0.325402 1.000000 0.285259
0.485976 1.000000 0.277245
0.628248 1.000000 0.275215
0.760061 1.000000 0.280862
0.885863 0.998358 0.281563
1.000000 1.000000 0.269338
1.000000 0.997482 0.274967
1.000000 0.997015 0.274960
0.149315 0.069536 0.234212
0.275533 0.073501 0.238413
0.418519 0.055231 0.263587
0.556083 0.058507 0.272248
0.692237 0.061623 0.280051
0.833384 0.064589 0.286670
0.963997 0.067043 0.291198
0.991996 0.068279 0.291488
0.992335 0.069223 0.290918
0.188719 0.192838 0.248115
0.312232 0.199131 0.293128
0.464968 0.197799 0.306227
0.606677 0.201815 0.310909
0.739115 0.205088 0.313057
0.873440 0.208043 0.314612
0.997626 0.210520 0.315612
1.000000 0.211760 0.315253
1.000000 0.212683 0.314599
0.145159 0.335024 0.337305
0.338685 0.333294 0.315193
0.482318 0.344824 0.328374
0.623615 0.343535 0.333797
0.755769 0.346422 0.334399
0.889280 0.348995 0.334643
1.000000 0.349954 0.333710
1.000000 0.349332 0.331653
1.000000 0.353266 0.333180
0.120452 0.505244 0.384391
0.309317 0.490698 0.366662
0.489427 0.474325 0.351626
0.646045 0.471894 0.336687
0.781291 0.465227 0.332406
0.918425 0.462826 0.327122
1.000000 0.460692 0.321502
1.000000 0.470287 0.330598
1.000000 0.484289 0.344514
0.126384 0.628587 0.384617
0.320465 0.608885 0.370283
0.486870 0.608019 0.361594
0.636694 0.601588 0.363874
0.800332 0.615619 0.330957
0.957198 0.599063 0.304721
1.000000 0.584658 0.289904
1.000000 0.602422 0.343174
1.000000 0.608839 0.354087
0.139825 0.744218 0.386395
0.329366 0.730533 0.378029
0.481196 0.743267 0.364120
0.637167 0.734300 0.365002
0.773450 0.730155 0.367212
0.945598 0.750009 0.321805
1.000000 0.736584 0.297890
1.000000 0.727018 0.353276
1.000000 0.728228 0.361286
0.151080 0.852780 0.391194
0.327784 0.849684 0.384292
0.473422 0.864325 0.364029
0.627765 0.855710 0.360243
0.768361 0.835752 0.376770
0.905475 0.845111 0.360460
1.000000 0.864200 0.313123
1.000000 0.835379 0.360680
1.000000 0.834014 0.366075
0.155034 0.945176 0.395762
0.321600 0.947782 0.386130
0.464691 0.960095 0.362093
0.616217 0.951682 0.355428
0.762700 0.927196 0.375959
0.890710 0.922016 0.375445
1.000000 0.939160 0.349050
1.000000 0.922138 0.366459
1.000000 0.920130 0.369656
0.155201 1.000000 0.398560
0.326171 1.000000 0.390506
0.485279 1.000000 0.382051
0.624557 1.000000 0.376652
0.755385 1.000000 0.374182
0.883512 0.999255 0.379748
1.000000 1.000000 0.369380
1.000000 0.999383 0.371473
1.000000 0.997930 0.372594
0.157825 0.080310 0.317373
0.284447 0.080148 0.329149
0.418983 0.072670 0.348462
0.560701 0.061574 0.370755
0.697317 0.064707 0.381151
0.838068 0.067629 0.389694
0.967546 0.069996 0.395306
0.996745 0.071218 0.395797
0.997027 0.072161 0.395229
0.208424 0.213995 0.335844
0.321577 0.211056 0.390783
0.465800 0.222012 0.393735
0.607309 0.205010 0.415631
0.739697 0.208171 0.418520
0.873944 0.211043 0.420699
0.998016 0.213455 0.422167
1.000000 0.214695 0.421923
1.000000 0.215618 0.421269
0.185289 0.326933 0.400375
0.366550 0.350785 0.395119
0.487288 0.351526 0.431949
0.623113 0.346598 0.440793
0.755248 0.349386 0.441746
0.888665 0.351894 0.442275
1.000000 0.353965 0.442424
1.000000 0.355112 0.441874
1.000000 0.356148 0.440547
0.126307 0.490243 0.489047
0.320246 0.476712 0.467029
0.505230 0.474488 0.444163
0.629483 0.479203 0.458451
0.762152 0.480369 0.458894
0.895928 0.482701 0.457308
1.000000 0.484091 0.455217
1.000000 0.483544 0.452060
1.000000 0.487058 0.452392
0.120618 0.635692 0.510403
0.297921 0.633855 0.503078
0.478905 0.618045 0.483139
0.633139 0.606961 0.470824
0.785721 0.603919 0.452278
0.925289 0.594115 0.443402
1.000000 0.590495 0.438343
1.000000 0.600086 0.449850
1.000000 0.611250 0.461873
0.121182 0.764584 0.512216
0.309792 0.751717 0.496746
0.492167 0.733545 0.484411
0.626613 0.740305 0.472467
0.769692 0.728819 0.478614
0.932771 0.740456 0.441072
1.000000 0.724640 0.416265
1.000000 0.726468 0.459101
1.000000 0.729990 0.468162
0.127105 0.877391 0.511423
0.322265 0.855757 0.497152
0.491052 0.847829 0.489409
0.616761 0.858284 0.470652
0.764684 0.842236 0.477988
0.898386 0.841384 0.472566
1.000000 0.856411 0.428042
1.000000 0.836129 0.465245
1.000000 0.835398 0.471769
0.138013 0.961624 0.509790
0.326585 0.943062 0.499338
0.482784 0.943054 0.489522
0.606287 0.952270 0.467370
0.753840 0.937890 0.471170
0.887870 0.922103 0.482000
1.000000 0.934211 0.460454
1.000000 0.923629 0.469906
1.000000 0.921225 0.474292
0.156102 1.000000 0.508671
0.326977 1.000000 0.500862
0.485933 1.000000 0.493045
0.622360 1.000000 0.485703
0.751799 1.000000 0.481353
0.880953 1.000000 0.482636
0.996797 1.000000 0.475699
1.000000 1.000000 0.474837
1.000000 0.998902 0.476238
0.166689 0.091119 0.401667
0.289583 0.082086 0.423316
0.429240 0.095044 0.433036
0.562522 0.071232 0.464284
0.701904 0.067705 0.481545
0.842075 0.070562 0.491544
0.970282 0.072826 0.497773
1.000000 0.074027 0.498358
1.000000 0.074969 0.497787
0.223654 0.233156 0.427332
0.331842 0.223799 0.487037
0.474968 0.234572 0.489106
0.602375 0.220326 0.507854
0.740142 0.211141 0.522112
0.874318 0.213935 0.524816
0.998285 0.216286 0.526676
1.000000 0.217524 0.526537
1.000000 0.218447 0.525885
0.219024 0.338468 0.470793
0.382549 0.369401 0.484910
0.491223 0.358502 0.533134
0.618791 0.367569 0.529062
0.754675 0.352234 0.546899
0.888021 0.354657 0.547639
1.000000 0.356655 0.547919
1.000000 0.357828 0.547227
1.000000 0.358917 0.545617
0.163246 0.467775 0.554136
0.360628 0.469653 0.530615
0.528000 0.492154 0.527048
0.632674 0.489915 0.556515
0.761381 0.483138 0.564251
0.895157 0.485429 0.562768
1.000000 0.487390 0.561183
1.000000 0.488645 0.559509
1.000000 0.489719 0.557877
0.120636 0.628009 0.619255
0.302061 0.622274 0.610035
0.485672 0.609095 0.587215
0.646896 0.605956 0.565358
0.766899 0.608907 0.575587
0.899703 0.610434 0.573219
1.000000 0.611318 0.570554
1.000000 0.610799 0.567419
1.000000 0.613536 0.567109
0.121214 0.765846 0.629869
0.288823 0.773969 0.629522
0.469086 0.757447 0.608613
0.626652 0.741025 0.590961
0.763884 0.735291 0.579124
0.919030 0.729346 0.559060
1.000000 0.716303 0.546533
1.000000 0.723930 0.562414
1.000000 0.731645 0.572340
0.121152 0.883955 0.630101
0.296612 0.880883 0.619090
0.478852 0.859399 0.600799
0.630892 0.844974 0.591267
0.750981 0.850728 0.574892
0.892519 0.837992 0.581599
1.000000 0.846722 0.543043
1.000000 0.835868 0.567221
1.000000 0.836729 0.574761
0.120498 0.978148 0.628288
0.305644 0.962179 0.612268
0.484407 0.941137 0.599093
0.622695 0.936752 0.590835
0.738928 0.943864 0.570427
0.885381 0.924439 0.583116
1.000000 0.929740 0.569004
1.000000 0.924694 0.570682
1.000000 0.922256 0.576201
0.156967 1.000000 0.614862
0.327755 1.000000 0.607045
0.486568 1.000000 0.599501
0.622782 1.000000 0.592711
0.749261 1.000000 0.586075
0.877538 1.000000 0.582244
0.992700 0.998768 0.580443
1.000000 0.999462 0.578270
1.000000 0.999473 0.577230
0.175068 0.101026 0.478555
0.293564 0.084801 0.506650
0.441481 0.108479 0.514206
0.565581 0.092043 0.540086
0.704737 0.071744 0.569268
0.845091 0.073090 0.581243
0.972086 0.075252 0.587648
1.000000 0.076449 0.588380
1.000000 0.077391 0.587816
0.235227 0.248600 0.509527
0.340884 0.235066 0.571641
0.480335 0.237933 0.578979
0.603268 0.242095 0.582002
0.737904 0.217397 0.609628
0.874555 0.216431 0.616053
0.998432 0.218729 0.618205
1.000000 0.219965 0.618153
1.000000 0.220888 0.617501
0.242362 0.354248 0.539660
0.393580 0.384070 0.566304
0.496633 0.367184 0.619507
0.625053 0.380646 0.611421
0.749533 0.362441 0.631593
0.887407 0.357036 0.639784
1.000000 0.358972 0.640145
1.000000 0.360216 0.639087
1.000000 0.361306 0.637470
0.198629 0.463853 0.609300
0.389648 0.480372 0.593739
0.539426 0.506904 0.607706
0.634742 0.493683 0.647580
0.755947 0.498323 0.643992
0.894460 0.487784 0.654923
1.000000 0.489690 0.653350
1.000000 0.490933 0.651667
1.000000 0.492005 0.650025
0.135703 0.612484 0.694647
0.334794 0.602118 0.667916
0.521337 0.602398 0.642844
0.666604 0.620826 0.637316
0.767641 0.621072 0.657843
0.898575 0.612523 0.665282
1.000000 0.613456 0.662544
1.000000 0.614444 0.660578
1.000000 0.615477 0.658907
0.121226 0.761818 0.726336
0.285464 0.770857 0.733249
0.464890 0.756296 0.712934
0.620638 0.743134 0.694074
0.768780 0.731845 0.673193
0.896688 0.732215 0.671208
1.000000 0.730840 0.666556
1.000000 0.729223 0.662308
1.000000 0.733043 0.663093
0.121109 0.884550 0.731186
0.278944 0.897762 0.734757
0.457331 0.879198 0.712246
0.612195 0.861682 0.692851
0.757787 0.844015 0.678292
0.889945 0.838568 0.672461
1.000000 0.837052 0.644751
1.000000 0.833923 0.656202
1.000000 0.837879 0.664470
0.120391 0.978179 0.728213
0.283199 0.982362 0.721531
0.462596 0.960339 0.700379
0.617524 0.940822 0.685612
0.751317 0.932024 0.677265
0.877124 0.932863 0.663884
1.000000 0.926281 0.663168
1.000000 0.924983 0.658478
1.000000 0.923134 0.664925
0.157713 1.000000 0.706492
0.328429 1.000000 0.698481
0.487108 1.000000 0.690883
0.623144 1.000000 0.684175
0.749467 1.000000 0.678004
0.875805 1.000000 0.672735
0.990494 0.998917 0.668904
1.000000 0.998491 0.666889
1.000000 0.998508 0.665310
0.183520 0.110882 0.554961
0.298015 0.088903 0.587272
0.451932 0.116260 0.596565
0.573765 0.112157 0.614595
0.703727 0.086988 0.645885
0.847537 0.075474 0.667501
0.973572 0.077550 0.673948
1.000000 0.078750 0.674856
1.000000 0.079693 0.674297
0.245202 0.262343 0.589105
0.349285 0.245707 0.652612
0.483155 0.239281 0.666694
0.609848 0.257025 0.658609
0.732119 0.236753 0.681815
0.874647 0.218859 0.703461
0.998498 0.221043 0.705911
1.000000 0.222276 0.705938
1.000000 0.223199 0.705286
0.260512 0.370588 0.610103
0.402923 0.397034 0.645363
0.502761 0.376369 0.701513
0.630340 0.384958 0.697803
0.746258 0.383577 0.702093
0.886102 0.360067 0.727221
1.000000 0.361164 0.728392
1.000000 0.362486 0.727000
1.000000 0.363576 0.725377
0.229148 0.469962 0.666370
0.410995 0.495292 0.660771
0.548434 0.519520 0.686684
0.638548 0.500501 0.731385
0.759831 0.513860 0.719392
0.892140 0.492066 0.741059
1.000000 0.491861 0.741482
1.000000 0.493090 0.739784
1.000000 0.494161 0.738133
0.169654 0.597656 0.747294
0.369324 0.597787 0.720655
0.548763 0.612545 0.703209
0.676999 0.634364 0.714277
0.769856 0.622836 0.746202
0.894584 0.618689 0.748951
1.000000 0.615299 0.750283
1.000000 0.616254 0.748248
1.000000 0.617285 0.746564
0.121230 0.755264 0.813355
0.307213 0.747123 0.798660
0.492578 0.734648 0.772535
0.653378 0.729715 0.748267
0.791221 0.741097 0.735505
0.893049 0.740755 0.750411
1.000000 0.732748 0.753669
1.000000 0.733372 0.751363
1.000000 0.734345 0.749658
0.121075 0.882569 0.824499
0.272539 0.900064 0.839169
0.448970 0.883787 0.817701
0.600665 0.869535 0.798883
0.741961 0.856114 0.781143
0.883551 0.842516 0.763108
1.000000 0.835957 0.752509
1.000000 0.833657 0.747200
1.000000 0.838972 0.750040
0.120285 0.978170 0.822989
0.267732 0.995984 0.830835
0.443574 0.976837 0.807642
0.595803 0.959547 0.787606
0.739117 0.942049 0.769798
0.878641 0.927602 0.758093
0.996577 0.923226 0.752707
1.000000 0.923791 0.742345
1.000000 0.923958 0.749517
0.158417 1.000000 0.793156
0.329070 1.000000 0.784804
0.487611 1.000000 0.776904
0.623488 1.000000 0.769948
0.749676 1.000000 0.763691
0.874726 1.000000 0.758024
0.988691 0.998034 0.753007
1.000000 0.997588 0.750935
1.000000 0.997605 0.749351
