Fotico/Resources/LUTs/tezza_mood.cube
TITLE "Tezza Mood"
LUT_3D_SIZE 33
DOMAIN_MIN 0.0 0.0 0.0
DOMAIN_MAX 1.0 1.0 1.0
0.016582 0.000000 0.000000
0.016582 0.000000 0.000000
0.019677 0.000000 0.000000
0.029308 0.000000 0.000000
0.041733 0.000000 0.000000
0.055712 0.000000 0.000000
0.070557 0.000000 0.000000
0.085922 0.000000 0.000000
0.102427 0.000000 0.000000
0.120166 0.000000 0.000000
0.139189 0.000000 0.000000
0.159534 0.000000 0.000000
0.181183 0.000000 0.000000
0.204027 0.000000 0.000000
0.228535 0.000000 0.000000
0.254713 0.000000 0.000000
0.281479 0.000000 0.000000
0.309570 0.000000 0.000000
0.339032 0.000000 0.000000
0.368695 0.000000 0.000000
0.397275 0.000000 0.000000
0.423389 0.000000 0.000000
0.446804 0.000000 0.000000
0.468210 0.000000 0.000000
0.488185 0.000000 0.000000
0.507355 0.000000 0.000000
0.526124 0.000000 0.000000
0.543011 0.000000 0.000000
0.558914 0.000000 0.000000
0.575418 0.000000 0.000000
0.592562 0.000000 0.000000
0.609930 0.000000 0.000000
0.627525 0.000000 0.000000
0.016582 0.000000 0.000000
0.016582 0.000000 0.000000
0.019767 0.000000 0.000000
0.029393 0.000000 0.000000
0.041815 0.000000 0.000000
0.055792 0.000000 0.000000
0.070636 0.000000 0.000000
0.086001 0.000000 0.000000
0.102507 0.000000 0.000000
0.120249 0.000000 0.000000
0.139276 0.000000 0.000000
0.159626 0.000000 0.000000
0.181283 0.000000 0.000000
0.204135 0.000000 0.000000
0.228652 0.000000 0.000000
0.254834 0.000000 0.000000
0.281603 0.000000 0.000000
0.309697 0.000000 0.000000
0.339161 0.000000 0.000000
0.368828 0.000000 0.000000
0.397411 0.000000 0.000000
0.423527 0.000000 0.000000
0.446945 0.000000 0.000000
0.468354 0.000000 0.000000
0.488331 0.000000 0.000000
0.507503 0.000000 0.000000
0.526274 0.000000 0.000000
0.543163 0.000000 0.000000
0.559068 0.000000 0.000000
0.575574 0.000000 0.000000
0.592720 0.000000 0.000000
0.610090 0.000000 0.000000
0.627687 0.000000 0.000000
0.018075 0.001230 0.000000
0.018078 0.001233 0.000000
0.018989 0.001881 0.000000
0.029153 0.002818 0.000000
0.041501 0.002796 0.000000
0.055457 0.002778 0.000000
0.070353 0.002771 0.000000
0.085856 0.002775 0.000000
0.102602 0.002792 0.000000
0.120703 0.002826 0.000000
0.140213 0.002877 0.000000
0.161172 0.002946 0.000000
0.183555 0.003032 0.000000
0.207236 0.003133 0.000000
0.232608 0.003248 0.000000
0.258895 0.003363 0.000000
0.285752 0.003474 0.000000
0.313973 0.003584 0.000000
0.343602 0.003696 0.000000
0.373461 0.003804 0.000000
0.402251 0.003905 0.000000
0.428574 0.003996 0.000000
0.452189 0.004075 0.000000
0.473786 0.004147 0.000000
0.493947 0.004214 0.000000
0.513300 0.004277 0.000000
0.532254 0.004339 0.000000
0.549311 0.004393 0.000000
0.565378 0.004445 0.000000
0.582056 0.004498 0.000000
0.599383 0.004553 0.000000
0.616940 0.004608 0.000000
0.634729 0.004664 0.000000
0.021182 0.005991 0.000000
0.021184 0.005994 0.000000
0.021024 0.007298 0.000000
0.025232 0.007959 0.000000
0.040802 0.010815 0.000000
0.054831 0.010770 0.000000
0.070024 0.010764 0.000000
0.086074 0.010806 0.000000
0.103667 0.010903 0.000000
0.122943 0.011063 0.000000
0.143967 0.011291 0.000000
0.166770 0.011584 0.000000
0.191296 0.011940 0.000000
0.216796 0.012317 0.000000
0.242666 0.012668 0.000000
0.269164 0.013002 0.000000
0.296310 0.013325 0.000000
0.324900 0.013647 0.000000
0.354978 0.013970 0.000000
0.385343 0.014285 0.000000
0.414663 0.014579 0.000000
0.441502 0.014842 0.000000
0.465603 0.015073 0.000000
0.487660 0.015281 0.000000
0.508263 0.015473 0.000000
0.528051 0.015655 0.000000
0.547440 0.015832 0.000000
0.564895 0.015990 0.000000
0.581343 0.016137 0.000000
0.598420 0.016289 0.000000
0.616169 0.016446 0.000000
0.634157 0.016604 0.000000
0.652388 0.016763 0.000000
0.025149 0.011872 0.000000
0.025151 0.011875 0.000000
0.025072 0.012683 0.000000
0.027960 0.018784 0.000000
0.034390 0.016363 0.000000
0.055067 0.021110 0.000000
0.070938 0.021281 0.000000
0.087997 0.021551 0.000000
0.107001 0.021942 0.000000
0.128126 0.022464 0.000000
0.151444 0.023123 0.000000
0.176553 0.023856 0.000000
0.202284 0.024539 0.000000
0.228162 0.025171 0.000000
0.254465 0.025773 0.000000
0.281466 0.026356 0.000000
0.309182 0.026926 0.000000
0.338425 0.027503 0.000000
0.369241 0.028090 0.000000
0.400396 0.028665 0.000000
0.430518 0.029206 0.000000
0.458120 0.029692 0.000000
0.482925 0.030121 0.000000
0.505642 0.030508 0.000000
0.526873 0.030866 0.000000
0.547275 0.031206 0.000000
0.567273 0.031537 0.000000
0.585283 0.031832 0.000000
0.602258 0.032108 0.000000
0.619889 0.032393 0.000000
0.638218 0.032687 0.000000
0.656798 0.032984 0.000000
0.675634 0.033282 0.000000
0.029871 0.018578 0.003261
0.029873 0.018582 0.003263
0.029946 0.019187 0.002653
0.030356 0.024938 0.000000
0.038394 0.027758 0.000000
0.045822 0.026362 0.000000
0.072957 0.034380 0.000000
0.092555 0.035418 0.000000
0.113651 0.036417 0.000000
0.136874 0.037498 0.000000
0.161554 0.038536 0.000000
0.187298 0.039530 0.000000
0.213678 0.040478 0.000000
0.240243 0.041379 0.000000
0.267281 0.042251 0.000000
0.295073 0.043112 0.000000
0.323637 0.043965 0.000000
0.353813 0.044838 0.000000
0.385647 0.045735 0.000000
0.417867 0.046619 0.000000
0.449047 0.047458 0.000000
0.477641 0.048213 0.000000
0.503353 0.048883 0.000000
0.526914 0.049489 0.000000
0.548943 0.050050 0.000000
0.570118 0.050585 0.000000
0.590882 0.051105 0.000000
0.609587 0.051570 0.000000
0.627221 0.052005 0.000000
0.645540 0.052455 0.000000
0.664588 0.052919 0.000000
0.683939 0.053390 0.000000
0.703665 0.053873 0.000000
0.035607 0.026299 0.008953
0.035610 0.026302 0.008954
0.035833 0.026831 0.008477
0.035639 0.031723 0.003823
0.042427 0.042485 0.000000
0.049191 0.036328 0.000000
0.060153 0.038659 0.002356
0.093692 0.051147 0.000000
0.121942 0.054698 0.000000
0.146016 0.056007 0.000000
0.171576 0.057304 0.000000
0.198233 0.058581 0.000000
0.225558 0.059827 0.000000
0.253091 0.061031 0.000000
0.281134 0.062215 0.000000
0.309982 0.063397 0.000000
0.339656 0.064581 0.000000
0.371029 0.065804 0.000000
0.404153 0.067067 0.000000
0.437703 0.068321 0.000000
0.470192 0.069515 0.000000
0.500002 0.070594 0.000000
0.526820 0.071553 0.000000
0.551404 0.072423 0.000000
0.574395 0.073229 0.000000
0.596502 0.073998 0.000000
0.618245 0.074754 0.000000
0.637941 0.075443 0.000000
0.656586 0.076096 0.000000
0.676017 0.076777 0.000000
0.696273 0.077485 0.000000
0.716849 0.078202 0.000000
0.737733 0.078925 0.000000
0.042830 0.035536 0.015529
0.042833 0.035540 0.015531
0.043211 0.036070 0.015145
0.043090 0.040469 0.011351
0.047179 0.051981 0.002001
0.061302 0.062112 0.000000
0.062852 0.048167 0.006080
0.078239 0.054263 0.007605
0.116646 0.070477 0.000000
0.155167 0.078007 0.000000
0.181852 0.079619 0.000000
0.209676 0.081235 0.000000
0.238199 0.082835 0.000000
0.266948 0.084402 0.000000
0.296244 0.085958 0.000000
0.326396 0.087523 0.000000
0.357427 0.089102 0.000000
0.390253 0.090741 0.000000
0.424930 0.092442 0.000000
0.460070 0.094138 0.000000
0.494114 0.095756 0.000000
0.525367 0.097223 0.000000
0.553628 0.098554 0.000000
0.579690 0.099786 0.000000
0.604164 0.100943 0.000000
0.627759 0.102054 0.000000
0.650936 0.103139 0.000000
0.671832 0.104109 0.000000
0.691532 0.105017 0.000000
0.711983 0.105950 0.000000
0.733220 0.106908 0.000000
0.754710 0.107867 0.000000
0.776443 0.108824 0.000000
0.052361 0.047264 0.023644
0.052365 0.047268 0.023646
0.052927 0.047864 0.023340
0.053110 0.052095 0.020182
0.055674 0.063432 0.011750
0.067168 0.080491 0.000000
0.081729 0.081255 0.000000
0.080577 0.064443 0.012711
0.098895 0.072595 0.014293
0.141034 0.092152 0.003332
0.188005 0.104699 0.000000
0.222137 0.108286 0.000000
0.252114 0.110326 0.000000
0.282336 0.112338 0.000000
0.313142 0.114350 0.000000
0.344859 0.116384 0.000000
0.377514 0.118444 0.000000
0.412070 0.120589 0.000000
0.448608 0.122828 0.000000
0.485887 0.125126 0.000000
0.522228 0.127369 0.000000
0.555701 0.129420 0.000000
0.585863 0.131248 0.000000
0.613512 0.132902 0.000000
0.639339 0.134424 0.000000
0.664122 0.135863 0.000000
0.688360 0.137247 0.000000
0.710124 0.138471 0.000000
0.730572 0.139603 0.000000
0.751728 0.140756 0.000000
0.773622 0.141930 0.000000
0.795704 0.143092 0.000000
0.817962 0.144243 0.000000
0.064299 0.061778 0.033595
0.064303 0.061783 0.033597
0.065014 0.062428 0.033339
0.065207 0.066314 0.030504
0.066494 0.076751 0.022800
0.074178 0.094069 0.010023
0.091880 0.110656 0.000000
0.103384 0.101799 0.005928
0.100731 0.083291 0.020337
0.121717 0.093287 0.022242
0.167169 0.116133 0.011837
0.219595 0.133534 0.000000
0.267403 0.142487 0.000000
0.299330 0.145039 0.000000
0.331881 0.147599 0.000000
0.365444 0.150212 0.000000
0.400213 0.152940 0.000000
0.437195 0.155840 0.000000
0.476395 0.158881 0.000000
0.516160 0.161911 0.000000
0.554633 0.164775 0.000000
0.589831 0.167329 0.000000
0.621363 0.169560 0.000000
0.650120 0.171545 0.000000
0.676863 0.173349 0.000000
0.702418 0.175032 0.000000
0.727314 0.176635 0.000000
0.749591 0.178038 0.000000
0.770453 0.179324 0.000000
0.791973 0.180623 0.000000
0.814175 0.181934 0.000000
0.836497 0.183221 0.000000
0.858928 0.184484 0.000000
0.077272 0.077823 0.044740
0.077276 0.077828 0.044742
0.078130 0.078522 0.044524
0.078385 0.082138 0.041934
0.079030 0.091855 0.034884
0.084162 0.108746 0.022700
0.098703 0.130632 0.007117
0.119275 0.140836 0.000729
0.126787 0.123749 0.014527
0.123314 0.104536 0.028984
0.146898 0.116393 0.031339
0.195106 0.142242 0.021950
0.251826 0.164429 0.005706
0.308390 0.179325 0.000000
0.353111 0.186104 0.000000
0.389115 0.189556 0.000000
0.426200 0.193040 0.000000
0.465382 0.196624 0.000000
0.506628 0.200279 0.000000
0.548180 0.203830 0.000000
0.588118 0.207115 0.000000
0.624440 0.209991 0.000000
0.656808 0.212465 0.000000
0.686193 0.214637 0.000000
0.713407 0.216587 0.000000
0.739314 0.218387 0.000000
0.764462 0.220083 0.000000
0.786889 0.221553 0.000000
0.807830 0.222888 0.000000
0.829366 0.224224 0.000000
0.851519 0.225560 0.000000
0.873725 0.226860 0.000000
0.895970 0.228121 0.000000
0.091137 0.095160 0.056882
0.091185 0.095200 0.056916
0.092153 0.095927 0.056709
0.092519 0.099366 0.054319
0.092879 0.108547 0.047827
0.096402 0.124901 0.036354
0.107569 0.147485 0.020747
0.128706 0.170587 0.005270
0.149233 0.171158 0.006508
0.151826 0.146943 0.024870
0.148276 0.128032 0.038589
0.174507 0.141888 0.041479
0.224857 0.170321 0.033408
0.285051 0.197149 0.017989
0.348135 0.217949 0.000000
0.409903 0.232294 0.000000
0.452917 0.237581 0.000000
0.493662 0.241570 0.000000
0.536283 0.245554 0.000000
0.578948 0.249349 0.000000
0.619708 0.252796 0.000000
0.656571 0.255764 0.000000
0.689261 0.258277 0.000000
0.718809 0.260454 0.000000
0.746067 0.262383 0.000000
0.771919 0.264142 0.000000
0.796926 0.265777 0.000000
0.819155 0.267178 0.000000
0.839848 0.268435 0.000000
0.861068 0.269679 0.000000
0.882836 0.270909 0.000000
0.904713 0.272125 0.000000
0.926739 0.273342 0.000000
0.105745 0.113550 0.069825
0.106058 0.113785 0.070031
0.106932 0.114400 0.069701
0.107428 0.117731 0.067473
0.107705 0.126534 0.061446
0.110247 0.142415 0.050657
0.118974 0.165149 0.035459
0.137238 0.192413 0.017625
0.163665 0.211561 0.006145
0.180675 0.200749 0.015515
0.178260 0.171150 0.036696
0.175445 0.153529 0.049045
0.204459 0.169621 0.052527
0.256618 0.200381 0.045973
0.320744 0.231865 0.031671
0.389380 0.258021 0.012987
0.456931 0.276855 0.000000
0.519603 0.288668 0.000000
0.562964 0.292665 0.000000
0.606109 0.296399 0.000000
0.647088 0.299723 0.000000
0.683951 0.302529 0.000000
0.716485 0.304862 0.000000
0.745766 0.306847 0.000000
0.772732 0.308598 0.000000
0.798429 0.310250 0.000000
0.823412 0.311841 0.000000
0.845732 0.313246 0.000000
0.866608 0.314546 0.000000
0.888120 0.315868 0.000000
0.910293 0.317213 0.000000
0.932571 0.318543 0.000000
0.954944 0.319857 0.000000
0.120868 0.132671 0.083327
0.121311 0.132968 0.083581
0.122235 0.133617 0.083254
0.122868 0.136891 0.081159
0.123173 0.145440 0.075515
0.125136 0.160957 0.065333
0.132169 0.183650 0.050685
0.147628 0.212061 0.032740
0.174499 0.243084 0.014143
0.202383 0.251819 0.010886
0.212877 0.229268 0.027581
0.205912 0.196216 0.049597
0.204513 0.180655 0.060166
0.236739 0.199488 0.064375
0.291934 0.233158 0.059122
0.359070 0.268030 0.045645
0.430992 0.297871 0.026737
0.503915 0.320552 0.005444
0.574955 0.336185 0.000000
0.628122 0.342713 0.000000
0.668968 0.345732 0.000000
0.705949 0.348423 0.000000
0.738801 0.350772 0.000000
0.768554 0.352860 0.000000
0.796061 0.354753 0.000000
0.822212 0.356518 0.000000
0.847570 0.358193 0.000000
0.870169 0.359656 0.000000
0.891259 0.360993 0.000000
0.912943 0.362339 0.000000
0.935244 0.363693 0.000000
0.957597 0.365016 0.000000
0.979993 0.366309 0.000000
0.136780 0.152851 0.097608
0.137362 0.153221 0.097915
0.138340 0.153908 0.097593
0.139111 0.157161 0.095609
0.139509 0.165547 0.090290
0.141140 0.180801 0.080647
0.146985 0.203411 0.066579
0.160467 0.232835 0.048938
0.185068 0.268370 0.028252
0.217851 0.294820 0.013791
0.242225 0.289564 0.019901
0.245660 0.257829 0.041870
0.236177 0.224031 0.063269
0.236242 0.210418 0.072180
0.272176 0.232276 0.077355
0.329889 0.268159 0.072955
0.398612 0.305075 0.060070
0.473889 0.337883 0.040542
0.550140 0.363136 0.017709
0.622145 0.380487 0.000000
0.687191 0.391926 0.000000
0.726433 0.395188 0.000000
0.759725 0.397594 0.000000
0.789786 0.399699 0.000000
0.817499 0.401578 0.000000
0.843777 0.403306 0.000000
0.869192 0.404923 0.000000
0.891788 0.406317 0.000000
0.912828 0.407575 0.000000
0.934414 0.408826 0.000000
0.956564 0.410067 0.000000
0.978714 0.411263 0.000000
1.000000 0.412414 0.000000
0.153766 0.174445 0.112915
0.154501 0.174898 0.113282
0.155536 0.175627 0.112965
0.156450 0.178888 0.111079
0.156980 0.187180 0.106041
0.158460 0.202286 0.096889
0.163674 0.225119 0.083496
0.175567 0.255204 0.066295
0.197347 0.292084 0.045303
0.229975 0.329514 0.023875
0.263166 0.343041 0.017858
0.281456 0.324813 0.032378
0.279293 0.287748 0.057323
0.269379 0.255299 0.077441
0.271061 0.243258 0.085344
0.310074 0.267476 0.091377
0.369079 0.304504 0.087531
0.439953 0.343252 0.074606
0.516711 0.377501 0.054417
0.593287 0.404482 0.031380
0.664292 0.423844 0.009383
0.725527 0.436592 0.000000
0.776902 0.444687 0.000000
0.808401 0.447022 0.000000
0.836008 0.448725 0.000000
0.862113 0.450261 0.000000
0.887296 0.451674 0.000000
0.909621 0.452862 0.000000
0.930341 0.453897 0.000000
0.951636 0.454947 0.000000
0.973543 0.456015 0.000000
0.995509 0.457072 0.000000
1.000000 0.458115 0.000000
0.171952 0.197604 0.129352
0.172860 0.198160 0.129790
0.173963 0.198944 0.129486
0.175052 0.202270 0.127707
0.175827 0.210631 0.122972
0.177419 0.225872 0.114349
0.182139 0.248831 0.101526
0.192547 0.279062 0.084710
0.211630 0.316416 0.063639
0.241340 0.357767 0.039561
0.277647 0.386772 0.022877
0.307365 0.385916 0.026225
0.319419 0.358389 0.046998
0.313836 0.319530 0.073111
0.304670 0.288923 0.092192
0.308082 0.278280 0.099407
0.349369 0.304168 0.106121
0.410280 0.342393 0.102326
0.481911 0.381644 0.088951
0.557849 0.416508 0.069192
0.631659 0.444349 0.047316
0.696817 0.464087 0.026836
0.752172 0.477389 0.009172
0.800030 0.486515 0.000000
0.842473 0.492997 0.000000
0.876725 0.496629 0.000000
0.901865 0.497924 0.000000
0.924221 0.499049 0.000000
0.945043 0.500073 0.000000
0.966410 0.501098 0.000000
0.988342 0.502120 0.000000
1.000000 0.503110 0.000000
1.000000 0.504065 0.000000
0.192331 0.223558 0.147774
0.193439 0.224238 0.148297
0.194619 0.225085 0.148006
0.195885 0.228497 0.146319
0.196871 0.236920 0.141816
0.198465 0.252140 0.133553
0.202620 0.274942 0.121128
0.211574 0.304904 0.104609
0.228034 0.342066 0.083545
0.254011 0.383794 0.058806
0.289058 0.422534 0.034713
0.324622 0.437861 0.026234
0.349465 0.425465 0.037587
0.357060 0.393266 0.062089
0.350205 0.354367 0.088886
0.342269 0.325373 0.107508
0.346984 0.315576 0.114444
0.390121 0.342455 0.121661
0.451561 0.380735 0.117653
0.521486 0.419425 0.104750
0.593467 0.453836 0.086710
0.659550 0.480477 0.067324
0.717099 0.499808 0.048980
0.767671 0.513954 0.032280
0.813309 0.524755 0.017259
0.855399 0.533117 0.003623
0.895075 0.539754 0.000000
0.929239 0.544478 0.000000
0.957884 0.547446 0.000000
0.979034 0.548289 0.000000
1.000000 0.549105 0.000000
1.000000 0.549868 0.000000
1.000000 0.550577 0.000000
0.214767 0.252183 0.168117
0.216084 0.252988 0.168725
0.217329 0.253883 0.168436
0.218725 0.257337 0.166795
0.219832 0.265727 0.162426
0.221318 0.280758 0.154378
0.224842 0.303151 0.142198
0.232355 0.332481 0.125875
0.246272 0.368896 0.104827
0.268525 0.410106 0.079655
0.299808 0.452033 0.052294
0.337344 0.481617 0.033468
0.370681 0.485389 0.033326
0.390518 0.464850 0.050398
0.394505 0.429214 0.077255
0.387515 0.390970 0.104615
0.381077 0.363578 0.123136
0.387025 0.354134 0.130163
0.431020 0.381156 0.137624
0.490484 0.418077 0.133916
0.556343 0.455388 0.122693
0.619663 0.486979 0.107519
0.676652 0.511653 0.091117
0.728045 0.530966 0.074877
0.775360 0.546571 0.059352
0.819595 0.559277 0.044513
0.861432 0.569628 0.030335
0.897649 0.577293 0.018064
0.930445 0.583214 0.007041
0.963165 0.588203 0.000000
0.995734 0.592285 0.000000
1.000000 0.595350 0.000000
1.000000 0.596208 0.000000
0.237927 0.281829 0.189237
0.239447 0.282749 0.189921
0.240742 0.283675 0.189623
0.242226 0.287129 0.187994
0.243376 0.295400 0.183679
0.244676 0.310101 0.175730
0.247534 0.331882 0.163667
0.253666 0.360304 0.147434
0.265205 0.395554 0.126369
0.283945 0.435577 0.100891
0.311633 0.478116 0.072798
0.348110 0.517418 0.046846
0.385579 0.535614 0.035925
0.414874 0.529192 0.043060
0.430464 0.502639 0.064565
0.431496 0.464380 0.093273
0.423579 0.426101 0.120510
0.418376 0.399710 0.138970
0.426797 0.392046 0.145993
0.470694 0.418912 0.153353
0.526739 0.453917 0.150615
0.584375 0.487239 0.141547
0.638037 0.515124 0.129404
0.687776 0.538252 0.115736
0.734643 0.557905 0.101611
0.779212 0.574626 0.087282
0.821883 0.588804 0.072900
0.859131 0.599695 0.059932
0.893045 0.608396 0.047878
0.926939 0.615931 0.035681
0.960687 0.622281 0.023476
0.993510 0.627443 0.011699
1.000000 0.631605 0.000444
0.260349 0.310645 0.209823
0.262054 0.311663 0.210572
0.263384 0.312604 0.210257
0.264917 0.316020 0.208613
0.266054 0.324107 0.204300
0.267120 0.338383 0.196368
0.269320 0.359422 0.184325
0.274177 0.386769 0.168097
0.283560 0.420563 0.146995
0.299493 0.459500 0.121492
0.324232 0.502407 0.093185
0.357816 0.545520 0.064075
0.395895 0.574675 0.044342
0.430510 0.581025 0.041567
0.455642 0.566174 0.055088
0.467424 0.534963 0.080469
0.466021 0.495349 0.110526
0.457705 0.457406 0.137712
0.453947 0.432810 0.155005
0.466115 0.429015 0.161761
0.508750 0.455222 0.168537
0.557967 0.485965 0.166667
0.606689 0.514559 0.159654
0.652904 0.539454 0.149898
0.697450 0.561574 0.138648
0.740722 0.581240 0.126279
0.782798 0.598556 0.113092
0.819921 0.612296 0.100632
0.853958 0.623586 0.088616
0.888130 0.633626 0.076061
0.922385 0.642421 0.063126
0.956026 0.649961 0.050312
0.989024 0.656349 0.037748
0.280624 0.336809 0.228569
0.282487 0.337902 0.229366
0.283836 0.338845 0.229030
0.285389 0.342199 0.227357
0.286478 0.350067 0.223013
0.287290 0.363831 0.215065
0.288870 0.384018 0.203019
0.292582 0.410158 0.186789
0.300233 0.442618 0.165717
0.314390 0.481275 0.140455
0.336579 0.524073 0.112020
0.367003 0.567595 0.082038
0.403562 0.603748 0.056060
0.440292 0.620149 0.044983
0.471330 0.615887 0.050307
0.491717 0.593345 0.069901
0.499356 0.558455 0.098549
0.495477 0.517572 0.130073
0.487834 0.482220 0.155796
0.486989 0.462164 0.170257
0.503784 0.463802 0.176632
0.542670 0.487695 0.182185
0.584691 0.513795 0.180876
0.626564 0.538551 0.175331
0.667935 0.561571 0.167398
0.708760 0.582727 0.157824
0.749164 0.602046 0.146774
0.785292 0.617867 0.135710
0.818717 0.631210 0.124577
0.852488 0.643363 0.112526
0.886593 0.654327 0.099733
0.920316 0.664004 0.086729
0.953600 0.672462 0.073679
0.298411 0.359851 0.245127
0.300409 0.361007 0.245974
0.301766 0.361929 0.245618
0.303320 0.365177 0.243921
0.304341 0.372759 0.239555
0.304911 0.386016 0.231574
0.305939 0.405403 0.219482
0.308732 0.430520 0.203237
0.315467 0.462506 0.182463
0.328151 0.500735 0.157411
0.348147 0.543087 0.128907
0.375766 0.586308 0.098446
0.410129 0.625959 0.069087
0.447373 0.650257 0.051528
0.481785 0.654893 0.049604
0.508243 0.640654 0.062882
0.523056 0.611316 0.087859
0.525826 0.572253 0.119605
0.519934 0.532050 0.150980
0.514447 0.502378 0.173019
0.517218 0.488208 0.183710
0.537535 0.494794 0.189738
0.571912 0.515792 0.194060
0.608454 0.538277 0.193017
0.646009 0.560674 0.188604
0.684121 0.582278 0.181833
0.722322 0.602550 0.173248
0.756856 0.619576 0.164091
0.789168 0.634314 0.154371
0.822085 0.648052 0.143405
0.855530 0.660703 0.131364
0.888822 0.672116 0.118787
0.921879 0.682322 0.105872
0.314188 0.380367 0.259915
0.316325 0.381600 0.260832
0.317690 0.382496 0.260462
0.319240 0.385640 0.258739
0.320189 0.392957 0.254336
0.320526 0.405719 0.246305
0.321128 0.424430 0.234205
0.323540 0.449157 0.218211
0.329543 0.480714 0.197706
0.340923 0.518373 0.172809
0.358989 0.560080 0.144259
0.384113 0.602709 0.113446
0.416354 0.643938 0.082584
0.452986 0.674108 0.059915
0.488966 0.685884 0.051770
0.519559 0.679172 0.058933
0.540505 0.656315 0.079383
0.549716 0.620861 0.109366
0.547722 0.579355 0.142825
0.541470 0.543570 0.170804
0.539126 0.520963 0.188085
0.544852 0.512207 0.195155
0.566771 0.521862 0.201090
0.597438 0.540408 0.204521
0.630576 0.560752 0.203805
0.665358 0.581576 0.200091
0.701119 0.601999 0.194005
0.733913 0.619639 0.186800
0.764773 0.635161 0.178778
0.796492 0.649950 0.169278
0.828926 0.663817 0.158399
0.861428 0.676561 0.146680
0.893902 0.688175 0.134339
0.328449 0.398977 0.273361
0.330703 0.400269 0.274336
0.332070 0.401136 0.273949
0.333607 0.404172 0.272197
0.334498 0.411251 0.267769
0.334760 0.423716 0.259796
0.335286 0.442189 0.247904
0.337393 0.466574 0.232136
0.342710 0.497629 0.211827
0.352907 0.534623 0.187041
0.369232 0.575556 0.158449
0.392240 0.617636 0.127408
0.422464 0.659240 0.096045
0.457798 0.693587 0.069432
0.494098 0.710981 0.055962
0.527188 0.710666 0.057433
0.552863 0.694159 0.073018
0.568244 0.663744 0.100109
0.571732 0.624040 0.133589
0.566633 0.584405 0.165374
0.561806 0.555388 0.188030
0.562428 0.539468 0.200562
0.569822 0.534409 0.205027
0.592418 0.545826 0.211129
0.620783 0.562960 0.214128
0.651768 0.581923 0.213601
0.684570 0.601522 0.210246
0.715309 0.619110 0.205141
0.744682 0.635035 0.198790
0.775054 0.650454 0.190879
0.806209 0.665092 0.181457
0.837649 0.678779 0.170906
0.869274 0.691471 0.159464
0.341781 0.416421 0.285990
0.344175 0.417804 0.287044
0.345564 0.418669 0.286659
0.347151 0.421682 0.284933
0.348119 0.428697 0.280585
0.348417 0.441015 0.272741
0.348852 0.459230 0.261012
0.350643 0.483221 0.245411
0.355302 0.513712 0.225244
0.364390 0.549964 0.200535
0.379095 0.590020 0.171900
0.400369 0.631770 0.140761
0.428653 0.673388 0.109048
0.462235 0.710095 0.079802
0.497984 0.731909 0.061705
0.532290 0.736903 0.057908
0.561324 0.726177 0.068528
0.582060 0.701285 0.091965
0.591519 0.665224 0.124206
0.590178 0.625230 0.157874
0.584788 0.591469 0.184958
0.582172 0.569565 0.202173
0.584719 0.558375 0.211139
0.592867 0.555420 0.214014
0.615908 0.568052 0.220463
0.642730 0.584194 0.223193
0.672138 0.602074 0.222718
0.700406 0.618881 0.219916
0.727927 0.634620 0.215461
0.756813 0.650292 0.209220
0.786669 0.665439 0.201283
0.816834 0.679716 0.192127
0.847376 0.693169 0.181855
0.354818 0.433494 0.298357
0.357358 0.434977 0.299495
0.358769 0.435842 0.299113
0.360402 0.438832 0.297411
0.361424 0.445765 0.293120
0.361730 0.457908 0.285371
0.362048 0.475826 0.273762
0.363514 0.499379 0.258282
0.367528 0.529248 0.238218
0.375552 0.564688 0.213557
0.388762 0.603846 0.184892
0.408561 0.645393 0.153756
0.434958 0.686789 0.121752
0.466536 0.724467 0.090884
0.501097 0.749726 0.068719
0.535704 0.759180 0.060065
0.566924 0.753567 0.065765
0.591811 0.733924 0.085033
0.607021 0.702497 0.115004
0.610899 0.664657 0.149009
0.607174 0.628549 0.179482
0.603206 0.602136 0.200852
0.602531 0.585790 0.213901
0.606275 0.577571 0.220665
0.615558 0.576645 0.223311
0.637926 0.589086 0.229337
0.663572 0.604402 0.231846
