Fotico/Resources/LUTs/tezza_lush.cube
TITLE "Tezza Lush"
LUT_3D_SIZE 33
DOMAIN_MIN 0.0 0.0 0.0
DOMAIN_MAX 1.0 1.0 1.0
0.137428 0.041166 0.000000
0.172943 0.039848 0.000000
0.207629 0.039695 0.000000
0.241919 0.039850 0.000000
0.276033 0.040150 0.000000
0.310626 0.040548 0.000000
0.345595 0.041021 0.000000
0.380342 0.041546 0.000000
0.414203 0.042102 0.000000
0.447181 0.042679 0.000000
0.479889 0.043282 0.000000
0.512507 0.043908 0.000000
0.545139 0.044551 0.000000
0.577893 0.045207 0.000000
0.610890 0.045872 0.000000
0.644258 0.046546 0.000000
0.678137 0.047229 0.000000
0.712774 0.047922 0.000000
0.748076 0.048621 0.000000
0.783665 0.049317 0.000000
0.819154 0.050002 0.000000
0.854148 0.050665 0.000000
0.888257 0.051301 0.000000
0.921091 0.051902 0.000000
0.952273 0.052462 0.000000
0.970203 0.052883 0.000000
0.970353 0.053139 0.000000
0.970495 0.053382 0.000000
0.970632 0.053616 0.000000
0.972872 0.057508 0.000000
0.973004 0.057741 0.000000
0.973137 0.057976 0.000000
0.973273 0.058218 0.000000
0.134643 0.071274 0.000000
0.174168 0.072963 0.000000
0.209713 0.072116 0.000000
0.245083 0.072083 0.000000
0.280476 0.072412 0.000000
0.316559 0.072963 0.000000
0.353216 0.073673 0.000000
0.389808 0.074494 0.000000
0.425565 0.075372 0.000000
0.460364 0.076273 0.000000
0.494741 0.077188 0.000000
0.528801 0.078106 0.000000
0.562661 0.079022 0.000000
0.596447 0.079933 0.000000
0.630292 0.080837 0.000000
0.664336 0.081734 0.000000
0.698722 0.082623 0.000000
0.733702 0.083510 0.000000
0.769179 0.084387 0.000000
0.804773 0.085244 0.000000
0.840100 0.086069 0.000000
0.874777 0.086853 0.000000
0.908428 0.087589 0.000000
0.940685 0.088271 0.000000
0.971196 0.088892 0.000000
0.988623 0.089338 0.000000
0.988727 0.089584 0.000000
0.988826 0.089818 0.000000
0.988921 0.090045 0.000000
0.990432 0.093725 0.000000
0.990525 0.093957 0.000000
0.990619 0.094191 0.000000
0.990715 0.094431 0.000000
0.136158 0.102296 0.000000
0.175716 0.105200 0.000000
0.213852 0.105401 0.000000
0.250548 0.105329 0.000000
0.287471 0.105849 0.000000
0.325252 0.106707 0.000000
0.363646 0.107766 0.000000
0.401845 0.108927 0.000000
0.438975 0.110109 0.000000
0.474921 0.111276 0.000000
0.510252 0.112429 0.000000
0.545090 0.113559 0.000000
0.579562 0.114662 0.000000
0.613803 0.115736 0.000000
0.647954 0.116783 0.000000
0.682157 0.117802 0.000000
0.716558 0.118795 0.000000
0.751405 0.119766 0.000000
0.786596 0.120707 0.000000
0.821752 0.121607 0.000000
0.856497 0.122455 0.000000
0.890458 0.123242 0.000000
0.923278 0.123961 0.000000
0.954612 0.124609 0.000000
0.984132 0.125182 0.000000
1.000000 0.125591 0.000000
1.000000 0.125826 0.000000
1.000000 0.126051 0.000000
1.000000 0.126268 0.000000
1.000000 0.129677 0.000000
1.000000 0.129906 0.000000
1.000000 0.130138 0.000000
1.000000 0.130376 0.000000
0.138102 0.136842 0.000000
0.177340 0.134807 0.000000
0.219806 0.140531 0.000000
0.258032 0.140548 0.000000
0.296364 0.141225 0.000000
0.335469 0.142288 0.000000
0.375057 0.143560 0.000000
0.414274 0.144914 0.000000
0.452227 0.146262 0.000000
0.488812 0.147567 0.000000
0.524621 0.148830 0.000000
0.559785 0.150046 0.000000
0.594439 0.151211 0.000000
0.628724 0.152327 0.000000
0.662783 0.153393 0.000000
0.696761 0.154410 0.000000
0.730801 0.155381 0.000000
0.765144 0.156307 0.000000
0.799685 0.157183 0.000000
0.834050 0.157995 0.000000
0.867869 0.158734 0.000000
0.900868 0.159408 0.000000
0.932914 0.160046 0.000000
0.963703 0.160648 0.000000
0.992921 0.161208 0.000000
1.000000 0.161616 0.000000
1.000000 0.161843 0.000000
1.000000 0.162060 0.000000
1.000000 0.162270 0.000000
1.000000 0.165418 0.000000
1.000000 0.165647 0.000000
1.000000 0.165879 0.000000
1.000000 0.166116 0.000000
0.141446 0.170831 0.000000
0.182567 0.169463 0.000000
0.223013 0.172827 0.000000
0.266190 0.177660 0.000000
0.305540 0.178277 0.000000
0.345553 0.179349 0.000000
0.385905 0.180647 0.000000
0.425719 0.182022 0.000000
0.464092 0.183375 0.000000
0.500934 0.184665 0.000000
0.536853 0.185893 0.000000
0.571988 0.187054 0.000000
0.606481 0.188145 0.000000
0.640478 0.189165 0.000000
0.674123 0.190116 0.000000
0.707558 0.190999 0.000000
0.740924 0.191813 0.000000
0.774465 0.192562 0.000000
0.808275 0.193289 0.000000
0.842092 0.194000 0.000000
0.875597 0.194690 0.000000
0.908474 0.195354 0.000000
0.940407 0.195985 0.000000
0.971082 0.196580 0.000000
1.000000 0.197134 0.000000
1.000000 0.197535 0.000000
1.000000 0.197753 0.000000
1.000000 0.197961 0.000000
1.000000 0.198164 0.000000
1.000000 0.201042 0.000000
1.000000 0.201271 0.000000
1.000000 0.201502 0.000000
1.000000 0.201739 0.000000
0.145398 0.206927 0.000000
0.188051 0.207925 0.000000
0.228555 0.207946 0.000000
0.272521 0.214797 0.000000
0.314044 0.216721 0.000000
0.354636 0.217604 0.000000
0.395411 0.218739 0.000000
0.435478 0.219955 0.000000
0.473937 0.221143 0.000000
0.510714 0.222260 0.000000
0.546431 0.223301 0.000000
0.581233 0.224259 0.000000
0.615268 0.225131 0.000000
0.648683 0.225915 0.000000
0.681721 0.226644 0.000000
0.714674 0.227361 0.000000
0.747723 0.228070 0.000000
0.781145 0.228774 0.000000
0.814885 0.229473 0.000000
0.848625 0.230159 0.000000
0.882046 0.230826 0.000000
0.914834 0.231468 0.000000
0.946674 0.232080 0.000000
0.977254 0.232657 0.000000
1.000000 0.233195 0.000000
1.000000 0.233582 0.000000
1.000000 0.233791 0.000000
1.000000 0.233992 0.000000
1.000000 0.234187 0.000000
1.000000 0.236785 0.000000
1.000000 0.237014 0.000000
1.000000 0.237244 0.000000
1.000000 0.237481 0.000000
0.148466 0.246139 0.000000
0.192515 0.248764 0.000000
0.234567 0.245736 0.000000
0.275909 0.248572 0.000000
0.320852 0.255392 0.000000
0.362537 0.256593 0.000000
0.403132 0.257105 0.000000
0.443015 0.257907 0.000000
0.481259 0.258763 0.000000
0.517682 0.259547 0.000000
0.552935 0.260258 0.000000
0.587332 0.260955 0.000000
0.621087 0.261648 0.000000
0.654383 0.262332 0.000000
0.687404 0.263009 0.000000
0.720330 0.263679 0.000000
0.753341 0.264344 0.000000
0.786716 0.265008 0.000000
0.820399 0.265669 0.000000
0.854074 0.266319 0.000000
0.887423 0.266953 0.000000
0.920133 0.267564 0.000000
0.951891 0.268146 0.000000
0.982387 0.268697 0.000000
1.000000 0.269210 0.000000
1.000000 0.269579 0.000000
1.000000 0.269779 0.000000
1.000000 0.269972 0.000000
1.000000 0.270159 0.000000
1.000000 0.272473 0.000000
1.000000 0.272700 0.000000
1.000000 0.272930 0.000000
1.000000 0.273166 0.000000
0.149920 0.287290 0.000000
0.195478 0.289817 0.000000
0.239641 0.285028 0.000000
0.280919 0.285321 0.000000
0.323524 0.289904 0.000000
0.370366 0.297216 0.000000
0.411766 0.297258 0.000000
0.451147 0.296756 0.000000
0.488860 0.296648 0.000000
0.524894 0.296776 0.000000
0.559908 0.297054 0.000000
0.594090 0.297433 0.000000
0.627625 0.297881 0.000000
0.660697 0.298378 0.000000
0.693487 0.298913 0.000000
0.726175 0.299478 0.000000
0.758942 0.300067 0.000000
0.792062 0.300681 0.000000
0.825481 0.301315 0.000000
0.858885 0.301957 0.000000
0.891959 0.302600 0.000000
0.924494 0.303202 0.000000
0.956177 0.303749 0.000000
0.986595 0.304266 0.000000
1.000000 0.304748 0.000000
1.000000 0.305095 0.000000
1.000000 0.305286 0.000000
1.000000 0.305470 0.000000
1.000000 0.305650 0.000000
1.000000 0.307679 0.000000
1.000000 0.307906 0.000000
1.000000 0.308135 0.000000
1.000000 0.308370 0.000000
0.150282 0.327601 0.000000
0.196908 0.329765 0.000000
0.242950 0.324221 0.000000
0.284820 0.321517 0.000000
0.325738 0.323083 0.000000
0.370299 0.329620 0.000000
0.417888 0.336641 0.000000
0.458119 0.335803 0.000000
0.495865 0.334834 0.000000
0.531917 0.334291 0.000000
0.566936 0.334023 0.000000
0.601112 0.333946 0.000000
0.634631 0.334005 0.000000
0.667678 0.334165 0.000000
0.700435 0.334403 0.000000
0.733083 0.334702 0.000000
0.765801 0.335051 0.000000
0.798865 0.335445 0.000000
0.832221 0.335875 0.000000
0.865554 0.336331 0.000000
0.898552 0.336804 0.000000
0.930905 0.337283 0.000000
0.962306 0.337760 0.000000
0.992449 0.338227 0.000000
1.000000 0.338675 0.000000
1.000000 0.338993 0.000000
1.000000 0.339197 0.000000
1.000000 0.339400 0.000000
1.000000 0.339605 0.000000
1.000000 0.341986 0.000000
1.000000 0.342211 0.000000
1.000000 0.342439 0.000000
1.000000 0.342673 0.000000
0.149581 0.366335 0.000000
0.196887 0.367918 0.000000
0.244337 0.362153 0.000000
0.287436 0.357270 0.000000
0.328334 0.357241 0.000000
0.370214 0.360085 0.000000
0.416775 0.368239 0.000000
0.464112 0.374918 0.000000
0.502212 0.373270 0.000000
0.538278 0.371948 0.000000
0.573300 0.371047 0.000000
0.607468 0.370441 0.000000
0.640970 0.370051 0.000000
0.673992 0.369821 0.000000
0.706716 0.369714 0.000000
0.739324 0.369705 0.000000
0.771995 0.369776 0.000000
0.805004 0.369913 0.000000
0.838298 0.370108 0.000000
0.871563 0.370347 0.000000
0.904487 0.370622 0.000000
0.936762 0.370921 0.000000
0.968081 0.371235 0.000000
0.998142 0.371554 0.000000
1.000000 0.371870 0.000000
1.000000 0.372061 0.000000
1.000000 0.372185 0.000000
1.000000 0.372317 0.000000
1.000000 0.372456 0.000000
1.000000 0.375402 0.000000
1.000000 0.375627 0.000000
1.000000 0.375853 0.000000
1.000000 0.376086 0.000000
0.148041 0.403671 0.000000
0.196040 0.405108 0.000000
0.244661 0.399551 0.000000
0.289275 0.393368 0.000000
0.330583 0.391131 0.000000
0.371776 0.392343 0.000000
0.415136 0.397365 0.000000
0.462174 0.406018 0.000000
0.508034 0.412267 0.000000
0.544111 0.410054 0.000000
0.579131 0.408430 0.000000
0.613289 0.407222 0.000000
0.646772 0.406319 0.000000
0.679767 0.405644 0.000000
0.712457 0.405146 0.000000
0.745023 0.404787 0.000000
0.777646 0.404540 0.000000
0.810599 0.404387 0.000000
0.843830 0.404313 0.000000
0.877026 0.404306 0.000000
0.909876 0.404356 0.000000
0.942073 0.404449 0.000000
0.973311 0.404577 0.000000
1.000000 0.404728 0.000000
1.000000 0.404893 0.000000
1.000000 0.404951 0.000000
1.000000 0.404984 0.000000
1.000000 0.405034 0.000000
1.000000 0.405098 0.000000
1.000000 0.408241 0.000000
1.000000 0.408491 0.000000
1.000000 0.408762 0.000000
1.000000 0.409029 0.000000
0.146143 0.440468 0.000000
0.194747 0.441800 0.000000
0.244283 0.436523 0.000000
0.290351 0.429557 0.000000
0.332529 0.425461 0.000000
0.373745 0.425569 0.000000
0.415296 0.427664 0.000000
0.459386 0.434361 0.000000
0.505284 0.442730 0.000000
0.549473 0.448629 0.000000
0.584489 0.446193 0.000000
0.618632 0.444310 0.000000
0.652093 0.442832 0.000000
0.685057 0.441660 0.000000
0.717710 0.440723 0.000000
0.750233 0.439973 0.000000
0.782805 0.439372 0.000000
0.815701 0.438893 0.000000
0.848868 0.438520 0.000000
0.881993 0.438238 0.000000
0.914767 0.438036 0.000000
0.946884 0.437901 0.000000
0.978040 0.437821 0.000000
1.000000 0.437792 0.000000
1.000000 0.437807 0.000000
1.000000 0.437733 0.000000
1.000000 0.437751 0.000000
1.000000 0.437801 0.000000
1.000000 0.438331 0.000000
1.000000 0.440777 0.000000
1.000000 0.441045 0.000000
1.000000 0.441316 0.000000
1.000000 0.441581 0.000000
0.143970 0.476807 0.000000
0.193095 0.478033 0.000000
0.243362 0.473020 0.000000
0.290719 0.465632 0.000000
0.333998 0.460188 0.000000
0.375422 0.458435 0.000000
0.416573 0.459474 0.000000
0.458235 0.463247 0.000000
0.501712 0.470609 0.000000
0.546183 0.478659 0.000000
0.589415 0.484360 0.000000
0.623540 0.481728 0.000000
0.656975 0.479615 0.000000
0.689907 0.477894 0.000000
0.722520 0.476474 0.000000
0.754996 0.475291 0.000000
0.787515 0.474300 0.000000
0.820351 0.473462 0.000000
0.853451 0.472758 0.000000
0.886515 0.472180 0.000000
0.919249 0.471720 0.000000
0.951347 0.471363 0.000000
0.982463 0.471131 0.000000
1.000000 0.471007 0.000000
1.000000 0.470955 0.000000
1.000000 0.470824 0.000000
1.000000 0.470738 0.000000
1.000000 0.470694 0.000000
1.000000 0.471337 0.000000
1.000000 0.472973 0.000000
1.000000 0.473240 0.000000
1.000000 0.473511 0.000000
1.000000 0.473774 0.000000
0.141573 0.512731 0.000000
0.191148 0.513850 0.000000
0.242019 0.509040 0.000000
0.290470 0.501476 0.000000
0.334898 0.495089 0.000000
0.376891 0.491619 0.000000
0.418023 0.491832 0.000000
0.458442 0.493345 0.000000
0.499504 0.498552 0.000000
0.541852 0.505978 0.000000
0.585595 0.513937 0.000000
0.628048 0.519505 0.000000
0.661454 0.516697 0.000000
0.694349 0.514373 0.000000
0.726919 0.512425 0.000000
0.759357 0.510778 0.000000
0.791850 0.509379 0.000000
0.824673 0.508181 0.000000
0.857777 0.507157 0.000000
0.890790 0.506290 0.000000
0.923453 0.505594 0.000000
0.955474 0.505051 0.000000
0.986549 0.504638 0.000000
1.000000 0.504335 0.000000
1.000000 0.504116 0.000000
1.000000 0.503850 0.000000
1.000000 0.503652 0.000000
1.000000 0.503508 0.000000
1.000000 0.503916 0.000000
1.000000 0.504835 0.000000
1.000000 0.505101 0.000000
1.000000 0.505370 0.000000
1.000000 0.505631 0.000000
0.138986 0.548282 0.000000
0.188952 0.549294 0.000000
0.240348 0.544604 0.000000
0.289700 0.537031 0.000000
0.335227 0.530009 0.000000
0.378022 0.525201 0.000000
0.419232 0.523854 0.000000
0.459416 0.524714 0.000000
0.498685 0.527370 0.000000
0.538837 0.533290 0.000000
0.580464 0.540593 0.000000
0.623637 0.548557 0.000000
0.665619 0.554161 0.000000
0.698520 0.551217 0.000000
0.731104 0.548736 0.000000
0.763555 0.546620 0.000000
0.795981 0.544703 0.000000
0.828730 0.543068 0.000000
0.861751 0.541681 0.000000
0.894734 0.540518 0.000000
0.927373 0.539556 0.000000
0.959360 0.538769 0.000000
0.990394 0.538133 0.000000
1.000000 0.537628 0.000000
1.000000 0.537217 0.000000
1.000000 0.536817 0.000000
1.000000 0.536501 0.000000
1.000000 0.536250 0.000000
1.000000 0.536082 0.000000
1.000000 0.536376 0.000000
1.000000 0.536641 0.000000
1.000000 0.536909 0.000000
1.000000 0.537167 0.000000
0.136236 0.583507 0.000000
0.186542 0.584409 0.000000
0.238416 0.579747 0.000000
0.288494 0.572276 0.000000
0.335020 0.564854 0.000000
0.378717 0.559025 0.000000
0.420279 0.556102 0.000000
0.460413 0.556341 0.000000
0.498858 0.557342 0.000000
0.537128 0.561180 0.000000
0.576822 0.567471 0.000000
0.617796 0.574601 0.000000
0.660770 0.582794 0.000000
0.702495 0.588328 0.000000
0.735002 0.585109 0.000000
0.767370 0.582382 0.000000
0.799780 0.580050 0.000000
0.832506 0.578036 0.000000
0.865496 0.576299 0.000000
0.898439 0.574815 0.000000
0.931029 0.573556 0.000000
0.962959 0.572498 0.000000
0.993929 0.571615 0.000000
1.000000 0.570884 0.000000
1.000000 0.570269 0.000000
1.000000 0.569729 0.000000
1.000000 0.569289 0.000000
1.000000 0.568926 0.000000
1.000000 0.567849 0.000000
1.000000 0.567610 0.000000
1.000000 0.567873 0.000000
1.000000 0.568139 0.000000
1.000000 0.568394 0.000000
0.133343 0.618449 0.000000
0.183944 0.619239 0.000000
0.236275 0.614513 0.000000
0.286925 0.607215 0.000000
0.334327 0.599566 0.000000
0.378941 0.592978 0.000000
0.421076 0.588763 0.000000
0.461206 0.587702 0.000000
0.499533 0.588367 0.000000
0.536602 0.590124 0.000000
0.574788 0.594931 0.000000
0.614427 0.601595 0.000000
0.655159 0.608657 0.000000
0.698365 0.617242 0.000000
0.738617 0.621557 0.000000
0.770959 0.618334 0.000000
0.803335 0.615553 0.000000
0.836019 0.613126 0.000000
0.868956 0.611007 0.000000
0.901838 0.609170 0.000000
0.934356 0.607587 0.000000
0.966208 0.606232 0.000000
0.997092 0.605076 0.000000
1.000000 0.604097 0.000000
1.000000 0.603271 0.000000
1.000000 0.602585 0.000000
1.000000 0.602015 0.000000
1.000000 0.601536 0.000000
1.000000 0.599226 0.000000
1.000000 0.598545 0.000000
1.000000 0.598806 0.000000
1.000000 0.599070 0.000000
1.000000 0.599322 0.000000
0.130302 0.653370 0.000000
0.181160 0.654044 0.000000
0.233947 0.649161 0.000000
0.285036 0.642082 0.000000
0.333198 0.634340 0.000000
0.378703 0.627214 0.000000
0.421562 0.621979 0.000000
0.462199 0.619600 0.000000
0.500769 0.619927 0.000000
0.537578 0.620702 0.000000
0.574373 0.623658 0.000000
0.612327 0.629070 0.000000
0.651654 0.635804 0.000000
0.691947 0.642644 0.000000
0.735232 0.651470 0.000000
0.774277 0.654682 0.000000
0.806601 0.651415 0.000000
0.839222 0.648540 0.000000
0.872088 0.646006 0.000000
0.904887 0.643786 0.000000
0.937314 0.641850 0.000000
0.969065 0.640169 0.000000
0.999841 0.638716 0.000000
1.000000 0.637465 0.000000
1.000000 0.636423 0.000000
1.000000 0.635585 0.000000
1.000000 0.634881 0.000000
1.000000 0.634280 0.000000
1.000000 0.630414 0.000000
1.000000 0.629380 0.000000
1.000000 0.629638 0.000000
1.000000 0.629900 0.000000
1.000000 0.630148 0.000000
0.127120 0.688308 0.000000
0.178568 0.688435 0.000000
0.231481 0.683805 0.000000
0.282923 0.677024 0.000000
0.331997 0.669318 0.000000
0.378645 0.661855 0.000000
0.422531 0.655886 0.000000
0.463577 0.652386 0.000000
0.502132 0.651704 0.000000
0.538911 0.652362 0.000000
0.574809 0.653617 0.000000
0.611285 0.657410 0.000000
0.649009 0.663147 0.000000
0.688031 0.669808 0.000000
0.728044 0.676479 0.000000
0.771430 0.685418 0.000000
0.809507 0.687613 0.000000
0.842048 0.684256 0.000000
0.874822 0.681275 0.000000
0.907519 0.678641 0.000000
0.939833 0.676323 0.000000
0.971463 0.674291 0.000000
1.000000 0.672515 0.000000
1.000000 0.670968 0.000000
1.000000 0.669713 0.000000
1.000000 0.668718 0.000000
1.000000 0.667874 0.000000
1.000000 0.667147 0.000000
1.000000 0.661409 0.000000
1.000000 0.660113 0.000000
1.000000 0.660368 0.000000
1.000000 0.660626 0.000000
1.000000 0.660870 0.000000
0.123855 0.723100 0.000000
0.176224 0.722589 0.000000
0.229520 0.718345 0.000000
0.281581 0.711839 0.000000
0.331253 0.704210 0.000000
0.378596 0.696530 0.000000
0.423203 0.689972 0.000000
0.464758 0.685522 0.000000
0.503422 0.683644 0.000000
0.540149 0.683952 0.000000
0.575754 0.684523 0.000000
0.611106 0.686577 0.000000
0.647341 0.690920 0.000000
0.684865 0.696793 0.000000
0.723639 0.703291 0.000000
0.763543 0.709838 0.000000
0.807115 0.718816 0.000000
0.844406 0.719907 0.000000
0.877071 0.716454 0.000000
0.909647 0.713381 0.000000
0.941829 0.710658 0.000000
0.973319 0.708251 0.000000
1.000000 0.706131 0.000000
1.000000 0.704270 0.000000
1.000000 0.702811 0.000000
1.000000 0.701656 0.000000
1.000000 0.700669 0.000000
1.000000 0.699151 0.000000
1.000000 0.691921 0.000000
1.000000 0.690454 0.000000
1.000000 0.690706 0.000000
1.000000 0.690960 0.000000
1.000000 0.691200 0.000000
0.122115 0.756992 0.000000
0.174777 0.756488 0.000000
0.228026 0.752479 0.000000
0.280239 0.746202 0.000000
0.330310 0.738675 0.000000
0.378258 0.730856 0.000000
0.423544 0.723837 0.000000
0.465653 0.718597 0.000000
0.504568 0.715676 0.000000
0.541223 0.715097 0.000000
0.576781 0.715590 0.000000
0.611489 0.716330 0.000000
0.646510 0.719111 0.000000
0.682578 0.723796 0.000000
0.719965 0.729680 0.000000
0.758579 0.735953 0.000000
0.798564 0.742424 0.000000
0.842599 0.751436 0.000000
0.878764 0.751177 0.000000
0.911202 0.747648 0.000000
0.943236 0.744500 0.000000
0.974563 0.741699 0.000000
1.000000 0.739212 0.000000
1.000000 0.737014 0.000000
1.000000 0.735368 0.000000
1.000000 0.734054 0.000000
1.000000 0.732927 0.000000
1.000000 0.730128 0.000000
1.000000 0.721668 0.000000
1.000000 0.720123 0.000000
1.000000 0.720371 0.000000
1.000000 0.720621 0.000000
1.000000 0.720856 0.000000
0.121100 0.789811 0.000000
0.173318 0.789680 0.000000
0.226494 0.785863 0.000000
0.278799 0.779788 0.000000
0.329181 0.772373 0.000000
0.377643 0.764474 0.000000
0.423545 0.757101 0.000000
0.466210 0.751212 0.000000
0.505462 0.747395 0.000000
0.542137 0.745758 0.000000
0.577602 0.745917 0.000000
0.612125 0.746279 0.000000
0.646262 0.747517 0.000000
0.681082 0.750821 0.000000
0.717071 0.755703 0.000000
0.754407 0.761507 0.000000
0.792968 0.767505 0.000000
0.833383 0.773991 0.000000
0.877724 0.782939 0.000000
0.912106 0.781059 0.000000
0.943971 0.777474 0.000000
0.975127 0.774272 0.000000
1.000000 0.771423 0.000000
1.000000 0.768898 0.000000
1.000000 0.767090 0.000000
1.000000 0.765617 0.000000
1.000000 0.764348 0.000000
1.000000 0.760002 0.000000
1.000000 0.750374 0.000000
1.000000 0.748835 0.000000
1.000000 0.749079 0.000000
1.000000 0.749325 0.000000
1.000000 0.749554 0.000000
0.121194 0.820687 0.000000
0.171851 0.821859 0.000000
0.224929 0.818190 0.000000
0.277274 0.812289 0.000000
0.327888 0.804984 0.000000
0.376773 0.797044 0.000000
0.423217 0.789403 0.000000
0.466412 0.782987 0.000000
0.506042 0.778414 0.000000
0.542847 0.775850 0.000000
0.578200 0.775230 0.000000
0.612633 0.775487 0.000000
0.646324 0.775807 0.000000
0.680168 0.777695 0.000000
0.714911 0.781372 0.000000
0.750924 0.786343 0.000000
0.788316 0.791996 0.000000
0.827037 0.797666 0.000000
0.867845 0.804206 0.000000
0.911879 0.812804 0.000000
0.944144 0.809350 0.000000
0.975157 0.805773 0.000000
1.000000 0.802585 0.000000
1.000000 0.799756 0.000000
1.000000 0.797805 0.000000
1.000000 0.796171 0.000000
1.000000 0.794759 0.000000
1.000000 0.788631 0.000000
1.000000 0.777884 0.000000
1.000000 0.776423 0.000000
1.000000 0.776663 0.000000
1.000000 0.776905 0.000000
1.000000 0.777130 0.000000
0.121251 0.850353 0.000000
0.170386 0.852731 0.000000
0.223344 0.849171 0.000000
0.275684 0.843413 0.000000
0.326459 0.836211 0.000000
0.375680 0.828257 0.000000
0.422587 0.820414 0.000000
0.466267 0.813573 0.000000
0.506282 0.808368 0.000000
0.543286 0.805005 0.000000
0.578593 0.803460 0.000000
0.612900 0.803416 0.000000
0.646441 0.803517 0.000000
0.679602 0.804130 0.000000
0.713323 0.806542 0.000000
0.748113 0.810470 0.000000
0.784249 0.815426 0.000000
0.821915 0.820872 0.000000
0.860721 0.826201 0.000000
0.901728 0.832925 0.000000
0.943931 0.839974 0.000000
0.974825 0.836048 0.000000
1.000000 0.832544 0.000000
1.000000 0.829446 0.000000
1.000000 0.827353 0.000000
1.000000 0.825557 0.000000
1.000000 0.824000 0.000000
1.000000 0.815891 0.000000
1.000000 0.804073 0.000000
1.000000 0.802753 0.000000
1.000000 0.802989 0.000000
1.000000 0.803229 0.000000
1.000000 0.803449 0.000000
0.121271 0.878541 0.000000
0.168935 0.882025 0.000000
0.221756 0.878536 0.000000
0.274051 0.872891 0.000000
0.324926 0.865780 0.000000
0.374406 0.857827 0.000000
0.421697 0.849833 0.000000
0.465804 0.842652 0.000000
0.506189 0.836921 0.000000
0.543424 0.832877 0.000000
0.578770 0.830525 0.000000
0.612936 0.829833 0.000000
0.646351 0.829809 0.000000
0.679172 0.829772 0.000000
0.712097 0.830945 0.000000
0.745843 0.833754 0.000000
0.780824 0.837852 0.000000
0.817382 0.842803 0.000000
0.855296 0.848050 0.000000
0.894030 0.853219 0.000000
0.934968 0.860147 0.000000
0.974285 0.864941 0.000000
1.000000 0.861146 0.000000
1.000000 0.857852 0.000000
1.000000 0.855573 0.000000
1.000000 0.853613 0.000000
1.000000 0.851912 0.000000
1.000000 0.841663 0.000000
1.000000 0.828822 0.000000
1.000000 0.827696 0.000000
1.000000 0.827929 0.000000
1.000000 0.828166 0.000000
1.000000 0.828383 0.000000
0.121255 0.905017 0.000000
0.167511 0.909499 0.000000
0.220182 0.906049 0.000000
0.272403 0.900489 0.000000
0.323326 0.893453 0.000000
0.372994 0.885508 0.000000
0.420594 0.877401 0.000000
0.465067 0.869948 0.000000
0.505790 0.863785 0.000000
0.543266 0.859166 0.000000
0.578701 0.856115 0.000000
0.612765 0.854632 0.000000
0.646024 0.854358 0.000000
0.678686 0.854151 0.000000
0.711073 0.854306 0.000000
0.744006 0.856045 0.000000
0.778004 0.859233 0.000000
0.813524 0.863535 0.000000
0.850497 0.868484 0.000000
0.888343 0.873501 0.000000
0.926912 0.878752 0.000000
0.967494 0.885869 0.000000
1.000000 0.888239 0.000000
1.000000 0.884771 0.000000
1.000000 0.882307 0.000000
1.000000 0.880184 0.000000
1.000000 0.878339 0.000000
1.000000 0.865834 0.000000
1.000000 0.852020 0.000000
1.000000 0.851130 0.000000
1.000000 0.851362 0.000000
1.000000 0.851596 0.000000
1.000000 0.851810 0.000000
0.121208 0.929915 0.000000
0.166172 0.935235 0.000000
0.218623 0.931859 0.000000
0.270744 0.926358 0.000000
0.321673 0.919382 0.000000
0.371472 0.911449 0.000000
0.419314 0.903252 0.000000
0.464092 0.895574 0.000000
0.505114 0.889044 0.000000
0.542818 0.883929 0.000000
0.578368 0.880270 0.000000
0.612400 0.878096 0.000000
0.645510 0.877341 0.000000
0.678039 0.877021 0.000000
0.710160 0.876697 0.000000
0.742483 0.877450 0.000000
0.775678 0.879736 0.000000
0.810278 0.883314 0.000000
0.846333 0.887806 0.000000
0.883409 0.892701 0.000000
0.920858 0.897455 0.000000
0.959190 0.903044 0.000000
0.999077 0.910298 0.000000
1.000000 0.910395 0.000000
1.000000 0.907745 0.000000
1.000000 0.905459 0.000000
1.000000 0.903470 0.000000
