Fotico/Resources/LUTs/tezza_dream.cube
TITLE "Tezza Dream"
LUT_3D_SIZE 5
DOMAIN_MIN 0.0 0.0 0.0
DOMAIN_MAX 1.0 1.0 1.0
0.222575 0.122883 0.093734
0.508238 0.140787 0.110931
0.711052 0.153393 0.122961
0.883440 0.163830 0.132979
1.000000 0.171912 0.140735
0.242258 0.384523 0.119265
0.496871 0.395775 0.112712
0.708590 0.407974 0.110293
0.879649 0.411558 0.117370
1.000000 0.414408 0.124602
0.263583 0.563696 0.142568
0.502207 0.598036 0.099043
0.675603 0.574903 0.127069
0.858006 0.588573 0.116360
0.991367 0.590784 0.119189
0.279028 0.707374 0.159609
0.497953 0.758135 0.101180
0.684032 0.740116 0.119913
0.830998 0.726855 0.139776
0.970437 0.742397 0.131882
0.294211 0.821129 0.173458
0.501447 0.875920 0.114635
0.695216 0.887440 0.105416
0.840975 0.854976 0.141640
0.952808 0.853495 0.151780
0.227316 0.129821 0.345608
0.520065 0.131681 0.348753
0.737003 0.130426 0.350317
0.909726 0.140263 0.351578
1.000000 0.150358 0.355298
0.222463 0.410007 0.343449
0.510335 0.410160 0.345463
0.705593 0.418489 0.355475
0.869734 0.425115 0.362646
0.996462 0.430070 0.367870
0.227993 0.601935 0.339845
0.504368 0.591231 0.346182
0.686885 0.588199 0.349123
0.861261 0.594586 0.345597
0.992221 0.597176 0.350107
0.248897 0.741758 0.342589
0.515875 0.733417 0.362817
0.693049 0.757013 0.335638
0.843483 0.741201 0.357536
0.983964 0.754612 0.349261
0.270394 0.852046 0.352642
0.529670 0.848238 0.376907
0.697117 0.892949 0.334871
0.857571 0.875074 0.357438
0.968792 0.871183 0.370346
0.235597 0.141928 0.543885
0.520554 0.134758 0.552551
0.724488 0.141814 0.547695
0.913853 0.135599 0.550651
1.000000 0.134703 0.549049
0.243948 0.405939 0.522304
0.511670 0.412848 0.542403
0.715183 0.411888 0.540449
0.885733 0.412563 0.537485
1.000000 0.419130 0.538597
0.221123 0.606531 0.534463
0.498748 0.600472 0.528804
0.695655 0.597182 0.528159
0.859363 0.602212 0.535129
0.987130 0.608153 0.541588
0.222161 0.766115 0.523205
0.509692 0.749965 0.526246
0.694330 0.756967 0.525167
0.854838 0.753530 0.533120
0.987522 0.761483 0.531728
0.228767 0.891779 0.519308
0.529143 0.863484 0.536889
0.707097 0.876164 0.542350
0.870527 0.893134 0.532417
0.982471 0.886164 0.548382
0.243138 0.152375 0.711291
0.521521 0.132282 0.732098
0.722354 0.146488 0.713585
0.897850 0.149520 0.711174
1.000000 0.144563 0.715860
0.269755 0.417933 0.665476
0.515954 0.420720 0.703856
0.711262 0.415244 0.703115
0.880796 0.414465 0.698155
1.000000 0.408574 0.697358
0.230960 0.600328 0.689176
0.514108 0.597425 0.675315
0.696292 0.597896 0.687925
0.869267 0.596569 0.685738
0.994402 0.600965 0.686197
0.221938 0.766387 0.684778
0.495468 0.763194 0.681787
0.693103 0.761914 0.680726
0.864051 0.762326 0.683574
0.987857 0.768540 0.691129
0.226194 0.894900 0.679458
0.498489 0.895666 0.680296
0.713911 0.883134 0.690632
0.875648 0.903314 0.686870
0.993679 0.899182 0.699961
0.249872 0.161615 0.858904
0.520298 0.134095 0.886411
0.727547 0.141568 0.872735
0.893989 0.155000 0.853994
1.000000 0.157091 0.855328
0.285857 0.432453 0.798654
0.520632 0.427980 0.844767
0.711158 0.411997 0.854176
0.874770 0.419575 0.835435
1.000000 0.418443 0.834574
0.256113 0.596409 0.808274
0.532786 0.607422 0.796940
0.698184 0.602702 0.826028
0.864832 0.601707 0.823488
0.993248 0.600217 0.824888
0.226524 0.763378 0.823267
0.502438 0.759492 0.816740
0.703995 0.760302 0.811222
0.866514 0.764251 0.823411
0.988139 0.766386 0.825212
0.226192 0.895706 0.821396
0.498732 0.897397 0.822764
0.699119 0.901395 0.826285
0.878698 0.903649 0.830649
0.994958 0.908823 0.835342
