Fotico/Resources/LUTs/tezza_dream.cube
TITLE "Tezza Dream"
LUT_3D_SIZE 33
DOMAIN_MIN 0.0 0.0 0.0
DOMAIN_MAX 1.0 1.0 1.0
0.222575 0.122883 0.093734
0.263011 0.125427 0.096249
0.302083 0.127878 0.098609
0.339513 0.130223 0.100854
0.375498 0.132477 0.103007
0.410761 0.134686 0.105114
0.444916 0.136825 0.107154
0.477545 0.138867 0.109101
0.508238 0.140787 0.110931
0.536676 0.142563 0.112625
0.563270 0.144223 0.114208
0.588685 0.145806 0.115718
0.613552 0.147353 0.117194
0.638470 0.148901 0.118671
0.663400 0.150447 0.120147
0.687762 0.151954 0.121587
0.711052 0.153393 0.122961
0.732647 0.154720 0.124231
0.753136 0.155971 0.125430
0.773819 0.157228 0.126635
0.795690 0.158551 0.127905
0.818353 0.159917 0.129217
0.841028 0.161281 0.130528
0.862967 0.162599 0.131796
0.883440 0.163830 0.132979
0.901887 0.164939 0.134046
0.918896 0.165964 0.135030
0.935451 0.166963 0.135990
0.952092 0.167969 0.136956
0.968445 0.168961 0.137908
0.984602 0.169944 0.138850
1.000000 0.170925 0.139791
1.000000 0.171912 0.140735
0.223168 0.161657 0.094434
0.265214 0.163712 0.094569
0.304789 0.165091 0.096300
0.342078 0.166835 0.098545
0.377717 0.168804 0.100884
0.412599 0.170868 0.103196
0.446380 0.172925 0.105415
0.478659 0.174911 0.107509
0.509026 0.176785 0.109455
0.537164 0.178519 0.111239
0.563477 0.180137 0.112893
0.588621 0.181677 0.114461
0.613220 0.183177 0.115985
0.637840 0.184667 0.117498
0.662418 0.186137 0.118994
0.686395 0.187558 0.120443
0.709289 0.188905 0.121817
0.730524 0.190148 0.123086
0.750709 0.191325 0.124288
0.771120 0.192514 0.125501
0.792744 0.193772 0.126784
0.815195 0.195079 0.128114
0.837705 0.196393 0.129448
0.859529 0.197670 0.130743
0.879933 0.198869 0.131955
0.898353 0.199957 0.133051
0.915364 0.200966 0.134066
0.931948 0.201955 0.135057
0.948645 0.202956 0.136058
0.965077 0.203948 0.137046
0.981337 0.204935 0.138026
0.997538 0.205926 0.139006
1.000000 0.206927 0.139994
0.224858 0.203045 0.093538
0.262781 0.199104 0.098102
0.304594 0.202893 0.096747
0.343194 0.204267 0.097477
0.379594 0.205427 0.098865
0.414790 0.206731 0.100663
0.448570 0.208200 0.102675
0.480684 0.209755 0.104715
0.510810 0.211312 0.106679
0.538665 0.212806 0.108509
0.564640 0.214219 0.110212
0.589406 0.215577 0.111826
0.613600 0.216910 0.113394
0.637816 0.218249 0.114953
0.662028 0.219593 0.116502
0.685689 0.220912 0.118007
0.708319 0.222178 0.119440
0.729345 0.223360 0.120767
0.749362 0.224491 0.122027
0.769637 0.225644 0.123300
0.791154 0.226874 0.124649
0.813535 0.228165 0.126052
0.836017 0.229473 0.127460
0.857855 0.230755 0.128829
0.878310 0.231968 0.130113
0.896805 0.233076 0.131276
0.913913 0.234110 0.132353
0.930624 0.235131 0.133408
0.947475 0.236171 0.134475
0.964074 0.237203 0.135527
0.980505 0.238231 0.136570
0.996871 0.239261 0.137610
1.000000 0.240298 0.138654
0.226735 0.237045 0.098138
0.266910 0.241571 0.093908
0.300731 0.234985 0.101145
0.340866 0.239313 0.099702
0.379508 0.241462 0.098533
0.414781 0.242372 0.100012
0.449084 0.243332 0.101227
0.481469 0.244294 0.102664
0.511617 0.245295 0.104245
0.539358 0.246314 0.105835
0.565184 0.247342 0.107394
0.589792 0.248385 0.108928
0.613829 0.249457 0.110456
0.637896 0.250578 0.112006
0.661976 0.251741 0.113570
0.685529 0.252916 0.115109
0.708082 0.254072 0.116588
0.729060 0.255174 0.117967
0.749056 0.256247 0.119283
0.769335 0.257357 0.120620
0.790885 0.258560 0.122042
0.813335 0.259839 0.123525
0.835926 0.261153 0.125020
0.857914 0.262459 0.126478
0.878533 0.263705 0.127846
0.897183 0.264845 0.129085
0.914427 0.265909 0.130230
0.931243 0.266953 0.131345
0.948171 0.268009 0.132467
0.964816 0.269050 0.133569
0.981264 0.270082 0.134656
0.997617 0.271107 0.135734
1.000000 0.272133 0.136811
0.229827 0.268943 0.103068
0.266871 0.277929 0.094087
0.305435 0.274851 0.097562
0.336644 0.269168 0.103817
0.374904 0.273492 0.102581
0.413263 0.276289 0.100392
0.448102 0.277248 0.100645
0.480130 0.277891 0.102124
0.510577 0.278585 0.103145
0.538627 0.279265 0.104236
0.564674 0.279967 0.105441
0.589450 0.280714 0.106720
0.613624 0.281521 0.108063
0.637814 0.282405 0.109482
0.662011 0.283364 0.110959
0.685681 0.284371 0.112448
0.708355 0.285396 0.113905
0.729458 0.286400 0.115283
0.749590 0.287401 0.116614
0.770031 0.288461 0.117980
0.791768 0.289629 0.119443
0.814412 0.290883 0.120977
0.837174 0.292176 0.122525
0.859280 0.293455 0.124032
0.879966 0.294669 0.125443
0.898638 0.295774 0.126716
0.915870 0.296800 0.127890
0.932646 0.297802 0.129031
0.949504 0.298810 0.130176
0.966053 0.299800 0.131297
0.982377 0.300774 0.132399
0.998580 0.301737 0.133490
1.000000 0.302695 0.134576
0.233235 0.300037 0.107722
0.267079 0.310196 0.097242
0.306411 0.313144 0.094132
0.340577 0.306453 0.101290
0.370402 0.302034 0.106288
0.407266 0.306082 0.105217
0.444447 0.309306 0.102650
0.478582 0.310715 0.101731
0.509122 0.311337 0.102540
0.536878 0.311886 0.103874
0.563151 0.312493 0.104833
0.588356 0.313111 0.105704
0.612919 0.313767 0.106721
0.637474 0.314495 0.107876
0.662024 0.315306 0.109147
0.686038 0.316184 0.110481
0.709030 0.317099 0.111826
0.730409 0.318008 0.113126
0.750771 0.318920 0.114399
0.771398 0.319884 0.115717
0.793280 0.320945 0.117140
0.816017 0.322083 0.118639
0.838816 0.323253 0.120159
0.860904 0.324407 0.121643
0.881526 0.325498 0.123035
0.900101 0.326488 0.124292
0.917211 0.327403 0.125452
0.933839 0.328293 0.126579
0.950517 0.329184 0.127709
0.966861 0.330054 0.128814
0.982954 0.330906 0.129901
0.998899 0.331743 0.130975
1.000000 0.332570 0.132043
0.236467 0.329849 0.111948
0.268055 0.339903 0.101287
0.305470 0.346330 0.094331
0.342689 0.344198 0.096513
0.373402 0.336665 0.104594
0.402857 0.333354 0.108599
0.438242 0.337246 0.107722
0.473774 0.340785 0.105176
0.506574 0.342758 0.103594
0.535862 0.343749 0.103393
0.562326 0.344361 0.104257
0.587262 0.344953 0.105540
0.611951 0.345635 0.106592
0.636951 0.346368 0.107472
0.661972 0.347133 0.108429
0.686370 0.347921 0.109496
0.709660 0.348715 0.110618
0.731253 0.349490 0.111734
0.751767 0.350259 0.112853
0.772496 0.351066 0.114031
0.794430 0.351949 0.115321
0.817162 0.352891 0.116698
0.839896 0.353855 0.118108
0.861865 0.354801 0.119496
0.882325 0.355691 0.120805
0.900714 0.356494 0.121993
0.917620 0.357233 0.123091
0.934017 0.357946 0.124162
0.950434 0.358657 0.125238
0.966490 0.359345 0.126292
0.982275 0.360014 0.127329
0.997898 0.360670 0.128356
1.000000 0.361318 0.129380
0.239446 0.358060 0.115770
0.269647 0.367693 0.105460
0.304871 0.375994 0.096524
0.342476 0.378012 0.094311
0.376480 0.372804 0.099871
0.405288 0.365490 0.107769
0.434320 0.363304 0.110893
0.468100 0.367146 0.110206
0.501655 0.370919 0.107902
0.532649 0.373425 0.106055
0.560920 0.374930 0.105184
0.587150 0.375868 0.105240
0.612117 0.376548 0.106070
0.636724 0.377188 0.107374
0.661541 0.377898 0.108520
0.686008 0.378621 0.109461
0.709503 0.379312 0.110284
0.731238 0.379952 0.111139
0.751834 0.380564 0.112029
0.772593 0.381189 0.112994
0.794505 0.381859 0.114079
0.817153 0.382560 0.115260
0.839743 0.383265 0.116490
0.861515 0.383949 0.117717
0.881742 0.384583 0.118887
0.899884 0.385149 0.119957
0.916539 0.385669 0.120956
0.932682 0.386172 0.121936
0.948843 0.386678 0.122928
0.964657 0.387175 0.123908
0.980216 0.387667 0.124881
0.995631 0.388158 0.125852
1.000000 0.388654 0.126827
0.242258 0.384523 0.119265
0.271646 0.393718 0.109477
0.305075 0.403033 0.099622
0.341848 0.407882 0.094589
0.377737 0.406292 0.096429
0.409165 0.399496 0.103787
0.436458 0.393025 0.110856
0.464933 0.391963 0.113239
0.496871 0.395775 0.112712
0.528031 0.399567 0.110711
0.557305 0.402365 0.108783
0.584809 0.404240 0.107475
0.611054 0.405467 0.106912
0.636650 0.406295 0.107088
0.661604 0.406903 0.107942
0.685569 0.407434 0.109207
0.708590 0.407974 0.110293
0.730077 0.408482 0.111160
0.750597 0.408952 0.111869
0.771321 0.409402 0.112576
0.793142 0.409855 0.113405
0.815643 0.410305 0.114340
0.838044 0.410743 0.115343
0.859613 0.411164 0.116369
0.879649 0.411558 0.117370
0.897627 0.411919 0.118304
0.914143 0.412258 0.119188
0.930161 0.412596 0.120068
0.946207 0.412944 0.120969
0.961920 0.413297 0.121870
0.977394 0.413656 0.122772
0.992737 0.414025 0.123682
1.000000 0.414408 0.124602
0.244955 0.409131 0.122482
0.273893 0.417969 0.113238
0.306013 0.427869 0.103040
0.341684 0.434683 0.096227
0.378074 0.436121 0.095052
0.411853 0.431664 0.100007
0.440717 0.424403 0.107892
0.466687 0.419078 0.113791
0.494214 0.418962 0.115551
0.523806 0.422517 0.115095
0.552794 0.426108 0.113326
0.580741 0.428969 0.111382
0.607776 0.431033 0.109791
0.634290 0.432438 0.108775
0.660139 0.433339 0.108433
0.684747 0.433897 0.108739
0.707711 0.434255 0.109571
0.728671 0.434527 0.110661
0.748641 0.434796 0.111608
0.768907 0.435071 0.112445
0.790445 0.435354 0.113211
0.812838 0.435627 0.113914
0.835163 0.435887 0.114684
0.856668 0.436138 0.115507
0.876654 0.436378 0.116336
0.894599 0.436605 0.117129
0.911093 0.436826 0.117895
0.927099 0.437056 0.118670
0.943145 0.437302 0.119476
0.958869 0.437561 0.120292
0.974364 0.437836 0.121119
0.989741 0.438128 0.121961
1.000000 0.438441 0.122823
0.247621 0.432358 0.125518
0.276341 0.440948 0.116796
0.307494 0.451162 0.106541
0.341987 0.459222 0.098566
0.378042 0.462786 0.095215
0.413136 0.460934 0.097444
0.444084 0.454702 0.104226
0.470616 0.447804 0.111727
0.495216 0.443638 0.116384
0.521234 0.444117 0.117687
0.548731 0.447312 0.117265
0.576117 0.450616 0.115640
0.603204 0.453394 0.113681
0.630128 0.455487 0.111877
0.656558 0.456904 0.110534
0.681786 0.457761 0.109801
0.705332 0.458232 0.109666
0.726713 0.458472 0.110015
0.746653 0.458601 0.110733
0.766526 0.458696 0.111745
0.787614 0.458825 0.112747
0.809598 0.458984 0.113658
0.831719 0.459156 0.114449
0.853224 0.459327 0.115117
0.873264 0.459493 0.115775
0.891269 0.459654 0.116426
0.907828 0.459818 0.117072
0.923909 0.459994 0.117740
0.940038 0.460190 0.118448
0.955856 0.460405 0.119175
0.971454 0.460640 0.119924
0.986945 0.460899 0.120695
1.000000 0.461185 0.121492
0.250352 0.454875 0.128484
0.278940 0.463204 0.120226
0.309279 0.473448 0.110032
0.342601 0.482236 0.101281
0.377897 0.487289 0.096285
0.413389 0.487614 0.096121
0.445956 0.483139 0.100971
0.473999 0.476274 0.108374
0.498410 0.470181 0.114993
0.521406 0.466947 0.118577
0.545943 0.467656 0.119609
0.571885 0.470460 0.119200
0.598227 0.473438 0.117646
0.624942 0.476044 0.115639
0.651558 0.478047 0.113690
0.677209 0.479410 0.112148
0.701283 0.480247 0.111152
0.723198 0.480711 0.110693
0.743654 0.480955 0.110673
0.763979 0.481075 0.111044
0.785144 0.481129 0.111830
0.806834 0.481173 0.112940
0.828649 0.481268 0.113966
0.849894 0.481402 0.114848
0.869836 0.481557 0.115578
0.887899 0.481715 0.116167
0.904590 0.481876 0.116693
0.920811 0.482051 0.117252
0.937092 0.482247 0.117858
0.953069 0.482464 0.118494
0.968837 0.482705 0.119160
0.984489 0.482964 0.119854
1.000000 0.483231 0.120584
0.253143 0.477147 0.131426
0.281605 0.485129 0.123567
0.311225 0.495192 0.113499
0.343408 0.504330 0.104222
0.377706 0.510389 0.097944
0.412945 0.512326 0.095838
0.446430 0.509732 0.098493
0.475996 0.503800 0.104780
0.501318 0.497106 0.111961
0.523681 0.491891 0.117581
0.545271 0.489210 0.120427
0.568643 0.489887 0.121307
0.593601 0.492326 0.120909
0.619545 0.495052 0.119387
0.645911 0.497521 0.117372
0.671694 0.499453 0.115389
0.696131 0.500815 0.113756
0.718514 0.501695 0.112607
0.739482 0.502251 0.111895
0.760358 0.502601 0.111571
0.782114 0.502811 0.111653
0.804325 0.502926 0.112174
0.826237 0.502999 0.113099
0.847304 0.503094 0.114200
0.867098 0.503244 0.115139
0.885049 0.503423 0.115911
0.901695 0.503621 0.116565
0.917961 0.503830 0.117148
0.934446 0.504037 0.117693
0.950637 0.504244 0.118234
0.966581 0.504453 0.118808
0.982390 0.504669 0.119414
0.998172 0.504896 0.120056
0.255964 0.499544 0.134372
0.284287 0.507096 0.126862
0.313243 0.516806 0.116957
0.344313 0.525995 0.107323
0.377460 0.532664 0.100035
0.412010 0.535749 0.096326
0.445750 0.534833 0.096872
0.476461 0.530264 0.101486
0.503035 0.523891 0.108210
0.525863 0.517768 0.114752
0.546641 0.513205 0.119600
0.567252 0.510801 0.122022
0.589942 0.511370 0.122843
0.614616 0.513599 0.122487
0.640254 0.516179 0.121030
0.665791 0.518556 0.119095
0.690334 0.520476 0.117167
0.713036 0.521889 0.115541
0.734445 0.522914 0.114265
0.755856 0.523676 0.113313
0.778238 0.524241 0.112710
0.801129 0.524635 0.112533
0.823731 0.524906 0.112797
0.845310 0.525100 0.113445
0.865290 0.525235 0.114377
0.883191 0.525365 0.115339
0.899762 0.525513 0.116161
0.915947 0.525679 0.116901
0.932268 0.525863 0.117589
0.948350 0.526057 0.118214
0.964276 0.526257 0.118782
0.980148 0.526463 0.119306
0.996017 0.526676 0.119846
0.258729 0.521869 0.137277
0.286889 0.528913 0.130071
0.315217 0.538126 0.120347
0.345206 0.547113 0.110485
0.377143 0.554081 0.102416
0.410803 0.558055 0.097383
0.444362 0.558539 0.096141
0.475770 0.555509 0.098882
0.503513 0.550037 0.104491
0.527301 0.543855 0.111029
0.548283 0.538295 0.116953
0.568056 0.534161 0.121297
0.588188 0.531907 0.123493
0.610792 0.532426 0.124305
0.635277 0.534557 0.124013
0.660158 0.537043 0.122687
0.684476 0.539381 0.120912
0.707265 0.541325 0.119132
0.728962 0.542897 0.117520
0.750820 0.544201 0.116099
0.773836 0.545285 0.114913
0.797495 0.546095 0.114082
0.820831 0.546649 0.113682
0.843079 0.547006 0.113704
0.863547 0.547231 0.114071
0.881759 0.547381 0.114670
0.898365 0.547498 0.115431
0.914408 0.547614 0.116303
0.930577 0.547760 0.117138
0.946516 0.547929 0.117903
0.962309 0.548117 0.118608
0.978059 0.548321 0.119260
0.993870 0.548540 0.119868
0.261303 0.543445 0.140036
0.289271 0.549922 0.133090
0.317005 0.558528 0.123550
0.346015 0.567185 0.113570
0.376851 0.574340 0.104946
0.409598 0.579044 0.098875
0.442741 0.580679 0.096208
0.474452 0.579149 0.097170
0.503092 0.574876 0.101356
0.527915 0.569210 0.107252
0.549611 0.563382 0.113439
0.569435 0.558253 0.118898
0.588747 0.554419 0.122907
0.608949 0.552312 0.124935
0.631600 0.552931 0.125748
0.655486 0.555035 0.125528
0.679243 0.557477 0.124377
0.701977 0.559798 0.122832
0.723859 0.561856 0.121185
0.746033 0.563658 0.119525
0.769428 0.565223 0.117927
0.793496 0.566487 0.116559
0.817321 0.567428 0.115558
0.840080 0.568084 0.114976
0.861041 0.568521 0.114782
0.879695 0.568809 0.114891
0.896702 0.569013 0.115219
0.913082 0.569175 0.115737
0.929383 0.569320 0.116441
0.945255 0.569459 0.117290
0.960936 0.569623 0.118130
0.976582 0.569814 0.118915
0.992295 0.570030 0.119654
0.263583 0.563696 0.142568
0.291338 0.569579 0.135839
0.318565 0.577605 0.126498
0.346779 0.585978 0.116504
0.376680 0.593280 0.107512
0.408576 0.598597 0.100655
0.441215 0.601230 0.096837
0.472960 0.601010 0.096326
0.502207 0.598036 0.099043
0.527941 0.593220 0.103961
0.550506 0.587638 0.109844
0.570857 0.582124 0.115724
0.590113 0.577317 0.120850
0.609516 0.573739 0.124601
0.629999 0.571877 0.126407
0.652526 0.572767 0.127232
0.675603 0.574903 0.127069
0.697794 0.577242 0.126098
0.719353 0.579500 0.124712
0.741415 0.581643 0.123083
0.764888 0.583648 0.121314
0.789203 0.585388 0.119604
0.813397 0.586782 0.118147
0.836593 0.587827 0.117057
0.858006 0.588573 0.116360
0.877087 0.589091 0.116008
0.894494 0.589465 0.115916
0.911263 0.589758 0.116035
0.927950 0.590001 0.116355
0.944184 0.590208 0.116853
0.960070 0.590396 0.117514
0.975730 0.590580 0.118326
0.991367 0.590784 0.119189
0.265509 0.582066 0.144807
0.293088 0.587457 0.138281
0.319936 0.595037 0.129154
0.347532 0.603197 0.119217
0.376674 0.610634 0.110000
0.407835 0.616476 0.102570
0.439974 0.619977 0.097852
0.471612 0.620857 0.096200
0.501233 0.619149 0.097572
0.527688 0.615329 0.101413
0.551093 0.610301 0.106683
0.572268 0.604792 0.112546
0.591997 0.599478 0.118238
0.611325 0.594917 0.123115
0.630968 0.591705 0.126494
0.651247 0.590259 0.127890
0.673113 0.591457 0.128705
0.694525 0.593448 0.128541
0.715561 0.595660 0.127673
0.737306 0.597962 0.126333
0.760653 0.600284 0.124642
0.785031 0.602440 0.122815
0.809444 0.604279 0.121086
0.832963 0.605745 0.119630
0.854747 0.606851 0.118531
0.874202 0.607657 0.117789
0.891975 0.608263 0.117324
0.909112 0.608749 0.117079
0.926172 0.609155 0.117036
0.942774 0.609492 0.117188
0.959019 0.609782 0.117518
0.975024 0.610041 0.118016
0.990890 0.610274 0.118672
0.267208 0.599207 0.146855
0.294655 0.604220 0.140530
0.321217 0.611459 0.131628
0.348327 0.619471 0.121794
0.376847 0.627053 0.112450
0.407376 0.633376 0.104594
0.439047 0.637666 0.099157
0.470506 0.639527 0.096565
0.500391 0.638896 0.096784
0.527487 0.636010 0.099573
0.551689 0.631612 0.104112
0.573551 0.626403 0.109616
0.593808 0.620965 0.115422
0.613320 0.615828 0.120928
0.632627 0.611612 0.125427
0.651986 0.608867 0.128291
0.671641 0.607832 0.129314
0.692174 0.609189 0.130108
0.712540 0.611101 0.129955
0.733799 0.613353 0.129120
0.756840 0.615828 0.127734
0.781105 0.618294 0.126003
0.805586 0.620529 0.124188
0.829308 0.622409 0.122513
0.851375 0.623898 0.121124
0.871144 0.625030 0.120068
0.889241 0.625913 0.119288
0.906717 0.626642 0.118720
0.924122 0.627257 0.118344
0.941044 0.627753 0.118164
0.957583 0.628158 0.118170
0.973861 0.628494 0.118350
0.989991 0.628781 0.118698
0.268844 0.616314 0.148872
0.296194 0.621030 0.142757
0.322534 0.628008 0.134097
0.349246 0.635930 0.124408
0.377236 0.643686 0.115004
0.407204 0.650492 0.106821
0.438549 0.655484 0.100750
0.469852 0.658106 0.097313
0.499768 0.658372 0.096534
0.527173 0.656455 0.098242
0.551931 0.652841 0.101897
0.574461 0.648130 0.106829
0.595347 0.642836 0.112455
0.615285 0.637433 0.118241
0.634637 0.632528 0.123503
0.653540 0.628741 0.127539
0.672209 0.626428 0.129942
0.690684 0.625739 0.130799
0.710250 0.627080 0.131535
0.730858 0.629039 0.131414
0.753408 0.631469 0.130563
0.777380 0.634104 0.129151
0.801770 0.636656 0.127443
0.825569 0.638926 0.125704
0.847830 0.640811 0.124138
0.867846 0.642297 0.122850
0.886192 0.643473 0.121804
0.903914 0.644447 0.120944
0.921575 0.645273 0.120252
0.938765 0.645953 0.119751
0.955581 0.646514 0.119434
0.972140 0.646981 0.119295
0.988372 0.647373 0.119329
0.270540 0.634293 0.150979
0.297825 0.638786 0.145090
0.324000 0.645577 0.136700
0.350432 0.653484 0.127184
0.378137 0.661491 0.117742
0.407697 0.668674 0.109259
0.438456 0.674162 0.102643
0.469341 0.677499 0.098437
0.499113 0.678611 0.096746
0.526696 0.677688 0.097372
0.551911 0.674971 0.100042
0.575073 0.670939 0.104217
0.596644 0.666026 0.109410
0.617183 0.660637 0.115165
0.636875 0.655331 0.120862
0.655707 0.650756 0.125779
0.673834 0.647371 0.129396
0.691246 0.645373 0.131489
0.708807 0.644723 0.132266
0.728598 0.646093 0.133071
0.750455 0.648210 0.133004
0.773925 0.650807 0.132169
0.798031 0.653545 0.130801
0.821745 0.656135 0.129189
0.844024 0.658357 0.127583
0.864119 0.660150 0.126151
0.882604 0.661615 0.124905
0.900515 0.662865 0.123801
0.918407 0.663957 0.122829
0.935857 0.664879 0.122027
0.952952 0.665659 0.121397
0.969804 0.666321 0.120937
0.985517 0.666864 0.120669
0.272316 0.652923 0.153165
0.299683 0.657293 0.147496
0.325913 0.664024 0.139347
0.352219 0.671995 0.130010
0.379450 0.680054 0.120588
0.408394 0.687445 0.111890
0.438554 0.693391 0.104810
0.468982 0.697400 0.099917
0.498531 0.699328 0.097384
0.526169 0.699337 0.097033
0.551721 0.697581 0.098679
0.575432 0.694360 0.101980
0.597677 0.690028 0.106537
0.618903 0.684914 0.111984
0.639146 0.679506 0.117786
0.658229 0.674438 0.123244
0.676209 0.670235 0.127779
0.693079 0.667218 0.131027
0.709661 0.665355 0.133018
0.727336 0.664610 0.133803
0.748337 0.666097 0.134728
0.771098 0.668372 0.134718
0.794664 0.671037 0.133936
0.818001 0.673720 0.132663
0.840090 0.676158 0.131196
0.860139 0.678220 0.129764
0.878673 0.679970 0.128430
0.896702 0.681515 0.127172
0.914773 0.682906 0.125990
0.932444 0.684117 0.124940
0.949796 0.685168 0.124035
0.966931 0.686082 0.123280
0.982058 0.686814 0.122759
0.274525 0.671706 0.155364
0.301934 0.676072 0.149894
0.328092 0.682758 0.142001
0.354110 0.690593 0.132841
0.380889 0.698634 0.123462
0.409277 0.706211 0.114615
0.438873 0.712569 0.107159
0.468839 0.717196 0.101679
0.498116 0.719886 0.098402
0.525713 0.720730 0.097218
0.551479 0.719927 0.097888
0.575629 0.717583 0.100276
0.598477 0.713968 0.104078
0.620392 0.709335 0.109011
0.641289 0.704093 0.114634
0.660843 0.698833 0.120302
0.678996 0.694104 0.125418
0.695695 0.690317 0.129526
0.711769 0.687506 0.132584
0.728558 0.685633 0.134624
0.747291 0.684848 0.135479
0.769115 0.686416 0.136453
0.791899 0.688681 0.136463
0.814671 0.691240 0.135751
0.836406 0.693749 0.134626
0.856273 0.695989 0.133363
0.874742 0.697972 0.132079
0.892793 0.699787 0.130786
0.910960 0.701474 0.129499
0.928789 0.702987 0.128290
0.946346 0.704337 0.127181
0.963728 0.705542 0.126189
0.978204 0.706477 0.125486
0.276833 0.690124 0.157550
0.304208 0.694425 0.152248
0.330240 0.700923 0.144560
0.356010 0.708625 0.135575
0.382410 0.716657 0.126266
0.410317 0.724401 0.117325
0.439407 0.731127 0.109580
0.468936 0.736308 0.103618
0.497925 0.739690 0.099708
0.525424 0.741298 0.097804
0.551290 0.741332 0.097643
0.575734 0.739830 0.099149
0.599048 0.736953 0.102156
0.621558 0.732899 0.106453
0.643094 0.727998 0.111691
0.663205 0.722781 0.117296
0.681718 0.717789 0.122681
0.698507 0.713483 0.127340
0.714386 0.709947 0.131177
0.730657 0.707143 0.134224
0.748477 0.705210 0.136326
0.768065 0.704548 0.137213
0.789980 0.706162 0.138146
0.812061 0.708369 0.138163
0.833306 0.710766 0.137554
0.852863 0.713053 0.136618
0.871154 0.715174 0.135526
0.889124 0.717191 0.134329
0.907292 0.719130 0.133058
0.925195 0.720922 0.131794
0.942886 0.722566 0.130574
0.960453 0.724070 0.129426
0.974233 0.725195 0.128625
0.279028 0.707374 0.159609
0.306345 0.711558 0.154442
0.332282 0.717913 0.146942
0.357858 0.725515 0.138127
0.383951 0.733552 0.128903
0.411458 0.741447 0.119914
0.440115 0.748496 0.111955
0.469256 0.754162 0.105611
0.497953 0.758135 0.101180
0.525265 0.760338 0.098658
0.551086 0.760987 0.097820
0.575677 0.760216 0.098528
0.599316 0.758041 0.100769
0.622300 0.754600 0.104396
0.644401 0.750147 0.109138
0.665070 0.745148 0.114496
0.684032 0.740116 0.119913
0.701085 0.735537 0.124859
0.717013 0.731527 0.129204
0.733086 0.728047 0.132984
0.750387 0.725214 0.136071
0.769017 0.723396 0.138062
0.788978 0.723080 0.138936
0.810321 0.724745 0.139760
0.830998 0.726855 0.139776
0.850155 0.729042 0.139283
0.868177 0.731187 0.138499
0.885974 0.733313 0.137511
0.904054 0.735428 0.136366
0.921945 0.737442 0.135152
0.939692 0.739340 0.133920
0.957373 0.741118 0.132704
0.970437 0.742397 0.131882
0.281019 0.722922 0.161470
0.308293 0.727026 0.156422
0.334163 0.733278 0.149089
0.359593 0.740812 0.140429
0.385446 0.748864 0.131297
0.412634 0.756897 0.122292
0.440935 0.764224 0.114180
0.469713 0.770257 0.107535
0.498072 0.774620 0.102674
0.525165 0.777292 0.099643
0.550902 0.778462 0.098249
0.575555 0.778299 0.098311
0.599414 0.776767 0.099867
0.622761 0.773923 0.102856
0.645331 0.769958 0.107072
0.666502 0.765273 0.112088
0.685918 0.760350 0.117382
0.703307 0.755679 0.122422
0.719421 0.751399 0.127055
0.735503 0.747467 0.131324
0.752576 0.743977 0.135130
0.770681 0.741315 0.138051
0.789592 0.739810 0.139731
0.809420 0.740006 0.140583
0.829513 0.741698 0.141254
0.848232 0.743666 0.141261
0.865931 0.745725 0.140852
0.883494 0.747862 0.140150
0.901416 0.750066 0.139214
0.919225 0.752229 0.138135
0.936958 0.754320 0.136972
0.954684 0.756323 0.135770
0.967050 0.757710 0.134986
0.282874 0.737282 0.163195
0.310118 0.741331 0.158254
0.335940 0.747510 0.151073
0.361257 0.755001 0.142560
0.386919 0.763080 0.133520
0.413844 0.771241 0.124520
0.441812 0.778758 0.116287
0.470214 0.785013 0.109390
0.498260 0.789709 0.104174
0.525138 0.792792 0.100717
0.550770 0.794424 0.098848
0.575436 0.794772 0.098384
0.599444 0.793834 0.099325
0.623073 0.791564 0.101715
0.646033 0.788102 0.105404
0.667651 0.783787 0.110028
0.687503 0.779067 0.115105
0.705253 0.774424 0.120113
0.721625 0.770016 0.124883
0.737840 0.765794 0.129465
0.754868 0.761828 0.133790
0.772691 0.758508 0.137435
0.791058 0.756212 0.139993
0.809678 0.755117 0.141270
0.828714 0.755813 0.142122
0.846976 0.757462 0.142656
0.864320 0.759344 0.142666
