Fotico/Resources/LUTs/tezza_mood.cube
TITLE "Tezza Mood"
LUT_3D_SIZE 5
DOMAIN_MIN 0.0 0.0 0.0
DOMAIN_MAX 1.0 1.0 1.0
0.016582 0.000000 0.000000
0.102427 0.000000 0.000000
0.281479 0.000000 0.000000
0.488185 0.000000 0.000000
0.627525 0.000000 0.000000
0.052361 0.047264 0.023644
0.098895 0.072595 0.014293
0.377514 0.118444 0.000000
0.639339 0.134424 0.000000
0.817962 0.144243 0.000000
0.171952 0.197604 0.129352
0.211630 0.316416 0.063639
0.349369 0.304168 0.106121
0.842473 0.492997 0.000000
1.000000 0.504065 0.000000
0.328449 0.398977 0.273361
0.342710 0.497629 0.211827
0.552863 0.694159 0.073018
0.620783 0.562960 0.214128
0.869274 0.691471 0.159464
0.422845 0.522924 0.363309
0.430301 0.608043 0.304545
0.578489 0.858285 0.076876
0.697502 0.714403 0.225399
0.759401 0.698198 0.272561
0.034453 0.018102 0.040876
0.102053 0.000000 0.059436
0.287227 0.004589 0.073546
0.498744 0.000000 0.080798
0.640432 0.000000 0.086655
0.046876 0.056323 0.042597
0.142748 0.104256 0.080313
0.387977 0.113877 0.086337
0.653434 0.123031 0.091379
0.832836 0.128153 0.093936
0.131140 0.268187 0.139993
0.281784 0.299101 0.223662
0.425431 0.375441 0.215468
0.885845 0.499821 0.110565
1.000000 0.498011 0.097315
0.289828 0.457012 0.276522
0.450136 0.505240 0.382448
0.580606 0.733861 0.207917
0.687993 0.628275 0.335404
0.932104 0.736348 0.260397
0.385674 0.573522 0.365225
0.543427 0.623914 0.472615
0.597013 0.836295 0.267777
0.748737 0.769714 0.335810
0.808776 0.747432 0.388449
0.083572 0.063551 0.163263
0.136810 0.060257 0.173739
0.304763 0.000000 0.231965
0.515816 0.023161 0.271149
0.666883 0.031599 0.299343
0.135964 0.135596 0.156799
0.199077 0.163890 0.251283
0.401370 0.129822 0.304573
0.675304 0.171118 0.357019
0.858395 0.175444 0.378612
0.151695 0.241151 0.214113
0.292605 0.354100 0.319960
0.565016 0.487152 0.419051
0.874118 0.493360 0.423519
1.000000 0.496094 0.425433
0.171260 0.625889 0.402201
0.373815 0.666336 0.455619
0.646640 0.689667 0.554038
0.788206 0.725086 0.539572
1.000000 0.781779 0.437690
0.215610 0.782767 0.450144
0.464798 0.760154 0.514284
0.714335 0.772234 0.630661
0.822945 0.859915 0.517463
0.887522 0.825619 0.582760
0.140955 0.117294 0.308354
0.186760 0.092729 0.326310
0.325129 0.068126 0.364523
0.540287 0.000000 0.435094
0.691066 0.013422 0.469021
0.241986 0.243034 0.313909
0.284198 0.243822 0.440982
0.441985 0.236841 0.477604
0.702692 0.151025 0.564384
0.877044 0.183096 0.597970
0.238697 0.339435 0.375590
0.400892 0.442282 0.476309
0.606120 0.545167 0.645067
0.861527 0.519337 0.694176
1.000000 0.535475 0.706925
0.281942 0.478957 0.437677
0.435536 0.592059 0.546230
0.650445 0.739730 0.680250
0.873065 0.784739 0.693391
1.000000 0.772325 0.677939
0.279930 0.712751 0.575686
0.417428 0.805788 0.648159
0.671311 0.860989 0.706697
0.851450 0.892652 0.711710
0.950852 0.883847 0.731106
0.187156 0.160952 0.426435
0.223495 0.119842 0.444333
0.387620 0.148079 0.480179
0.551198 0.023350 0.549307
0.711076 0.000000 0.596969
0.315480 0.320969 0.448021
0.347566 0.303848 0.586242
0.511931 0.318490 0.611423
0.711090 0.184756 0.705603
0.899826 0.160193 0.753506
0.323593 0.417245 0.492993
0.503060 0.528128 0.586833
0.657083 0.596171 0.787281
0.854813 0.545460 0.840334
1.000000 0.518891 0.873393
0.341250 0.513922 0.519195
0.495929 0.621942 0.628439
0.711682 0.747544 0.756511
0.867723 0.805380 0.834076
1.000000 0.785217 0.854741
0.363136 0.611198 0.570158
0.514273 0.710452 0.667485
0.712174 0.824731 0.778772
0.866447 0.898536 0.839855
0.999532 0.908396 0.825027
