Fotico/Resources/LUTs/tezza_golden.cube
TITLE "Tezza Golden Hour"
LUT_3D_SIZE 5
DOMAIN_MIN 0.0 0.0 0.0
DOMAIN_MAX 1.0 1.0 1.0
0.152972 0.009728 0.000000
0.429363 0.013055 0.000000
0.698311 0.019172 0.000000
0.866526 0.024707 0.000000
0.868646 0.027868 0.000000
0.194354 0.224287 0.000000
0.523034 0.263371 0.000000
0.812119 0.279551 0.000000
0.990939 0.291801 0.000000
0.992748 0.295694 0.000000
0.242468 0.457733 0.000000
0.585337 0.544696 0.000000
0.890945 0.559451 0.000000
1.000000 0.567250 0.000000
1.000000 0.570781 0.000000
0.293149 0.713129 0.000000
0.609000 0.799163 0.000000
0.899022 0.798243 0.000000
1.000000 0.798329 0.000000
1.000000 0.801328 0.000000
0.321992 0.890660 0.012822
0.605549 0.968129 0.000000
0.884078 0.962021 0.000000
1.000000 0.959725 0.000000
1.000000 0.962487 0.000000
0.150700 0.016167 0.020087
0.426742 0.013162 0.026103
0.697843 0.014391 0.022889
0.858764 0.012100 0.015285
0.870353 0.028006 0.024322
0.186110 0.238489 0.046139
0.542155 0.267483 0.024471
0.857329 0.257208 0.000000
0.978104 0.263066 0.000000
0.995091 0.296485 0.041966
0.234213 0.476745 0.081707
0.581637 0.545502 0.063872
0.933252 0.580285 0.013940
1.000000 0.567544 0.011496
1.000000 0.570966 0.046112
0.289097 0.727464 0.118760
0.604899 0.797330 0.066430
0.897672 0.802021 0.051933
1.000000 0.811927 0.021339
1.000000 0.800900 0.044956
0.321952 0.898307 0.141252
0.606202 0.955224 0.078646
0.879524 0.961371 0.054782
1.000000 0.975263 0.028457
1.000000 0.961896 0.043385
0.156687 0.024063 0.137694
0.429819 0.013474 0.160956
0.700935 0.019645 0.172739
0.878310 0.025226 0.177766
0.880138 0.028430 0.176551
0.206548 0.219195 0.167254
0.519115 0.265362 0.207845
0.817746 0.269934 0.202905
0.989652 0.269495 0.193404
1.000000 0.299453 0.216658
0.205053 0.512568 0.237747
0.579480 0.545634 0.246668
0.917583 0.567622 0.208440
1.000000 0.556329 0.190192
1.000000 0.571422 0.229063
0.232665 0.783158 0.259870
0.615686 0.771514 0.276155
0.889217 0.797733 0.236270
1.000000 0.809020 0.196622
1.000000 0.799052 0.224392
0.264187 0.945601 0.268776
0.629087 0.923603 0.291156
0.872843 0.958804 0.231218
1.000000 0.969535 0.207137
1.000000 0.959513 0.217887
0.171294 0.037921 0.261421
0.430573 0.022719 0.299621
0.705912 0.020006 0.328938
0.887902 0.025606 0.339443
0.889634 0.028848 0.338512
0.235058 0.245421 0.305586
0.519890 0.288682 0.364798
0.811484 0.284565 0.393288
1.000000 0.298521 0.402980
1.000000 0.302420 0.401007
0.251053 0.450301 0.358510
0.585209 0.539752 0.428502
0.899608 0.551300 0.411887
1.000000 0.542005 0.389673
1.000000 0.571678 0.419317
0.237527 0.773695 0.443159
0.612764 0.779789 0.447312
0.881889 0.794554 0.425315
1.000000 0.802144 0.378275
1.000000 0.797143 0.409994
0.226415 0.972875 0.443603
0.633688 0.925904 0.458578
0.866282 0.955658 0.414013
1.000000 0.963542 0.392378
1.000000 0.957290 0.398436
0.190068 0.052387 0.387023
0.445676 0.061435 0.418019
0.710042 0.020327 0.477591
0.896401 0.025946 0.492800
0.898066 0.029223 0.492131
0.273966 0.277090 0.430554
0.534272 0.299010 0.523787
0.813640 0.287007 0.562748
1.000000 0.301138 0.577680
1.000000 0.304959 0.574638
0.270890 0.476587 0.508740
0.619358 0.552604 0.567143
0.878183 0.562351 0.608145
1.000000 0.568292 0.601233
1.000000 0.571724 0.596182
0.295467 0.708774 0.560613
0.610989 0.776049 0.604488
0.878210 0.788999 0.603206
1.000000 0.787948 0.559714
1.000000 0.795400 0.581821
0.263098 0.933644 0.603218
0.583760 0.962179 0.598438
0.879919 0.932179 0.607430
1.000000 0.958132 0.564099
1.000000 0.955468 0.565740
