Fotico/Resources/LUTs/tezza_lush.cube
TITLE "Tezza Lush"
LUT_3D_SIZE 5
DOMAIN_MIN 0.0 0.0 0.0
DOMAIN_MAX 1.0 1.0 1.0
0.137428 0.041166 0.000000
0.414203 0.042102 0.000000
0.678137 0.047229 0.000000
0.952273 0.052462 0.000000
0.973273 0.058218 0.000000
0.150282 0.327601 0.000000
0.495865 0.334834 0.000000
0.765801 0.335051 0.000000
1.000000 0.338675 0.000000
1.000000 0.342673 0.000000
0.133343 0.618449 0.000000
0.499533 0.588367 0.000000
0.803335 0.615553 0.000000
1.000000 0.603271 0.000000
1.000000 0.599322 0.000000
0.121271 0.878541 0.000000
0.506189 0.836921 0.000000
0.780824 0.837852 0.000000
1.000000 0.855573 0.000000
1.000000 0.828383 0.000000
0.151687 1.000000 0.000000
0.497649 1.000000 0.000000
0.766858 0.998187 0.000000
1.000000 1.000000 0.000000
1.000000 0.994127 0.000000
0.136321 0.051101 0.085404
0.413218 0.049873 0.092838
0.681963 0.055861 0.097533
0.955647 0.061150 0.100819
0.981462 0.063598 0.100122
0.148462 0.331191 0.136575
0.509076 0.342565 0.112881
0.807760 0.316170 0.083252
1.000000 0.307996 0.077399
1.000000 0.347904 0.133787
0.150955 0.600738 0.163664
0.497048 0.597392 0.161859
0.821794 0.631101 0.111293
1.000000 0.606301 0.056766
1.000000 0.604155 0.153839
0.137797 0.864081 0.173783
0.490654 0.859268 0.157053
0.772783 0.833974 0.176465
1.000000 0.875891 0.101719
1.000000 0.831348 0.168994
0.153474 1.000000 0.189986
0.489908 1.000000 0.177273
0.762730 1.000000 0.187769
1.000000 1.000000 0.171216
1.000000 0.996107 0.179174
0.149315 0.069536 0.234212
0.418519 0.055231 0.263587
0.692237 0.061623 0.280051
0.963997 0.067043 0.291198
0.992335 0.069223 0.290918
0.145159 0.335024 0.337305
0.482318 0.344824 0.328374
0.755769 0.346422 0.334399
1.000000 0.349954 0.333710
1.000000 0.353266 0.333180
0.126384 0.628587 0.384617
0.486870 0.608019 0.361594
0.800332 0.615619 0.330957
1.000000 0.584658 0.289904
1.000000 0.608839 0.354087
0.151080 0.852780 0.391194
0.473422 0.864325 0.364029
0.768361 0.835752 0.376770
1.000000 0.864200 0.313123
1.000000 0.834014 0.366075
0.155201 1.000000 0.398560
0.485279 1.000000 0.382051
0.755385 1.000000 0.374182
1.000000 1.000000 0.369380
1.000000 0.997930 0.372594
0.166689 0.091119 0.401667
0.429240 0.095044 0.433036
0.701904 0.067705 0.481545
0.970282 0.072826 0.497773
1.000000 0.074969 0.497787
0.219024 0.338468 0.470793
0.491223 0.358502 0.533134
0.754675 0.352234 0.546899
1.000000 0.356655 0.547919
1.000000 0.358917 0.545617
0.120636 0.628009 0.619255
0.485672 0.609095 0.587215
0.766899 0.608907 0.575587
1.000000 0.611318 0.570554
1.000000 0.613536 0.567109
0.121152 0.883955 0.630101
0.478852 0.859399 0.600799
0.750981 0.850728 0.574892
1.000000 0.846722 0.543043
1.000000 0.836729 0.574761
0.156967 1.000000 0.614862
0.486568 1.000000 0.599501
0.749261 1.000000 0.586075
0.992700 0.998768 0.580443
1.000000 0.999473 0.577230
0.183520 0.110882 0.554961
0.451932 0.116260 0.596565
0.703727 0.086988 0.645885
0.973572 0.077550 0.673948
1.000000 0.079693 0.674297
0.260512 0.370588 0.610103
0.502761 0.376369 0.701513
0.746258 0.383577 0.702093
1.000000 0.361164 0.728392
1.000000 0.363576 0.725377
0.169654 0.597656 0.747294
0.548763 0.612545 0.703209
0.769856 0.622836 0.746202
1.000000 0.615299 0.750283
1.000000 0.617285 0.746564
0.121075 0.882569 0.824499
0.448970 0.883787 0.817701
0.741961 0.856114 0.781143
1.000000 0.835957 0.752509
1.000000 0.838972 0.750040
0.158417 1.000000 0.793156
0.487611 1.000000 0.776904
0.749676 1.000000 0.763691
0.988691 0.998034 0.753007
1.000000 0.997605 0.749351
