Fotico/Resources/LUTs/tezza_vintage.cube
TITLE "Tezza Vintage"
LUT_3D_SIZE 9
DOMAIN_MIN 0.0 0.0 0.0
DOMAIN_MAX 1.0 1.0 1.0
0.265978 0.091848 0.027531
0.406566 0.095776 0.028573
0.558506 0.099531 0.029770
0.685892 0.102758 0.030849
0.790156 0.105412 0.031746
0.897336 0.108123 0.032669
0.997400 0.110619 0.033522
1.000000 0.112730 0.034245
1.000000 0.114454 0.034616
0.267118 0.214933 0.025611
0.395838 0.214223 0.037818
0.544610 0.224312 0.042403
0.669452 0.230381 0.044747
0.771439 0.234086 0.045802
0.875545 0.237087 0.046576
0.971756 0.239305 0.047153
1.000000 0.240769 0.047566
1.000000 0.242444 0.047888
0.273640 0.340528 0.045242
0.398961 0.349691 0.036890
0.528919 0.347633 0.051854
0.652272 0.357733 0.051489
0.746737 0.362009 0.055542
0.842307 0.365853 0.060006
0.932672 0.369095 0.062920
1.000000 0.371727 0.064871
1.000000 0.373736 0.066053
0.286118 0.439593 0.072510
0.396473 0.471478 0.037175
0.522366 0.448814 0.061152
0.626990 0.450148 0.071866
0.725075 0.459826 0.070806
0.825870 0.467008 0.071408
0.919672 0.472372 0.073369
0.999172 0.476998 0.076253
1.000000 0.479333 0.076718
0.295073 0.516474 0.094426
0.392361 0.548290 0.058569
0.528013 0.551687 0.055289
0.622167 0.528754 0.078048
0.712683 0.534933 0.084485
0.817602 0.547839 0.082318
0.916704 0.557112 0.080196
0.999759 0.563172 0.080171
1.000000 0.565584 0.080110
0.305647 0.599224 0.114774
0.399172 0.631730 0.079756
0.534933 0.661959 0.048763
0.641942 0.639486 0.071120
0.716901 0.623315 0.087203
0.810529 0.630229 0.094650
0.908511 0.643049 0.093466
0.993191 0.652072 0.091046
1.000000 0.654954 0.089902
0.319934 0.682220 0.128538
0.411673 0.713984 0.096448
0.539025 0.754557 0.055517
0.656224 0.749212 0.060314
0.736853 0.727318 0.082024
0.813563 0.712446 0.096577
0.900881 0.718890 0.103933
0.981514 0.728395 0.103622
1.000000 0.731389 0.102488
0.332631 0.752545 0.140179
0.423070 0.782283 0.110083
0.542622 0.823683 0.066723
0.660372 0.833711 0.053977
0.747746 0.813685 0.073319
0.826185 0.792643 0.093925
0.898925 0.782431 0.105330
0.972847 0.787954 0.110997
0.992675 0.790490 0.110816
0.344312 0.817628 0.150911
0.433426 0.844567 0.122361
0.545997 0.883988 0.078166
0.659988 0.903483 0.054153
0.752625 0.891507 0.064703
0.835653 0.868642 0.087153
0.906680 0.851458 0.103827
0.970330 0.845834 0.112447
0.986667 0.847235 0.113609
0.267842 0.091607 0.088683
0.409576 0.093626 0.089710
0.562429 0.096444 0.091316
0.690179 0.099309 0.093135
0.794631 0.101758 0.094738
0.901935 0.104300 0.096417
1.000000 0.106662 0.097978
1.000000 0.108678 0.099316
1.000000 0.110338 0.100339
0.270527 0.210004 0.106346
0.400327 0.219719 0.107598
0.550406 0.227213 0.112004
0.676596 0.230932 0.113811
0.778913 0.233261 0.115110
0.883042 0.235242 0.116359
0.978999 0.236726 0.117417
1.000000 0.237828 0.118275
1.000000 0.239354 0.119255
0.289564 0.336342 0.136996
0.402539 0.359071 0.115402
0.534865 0.355100 0.131422
0.655019 0.362354 0.132962
0.748791 0.366067 0.136809
0.846049 0.369068 0.139005
0.937794 0.371413 0.140414
1.000000 0.373347 0.141470
1.000000 0.375184 0.142470
0.300132 0.439572 0.158362
0.397864 0.463799 0.133163
0.526790 0.456202 0.139885
0.631826 0.457104 0.149886
0.730393 0.465906 0.148550
0.830268 0.472034 0.150426
0.923172 0.477244 0.153490
1.000000 0.481700 0.155260
1.000000 0.483928 0.155327
0.305559 0.518576 0.173803
0.400703 0.537479 0.156707
0.530704 0.560108 0.132616
0.628047 0.536324 0.155999
0.719285 0.542844 0.161645
0.824910 0.555149 0.158986
0.923076 0.563162 0.157862
1.000000 0.568494 0.159197
1.000000 0.570807 0.159655
0.314433 0.603432 0.189565
0.412431 0.621484 0.176107
0.534826 0.661684 0.135089
0.647730 0.648853 0.147770
0.723365 0.631340 0.165162
0.817264 0.638302 0.171982
0.915712 0.650702 0.170042
0.999882 0.658668 0.167746
1.000000 0.661311 0.166764
0.329335 0.687386 0.203379
0.427271 0.704872 0.191711
0.540631 0.747161 0.148968
0.658868 0.757452 0.137639
0.742652 0.735877 0.158914
0.819474 0.719937 0.174424
0.906620 0.726190 0.181029
0.987454 0.735441 0.179827
1.000000 0.738390 0.178490
0.342301 0.758057 0.215174
0.439817 0.774125 0.204328
0.546752 0.814376 0.161904
0.660201 0.836468 0.135986
0.751519 0.821891 0.149240
0.831480 0.800020 0.170617
0.903838 0.788994 0.182458
0.978035 0.794782 0.187511
0.998785 0.797482 0.187104
0.354065 0.823108 0.225947
0.450747 0.837143 0.215480
0.552393 0.873734 0.173895
0.659495 0.901282 0.140955
0.754724 0.899026 0.140972
0.840557 0.876667 0.162805
0.912144 0.858661 0.180336
0.975579 0.852666 0.189119
0.992723 0.854208 0.190278
0.265832 0.093228 0.200505
0.407649 0.095236 0.201407
0.561196 0.097647 0.202719
0.689749 0.099759 0.203935
0.794846 0.101492 0.204900
0.902777 0.103249 0.205806
1.000000 0.104850 0.206540
1.000000 0.106219 0.207153
1.000000 0.107624 0.207922
0.268679 0.217689 0.205837
0.406363 0.221339 0.211697
0.559477 0.223457 0.212879
0.685814 0.225562 0.214118
0.787944 0.227263 0.215133
0.891781 0.228868 0.216057
0.987283 0.230100 0.216677
1.000000 0.231195 0.217253
1.000000 0.232693 0.218228
0.264077 0.360843 0.221952
0.405142 0.356534 0.230286
0.541429 0.362755 0.231548
0.658734 0.367064 0.234507
0.755133 0.368749 0.234932
0.854094 0.369804 0.235108
0.946954 0.370774 0.235441
1.000000 0.371901 0.236018
1.000000 0.373457 0.236974
0.273348 0.462519 0.234111
0.414263 0.452815 0.254198
0.532003 0.465987 0.237290
0.638540 0.465765 0.246802
0.736184 0.472590 0.247130
0.834833 0.477959 0.250453
0.929897 0.482621 0.251647
1.000000 0.486197 0.252045
1.000000 0.488071 0.251693
0.280274 0.539801 0.245914
0.420694 0.531539 0.270701
0.531044 0.563041 0.236918
0.635693 0.546070 0.253288
0.728023 0.552839 0.257874
0.833651 0.563465 0.255450
0.929488 0.569898 0.256686
1.000000 0.574786 0.259459
1.000000 0.577064 0.259759
0.293004 0.623680 0.259787
0.433653 0.619599 0.285328
0.538014 0.651857 0.252469
0.653770 0.660637 0.243505
0.731474 0.641397 0.262597
0.825822 0.648366 0.268480
0.924551 0.659688 0.265788
1.000000 0.666024 0.264213
1.000000 0.668359 0.263691
0.311098 0.705522 0.273495
0.448575 0.705048 0.299125
0.549312 0.734418 0.269224
0.659497 0.762543 0.239369
0.749299 0.746717 0.254467
0.826664 0.729096 0.271544
0.913701 0.735146 0.277019
0.994922 0.743963 0.274710
1.000000 0.746915 0.273267
0.325982 0.774278 0.285524
0.460762 0.775263 0.310421
0.559164 0.801006 0.282468
0.659892 0.832483 0.246218
0.754829 0.831675 0.244232
0.837941 0.809326 0.265981
0.909986 0.797163 0.278595
0.984748 0.803424 0.282813
1.000000 0.806412 0.282127
0.339127 0.837441 0.296489
0.471059 0.838566 0.320215
0.567413 0.860463 0.293687
0.661272 0.892178 0.256076
0.755481 0.905100 0.239772
0.846403 0.887123 0.256917
0.919221 0.867961 0.275686
0.982427 0.861419 0.284858
0.999976 0.863191 0.286030
0.264706 0.096190 0.305222
0.405903 0.096757 0.307519
0.559643 0.099189 0.308920
0.688213 0.101294 0.310175
0.793224 0.103009 0.311111
0.900972 0.104739 0.311915
1.000000 0.106309 0.312474
1.000000 0.107647 0.312925
1.000000 0.109019 0.313668
0.282833 0.227503 0.296220
0.404634 0.222745 0.317957
0.557689 0.224715 0.318898
0.684405 0.226143 0.319335
0.786952 0.227123 0.319411
0.891201 0.227923 0.319184
0.986953 0.228354 0.318519
1.000000 0.228836 0.318110
1.000000 0.230054 0.318787
0.259164 0.364683 0.327741
0.399365 0.364958 0.327442
0.547243 0.364819 0.326737
0.667347 0.364740 0.326254
0.764163 0.364679 0.325864
0.863186 0.364856 0.325676
0.956091 0.365412 0.325846
1.000000 0.366444 0.326488
1.000000 0.367915 0.327505
0.252915 0.479156 0.332540
0.395049 0.471571 0.331604
0.533924 0.474030 0.330678
0.645026 0.473032 0.338725
0.740430 0.478053 0.342068
0.842465 0.481878 0.342125
0.939337 0.484815 0.341769
1.000000 0.487080 0.341426
1.000000 0.488518 0.340878
0.251382 0.564596 0.335052
0.401065 0.550181 0.341306
0.537706 0.552316 0.349580
0.643189 0.555702 0.345192
0.736735 0.562078 0.348781
0.840306 0.570106 0.348553
0.934457 0.575771 0.351432
1.000000 0.579969 0.352526
1.000000 0.581960 0.352304
0.262994 0.652722 0.340205
0.418658 0.635683 0.354080
0.552806 0.640233 0.365986
0.656441 0.669289 0.336668
0.739155 0.650984 0.354774
0.834094 0.657771 0.359553
0.932348 0.667235 0.356787
1.000000 0.671940 0.356798
1.000000 0.674094 0.357036
0.281496 0.735090 0.347884
0.436653 0.718696 0.368313
0.567916 0.724467 0.380931
0.660018 0.757161 0.346178
0.754254 0.756902 0.344518
0.833229 0.737549 0.363238
0.920439 0.743511 0.367429
1.000000 0.751619 0.364262
1.000000 0.754444 0.362930
0.297408 0.802543 0.356421
0.450600 0.787018 0.380066
0.579113 0.792484 0.392078
0.663982 0.821992 0.357717
0.755614 0.837876 0.337311
0.843812 0.818354 0.355789
0.915870 0.804929 0.369405
0.991441 0.811782 0.372731
1.000000 0.815095 0.371800
0.311674 0.863654 0.364883
0.462088 0.848576 0.390082
0.587817 0.853126 0.401124
0.668953 0.880177 0.368580
0.755071 0.904057 0.340575
0.851217 0.897325 0.345969
0.926213 0.877192 0.365785
0.989224 0.869964 0.375534
0.999562 0.872001 0.376712
0.265937 0.101592 0.396787
0.404378 0.098125 0.403236
0.558253 0.100569 0.404727
0.686812 0.102662 0.405987
0.791726 0.104358 0.406860
0.899289 0.106062 0.407524
0.999457 0.107602 0.407873
1.000000 0.108915 0.408139
1.000000 0.110283 0.408871
0.289459 0.237165 0.383792
0.403131 0.224166 0.413549
0.555978 0.225885 0.414428
0.682456 0.227237 0.414529
0.784725 0.228148 0.414231
0.888494 0.228841 0.413466
0.983730 0.229172 0.412166
1.000000 0.229600 0.411319
1.000000 0.230813 0.411971
0.271310 0.360354 0.408991
0.413212 0.367169 0.405487
0.545182 0.364946 0.419914
0.666084 0.363923 0.417762
0.763702 0.363166 0.416090
0.863686 0.362674 0.414697
0.957608 0.362631 0.413866
1.000000 0.363179 0.413814
1.000000 0.364305 0.413972
0.250803 0.479364 0.425496
0.386882 0.477141 0.423048
0.531791 0.475600 0.421147
0.650070 0.476851 0.422846
0.749031 0.478320 0.422913
0.852108 0.479943 0.422180
0.949203 0.481719 0.421728
1.000000 0.483359 0.421442
1.000000 0.484636 0.420917
0.245175 0.568989 0.426941
0.380875 0.568535 0.426425
0.540731 0.557438 0.429525
0.649834 0.564996 0.427490
0.744199 0.569254 0.431170
0.845171 0.575281 0.433585
0.941622 0.579493 0.434071
1.000000 0.582208 0.433857
1.000000 0.583731 0.433317
0.246602 0.668733 0.429015
0.392517 0.661720 0.427975
0.558943 0.645318 0.444389
0.657497 0.665102 0.432603
0.746042 0.659760 0.437551
0.841661 0.665877 0.441248
0.938039 0.672885 0.439842
1.000000 0.676716 0.441691
1.000000 0.678806 0.441836
0.258147 0.758409 0.430682
0.410349 0.744896 0.434944
0.574975 0.729432 0.458799
0.667729 0.746354 0.448485
0.756336 0.764621 0.426764
0.838993 0.745046 0.445506
0.926659 0.750945 0.448366
1.000000 0.757992 0.444976
1.000000 0.760508 0.444017
0.271177 0.828204 0.433758
0.425372 0.811284 0.442801
0.586266 0.797035 0.469351
0.676113 0.810770 0.459803
0.755224 0.835820 0.429401
0.848731 0.826906 0.436096
0.921269 0.811996 0.451033
0.997856 0.819487 0.453441
1.000000 0.822986 0.452296
0.284108 0.889418 0.437436
0.438120 0.870389 0.450245
0.595048 0.857457 0.477834
0.683758 0.869638 0.469362
0.757133 0.895952 0.438903
0.854194 0.906017 0.426966
0.932679 0.885899 0.446784
0.995535 0.877818 0.457236
0.999330 0.880091 0.458374
0.268454 0.107983 0.490371
0.402838 0.099534 0.502033
0.556822 0.101982 0.503605
0.685343 0.104060 0.504835
0.790137 0.105734 0.505601
0.897491 0.107410 0.506069
0.997382 0.108917 0.506150
1.000000 0.110202 0.506178
1.000000 0.111565 0.506895
0.294630 0.245758 0.475680
0.403290 0.228398 0.509267
0.554177 0.227065 0.512855
0.680393 0.228336 0.512540
0.782361 0.229173 0.511796
0.885566 0.229739 0.510352
0.980341 0.229987 0.508365
1.000000 0.230370 0.507048
1.000000 0.231579 0.507676
0.288325 0.364214 0.487426
0.421126 0.376489 0.490603
0.542591 0.365435 0.515991
0.663266 0.364393 0.513076
0.760846 0.363695 0.510905
0.860963 0.363324 0.509153
0.955189 0.363440 0.508156
1.000000 0.364090 0.508070
1.000000 0.365027 0.507449
0.256885 0.474932 0.513258
0.395622 0.473011 0.507279
0.542087 0.478344 0.502461
0.650626 0.476252 0.514816
0.750970 0.476714 0.513419
0.855125 0.477458 0.511748
0.953210 0.478385 0.510398
1.000000 0.479305 0.509353
1.000000 0.480271 0.508444
0.243273 0.569501 0.521289
0.379556 0.569348 0.520107
0.527842 0.569994 0.517658
0.653276 0.569571 0.516478
0.750602 0.573721 0.517483
0.854384 0.576008 0.517076
0.951643 0.577894 0.516657
1.000000 0.579421 0.516248
1.000000 0.580661 0.515692
0.244694 0.670507 0.522824
0.382603 0.671672 0.521245
0.534068 0.670273 0.519342
0.670482 0.658957 0.531565
0.752820 0.669191 0.522324
0.849022 0.673058 0.525670
0.942022 0.677771 0.527068
1.000000 0.680608 0.526970
1.000000 0.682288 0.526513
0.248495 0.767994 0.524708
0.388758 0.766193 0.522593
0.550213 0.753425 0.524631
0.684018 0.742681 0.544432
0.756513 0.762333 0.522467
0.844860 0.752770 0.529922
0.933306 0.758346 0.531334
1.000000 0.763712 0.529041
1.000000 0.765809 0.528881
0.253707 0.844946 0.525165
0.398893 0.836193 0.523387
0.563497 0.817735 0.531370
0.692728 0.808793 0.553077
0.760301 0.825666 0.532949
0.852631 0.835921 0.518694
0.926978 0.819397 0.535081
1.000000 0.827612 0.536429
1.000000 0.831030 0.535107
0.261663 0.909795 0.524356
0.409692 0.895999 0.524802
0.574629 0.875604 0.538255
0.700475 0.869251 0.560811
0.767030 0.884530 0.543381
0.854739 0.909778 0.515966
0.939287 0.895260 0.530119
0.999218 0.886049 0.541525
0.999206 0.888590 0.542542
0.271509 0.114378 0.579446
0.401392 0.100875 0.596313
0.555450 0.103321 0.597939
0.683914 0.105381 0.599098
0.788576 0.107033 0.599720
0.895713 0.108678 0.599950
0.995326 0.110153 0.599723
1.000000 0.111410 0.599479
1.000000 0.112768 0.600179
0.298971 0.253218 0.563744
0.404974 0.233844 0.598957
0.552421 0.228166 0.606590
0.678372 0.229357 0.605810
0.780025 0.230117 0.604571
0.882670 0.230557 0.602376
0.977074 0.230743 0.599725
1.000000 0.231094 0.597959
1.000000 0.232300 0.598563
0.300970 0.372577 0.564859
0.425545 0.384074 0.574154
0.540743 0.367274 0.605527
0.660616 0.364847 0.603632
0.758201 0.364224 0.601048
0.858489 0.363984 0.599042
0.953049 0.364265 0.597988
1.000000 0.364955 0.597601
1.000000 0.365824 0.596589
0.272521 0.471573 0.586349
0.411056 0.474992 0.578976
0.548314 0.486841 0.583147
0.649002 0.477092 0.604579
0.749886 0.477570 0.602610
0.854173 0.478398 0.600971
0.952344 0.479370 0.599649
1.000000 0.480277 0.598594
1.000000 0.481146 0.597610
0.248161 0.565707 0.604757
0.386799 0.565323 0.601102
0.538071 0.567170 0.595726
0.660569 0.576433 0.595608
0.752455 0.573081 0.604059
0.857098 0.574165 0.602763
0.955186 0.575093 0.601426
1.000000 0.575838 0.600215
1.000000 0.576703 0.599233
0.243679 0.671436 0.612097
0.381681 0.672653 0.610546
0.530315 0.674080 0.608818
0.654148 0.675100 0.607144
0.757355 0.672387 0.608903
0.854081 0.677679 0.607957
0.949419 0.679249 0.606545
1.000000 0.680094 0.605286
1.000000 0.681276 0.604654
0.247489 0.768927 0.613981
0.384989 0.769758 0.612138
0.532726 0.769940 0.609500
0.662546 0.762423 0.607918
0.768631 0.753855 0.620135
0.850407 0.760348 0.609828
0.939526 0.764547 0.610495
1.000000 0.768282 0.611187
1.000000 0.770240 0.611180
0.250230 0.847919 0.614536
0.386650 0.847109 0.611587
0.538425 0.840174 0.607740
0.673958 0.825357 0.612367
0.776205 0.819087 0.627828
0.853384 0.840528 0.601880
0.932597 0.826600 0.615165
0.999835 0.835249 0.615420
0.999766 0.838200 0.614208
0.252044 0.917957 0.613061
0.390593 0.912819 0.609103
0.547617 0.899892 0.607937
0.684739 0.883462 0.619154
0.784317 0.880284 0.635817
0.856427 0.903158 0.611252
0.945192 0.904735 0.609210
0.999176 0.893993 0.621939
0.999177 0.896856 0.622718
0.274451 0.120022 0.656532
0.400271 0.102333 0.677653
0.554254 0.104473 0.679594
0.682651 0.106514 0.680654
0.787186 0.108145 0.681115
0.894122 0.109764 0.681099
0.993483 0.111209 0.680563
1.000000 0.112440 0.680045
1.000000 0.113794 0.680728
0.302491 0.259327 0.640024
0.407055 0.238933 0.676004
0.550870 0.229100 0.687585
0.676580 0.230218 0.686350
0.777895 0.230893 0.684583
0.880102 0.231239 0.681710
0.974233 0.231386 0.678490
1.000000 0.231716 0.676342
1.000000 0.232920 0.676927
0.309320 0.380551 0.633577
0.428501 0.389804 0.646834
0.540442 0.370556 0.680515
0.658361 0.365250 0.681750
0.755982 0.364706 0.678867
0.856453 0.364591 0.676718
0.951330 0.365023 0.675697
1.000000 0.365670 0.674717
1.000000 0.366541 0.673704
0.286241 0.473264 0.648226
0.421639 0.481150 0.643003
0.552050 0.493182 0.655082
0.648256 0.478368 0.681078
0.748989 0.478332 0.679790
0.853377 0.479224 0.678192
0.951611 0.480226 0.676896
1.000000 0.481141 0.675847
1.000000 0.482010 0.674861
0.260344 0.561368 0.668962
0.401021 0.563345 0.663106
0.551829 0.571650 0.658307
0.665067 0.582990 0.667625
0.751719 0.573936 0.681326
0.856341 0.574999 0.679998
0.954364 0.575885 0.678592
1.000000 0.576592 0.677312
1.000000 0.577442 0.676315
0.245681 0.669928 0.686494
0.384249 0.670928 0.684466
0.533882 0.671998 0.681723
0.659454 0.673034 0.678184
0.761237 0.677959 0.675298
0.857494 0.676529 0.680322
0.953685 0.676284 0.677827
1.000000 0.676280 0.675882
1.000000 0.677191 0.674939
0.246616 0.769716 0.691216
0.384119 0.770446 0.689234
0.531629 0.770583 0.686367
0.653734 0.769965 0.683254
0.753451 0.768593 0.680314
0.854252 0.767426 0.678209
0.943134 0.768531 0.680918
1.000000 0.770842 0.680264
1.000000 0.772223 0.679653
0.249285 0.848439 0.691424
0.385541 0.847521 0.688161
0.531339 0.845920 0.684014
0.653977 0.842976 0.680292
0.762488 0.832879 0.681461
0.857629 0.833062 0.686096
0.937630 0.832978 0.684473
0.999559 0.841145 0.684094
0.999521 0.843405 0.683656
0.250944 0.918239 0.689386
0.385950 0.916361 0.685561
0.532444 0.913396 0.681415
0.661907 0.904645 0.679879
0.774008 0.892062 0.688571
0.867094 0.894358 0.696785
0.948866 0.912877 0.677841
0.999197 0.900931 0.691551
0.999208 0.904156 0.691956
0.277401 0.125424 0.729646
0.399773 0.104810 0.753715
0.553109 0.105559 0.757011
0.681429 0.107581 0.757943
0.785832 0.109190 0.758218
0.892569 0.110782 0.757931
0.991680 0.112199 0.757066
1.000000 0.113404 0.756254
1.000000 0.114754 0.756919
0.305697 0.264913 0.712289
0.409314 0.243884 0.748715
0.549371 0.229968 0.764251
0.674843 0.231017 0.762536
0.775792 0.231598 0.760178
0.877627 0.231869 0.756654
0.971541 0.231988 0.752910
1.000000 0.232305 0.750413
1.000000 0.233507 0.750982
0.315629 0.387894 0.699536
0.430970 0.394797 0.715685
0.540883 0.374190 0.750573
0.656260 0.365644 0.755611
0.753942 0.365187 0.752503
0.854615 0.365201 0.750290
0.949786 0.365770 0.749346
1.000000 0.366368 0.747815
1.000000 0.367240 0.746802
0.297799 0.477575 0.707570
0.429542 0.488222 0.705790
0.555242 0.498709 0.723832
0.648808 0.481401 0.751706
0.748169 0.479071 0.752964
0.852643 0.480015 0.751411
0.950925 0.481041 0.750140
1.000000 0.481959 0.749093
1.000000 0.482828 0.748105
0.273817 0.560433 0.727625
0.414659 0.566087 0.721595
0.561810 0.579287 0.720755
0.668674 0.588318 0.736572
0.751024 0.574756 0.754565
0.855611 0.575779 0.753208
0.953563 0.576620 0.751721
1.000000 0.577286 0.750360
1.000000 0.578134 0.749358
0.254796 0.665180 0.749824
0.395078 0.666497 0.746156
0.546893 0.669380 0.741189
0.672820 0.675654 0.736961
0.766163 0.684613 0.741914
0.856425 0.677025 0.753043
0.952453 0.676688 0.750307
1.000000 0.676620 0.748201
1.000000 0.677426 0.747174
0.246671 0.769655 0.763535
0.384228 0.770257 0.761354
0.531744 0.770177 0.758102
0.653936 0.769328 0.754490
0.753446 0.768274 0.750958
0.856439 0.768392 0.746091
0.948254 0.767769 0.746492
1.000000 0.767977 0.744770
1.000000 0.769016 0.743978
0.248379 0.848892 0.764231
0.384566 0.847807 0.760630
0.530277 0.846151 0.756173
0.651152 0.844840 0.752456
0.749769 0.844069 0.749655
0.855936 0.839479 0.748201
0.942626 0.839231 0.750275
0.999389 0.845519 0.751065
0.999365 0.847419 0.750936
0.249981 0.918424 0.761625
0.384969 0.916571 0.757573
0.529970 0.915152 0.753552
0.650979 0.914789 0.750819
0.753901 0.911564 0.748970
0.868551 0.900301 0.756523
0.949569 0.913398 0.750142
0.999254 0.907572 0.757549
0.999274 0.911177 0.757340
