Fotico/Resources/LUTs/tezza_vintage.cube
TITLE "Tezza Vintage"
LUT_3D_SIZE 5
DOMAIN_MIN 0.0 0.0 0.0
DOMAIN_MAX 1.0 1.0 1.0
0.265978 0.091848 0.027531
0.558506 0.099531 0.029770
0.790156 0.105412 0.031746
0.997400 0.110619 0.033522
1.000000 0.114454 0.034616
0.273640 0.340528 0.045242
0.528919 0.347633 0.051854
0.746737 0.362009 0.055542
0.932672 0.369095 0.062920
1.000000 0.373736 0.066053
0.295073 0.516474 0.094426
0.528013 0.551687 0.055289
0.712683 0.534933 0.084485
0.916704 0.557112 0.080196
1.000000 0.565584 0.080110
0.319934 0.682220 0.128538
0.539025 0.754557 0.055517
0.736853 0.727318 0.082024
0.900881 0.718890 0.103933
1.000000 0.731389 0.102488
0.344312 0.817628 0.150911
0.545997 0.883988 0.078166
0.752625 0.891507 0.064703
0.906680 0.851458 0.103827
0.986667 0.847235 0.113609
0.265832 0.093228 0.200505
0.561196 0.097647 0.202719
0.794846 0.101492 0.204900
1.000000 0.104850 0.206540
1.000000 0.107624 0.207922
0.264077 0.360843 0.221952
0.541429 0.362755 0.231548
0.755133 0.368749 0.234932
0.946954 0.370774 0.235441
1.000000 0.373457 0.236974
0.280274 0.539801 0.245914
0.531044 0.563041 0.236918
0.728023 0.552839 0.257874
0.929488 0.569898 0.256686
1.000000 0.577064 0.259759
0.311098 0.705522 0.273495
0.549312 0.734418 0.269224
0.749299 0.746717 0.254467
0.913701 0.735146 0.277019
1.000000 0.746915 0.273267
0.339127 0.837441 0.296489
0.567413 0.860463 0.293687
0.755481 0.905100 0.239772
0.919221 0.867961 0.275686
0.999976 0.863191 0.286030
0.265937 0.101592 0.396787
0.558253 0.100569 0.404727
0.791726 0.104358 0.406860
0.999457 0.107602 0.407873
1.000000 0.110283 0.408871
0.271310 0.360354 0.408991
0.545182 0.364946 0.419914
0.763702 0.363166 0.416090
0.957608 0.362631 0.413866
1.000000 0.364305 0.413972
0.245175 0.568989 0.426941
0.540731 0.557438 0.429525
0.744199 0.569254 0.431170
0.941622 0.579493 0.434071
1.000000 0.583731 0.433317
0.258147 0.758409 0.430682
0.574975 0.729432 0.458799
0.756336 0.764621 0.426764
0.926659 0.750945 0.448366
1.000000 0.760508 0.444017
0.284108 0.889418 0.437436
0.595048 0.857457 0.477834
0.757133 0.895952 0.438903
0.932679 0.885899 0.446784
0.999330 0.880091 0.458374
0.271509 0.114378 0.579446
0.555450 0.103321 0.597939
0.788576 0.107033 0.599720
0.995326 0.110153 0.599723
1.000000 0.112768 0.600179
0.300970 0.372577 0.564859
0.540743 0.367274 0.605527
0.758201 0.364224 0.601048
0.953049 0.364265 0.597988
1.000000 0.365824 0.596589
0.248161 0.565707 0.604757
0.538071 0.567170 0.595726
0.752455 0.573081 0.604059
0.955186 0.575093 0.601426
1.000000 0.576703 0.599233
0.247489 0.768927 0.613981
0.532726 0.769940 0.609500
0.768631 0.753855 0.620135
0.939526 0.764547 0.610495
1.000000 0.770240 0.611180
0.252044 0.917957 0.613061
0.547617 0.899892 0.607937
0.784317 0.880284 0.635817
0.945192 0.904735 0.609210
0.999177 0.896856 0.622718
0.277401 0.125424 0.729646
0.553109 0.105559 0.757011
0.785832 0.109190 0.758218
0.991680 0.112199 0.757066
1.000000 0.114754 0.756919
0.315629 0.387894 0.699536
0.540883 0.374190 0.750573
0.753942 0.365187 0.752503
0.949786 0.365770 0.749346
1.000000 0.367240 0.746802
0.273817 0.560433 0.727625
0.561810 0.579287 0.720755
0.751024 0.574756 0.754565
0.953563 0.576620 0.751721
1.000000 0.578134 0.749358
0.246671 0.769655 0.763535
0.531744 0.770177 0.758102
0.753446 0.768274 0.750958
0.948254 0.767769 0.746492
1.000000 0.769016 0.743978
0.249981 0.918424 0.761625
0.529970 0.915152 0.753552
0.753901 0.911564 0.748970
0.949569 0.913398 0.750142
0.999274 0.911177 0.757340
