Fotico/Resources/LUTs/tezza_dream.cube
TITLE "Tezza Dream"
LUT_3D_SIZE 9
DOMAIN_MIN 0.0 0.0 0.0
DOMAIN_MAX 1.0 1.0 1.0
0.222575 0.122883 0.093734
0.375498 0.132477 0.103007
0.508238 0.140787 0.110931
0.613552 0.147353 0.117194
0.711052 0.153393 0.122961
0.795690 0.158551 0.127905
0.883440 0.163830 0.132979
0.952092 0.167969 0.136956
1.000000 0.171912 0.140735
0.229827 0.268943 0.103068
0.374904 0.273492 0.102581
0.510577 0.278585 0.103145
0.613624 0.281521 0.108063
0.708355 0.285396 0.113905
0.791768 0.289629 0.119443
0.879966 0.294669 0.125443
0.949504 0.298810 0.130176
1.000000 0.302695 0.134576
0.242258 0.384523 0.119265
0.377737 0.406292 0.096429
0.496871 0.395775 0.112712
0.611054 0.405467 0.106912
0.708590 0.407974 0.110293
0.793142 0.409855 0.113405
0.879649 0.411558 0.117370
0.946207 0.412944 0.120969
1.000000 0.414408 0.124602
0.253143 0.477147 0.131426
0.377706 0.510389 0.097944
0.501318 0.497106 0.111961
0.593601 0.492326 0.120909
0.696131 0.500815 0.113756
0.782114 0.502811 0.111653
0.867098 0.503244 0.115139
0.934446 0.504037 0.117693
0.998172 0.504896 0.120056
0.263583 0.563696 0.142568
0.376680 0.593280 0.107512
0.502207 0.598036 0.099043
0.590113 0.577317 0.120850
0.675603 0.574903 0.127069
0.764888 0.583648 0.121314
0.858006 0.588573 0.116360
0.927950 0.590001 0.116355
0.991367 0.590784 0.119189
0.270540 0.634293 0.150979
0.378137 0.661491 0.117742
0.499113 0.678611 0.096746
0.596644 0.666026 0.109410
0.673834 0.647371 0.129396
0.750455 0.648210 0.133004
0.844024 0.658357 0.127583
0.918407 0.663957 0.122829
0.985517 0.666864 0.120669
0.279028 0.707374 0.159609
0.383951 0.733552 0.128903
0.497953 0.758135 0.101180
0.599316 0.758041 0.100769
0.684032 0.740116 0.119913
0.750387 0.725214 0.136071
0.830998 0.726855 0.139776
0.904054 0.735428 0.136366
0.970437 0.742397 0.131882
0.286577 0.765438 0.166601
0.390045 0.791104 0.137901
0.498899 0.818967 0.107403
0.599510 0.826716 0.099042
0.690266 0.815700 0.111043
0.759819 0.797981 0.130281
0.830130 0.786222 0.143462
0.896448 0.790597 0.145535
0.958813 0.798947 0.143441
0.294211 0.821129 0.173458
0.396541 0.845810 0.146400
0.501447 0.875920 0.114635
0.600524 0.890132 0.100962
0.695216 0.887440 0.105416
0.770449 0.872453 0.122220
0.840975 0.854976 0.141640
0.897988 0.848717 0.149603
0.952808 0.853495 0.151780
0.224113 0.123654 0.226114
0.384151 0.125798 0.226719
0.522424 0.128709 0.228062
0.626559 0.136367 0.231633
0.722302 0.143966 0.236312
0.805351 0.150371 0.240665
0.891705 0.156793 0.245278
0.959493 0.161717 0.248983
1.000000 0.166321 0.252584
0.224399 0.279449 0.225882
0.380240 0.279422 0.227347
0.508204 0.284968 0.234082
0.609645 0.290276 0.239563
0.704659 0.295562 0.244819
0.788864 0.300539 0.249673
0.877573 0.305866 0.254836
0.947140 0.309969 0.258817
1.000000 0.313652 0.262411
0.231882 0.400943 0.226285
0.378464 0.405646 0.227160
0.504657 0.404309 0.232760
0.613006 0.409299 0.232343
0.709176 0.411818 0.235971
0.791162 0.414187 0.240124
0.875304 0.416810 0.244686
0.940608 0.418995 0.248281
1.000000 0.421199 0.251674
0.246104 0.491985 0.234938
0.385707 0.497234 0.240399
0.506711 0.506389 0.228877
0.599150 0.499258 0.238868
0.700103 0.504891 0.232164
0.781607 0.505278 0.234215
0.867100 0.506203 0.236673
0.933995 0.507279 0.239374
0.996489 0.508608 0.242427
0.258254 0.575279 0.244252
0.391747 0.577460 0.250318
0.501541 0.599995 0.221152
0.596058 0.585426 0.235649
0.681311 0.581748 0.242636
0.770938 0.589425 0.235897
0.861042 0.591976 0.233861
0.928114 0.592762 0.236636
0.991907 0.593890 0.238901
0.266540 0.643797 0.251061
0.397205 0.646251 0.257921
0.499296 0.673309 0.225519
0.599902 0.673869 0.223223
0.680039 0.654868 0.243405
0.756515 0.655324 0.247084
0.850755 0.664878 0.240571
0.923769 0.668745 0.237017
0.988464 0.670346 0.237131
0.277329 0.715943 0.259228
0.405127 0.719578 0.266085
0.501569 0.747787 0.234273
0.599368 0.760675 0.219482
0.689551 0.749220 0.231381
0.756852 0.732837 0.249033
0.837316 0.734168 0.252761
0.911330 0.742892 0.248407
0.977685 0.749077 0.244093
0.286277 0.773430 0.266120
0.412244 0.778358 0.272932
0.505620 0.806055 0.242397
0.599195 0.824863 0.222115
0.693563 0.823682 0.223777
0.766890 0.807551 0.241331
0.837025 0.794087 0.256343
0.903727 0.798745 0.258227
0.967070 0.807552 0.255551
0.295042 0.828735 0.273045
0.419311 0.834164 0.279540
0.510983 0.861554 0.250608
0.601244 0.884913 0.227544
0.696870 0.892913 0.221559
0.776884 0.883116 0.233408
0.849453 0.865044 0.253466
0.905985 0.857601 0.262717
0.960966 0.862535 0.264845
0.227316 0.129821 0.345608
0.382652 0.129755 0.347337
0.520065 0.131681 0.348753
0.634679 0.129109 0.350574
0.737003 0.130426 0.350317
0.822599 0.134491 0.350459
0.909726 0.140263 0.351578
0.977373 0.145339 0.353199
1.000000 0.150358 0.355298
0.237340 0.278258 0.334826
0.380938 0.280109 0.347055
0.516272 0.279815 0.345842
0.619359 0.283932 0.346590
0.713216 0.290647 0.350470
0.796371 0.296800 0.355042
0.884010 0.303062 0.360125
0.952700 0.307703 0.364007
1.000000 0.311757 0.367404
0.222463 0.410007 0.343449
0.377367 0.409826 0.343243
0.510335 0.410160 0.345463
0.612435 0.414100 0.350513
0.705593 0.418489 0.355475
0.786179 0.421878 0.359163
0.869734 0.425115 0.362646
0.935028 0.427617 0.365304
0.996462 0.430070 0.367870
0.223190 0.514543 0.342374
0.388371 0.502039 0.347915
0.507532 0.511145 0.340728
0.604468 0.505425 0.347097
0.700311 0.507296 0.345359
0.781270 0.508118 0.347430
0.865087 0.510046 0.351179
0.930767 0.512073 0.354567
0.992465 0.514305 0.357902
0.227993 0.601935 0.339845
0.396143 0.581051 0.353719
0.504368 0.591231 0.346182
0.601098 0.593573 0.341082
0.686885 0.588199 0.349123
0.775428 0.593531 0.343330
0.861261 0.594586 0.345597
0.928969 0.595760 0.347546
0.992221 0.597176 0.350107
0.235941 0.670616 0.339235
0.403252 0.649926 0.359575
0.508642 0.660025 0.354053
0.600192 0.677229 0.333163
0.686080 0.662440 0.348489
0.762445 0.662132 0.352599
0.856532 0.670089 0.345907
0.926794 0.672076 0.345146
0.988862 0.673141 0.347787
0.248897 0.741758 0.342589
0.412445 0.723154 0.366894
0.515875 0.733417 0.362817
0.599544 0.756361 0.337030
0.693049 0.757013 0.335638
0.763096 0.740351 0.353505
0.843483 0.741201 0.357536
0.918375 0.749708 0.352533
0.983964 0.754612 0.349261
0.259836 0.798210 0.347195
0.420343 0.782031 0.373382
0.522539 0.791967 0.369889
0.601812 0.816355 0.343695
0.694498 0.827887 0.332170
0.773105 0.816973 0.344426
0.843780 0.801782 0.361314
0.910927 0.806700 0.363121
0.975177 0.815698 0.359962
0.270394 0.852046 0.352642
0.428002 0.837961 0.379742
0.529670 0.848238 0.376907
0.606746 0.873749 0.351753
0.697117 0.892949 0.334871
0.781338 0.892128 0.338248
0.857571 0.875074 0.357438
0.913677 0.866148 0.368234
0.968792 0.871183 0.370346
0.231407 0.135974 0.447565
0.384105 0.127699 0.457393
0.516005 0.137245 0.448374
0.626703 0.137016 0.451864
0.733691 0.133453 0.454567
0.824938 0.132009 0.454201
0.917785 0.132558 0.452926
0.988664 0.134784 0.452118
1.000000 0.138043 0.451944
0.251182 0.286860 0.424642
0.381562 0.283169 0.448682
0.511885 0.284571 0.445173
0.620661 0.282677 0.447583
0.723634 0.281050 0.448010
0.810528 0.283692 0.448334
0.899118 0.289075 0.450094
0.967619 0.293923 0.452186
1.000000 0.298490 0.454343
0.227086 0.407600 0.441802
0.384927 0.408620 0.438239
0.511696 0.411360 0.445988
0.618033 0.411898 0.445861
0.710168 0.417106 0.448057
0.789496 0.421307 0.450808
0.872133 0.425164 0.453690
0.936994 0.428068 0.456011
0.998239 0.430875 0.458356
0.222811 0.515158 0.444873
0.375255 0.513666 0.443417
0.509896 0.508192 0.442788
0.607819 0.509043 0.441415
0.698914 0.510414 0.444094
0.777940 0.513180 0.447592
0.861208 0.516483 0.451316
0.926856 0.519184 0.454245
0.988772 0.521837 0.457051
0.221722 0.606745 0.439545
0.371658 0.601871 0.436875
0.514910 0.586448 0.446847
0.602584 0.598667 0.433950
0.692029 0.593630 0.440330
0.776340 0.595857 0.439079
0.861714 0.597307 0.441590
0.928075 0.599194 0.444728
0.990200 0.601407 0.448051
0.220758 0.684046 0.434213
0.377824 0.672637 0.434832
0.521529 0.656471 0.452354
0.601426 0.671691 0.437248
0.691276 0.669640 0.438357
0.767778 0.668015 0.443165
0.860023 0.673382 0.438336
0.927251 0.674515 0.440652
0.989903 0.675903 0.442545
0.226920 0.761796 0.430788
0.389196 0.744708 0.437629
0.529637 0.731370 0.459258
0.606412 0.745481 0.446071
0.693749 0.760734 0.428883
0.768670 0.747344 0.443139
0.849123 0.747466 0.447750
0.924382 0.755127 0.442744
0.987497 0.758499 0.441596
0.235330 0.821252 0.430537
0.399208 0.801891 0.442276
0.536572 0.790906 0.465187
0.612550 0.804165 0.453645
0.694542 0.826053 0.431492
0.777407 0.824917 0.433988
0.849932 0.808780 0.451944
0.917496 0.813834 0.453736
0.982382 0.822604 0.450294
0.244791 0.876344 0.431974
0.408936 0.856407 0.447845
0.544030 0.848265 0.471572
0.620237 0.861510 0.461646
0.698775 0.887100 0.438589
0.783194 0.897280 0.431610
0.864517 0.884237 0.447153
0.920498 0.873727 0.459539
0.975727 0.878808 0.461636
0.235597 0.141928 0.543885
0.383637 0.128827 0.558430
0.520554 0.134758 0.552551
0.622220 0.142139 0.544763
0.724488 0.141814 0.547695
0.817440 0.138424 0.550320
0.913853 0.135599 0.550651
0.988338 0.134625 0.549918
1.000000 0.134703 0.549049
0.259509 0.295869 0.513719
0.384114 0.287891 0.542528
0.514241 0.281692 0.547075
0.615308 0.288371 0.538979
0.717803 0.286940 0.543009
0.810535 0.284033 0.545215
0.905424 0.283299 0.545341
0.977739 0.284470 0.544987
1.000000 0.286922 0.544690
0.243948 0.405939 0.522304
0.398670 0.416063 0.521190
0.511670 0.412848 0.542403
0.614670 0.415212 0.538658
0.715183 0.411888 0.540449
0.801164 0.410268 0.538836
0.885733 0.412563 0.537485
0.950372 0.415701 0.537608
1.000000 0.419130 0.538597
0.225184 0.513682 0.539211
0.378677 0.511404 0.535481
0.511945 0.509930 0.529619
0.608017 0.509888 0.533208
0.702578 0.509129 0.532235
0.780890 0.513201 0.534128
0.863631 0.517345 0.537248
0.928955 0.520480 0.539898
0.990701 0.523445 0.542520
0.221123 0.606531 0.534463
0.369672 0.602838 0.531030
0.498748 0.600472 0.528804
0.607085 0.594029 0.530970
0.695655 0.597182 0.528159
0.775982 0.598830 0.530907
0.859363 0.602212 0.535129
0.925115 0.605237 0.538483
0.987130 0.608153 0.541588
0.220401 0.684094 0.527957
0.368101 0.681079 0.525728
0.499599 0.676240 0.524616
0.613460 0.664521 0.536250
0.694590 0.676268 0.523626
0.773045 0.673299 0.528688
0.860788 0.675726 0.528617
0.927987 0.677258 0.530861
0.989360 0.679315 0.533942
0.222161 0.766115 0.523205
0.369895 0.762697 0.522061
0.509692 0.749965 0.526246
0.621172 0.740027 0.542868
0.694330 0.756967 0.525167
0.773861 0.754583 0.527606
0.854838 0.753530 0.533120
0.929168 0.759312 0.529504
0.987522 0.761483 0.531728
0.224272 0.831676 0.520875
0.376220 0.823520 0.521025
0.519215 0.807560 0.530667
0.628178 0.800405 0.548890
0.699001 0.817246 0.532971
0.779363 0.830246 0.521483
0.856080 0.815805 0.537901
0.924059 0.820786 0.539727
0.989072 0.828664 0.536433
0.228767 0.891779 0.519308
0.384831 0.879941 0.522415
0.529143 0.863484 0.536889
0.636465 0.859435 0.556028
0.707097 0.876164 0.542350
0.783618 0.897044 0.525245
0.870527 0.893134 0.532417
0.927126 0.881099 0.546312
0.982471 0.886164 0.548382
0.239367 0.147173 0.628074
0.383203 0.129913 0.646745
0.521841 0.132530 0.643832
0.626083 0.141220 0.633984
0.719635 0.146146 0.627593
0.809033 0.145763 0.630081
0.905981 0.142357 0.632964
0.982334 0.139759 0.633943
1.000000 0.138076 0.634065
0.265037 0.302970 0.593103
0.386860 0.292270 0.624183
0.513569 0.281949 0.633303
0.619207 0.286381 0.627513
0.712827 0.292083 0.621968
0.803650 0.290913 0.626347
0.901158 0.287374 0.629325
0.976370 0.285489 0.629570
1.000000 0.284697 0.628740
0.258085 0.410622 0.593104
0.406080 0.424073 0.598207
0.513481 0.416611 0.623929
0.616908 0.412633 0.626403
0.708505 0.416970 0.618454
0.796361 0.413302 0.620509
0.888067 0.409407 0.619453
0.957676 0.408413 0.617552
1.000000 0.409480 0.616159
0.237647 0.509166 0.611443
0.392796 0.509740 0.604286
0.521287 0.515655 0.600443
0.607364 0.509629 0.616167
0.699656 0.510949 0.610927
0.787126 0.507154 0.612376
0.874917 0.506954 0.610953
0.940743 0.509693 0.610976
1.000000 0.513121 0.612100
0.221690 0.605523 0.616402
0.370531 0.601721 0.612005
0.500574 0.599058 0.608540
0.605315 0.597601 0.604796
0.696245 0.598301 0.606919
0.777935 0.599740 0.607760
0.860791 0.604415 0.611329
0.926371 0.607816 0.614350
0.988346 0.610932 0.617224
0.220204 0.684054 0.609922
0.367747 0.681133 0.607240
0.496150 0.679189 0.605435
0.598694 0.678136 0.604437
0.697658 0.672983 0.608308
0.776194 0.676373 0.605244
0.860555 0.678611 0.608551
0.926277 0.681556 0.612165
0.987184 0.684731 0.615660
0.222043 0.766228 0.604396
0.368163 0.764314 0.602964
0.495775 0.762882 0.601923
0.604055 0.756146 0.602995
0.705077 0.748495 0.614889
0.777070 0.760749 0.602006
0.860105 0.758658 0.607910
0.931009 0.761984 0.608144
0.987637 0.764370 0.610782
0.224048 0.831988 0.601618
0.369104 0.830346 0.600605
0.499906 0.826200 0.600520
0.613701 0.814852 0.607014
0.712725 0.809924 0.621509
0.779750 0.829019 0.604177
0.861740 0.822401 0.613139
0.930100 0.826923 0.615123
0.989815 0.833022 0.612934
0.226212 0.894517 0.599757
0.371945 0.892939 0.599638
0.508469 0.884696 0.602427
0.624623 0.872400 0.614098
0.722167 0.870527 0.629673
0.786503 0.890473 0.613499
0.874371 0.900200 0.608096
0.933082 0.887750 0.622471
0.988548 0.892698 0.624509
0.243138 0.152375 0.711291
0.382939 0.131467 0.733614
0.521521 0.132282 0.732098
0.628988 0.138268 0.724446
0.722354 0.146488 0.713585
0.804278 0.149854 0.708640
0.897850 0.149520 0.711174
0.974137 0.147104 0.713904
1.000000 0.144563 0.715860
0.269716 0.309368 0.672264
0.389805 0.296699 0.704781
0.512857 0.282653 0.718184
0.620540 0.284053 0.715689
0.716445 0.291709 0.707776
0.798930 0.295681 0.704202
0.893585 0.294403 0.708263
0.969550 0.291301 0.710567
1.000000 0.288508 0.710906
0.269755 0.417933 0.665476
0.411509 0.431099 0.676129
0.515954 0.420720 0.703856
0.616061 0.412583 0.710369
0.711262 0.415244 0.703115
0.789595 0.418103 0.696198
0.880796 0.414465 0.698155
0.953635 0.410754 0.698325
1.000000 0.408574 0.697358
0.252596 0.508780 0.679695
0.405197 0.513898 0.672438
0.526139 0.521771 0.674711
0.607919 0.512237 0.694672
0.701792 0.508799 0.694743
0.780855 0.512127 0.688395
0.872983 0.508038 0.690814
0.944767 0.505587 0.690263
1.000000 0.505308 0.689319
0.230960 0.600328 0.689176
0.382003 0.597132 0.681785
0.514108 0.597425 0.675315
0.615385 0.602955 0.673498
0.696292 0.597896 0.687925
0.777654 0.599798 0.684309
0.869267 0.596569 0.685738
0.937380 0.597707 0.685297
0.994402 0.600965 0.686197
0.220716 0.683461 0.690344
0.368353 0.680481 0.687032
0.497109 0.678422 0.684588
0.600338 0.677122 0.682711
0.697587 0.676620 0.679918
0.777561 0.677272 0.682766
0.861969 0.680538 0.684541
0.927467 0.684481 0.687844
0.988421 0.688101 0.691170
0.221938 0.766387 0.684778
0.367949 0.764540 0.683056
0.495468 0.763194 0.681787
0.597430 0.762455 0.681070
0.693103 0.761914 0.680726
0.779368 0.758331 0.684810
0.864051 0.762326 0.683574
0.932162 0.765029 0.686961
0.987857 0.768540 0.691129
0.223972 0.832190 0.681550
0.368964 0.830676 0.680349
0.496205 0.830117 0.679927
0.598566 0.830184 0.680112
0.701678 0.823974 0.683041
0.788469 0.820555 0.693382
0.867446 0.829596 0.687381
0.936167 0.832623 0.690018
0.990329 0.836207 0.691279
0.226194 0.894900 0.679458
0.370803 0.894677 0.679413
0.498489 0.895666 0.680296
0.605605 0.893015 0.681942
0.713911 0.883134 0.690632
0.799237 0.882220 0.702885
0.875648 0.903314 0.686870
0.939159 0.894623 0.697934
0.993679 0.899182 0.699961
0.246810 0.157416 0.791845
0.383219 0.134037 0.816619
0.520866 0.133251 0.816305
0.629774 0.136174 0.811288
0.725814 0.143955 0.800196
0.806351 0.150653 0.790811
0.893180 0.153678 0.786922
0.967057 0.153665 0.789266
1.000000 0.151888 0.792494
0.273846 0.315145 0.749294
0.392806 0.301061 0.782808
0.512305 0.283623 0.800209
0.620260 0.283868 0.799092
0.719541 0.288845 0.793844
0.801833 0.295922 0.786263
0.888475 0.298984 0.783066
0.961649 0.297860 0.785343
1.000000 0.294878 0.787084
0.279147 0.425835 0.737537
0.415864 0.437120 0.752261
0.518509 0.424712 0.780884
0.615054 0.412926 0.791101
0.712022 0.412583 0.786576
0.791763 0.417197 0.776477
0.874180 0.419177 0.770705
0.945635 0.416745 0.772488
1.000000 0.413284 0.773784
0.266199 0.511927 0.745873
0.414369 0.519971 0.740474
0.529590 0.526861 0.748077
0.609498 0.515504 0.769796
0.701038 0.508307 0.774457
0.783466 0.510726 0.768270
0.866450 0.513326 0.763258
0.938817 0.510363 0.765720
1.000000 0.507262 0.766672
0.244338 0.596858 0.754798
0.395784 0.596921 0.745909
0.525553 0.602041 0.740532
0.620435 0.609091 0.744790
0.696759 0.600000 0.763830
0.779706 0.598264 0.763785
0.863766 0.601429 0.759644
0.936597 0.598221 0.761980
0.994119 0.596493 0.762075
0.228403 0.678797 0.761495
0.377790 0.675728 0.755906
0.508728 0.674522 0.750833
0.613441 0.676233 0.746791
0.706406 0.682598 0.747240
0.777378 0.677383 0.760336
0.863575 0.679132 0.758203
0.935723 0.676942 0.759288
0.988584 0.678551 0.759575
0.222074 0.766390 0.762529
0.368033 0.764525 0.760450
0.495591 0.763178 0.758894
0.597702 0.762426 0.757945
0.693494 0.762031 0.757284
0.778794 0.762017 0.756458
0.866135 0.763860 0.758753
0.932899 0.769075 0.762812
0.988176 0.773587 0.767057
0.223903 0.832409 0.759073
0.368843 0.831034 0.757726
0.496114 0.830648 0.757289
0.598417 0.831026 0.757562
0.694664 0.832015 0.758394
0.780237 0.833146 0.759529
0.870545 0.834891 0.761290
0.940014 0.836426 0.764838
0.990876 0.839613 0.768468
0.226188 0.895319 0.756817
0.370827 0.895342 0.756841
0.498600 0.896599 0.757909
0.601703 0.898342 0.759386
0.699043 0.900165 0.761105
0.791633 0.895376 0.764965
0.879805 0.896969 0.772186
0.945205 0.901833 0.770910
0.994412 0.905131 0.773169
0.249872 0.161615 0.858904
0.383840 0.136721 0.885158
0.520298 0.134095 0.886411
0.629435 0.135497 0.882455
0.727547 0.141568 0.872735
0.809420 0.149038 0.862127
0.893989 0.155000 0.853994
0.963714 0.156920 0.852573
1.000000 0.157091 0.855328
0.277117 0.319742 0.813659
0.395403 0.304749 0.847844
0.512286 0.285303 0.867712
0.619854 0.284565 0.867800
0.720455 0.287064 0.865039
0.804993 0.293744 0.857529
0.889381 0.299917 0.849470
0.957269 0.301206 0.847148
1.000000 0.299985 0.848346
0.285857 0.432453 0.798654
0.419081 0.441676 0.815829
0.520632 0.427980 0.844767
0.614294 0.413563 0.857806
0.711158 0.411997 0.854176
0.793677 0.414468 0.846103
0.874770 0.419575 0.835435
0.940724 0.420405 0.832732
1.000000 0.418443 0.834574
0.276232 0.516110 0.801638
0.420425 0.525343 0.798440
0.532146 0.530721 0.809659
0.611188 0.518426 0.832217
0.700334 0.508496 0.840178
0.784530 0.508450 0.836588
0.867465 0.513618 0.827431
0.933716 0.514600 0.825459
1.000000 0.512173 0.828018
0.256113 0.596409 0.808274
0.406496 0.599673 0.799673
0.532786 0.607422 0.796940
0.623621 0.613488 0.805447
0.698184 0.602702 0.826028
0.779527 0.597776 0.829701
0.864832 0.601707 0.823488
0.931287 0.602964 0.822073
0.993248 0.600217 0.824888
0.238687 0.675026 0.816818
0.389100 0.673433 0.809558
0.520233 0.675217 0.803738
0.622833 0.680607 0.801087
0.710245 0.687560 0.807009
0.777505 0.678662 0.823891
0.864311 0.679497 0.821962
0.931466 0.681187 0.821036
0.988324 0.678772 0.823527
0.226524 0.763378 0.823267
0.373481 0.761107 0.819891
0.502438 0.759492 0.816740
0.606236 0.758935 0.813977
0.703995 0.760302 0.811222
0.788326 0.766178 0.811340
0.866514 0.764251 0.823411
0.936537 0.766329 0.823810
0.988139 0.766386 0.825212
0.223949 0.832524 0.823648
0.368874 0.831254 0.822190
0.496209 0.830992 0.821740
0.598633 0.831478 0.822059
0.695066 0.832540 0.822945
0.780702 0.833843 0.824052
0.872123 0.835486 0.824907
0.941706 0.838890 0.828318
0.991426 0.843925 0.832856
0.226192 0.895706 0.821396
0.370864 0.895942 0.821519
0.498732 0.897397 0.822764
0.601924 0.899255 0.824393
0.699119 0.901395 0.826285
0.785315 0.903509 0.828159
0.878698 0.903649 0.830649
0.948999 0.907735 0.832049
0.994958 0.908823 0.835342
