Fotico/Resources/LUTs/tezza_mood.cube
TITLE "Tezza Mood"
LUT_3D_SIZE 9
DOMAIN_MIN 0.0 0.0 0.0
DOMAIN_MAX 1.0 1.0 1.0
0.016582 0.000000 0.000000
0.041733 0.000000 0.000000
0.102427 0.000000 0.000000
0.181183 0.000000 0.000000
0.281479 0.000000 0.000000
0.397275 0.000000 0.000000
0.488185 0.000000 0.000000
0.558914 0.000000 0.000000
0.627525 0.000000 0.000000
0.025149 0.011872 0.000000
0.034390 0.016363 0.000000
0.107001 0.021942 0.000000
0.202284 0.024539 0.000000
0.309182 0.026926 0.000000
0.430518 0.029206 0.000000
0.526873 0.030866 0.000000
0.602258 0.032108 0.000000
0.675634 0.033282 0.000000
0.052361 0.047264 0.023644
0.055674 0.063432 0.011750
0.098895 0.072595 0.014293
0.252114 0.110326 0.000000
0.377514 0.118444 0.000000
0.522228 0.127369 0.000000
0.639339 0.134424 0.000000
0.730572 0.139603 0.000000
0.817962 0.144243 0.000000
0.105745 0.113550 0.069825
0.107705 0.126534 0.061446
0.163665 0.211561 0.006145
0.204459 0.169621 0.052527
0.456931 0.276855 0.000000
0.647088 0.299723 0.000000
0.772732 0.308598 0.000000
0.866608 0.314546 0.000000
0.954944 0.319857 0.000000
0.171952 0.197604 0.129352
0.175827 0.210631 0.122972
0.211630 0.316416 0.063639
0.319419 0.358389 0.046998
0.349369 0.304168 0.106121
0.631659 0.444349 0.047316
0.842473 0.492997 0.000000
0.945043 0.500073 0.000000
1.000000 0.504065 0.000000
0.260349 0.310645 0.209823
0.266054 0.324107 0.204300
0.283560 0.420563 0.146995
0.395895 0.574675 0.044342
0.466021 0.495349 0.110526
0.508750 0.455222 0.168537
0.697450 0.561574 0.138648
0.853958 0.623586 0.088616
0.989024 0.656349 0.037748
0.328449 0.398977 0.273361
0.334498 0.411251 0.267769
0.342710 0.497629 0.211827
0.422464 0.659240 0.096045
0.552863 0.694159 0.073018
0.561806 0.555388 0.188030
0.620783 0.562960 0.214128
0.744682 0.635035 0.198790
0.869274 0.691471 0.159464
0.377422 0.463136 0.319848
0.384403 0.475305 0.314825
0.388480 0.555709 0.260392
0.446360 0.709104 0.143744
0.572999 0.794413 0.064875
0.641646 0.692771 0.164992
0.638301 0.614793 0.232718
0.697914 0.637820 0.246229
0.798550 0.694057 0.231942
0.422845 0.522924 0.363309
0.430267 0.534531 0.358464
0.430301 0.608043 0.304545
0.470594 0.750943 0.188128
0.578489 0.858285 0.076876
0.684977 0.806785 0.129644
0.697502 0.714403 0.225399
0.704333 0.676579 0.262163
0.759401 0.698198 0.272561
0.021756 0.004708 0.003866
0.041443 0.000000 0.009290
0.102399 0.000000 0.008972
0.181840 0.000000 0.009207
0.282704 0.000000 0.010071
0.398633 0.000000 0.010839
0.489708 0.000000 0.011330
0.560585 0.000000 0.011676
0.629350 0.000000 0.011991
0.023267 0.013630 0.002785
0.040961 0.020963 0.008891
0.108650 0.020246 0.007602
0.204547 0.020442 0.006194
0.311904 0.020202 0.004401
0.432995 0.019496 0.002176
0.528547 0.018784 0.000347
0.603099 0.018179 0.000000
0.675456 0.017557 0.000000
0.045555 0.057032 0.023802
0.070352 0.062134 0.038142
0.111844 0.083755 0.031717
0.263556 0.108879 0.002515
0.391185 0.110877 0.000000
0.535159 0.114792 0.000000
0.651198 0.118487 0.000000
0.741837 0.121286 0.000000
0.828959 0.123772 0.000000
0.101033 0.120609 0.070551
0.128711 0.132576 0.089352
0.168055 0.213040 0.039475
0.221769 0.185491 0.076333
0.476937 0.284685 0.019381
0.679676 0.298870 0.000000
0.811233 0.300726 0.000000
0.907858 0.301719 0.000000
0.983740 0.302801 0.000000
0.168381 0.203975 0.131358
0.202221 0.223504 0.155236
0.224128 0.306423 0.111032
0.336674 0.380493 0.075522
0.371198 0.324620 0.136403
0.657325 0.459494 0.074673
0.859360 0.497400 0.013908
0.982929 0.504067 0.000000
1.000000 0.503903 0.000000
0.257201 0.316673 0.212950
0.296411 0.341566 0.240940
0.306011 0.413179 0.198402
0.400772 0.572418 0.093838
0.486561 0.518991 0.141269
0.529956 0.475540 0.202103
0.721153 0.580544 0.169237
0.875677 0.636802 0.117519
1.000000 0.664049 0.067491
0.325129 0.404306 0.276826
0.364998 0.429256 0.305139
0.370058 0.492902 0.264488
0.431030 0.646931 0.155227
0.563120 0.709369 0.108804
0.581723 0.575675 0.221744
0.640542 0.582136 0.248748
0.764104 0.652430 0.230863
0.887606 0.705340 0.188923
0.374201 0.468250 0.323667
0.415494 0.494410 0.353000
0.418159 0.552494 0.313323
0.459277 0.696465 0.204341
0.577818 0.799550 0.108124
0.657624 0.711565 0.196283
0.656629 0.633028 0.267629
0.715286 0.654886 0.280662
0.814870 0.709214 0.263787
0.419597 0.527711 0.367320
0.460667 0.553185 0.396271
0.461504 0.606170 0.357333
0.487053 0.738588 0.249166
0.582549 0.856016 0.127254
0.695460 0.821568 0.161254
0.712870 0.730743 0.257619
0.719731 0.691962 0.296432
0.774128 0.712858 0.306181
0.034453 0.018102 0.040876
0.045128 0.015354 0.043573
0.102053 0.000000 0.059436
0.182276 0.007206 0.066012
0.287227 0.004589 0.073546
0.405794 0.000000 0.076910
0.498744 0.000000 0.080798
0.570625 0.000000 0.083830
0.640432 0.000000 0.086655
0.044986 0.032741 0.032431
0.052854 0.033963 0.050486
0.109102 0.023913 0.063454
0.205759 0.030919 0.073569
0.316350 0.027926 0.077272
0.440495 0.024821 0.079000
0.538110 0.022920 0.080070
0.614005 0.021661 0.080873
0.687536 0.020565 0.081647
0.046876 0.056323 0.042597
0.070313 0.072786 0.057643
0.142748 0.104256 0.080313
0.259674 0.108990 0.083491
0.387977 0.113877 0.086337
0.535237 0.119067 0.089227
0.653434 0.123031 0.091379
0.745132 0.125801 0.092806
0.832836 0.128153 0.093936
0.063772 0.175692 0.090414
0.111285 0.175652 0.103615
0.191791 0.194866 0.139387
0.271643 0.230318 0.141847
0.502222 0.289522 0.103252
0.677868 0.294290 0.098186
0.804980 0.297057 0.097021
0.899784 0.299417 0.096717
0.988737 0.301745 0.096583
0.131140 0.268187 0.139993
0.194706 0.264630 0.170201
0.281784 0.299101 0.223662
0.367854 0.422344 0.157938
0.425431 0.375441 0.215468
0.715216 0.487366 0.147433
0.885845 0.499821 0.110565
0.988082 0.499664 0.102864
1.000000 0.498011 0.097315
0.222132 0.376133 0.216087
0.293401 0.378640 0.258585
0.379666 0.417712 0.315353
0.418810 0.546247 0.233348
0.532904 0.575161 0.220187
0.581632 0.525125 0.287427
0.778590 0.623737 0.244625
0.925765 0.662598 0.189967
1.000000 0.676177 0.145868
0.289828 0.457012 0.276522
0.363564 0.463143 0.324100
0.450136 0.505240 0.382448
0.466913 0.616305 0.303116
0.580606 0.733861 0.207917
0.630504 0.625880 0.306386
0.687993 0.628275 0.335404
0.809165 0.691784 0.308685
0.932104 0.736348 0.260397
0.340117 0.518014 0.322725
0.415055 0.526392 0.372937
0.499367 0.567538 0.429876
0.506420 0.667452 0.353663
0.588442 0.797687 0.230447
0.692747 0.755037 0.273381
0.698574 0.674939 0.353695
0.754713 0.693821 0.364897
0.853875 0.744769 0.341122
0.385674 0.573522 0.365225
0.460582 0.582913 0.416593
0.543427 0.623914 0.472615
0.542037 0.711606 0.397621
0.597013 0.836295 0.267777
0.717006 0.854160 0.242129
0.748737 0.769714 0.335810
0.755652 0.727949 0.380569
0.808776 0.747432 0.388449
0.054875 0.037333 0.092853
0.060288 0.027952 0.099003
0.103964 0.029886 0.104211
0.191532 0.000000 0.134003
0.292253 0.011844 0.150276
0.410673 0.018015 0.168431
0.506350 0.017379 0.179164
0.581016 0.015397 0.185701
0.653220 0.012926 0.190991
0.075938 0.063712 0.088557
0.079748 0.058359 0.111929
0.120747 0.058194 0.117762
0.213202 0.027396 0.148923
0.318425 0.042800 0.164659
0.445526 0.048024 0.181921
0.547932 0.046918 0.191317
0.627672 0.045074 0.196982
0.705315 0.043068 0.201799
0.080411 0.087778 0.095081
0.111488 0.105924 0.110093
0.161265 0.128316 0.160872
0.260672 0.119760 0.182541
0.390417 0.133518 0.200569
0.545304 0.135191 0.211839
0.666934 0.136184 0.218219
0.760112 0.137066 0.222460
0.848548 0.137910 0.226056
0.091893 0.137116 0.116331
0.122897 0.160739 0.138297
0.204025 0.224909 0.195724
0.337745 0.278124 0.229448
0.498227 0.287943 0.236828
0.669445 0.297181 0.243715
0.796845 0.302178 0.247098
0.892617 0.305558 0.249292
0.982324 0.308372 0.251041
0.101671 0.321741 0.208331
0.147919 0.349352 0.227958
0.282811 0.365163 0.268815
0.391502 0.410348 0.305624
0.494248 0.438309 0.316433
0.751088 0.494113 0.263250
0.886675 0.493550 0.257547
0.983808 0.492940 0.255597
1.000000 0.492488 0.254588
0.149266 0.486021 0.267893
0.221447 0.487271 0.287188
0.387644 0.472253 0.355484
0.483475 0.518533 0.405331
0.574809 0.631750 0.327767
0.644248 0.584824 0.393823
0.842598 0.662884 0.334017
0.976278 0.677929 0.286551
1.000000 0.676506 0.262515
0.206730 0.576026 0.310250
0.291323 0.566862 0.337870
0.460352 0.553814 0.421890
0.550626 0.598727 0.473007
0.595896 0.725840 0.365246
0.684287 0.683208 0.407396
0.739777 0.678739 0.439045
0.862179 0.734300 0.399237
0.985297 0.766144 0.345590
0.254319 0.633367 0.344377
0.343959 0.620807 0.378202
0.511028 0.612849 0.469522
0.596839 0.655492 0.519240
0.614242 0.765702 0.411672
0.725806 0.801265 0.368865
0.744136 0.720833 0.456374
0.798931 0.737531 0.465234
0.900345 0.784817 0.431714
0.300200 0.682984 0.378273
0.391850 0.670395 0.416956
0.554888 0.665145 0.511396
0.634058 0.702565 0.556858
0.636000 0.799787 0.453368
0.734046 0.881215 0.353196
0.788711 0.815663 0.427413
0.796135 0.768682 0.481266
0.848611 0.787169 0.486475
0.083572 0.063551 0.163263
0.085180 0.049118 0.169743
0.136810 0.060257 0.173739
0.196677 0.026597 0.200034
0.304763 0.000000 0.231965
0.420767 0.012959 0.252061
0.515816 0.023161 0.271149
0.591911 0.028468 0.285899
0.666883 0.031599 0.299343
0.108744 0.096647 0.160808
0.111254 0.087494 0.186423
0.152642 0.083827 0.195130
0.216380 0.058722 0.218121
0.331164 0.030045 0.251705
0.454847 0.048281 0.273318
0.557300 0.060068 0.293996
0.640544 0.065962 0.309995
0.722767 0.069183 0.324204
0.135964 0.135596 0.156799
0.168611 0.159525 0.181149
0.199077 0.163890 0.251283
0.271372 0.161568 0.265376
0.401370 0.129822 0.304573
0.552537 0.159515 0.335069
0.675304 0.171118 0.357019
0.769530 0.174533 0.369543
0.858395 0.175444 0.378612
0.128701 0.173941 0.182166
0.164837 0.199130 0.207961
0.265920 0.264047 0.269598
0.360813 0.312601 0.348579
0.496194 0.307482 0.378645
0.665948 0.319718 0.397583
0.797230 0.320004 0.403653
0.894971 0.320226 0.406767
0.985787 0.320573 0.409117
0.151695 0.241151 0.214113
0.193686 0.275434 0.246363
0.292605 0.354100 0.319960
0.411329 0.445458 0.399266
0.565016 0.487152 0.419051
0.744289 0.490161 0.420747
0.874118 0.493360 0.423519
0.969563 0.495119 0.424841
1.000000 0.496094 0.425433
0.162885 0.471546 0.345353
0.209489 0.509134 0.372598
0.321568 0.568800 0.417350
0.504085 0.569398 0.471583
0.597398 0.627078 0.487340
0.706931 0.642054 0.499175
0.893247 0.678445 0.434696
0.992476 0.673866 0.421310
1.000000 0.668291 0.414927
0.171260 0.625889 0.402201
0.230147 0.648847 0.420387
0.373815 0.666336 0.455619
0.575962 0.643619 0.534003
0.646640 0.689667 0.554038
0.729752 0.736991 0.504042
0.788206 0.725086 0.539572
0.916405 0.768995 0.486030
1.000000 0.781779 0.437690
0.189975 0.715761 0.429505
0.259525 0.726947 0.445809
0.421102 0.719904 0.485724
0.620888 0.693844 0.575660
0.682864 0.733417 0.595921
0.744898 0.831063 0.481730
0.786736 0.764341 0.557220
0.841571 0.779150 0.563396
0.948381 0.820851 0.518126
0.215610 0.782767 0.450144
0.293236 0.782749 0.466622
0.464798 0.760154 0.514284
0.657372 0.736670 0.610481
0.714335 0.772234 0.630661
0.746241 0.877795 0.501795
0.822945 0.859915 0.517463
0.834905 0.807892 0.581069
0.887522 0.825619 0.582760
0.114775 0.092670 0.241817
0.113973 0.074635 0.248437
0.165446 0.078434 0.257299
0.227873 0.082093 0.267556
0.308119 0.021655 0.307852
0.434414 0.000000 0.342037
0.529104 0.008599 0.360416
0.604727 0.018069 0.377288
0.680216 0.026755 0.395155
0.143929 0.131666 0.243194
0.145958 0.119938 0.270193
0.180718 0.103387 0.283591
0.252575 0.118584 0.291439
0.334437 0.055372 0.333151
0.469126 0.033231 0.368960
0.571191 0.046206 0.389360
0.654268 0.058384 0.409061
0.737296 0.069086 0.429510
0.194724 0.193817 0.237677
0.224850 0.217557 0.273703
0.245143 0.207121 0.353887
0.324245 0.219762 0.366284
0.409023 0.164311 0.404027
0.569026 0.142534 0.446779
0.688608 0.166359 0.471319
0.779390 0.182597 0.490620
0.864712 0.193907 0.507129
0.187418 0.230202 0.266608
0.235517 0.261546 0.295182
0.351273 0.341545 0.366277
0.406595 0.356053 0.467170
0.501846 0.345792 0.486853
0.673079 0.322543 0.528776
0.792107 0.347274 0.546588
0.884771 0.357152 0.559683
0.973104 0.360764 0.568972
0.197365 0.283125 0.288292
0.242578 0.318435 0.324288
0.345226 0.392130 0.399570
0.477846 0.473141 0.476832
0.576588 0.518657 0.548391
0.732114 0.511094 0.579041
0.862426 0.513667 0.587849
0.960058 0.511168 0.589320
1.000000 0.508532 0.588997
0.226704 0.379584 0.342862
0.274423 0.416872 0.378381
0.376761 0.494711 0.452232
0.495446 0.583575 0.534004
0.614729 0.654569 0.592307
0.764668 0.678180 0.591878
0.893051 0.671895 0.582596
0.981191 0.668138 0.579844
1.000000 0.664827 0.577157
0.232896 0.547628 0.447004
0.279995 0.588268 0.480590
0.377483 0.664581 0.540581
0.500809 0.725785 0.586195
0.674400 0.717375 0.632478
0.754706 0.772986 0.608472
0.835503 0.765887 0.629346
0.962848 0.783519 0.576858
1.000000 0.777634 0.562309
0.226257 0.674095 0.505779
0.275565 0.710342 0.532453
0.379023 0.764719 0.571527
0.526014 0.786273 0.601609
0.714402 0.758693 0.667197
0.765497 0.812790 0.645474
0.825751 0.805804 0.649649
0.882861 0.817350 0.652913
0.994970 0.844928 0.596987
0.222328 0.776561 0.541679
0.275381 0.801439 0.559359
0.390628 0.831575 0.585405
0.559742 0.826134 0.618563
0.747121 0.796164 0.697823
0.787055 0.843612 0.682453
0.842929 0.892846 0.609848
0.869807 0.843607 0.673556
0.923042 0.859621 0.670055
0.140955 0.117294 0.308354
0.138412 0.096652 0.314313
0.186760 0.092729 0.326310
0.262465 0.115358 0.334540
0.325129 0.068126 0.364523
0.438856 0.007003 0.409770
0.540287 0.000000 0.435094
0.615771 0.005020 0.451088
0.691066 0.013422 0.469021
0.173454 0.160899 0.313768
0.175274 0.147478 0.341610
0.203820 0.121315 0.356247
0.289413 0.150518 0.365741
0.354602 0.108940 0.393793
0.474481 0.041233 0.442521
0.582573 0.035456 0.468689
0.666021 0.044047 0.487805
0.748960 0.055411 0.508736
0.241986 0.243034 0.313909
0.269062 0.263689 0.355932
0.284198 0.243822 0.440982
0.359962 0.245476 0.457243
0.441985 0.236841 0.477604
0.576091 0.150886 0.536061
0.702692 0.151025 0.564384
0.793487 0.166880 0.581715
0.877044 0.183096 0.597970
0.247482 0.283023 0.335207
0.299734 0.319013 0.367172
0.405858 0.397170 0.447263
0.444591 0.393040 0.557473
0.538043 0.409787 0.562339
0.678776 0.324772 0.629818
0.807649 0.331257 0.648151
0.894399 0.350895 0.658508
0.975292 0.365885 0.669615
0.238697 0.339435 0.375590
0.287579 0.372790 0.409864
0.400892 0.442282 0.476309
0.542709 0.529681 0.548461
0.606120 0.545167 0.645067
0.739209 0.507497 0.684455
0.861527 0.519337 0.694176
0.945682 0.532013 0.701387
1.000000 0.535475 0.706925
0.261563 0.386929 0.378330
0.310562 0.423056 0.414197
0.416037 0.498584 0.489357
0.538443 0.581666 0.572625
0.653765 0.653123 0.645145
0.759191 0.681520 0.701631
0.877743 0.679810 0.705300
0.969090 0.673356 0.701605
1.000000 0.668131 0.697258
0.281942 0.478957 0.437677
0.332765 0.517540 0.474728
0.435536 0.592059 0.546230
0.551239 0.673210 0.622838
0.650445 0.739730 0.680250
0.786841 0.760437 0.725000
0.873065 0.784739 0.693391
0.964991 0.778112 0.682504
1.000000 0.772325 0.677939
0.287676 0.597636 0.514670
0.336482 0.637008 0.549775
0.431695 0.710046 0.612989
0.534704 0.777572 0.666130
0.647378 0.817680 0.696054
0.817602 0.803132 0.756096
0.851089 0.837232 0.713386
0.915137 0.841968 0.713292
1.000000 0.848599 0.667979
0.279930 0.712751 0.575686
0.327145 0.748232 0.604327
0.417428 0.805788 0.648159
0.528108 0.853227 0.681602
0.671311 0.860989 0.706697
0.843000 0.839948 0.782039
0.851450 0.892652 0.711710
0.894128 0.869335 0.738633
0.950852 0.883847 0.731106
0.165021 0.140012 0.369787
0.160996 0.117121 0.374769
0.205891 0.106539 0.388329
0.292001 0.136636 0.400066
0.354292 0.111765 0.421659
0.446077 0.037612 0.464285
0.545818 0.002953 0.497691
0.626341 0.000000 0.518729
0.700744 0.003032 0.535598
0.200995 0.188077 0.379888
0.202463 0.173072 0.408101
0.225565 0.139051 0.421987
0.320269 0.171753 0.437592
0.390023 0.157774 0.458143
0.482882 0.076939 0.501246
0.589830 0.039096 0.537284
0.676098 0.036824 0.559414
0.759429 0.043592 0.580170
0.282112 0.285461 0.384912
0.306076 0.302345 0.429898
0.318354 0.276090 0.518555
0.387434 0.265348 0.537334
0.480672 0.287620 0.547534
0.584007 0.201174 0.601817
0.710154 0.153499 0.645603
0.805287 0.155819 0.665141
0.890152 0.168141 0.679856
0.300989 0.332296 0.397771
0.352151 0.368903 0.431470
0.447747 0.441285 0.519997
0.477944 0.425474 0.635545
0.570615 0.437879 0.642076
0.674830 0.385905 0.686441
0.815228 0.328059 0.739239
0.909087 0.335337 0.749637
0.989063 0.351611 0.756571
0.281923 0.381661 0.441334
0.334477 0.414038 0.472178
0.456697 0.487908 0.536003
0.589010 0.576113 0.614793
0.633511 0.572484 0.722943
0.734121 0.571177 0.731572
0.872959 0.508573 0.790411
0.958554 0.519180 0.791506
1.000000 0.532969 0.792758
0.294528 0.438776 0.455549
0.344398 0.475653 0.493472
0.449264 0.548168 0.568135
0.574226 0.624125 0.644792
0.697809 0.686845 0.695833
0.772396 0.708141 0.765021
0.880711 0.676011 0.796658
0.953982 0.685361 0.792435
1.000000 0.686788 0.793613
0.309129 0.471514 0.456215
0.361221 0.508985 0.493260
0.466670 0.580783 0.564411
0.586714 0.657656 0.640836
0.691755 0.719041 0.702302
0.789333 0.773002 0.757367
0.867596 0.785614 0.786000
0.954061 0.779430 0.782670
1.000000 0.773173 0.777005
0.326038 0.547563 0.507431
0.377687 0.584384 0.543251
0.480470 0.655045 0.612030
0.590374 0.724284 0.679304
0.686174 0.782894 0.734303
0.777280 0.836122 0.776081
0.863201 0.843537 0.790705
0.941711 0.851021 0.766454
1.000000 0.843475 0.757603
0.332324 0.649976 0.575292
0.382201 0.687313 0.609858
0.474120 0.750839 0.667763
0.571815 0.813813 0.721730
0.664117 0.865738 0.760033
0.790514 0.880864 0.782522
0.885564 0.873478 0.819748
0.913590 0.892287 0.789272
0.977863 0.902269 0.778811
0.187156 0.160952 0.426435
0.181807 0.136048 0.430264
0.223495 0.119842 0.444333
0.317258 0.152893 0.461390
0.387620 0.148079 0.480179
0.463270 0.074630 0.515590
0.551198 0.023350 0.549307
0.631250 0.002386 0.574654
0.711076 0.000000 0.596969
0.226614 0.213316 0.441573
0.227918 0.197046 0.470410
0.246251 0.156269 0.482315
0.345590 0.188082 0.502997
0.425954 0.195981 0.520866
0.504700 0.120200 0.558656
0.597004 0.062772 0.594169
0.683750 0.040468 0.621872
0.768525 0.038503 0.644635
0.315480 0.320969 0.448021
0.336758 0.334374 0.494515
0.347566 0.303848 0.586242
0.410289 0.282887 0.606935
0.511931 0.318490 0.611423
0.602000 0.255866 0.656141
0.711090 0.184756 0.705603
0.811192 0.158468 0.736418
0.899826 0.160193 0.753506
0.345104 0.374466 0.452577
0.393995 0.410353 0.487719
0.481131 0.476747 0.583564
0.506330 0.453121 0.702582
0.594363 0.455534 0.713185
0.689681 0.442509 0.733014
0.805232 0.364002 0.795557
0.914620 0.333778 0.828343
1.000000 0.339413 0.836844
0.323593 0.417245 0.492993
0.379678 0.451592 0.523639
0.503060 0.528128 0.586833
0.622453 0.611494 0.673209
0.657083 0.596171 0.787281
0.752835 0.608875 0.780541
0.854813 0.545460 0.840334
0.966707 0.511646 0.874579
1.000000 0.518891 0.873393
0.322509 0.480669 0.522672
0.373818 0.515957 0.559422
0.482266 0.583488 0.628066
0.613343 0.654184 0.692171
0.731572 0.717221 0.738025
0.786185 0.720791 0.827912
0.860880 0.709088 0.837415
0.965565 0.673798 0.872781
1.000000 0.681881 0.866072
0.341250 0.513922 0.519195
0.392536 0.550796 0.556409
0.495929 0.621942 0.628439
0.609015 0.692687 0.700646
0.711682 0.747544 0.756511
0.820531 0.797025 0.795068
0.867723 0.805380 0.834076
0.949775 0.780779 0.858519
1.000000 0.785217 0.854741
0.348201 0.540240 0.522545
0.400661 0.576318 0.558275
0.505208 0.645251 0.626667
0.617798 0.712093 0.693310
0.717996 0.766964 0.748270
0.812544 0.817373 0.799032
0.875757 0.848904 0.831314
0.934218 0.851238 0.845666
1.000000 0.843568 0.840110
0.363136 0.611198 0.570158
0.415674 0.647479 0.605637
0.514273 0.710452 0.667485
0.618814 0.771332 0.727343
0.712174 0.824731 0.778772
0.796861 0.874672 0.822300
0.866447 0.898536 0.839855
0.923454 0.906142 0.840775
0.999532 0.908396 0.825027
