Fotico/Resources/LUTs/tezza_golden.cube
TITLE "Tezza Golden Hour"
LUT_3D_SIZE 9
DOMAIN_MIN 0.0 0.0 0.0
DOMAIN_MAX 1.0 1.0 1.0
0.152972 0.009728 0.000000
0.286798 0.009887 0.000000
0.429363 0.013055 0.000000
0.565057 0.016137 0.000000
0.698311 0.019172 0.000000
0.835626 0.022297 0.000000
0.866526 0.024707 0.000000
0.867673 0.026409 0.000000
0.868646 0.027868 0.000000
0.166689 0.112062 0.000000
0.325604 0.123099 0.000000
0.485908 0.131415 0.000000
0.628249 0.137895 0.000000
0.763570 0.143573 0.000000
0.901842 0.149120 0.000000
0.932459 0.152193 0.000000
0.933268 0.154055 0.000000
0.933957 0.155644 0.000000
0.194354 0.224287 0.000000
0.356378 0.253465 0.000000
0.523034 0.263371 0.000000
0.670839 0.271741 0.000000
0.812119 0.279551 0.000000
0.958086 0.287742 0.000000
0.990939 0.291801 0.000000
0.991916 0.293905 0.000000
0.992748 0.295694 0.000000
0.218956 0.338461 0.000000
0.377970 0.386190 0.000000
0.553326 0.398901 0.000000
0.711940 0.411638 0.000000
0.863293 0.422977 0.000000
1.000000 0.431639 0.000000
1.000000 0.435117 0.000000
1.000000 0.437107 0.000000
1.000000 0.438819 0.000000
0.242468 0.457733 0.000000
0.400892 0.528429 0.000000
0.585337 0.544696 0.000000
0.743974 0.553134 0.000000
0.890945 0.559451 0.000000
1.000000 0.564460 0.000000
1.000000 0.567250 0.000000
1.000000 0.569150 0.000000
1.000000 0.570781 0.000000
0.269508 0.591941 0.000000
0.420294 0.662217 0.000000
0.602420 0.680626 0.000000
0.758811 0.685265 0.000000
0.901822 0.688091 0.000000
1.000000 0.689480 0.000000
1.000000 0.691552 0.000000
1.000000 0.693290 0.000000
1.000000 0.694778 0.000000
0.293149 0.713129 0.000000
0.435129 0.774853 0.000000
0.609000 0.799163 0.000000
0.761041 0.799308 0.000000
0.899022 0.798243 0.000000
1.000000 0.796555 0.000000
1.000000 0.798329 0.000000
1.000000 0.799946 0.000000
1.000000 0.801328 0.000000
0.309358 0.808091 0.003799
0.444992 0.861850 0.000000
0.608181 0.889942 0.000000
0.756783 0.887401 0.000000
0.892125 0.884907 0.000000
1.000000 0.882234 0.000000
1.000000 0.883956 0.000000
1.000000 0.885489 0.000000
1.000000 0.886797 0.000000
0.321992 0.890660 0.012822
0.451965 0.936152 0.000000
0.605549 0.968129 0.000000
0.751583 0.966215 0.000000
0.884078 0.962021 0.000000
1.000000 0.957919 0.000000
1.000000 0.959725 0.000000
1.000000 0.961216 0.000000
1.000000 0.962487 0.000000
0.151185 0.009729 0.000000
0.286885 0.007738 0.000000
0.431723 0.005798 0.000000
0.569090 0.003951 0.000000
0.703251 0.004108 0.000000
0.842094 0.004250 0.000000
0.851750 0.004259 0.000000
0.867693 0.026439 0.000000
0.868667 0.027899 0.000000
0.168954 0.105976 0.000000
0.338301 0.124903 0.000000
0.513204 0.118941 0.000000
0.654974 0.119324 0.000000
0.788741 0.122381 0.000000
0.920942 0.126296 0.000000
0.921833 0.128256 0.000000
0.933283 0.154089 0.000000
0.933972 0.155680 0.000000
0.201162 0.220309 0.000000
0.354434 0.253737 0.000000
0.551765 0.273851 0.000000
0.712540 0.270952 0.000000
0.851548 0.270092 0.000000
0.982068 0.272267 0.000000
0.981904 0.271895 0.000000
0.991934 0.293944 0.000000
0.992767 0.295735 0.000000
0.226567 0.337332 0.011336
0.375678 0.386126 0.000000
0.560594 0.407693 0.000000
0.757378 0.433595 0.000000
0.918115 0.433245 0.000000
1.000000 0.429749 0.000000
1.000000 0.427388 0.000000
1.000000 0.437128 0.000000
1.000000 0.438841 0.000000
0.250033 0.458712 0.028219
0.398900 0.521805 0.000000
0.582955 0.544649 0.000000
0.759993 0.568932 0.000000
0.939269 0.585109 0.000000
1.000000 0.577569 0.000000
1.000000 0.570725 0.000000
1.000000 0.569171 0.000000
1.000000 0.570803 0.000000
0.277634 0.594924 0.046372
0.423016 0.651195 0.005106
0.600433 0.680622 0.000000
0.758422 0.687472 0.000000
0.922366 0.707516 0.000000
1.000000 0.714740 0.000000
1.000000 0.701909 0.000000
1.000000 0.693310 0.000000
1.000000 0.694799 0.000000
0.302056 0.715325 0.059838
0.441261 0.762767 0.018005
0.607054 0.799210 0.000000
0.759154 0.799372 0.000000
0.901465 0.803759 0.000000
1.000000 0.819343 0.000000
1.000000 0.811942 0.000000
1.000000 0.799964 0.000000
1.000000 0.801347 0.000000
0.318823 0.809870 0.070574
0.453302 0.849860 0.028960
0.606489 0.888795 0.000000
0.754936 0.887488 0.000000
0.890855 0.885949 0.000000
1.000000 0.893443 0.000000
1.000000 0.898354 0.000000
1.000000 0.885507 0.000000
1.000000 0.886815 0.000000
0.331440 0.891516 0.079647
0.461641 0.924461 0.038852
0.604775 0.964692 0.000000
0.749769 0.966319 0.000000
0.882311 0.962128 0.000000
1.000000 0.962435 0.000000
1.000000 0.973935 0.000000
1.000000 0.961233 0.000000
1.000000 0.962505 0.000000
0.150700 0.016167 0.020087
0.283639 0.009977 0.025904
0.426742 0.013162 0.026103
0.563292 0.014617 0.025307
0.697843 0.014391 0.022889
0.836812 0.013484 0.019388
0.858764 0.012100 0.015285
0.869449 0.026542 0.025169
0.870353 0.028006 0.024322
0.167192 0.108621 0.031722
0.330086 0.118577 0.026662
0.495441 0.117856 0.018983
0.641902 0.117890 0.012653
0.780816 0.117627 0.006493
0.916704 0.117071 0.000103
0.915516 0.114531 0.000000
0.934895 0.154406 0.033777
0.935538 0.155995 0.032806
0.186110 0.238489 0.046139
0.352668 0.254044 0.045207
0.542155 0.267483 0.024471
0.704844 0.262870 0.007064
0.857329 0.257208 0.000000
0.973555 0.251839 0.000000
0.978104 0.263066 0.000000
0.994310 0.294702 0.043048
0.995091 0.296485 0.041966
0.210378 0.355345 0.062558
0.374558 0.382243 0.058541
0.556507 0.406079 0.049634
0.748621 0.427326 0.021629
0.910165 0.426225 0.007891
1.000000 0.420509 0.000000
1.000000 0.421718 0.006146
1.000000 0.437589 0.047684
1.000000 0.439284 0.045670
0.234213 0.476745 0.081707
0.404463 0.507148 0.084115
0.581637 0.545502 0.063872
0.755880 0.567042 0.047138
0.933252 0.580285 0.013940
1.000000 0.575007 0.000000
1.000000 0.567544 0.011496
1.000000 0.569342 0.048154
1.000000 0.570966 0.046112
0.262861 0.612093 0.102912
0.435059 0.635237 0.104329
0.598496 0.680959 0.064839
0.755465 0.686428 0.060056
0.918096 0.705443 0.036215
1.000000 0.713632 0.001777
1.000000 0.700647 0.016717
1.000000 0.693078 0.047806
1.000000 0.694575 0.045772
0.289097 0.727464 0.118760
0.456100 0.747235 0.117964
0.604899 0.797330 0.066430
0.756607 0.798996 0.060548
0.897672 0.802021 0.051933
1.000000 0.817224 0.023067
1.000000 0.811927 0.021339
1.000000 0.799496 0.046955
1.000000 0.800900 0.044956
0.307579 0.818921 0.130982
0.469417 0.835095 0.128130
0.605779 0.882336 0.071744
0.752267 0.886889 0.059651
0.887816 0.884785 0.055331
1.000000 0.891287 0.040274
1.000000 0.899052 0.025084
1.000000 0.884886 0.046148
1.000000 0.886220 0.044182
0.321952 0.898307 0.141252
0.478320 0.910478 0.136465
0.606202 0.955224 0.078646
0.747042 0.965550 0.058732
0.879524 0.961371 0.054782
1.000000 0.960755 0.046805
1.000000 0.975263 0.028457
1.000000 0.960591 0.045314
1.000000 0.961896 0.043385
0.152740 0.018668 0.078810
0.283118 0.010071 0.088287
0.428223 0.013315 0.091722
0.564811 0.016421 0.095047
0.698330 0.019463 0.097773
0.835727 0.022025 0.099620
0.871708 0.022634 0.098252
0.874388 0.026743 0.099359
0.875258 0.028218 0.098575
0.178878 0.111748 0.085267
0.322427 0.124399 0.106698
0.483354 0.132358 0.109834
0.628078 0.135200 0.109169
0.766463 0.136234 0.106586
0.907899 0.136669 0.103063
0.929150 0.134749 0.097895
0.938640 0.155077 0.113640
0.939281 0.156675 0.112714
0.190822 0.231624 0.114569
0.352704 0.251871 0.125842
0.535495 0.260613 0.108269
0.693277 0.255827 0.096748
0.839904 0.254253 0.089724
0.977689 0.253652 0.083411
0.977319 0.253049 0.080587
0.999000 0.296147 0.128349
0.999788 0.297943 0.127323
0.192762 0.375414 0.134986
0.386022 0.369675 0.153304
0.553339 0.405155 0.136591
0.739601 0.420828 0.115158
0.903733 0.418578 0.099947
1.000000 0.411276 0.080946
1.000000 0.414420 0.092280
1.000000 0.438382 0.136428
1.000000 0.440074 0.134359
0.209341 0.507431 0.150463
0.421405 0.499039 0.180772
0.580511 0.546581 0.152713
0.752025 0.565349 0.139006
0.926429 0.574577 0.108656
1.000000 0.567996 0.091757
1.000000 0.563018 0.099233
1.000000 0.569596 0.138039
1.000000 0.571216 0.135927
0.234899 0.643714 0.168525
0.452712 0.628958 0.201178
0.596729 0.679538 0.156918
0.752757 0.685705 0.151227
0.913369 0.703001 0.128544
1.000000 0.708369 0.095209
1.000000 0.698080 0.104171
1.000000 0.692583 0.137336
1.000000 0.694075 0.135219
0.260938 0.755558 0.181034
0.473582 0.741380 0.214665
0.605582 0.788139 0.165935
0.753756 0.798371 0.150311
0.893405 0.799861 0.142659
1.000000 0.814194 0.113596
1.000000 0.810795 0.107498
1.000000 0.798588 0.135259
1.000000 0.799993 0.133174
0.280707 0.843316 0.191608
0.486383 0.829243 0.223866
0.610008 0.869393 0.174469
0.749241 0.885950 0.148327
0.884536 0.883541 0.143777
1.000000 0.888448 0.129584
1.000000 0.898723 0.109981
1.000000 0.883671 0.133255
1.000000 0.885002 0.131202
0.296709 0.918889 0.200772
0.494743 0.904620 0.230762
0.613452 0.940424 0.182432
0.743925 0.964149 0.146480
0.876207 0.960105 0.141598
1.000000 0.958490 0.134271
1.000000 0.972551 0.116157
1.000000 0.959386 0.131190
1.000000 0.960699 0.129179
0.156687 0.024063 0.137694
0.280120 0.018439 0.146641
0.429819 0.013474 0.160956
0.567149 0.016598 0.167407
0.700935 0.019645 0.172739
0.837961 0.022762 0.177149
0.878310 0.025226 0.177766
0.879305 0.026946 0.177264
0.880138 0.028430 0.176551
0.198645 0.125569 0.141462
0.324687 0.138860 0.171201
0.483583 0.133300 0.187667
0.626216 0.139541 0.191614
0.762062 0.145122 0.194734
0.901649 0.149557 0.196868
0.940045 0.150156 0.195098
0.942508 0.155770 0.197174
0.943148 0.157377 0.196308
0.206548 0.219195 0.167254
0.358984 0.252738 0.195545
0.519115 0.265362 0.207845
0.671740 0.268209 0.206051
0.817746 0.269934 0.202905
0.968632 0.271822 0.199536
0.989652 0.269495 0.193404
1.000000 0.297646 0.217613
1.000000 0.299453 0.216658
0.210050 0.353126 0.206826
0.371696 0.389761 0.223291
0.550504 0.404475 0.226950
0.731437 0.413509 0.210757
0.894679 0.409201 0.197077
1.000000 0.404706 0.184798
1.000000 0.403877 0.181495
1.000000 0.439152 0.228677
1.000000 0.440842 0.226571
0.205053 0.512568 0.237747
0.403453 0.523603 0.247362
0.579480 0.545634 0.246668
0.748078 0.563549 0.234178
0.917583 0.567622 0.208440
1.000000 0.560315 0.189694
1.000000 0.556329 0.190192
1.000000 0.569807 0.231228
1.000000 0.571422 0.229063
0.215216 0.664708 0.254517
0.436548 0.646860 0.267171
0.600569 0.666921 0.262879
0.750444 0.685611 0.244872
0.908524 0.700399 0.224021
1.000000 0.702140 0.192824
1.000000 0.694249 0.194729
1.000000 0.692025 0.229949
1.000000 0.693512 0.227768
0.232665 0.783158 0.259870
0.461158 0.754294 0.282643
0.615686 0.771514 0.276155
0.750830 0.797687 0.243019
0.889217 0.797733 0.236270
1.000000 0.810987 0.207163
1.000000 0.809020 0.196622
1.000000 0.797646 0.226542
1.000000 0.799052 0.224392
0.249170 0.871615 0.264449
0.476614 0.838641 0.293263
0.623647 0.852248 0.284598
0.746272 0.884379 0.240556
0.881346 0.882558 0.234738
1.000000 0.885548 0.221831
1.000000 0.898106 0.197709
1.000000 0.882391 0.223255
1.000000 0.883721 0.221135
0.264187 0.945601 0.268776
0.487255 0.911633 0.301121
0.629087 0.923603 0.291156
0.742209 0.958409 0.242100
0.872843 0.958804 0.231218
1.000000 0.956309 0.224502
1.000000 0.969535 0.207137
1.000000 0.958191 0.219960
1.000000 0.959513 0.217887
0.162727 0.030882 0.198567
0.286824 0.036748 0.202331
0.431476 0.013637 0.233198
0.569491 0.016777 0.242790
0.703498 0.019828 0.250671
0.840377 0.022939 0.257198
0.883193 0.025419 0.258512
0.884155 0.027146 0.258074
0.884968 0.028642 0.257439
0.214972 0.141448 0.206324
0.332562 0.143910 0.247293
0.483853 0.134060 0.268196
0.626730 0.140224 0.274082
0.762873 0.145774 0.278881
0.902146 0.151268 0.283307
0.945701 0.154600 0.284123
0.946462 0.156477 0.283581
0.947103 0.158095 0.282783
0.216407 0.232900 0.240273
0.379601 0.268998 0.263423
0.518197 0.267098 0.294356
0.667603 0.275444 0.299256
0.810574 0.283340 0.303774
0.961436 0.290853 0.308303
1.000000 0.291912 0.306700
1.000000 0.299168 0.310027
1.000000 0.300981 0.309116
0.228715 0.329489 0.257304
0.389137 0.366511 0.288331
0.549489 0.405166 0.319209
0.716466 0.409769 0.316339
0.871922 0.413073 0.313694
1.000000 0.413310 0.305737
1.000000 0.410016 0.295912
1.000000 0.439890 0.323541
1.000000 0.441577 0.321405
0.230356 0.478705 0.308102
0.397439 0.531515 0.336893
0.590013 0.534932 0.350590
0.744052 0.561565 0.331797
0.908635 0.560019 0.310579
1.000000 0.550689 0.289353
1.000000 0.546350 0.283457
1.000000 0.569968 0.326802
1.000000 0.571578 0.324592
0.222676 0.654927 0.346425
0.410423 0.673997 0.347971
0.617403 0.656174 0.369325
0.748157 0.685638 0.340622
0.903585 0.697583 0.321775
1.000000 0.694858 0.294441
1.000000 0.688532 0.287553
1.000000 0.691410 0.324719
1.000000 0.692892 0.322483
0.221620 0.792371 0.353902
0.429857 0.783345 0.353770
0.633720 0.761988 0.381015
0.748175 0.795442 0.339495
0.885275 0.795815 0.331695
1.000000 0.807574 0.302920
1.000000 0.806287 0.287870
1.000000 0.796683 0.319904
1.000000 0.798090 0.317699
0.228034 0.889008 0.353588
0.445295 0.864654 0.359003
0.641495 0.843483 0.387171
0.746527 0.875578 0.343055
0.878069 0.881504 0.327704
1.000000 0.882645 0.316093
1.000000 0.897097 0.287412
1.000000 0.881066 0.315251
1.000000 0.882395 0.313073
0.237031 0.966814 0.351748
0.457806 0.934509 0.363914
0.646647 0.915602 0.391603
0.746428 0.945457 0.348162
0.869457 0.957488 0.322805
0.999405 0.954353 0.316503
1.000000 0.966498 0.300235
1.000000 0.957029 0.310763
1.000000 0.958361 0.308639
0.171294 0.037921 0.261421
0.297950 0.045803 0.268413
0.430573 0.022719 0.299621
0.571737 0.016953 0.318668
0.705912 0.020006 0.328938
0.842602 0.023110 0.337399
0.887902 0.025606 0.339443
0.888839 0.027342 0.339068
0.889634 0.028848 0.338512
0.228579 0.156172 0.275143
0.338045 0.148182 0.324460
0.480316 0.150464 0.336651
0.627208 0.140891 0.356569
0.763666 0.146416 0.363001
0.903305 0.151903 0.369013
0.949615 0.155292 0.370477
0.950374 0.157177 0.369989
0.951016 0.158804 0.369262
0.235058 0.245421 0.305586
0.394347 0.285130 0.337826
0.519890 0.288682 0.364798
0.667677 0.276528 0.386968
0.811484 0.284565 0.393288
0.962537 0.293735 0.400953
1.000000 0.298521 0.402980
1.000000 0.300643 0.402504
1.000000 0.302420 0.401007
0.238623 0.344199 0.334281
0.401441 0.380817 0.367034
0.567489 0.420495 0.399346
0.710072 0.419627 0.418948
0.859626 0.428636 0.423147
1.000000 0.433477 0.421843
1.000000 0.432596 0.415772
1.000000 0.440571 0.417847
1.000000 0.442254 0.415687
0.251053 0.450301 0.358510
0.422915 0.496931 0.397349
0.585209 0.539752 0.428502
0.739609 0.558553 0.428978
0.899608 0.551300 0.411887
1.000000 0.546326 0.400138
1.000000 0.542005 0.389673
1.000000 0.570074 0.421565
1.000000 0.571678 0.419317
0.253081 0.618839 0.416639
0.418343 0.663922 0.438561
0.593649 0.679059 0.440219
0.746585 0.682962 0.438158
0.898636 0.694415 0.418672
1.000000 0.687257 0.395828
1.000000 0.680040 0.379650
1.000000 0.690761 0.418486
1.000000 0.692238 0.416200
0.237527 0.773695 0.443159
0.414054 0.796433 0.444192
0.612764 0.779789 0.447312
0.753974 0.781841 0.447468
0.881889 0.794554 0.425315
1.000000 0.804022 0.397859
1.000000 0.802144 0.378275
1.000000 0.795734 0.412247
1.000000 0.797143 0.409994
0.228580 0.885470 0.447457
0.418814 0.885575 0.441185
0.624735 0.856708 0.453278
0.758151 0.859122 0.453037
0.874809 0.880411 0.419601
1.000000 0.879895 0.409170
1.000000 0.893826 0.379362
1.000000 0.879748 0.406184
1.000000 0.881077 0.403956
0.226415 0.972875 0.443603
0.426740 0.958538 0.438681
0.633688 0.925904 0.458578
0.761288 0.928818 0.457179
0.866282 0.955658 0.414013
0.995980 0.952896 0.406992
1.000000 0.963542 0.392378
1.000000 0.955947 0.400602
1.000000 0.957290 0.398436
0.180437 0.045024 0.323423
0.305686 0.048492 0.336507
0.434813 0.043136 0.356978
0.573559 0.017484 0.390821
0.708058 0.020169 0.403474
0.844569 0.023267 0.413617
0.892231 0.025779 0.416388
0.893146 0.027522 0.416072
0.893927 0.029038 0.415590
0.240354 0.169223 0.342654
0.344275 0.154417 0.396777
0.486970 0.172043 0.398823
0.626853 0.142740 0.433874
0.764398 0.147016 0.442808
0.904398 0.152500 0.450307
0.953294 0.155943 0.452432
0.954052 0.157835 0.451997
0.954696 0.159472 0.451340
0.255817 0.260545 0.366483
0.406369 0.298738 0.410619
0.528745 0.295667 0.443287
0.665978 0.280909 0.467484
0.812512 0.285775 0.478321
0.964291 0.295026 0.487962
1.000000 0.299866 0.490712
1.000000 0.301976 0.490116
1.000000 0.303728 0.488214
0.248796 0.357343 0.407186
0.422494 0.394827 0.434610
0.580940 0.434701 0.479388
0.707581 0.429446 0.501039
0.859231 0.429472 0.511540
1.000000 0.435787 0.511838
1.000000 0.439231 0.509403
1.000000 0.441166 0.506832
1.000000 0.442847 0.504650
0.262556 0.458802 0.428280
0.435198 0.504445 0.469011
0.599352 0.539741 0.497963
0.735893 0.560849 0.518880
0.879764 0.562056 0.520165
1.000000 0.562648 0.514690
1.000000 0.560176 0.506528
1.000000 0.570125 0.510759
1.000000 0.571724 0.508476
0.277482 0.588975 0.466852
0.448050 0.629824 0.497778
0.602842 0.667766 0.521922
0.747813 0.681472 0.526480
0.893333 0.690209 0.510596
1.000000 0.678955 0.488345
1.000000 0.671046 0.473597
1.000000 0.690119 0.506570
1.000000 0.691593 0.504242
0.268386 0.739435 0.509212
0.430746 0.777745 0.526980
0.591505 0.796628 0.526523
0.762125 0.777533 0.534983
0.878925 0.793730 0.512798
1.000000 0.800091 0.487495
1.000000 0.795536 0.469998
1.000000 0.794850 0.498980
1.000000 0.796260 0.496687
0.250783 0.861580 0.527260
0.416852 0.884248 0.528458
0.595177 0.879582 0.521831
0.768364 0.854746 0.539699
0.872168 0.877895 0.507611
1.000000 0.877458 0.496399
1.000000 0.889491 0.467470
1.000000 0.878511 0.491540
1.000000 0.879840 0.489269
0.236675 0.960417 0.529299
0.412556 0.967741 0.522444
0.603145 0.949160 0.520396
0.772262 0.924543 0.542842
0.867153 0.946894 0.508160
0.993034 0.951949 0.491563
1.000000 0.960799 0.478987
1.000000 0.954996 0.485025
1.000000 0.956347 0.482824
0.190068 0.052387 0.387023
0.311688 0.050316 0.405331
0.445676 0.061435 0.418019
0.572199 0.030041 0.454670
0.710042 0.020327 0.477591
0.846417 0.023419 0.489285
0.896401 0.025946 0.492800
0.897298 0.027697 0.492540
0.898066 0.029223 0.492131
0.252490 0.181607 0.411656
0.351448 0.161925 0.468163
0.497474 0.183892 0.468841
0.622348 0.161777 0.497675
0.765104 0.147603 0.521924
0.905473 0.153087 0.530882
0.956913 0.156584 0.533707
0.957670 0.158482 0.533324
0.958316 0.160128 0.532739
0.273966 0.277090 0.430554
0.417638 0.311457 0.483903
0.534272 0.299010 0.523787
0.665012 0.306545 0.532349
0.813640 0.287007 0.562748
0.965941 0.296272 0.574248
1.000000 0.301138 0.577680
1.000000 0.303208 0.576538
1.000000 0.304959 0.574638
0.265129 0.369462 0.474053
0.446584 0.413673 0.502616
0.593530 0.448043 0.559149
0.715014 0.451185 0.573503
0.858772 0.430254 0.598784
1.000000 0.436367 0.599479
1.000000 0.439780 0.597159
1.000000 0.441710 0.594571
1.000000 0.443388 0.592368
0.270890 0.476587 0.508740
0.446779 0.519523 0.548070
0.619358 0.552604 0.567143
0.742498 0.569113 0.600018
0.878183 0.562351 0.608145
1.000000 0.565827 0.604888
1.000000 0.568292 0.601233
1.000000 0.570130 0.598499
1.000000 0.571724 0.596182
0.289884 0.584545 0.527195
0.462601 0.620487 0.556166
0.623091 0.650265 0.579456
0.757571 0.672829 0.596673
0.882521 0.686250 0.606763
1.000000 0.680044 0.593926
1.000000 0.676295 0.583598
1.000000 0.689461 0.593068
1.000000 0.690931 0.590701
0.295467 0.708774 0.560613
0.462106 0.744562 0.586507
0.610989 0.776049 0.604488
0.739499 0.794583 0.606059
0.878210 0.788999 0.603206
1.000000 0.794948 0.576967
1.000000 0.787948 0.559714
1.000000 0.793989 0.584151
1.000000 0.795400 0.581821
0.282680 0.828323 0.590087
0.440875 0.859735 0.604779
0.590097 0.880814 0.605850
0.741225 0.875308 0.600440
0.879850 0.864747 0.606446
0.999665 0.875208 0.581858
1.000000 0.884440 0.554820
1.000000 0.877302 0.575309
1.000000 0.878633 0.573000
0.263098 0.933644 0.603218
0.421859 0.956408 0.605966
0.583760 0.962179 0.598438
0.747671 0.941764 0.599356
0.879919 0.932179 0.607430
0.990214 0.951075 0.574648
1.000000 0.958132 0.564099
1.000000 0.954109 0.567971
1.000000 0.955468 0.565740
