Fotico/Resources/LUTs/tezza_golden.cube
TITLE "Tezza Golden Hour"
LUT_3D_SIZE 33
DOMAIN_MIN 0.0 0.0 0.0
DOMAIN_MAX 1.0 1.0 1.0
0.152972 0.009728 0.000000
0.186691 0.009728 0.000000
0.219976 0.009750 0.000000
0.253260 0.009793 0.000000
0.286798 0.009887 0.000000
0.321574 0.010644 0.000000
0.357472 0.011438 0.000000
0.393815 0.012253 0.000000
0.429363 0.013055 0.000000
0.463860 0.013837 0.000000
0.497924 0.014610 0.000000
0.531626 0.015376 0.000000
0.565057 0.016137 0.000000
0.598319 0.016894 0.000000
0.631531 0.017651 0.000000
0.664817 0.018409 0.000000
0.698311 0.019172 0.000000
0.732333 0.019946 0.000000
0.766838 0.020732 0.000000
0.801410 0.021519 0.000000
0.835626 0.022297 0.000000
0.865392 0.023040 0.000000
0.865793 0.023628 0.000000
0.866173 0.024186 0.000000
0.866526 0.024707 0.000000
0.866849 0.025184 0.000000
0.867143 0.025621 0.000000
0.867416 0.026026 0.000000
0.867673 0.026409 0.000000
0.867921 0.026780 0.000000
0.868167 0.027148 0.000000
0.868408 0.027509 0.000000
0.868646 0.027868 0.000000
0.153517 0.032179 0.000000
0.188421 0.032999 0.000000
0.223302 0.033909 0.000000
0.258602 0.034907 0.000000
0.294577 0.035992 0.000000
0.331898 0.037163 0.000000
0.370033 0.038370 0.000000
0.408018 0.039573 0.000000
0.444826 0.040734 0.000000
0.480358 0.041847 0.000000
0.515281 0.042933 0.000000
0.549690 0.043994 0.000000
0.583693 0.045032 0.000000
0.617407 0.046051 0.000000
0.650959 0.047055 0.000000
0.684483 0.048048 0.000000
0.718117 0.049033 0.000000
0.752183 0.050020 0.000000
0.786637 0.051008 0.000000
0.821063 0.051983 0.000000
0.855044 0.052935 0.000000
0.884509 0.053822 0.000000
0.884849 0.054421 0.000000
0.885171 0.054990 0.000000
0.885471 0.055522 0.000000
0.885746 0.056009 0.000000
0.885996 0.056454 0.000000
0.886228 0.056868 0.000000
0.886447 0.057260 0.000000
0.886659 0.057638 0.000000
0.886869 0.058014 0.000000
0.887074 0.058381 0.000000
0.887277 0.058747 0.000000
0.156198 0.057650 0.000000
0.192841 0.058969 0.000000
0.229807 0.060432 0.000000
0.267213 0.061967 0.000000
0.304975 0.063525 0.000000
0.343703 0.065116 0.000000
0.383069 0.066717 0.000000
0.422098 0.068281 0.000000
0.459757 0.069766 0.000000
0.495970 0.071170 0.000000
0.531439 0.072521 0.000000
0.566272 0.073824 0.000000
0.600588 0.075084 0.000000
0.634513 0.076307 0.000000
0.668181 0.077499 0.000000
0.701731 0.078665 0.000000
0.735302 0.079809 0.000000
0.769220 0.080943 0.000000
0.803516 0.082073 0.000000
0.837852 0.083191 0.000000
0.871848 0.084288 0.000000
0.901335 0.085303 0.000000
0.901645 0.085916 0.000000
0.901938 0.086498 0.000000
0.902212 0.087043 0.000000
0.902463 0.087541 0.000000
0.902691 0.087997 0.000000
0.902904 0.088421 0.000000
0.903104 0.088821 0.000000
0.903298 0.089209 0.000000
0.903490 0.089594 0.000000
0.903676 0.089968 0.000000
0.903863 0.090342 0.000000
0.160966 0.084794 0.000000
0.199412 0.086751 0.000000
0.237904 0.088718 0.000000
0.276618 0.090680 0.000000
0.315544 0.092623 0.000000
0.355307 0.094568 0.000000
0.395567 0.096493 0.000000
0.435331 0.098346 0.000000
0.473565 0.100082 0.000000
0.510213 0.101704 0.000000
0.545997 0.103247 0.000000
0.581039 0.104720 0.000000
0.615466 0.106131 0.000000
0.649411 0.107486 0.000000
0.683020 0.108795 0.000000
0.716515 0.110075 0.000000
0.750091 0.111340 0.000000
0.784110 0.112606 0.000000
0.818564 0.113872 0.000000
0.853081 0.115127 0.000000
0.887280 0.116360 0.000000
0.916896 0.117494 0.000000
0.917187 0.118122 0.000000
0.917463 0.118718 0.000000
0.917721 0.119275 0.000000
0.917956 0.119785 0.000000
0.918172 0.120251 0.000000
0.918371 0.120685 0.000000
0.918560 0.121095 0.000000
0.918743 0.121491 0.000000
0.918924 0.121885 0.000000
0.919099 0.122266 0.000000
0.919275 0.122649 0.000000
0.166689 0.112062 0.000000
0.206365 0.116218 0.000000
0.246025 0.118565 0.000000
0.285776 0.120862 0.000000
0.325604 0.123099 0.000000
0.366146 0.125307 0.000000
0.407051 0.127463 0.000000
0.447316 0.129515 0.000000
0.485908 0.131415 0.000000
0.522789 0.133171 0.000000
0.558700 0.134825 0.000000
0.593781 0.136391 0.000000
0.628249 0.137895 0.000000
0.662287 0.139355 0.000000
0.696069 0.140780 0.000000
0.729771 0.142183 0.000000
0.763570 0.143573 0.000000
0.797831 0.144966 0.000000
0.832549 0.146364 0.000000
0.867348 0.147753 0.000000
0.901842 0.149120 0.000000
0.931666 0.150372 0.000000
0.931946 0.151014 0.000000
0.932211 0.151623 0.000000
0.932459 0.152193 0.000000
0.932686 0.152715 0.000000
0.932894 0.153193 0.000000
0.933086 0.153636 0.000000
0.933268 0.154055 0.000000
0.933444 0.154461 0.000000
0.933619 0.154864 0.000000
0.933787 0.155252 0.000000
0.933957 0.155644 0.000000
0.173245 0.139313 0.000000
0.213136 0.147342 0.000000
0.253764 0.149962 0.000000
0.294346 0.152488 0.000000
0.334872 0.154919 0.000000
0.375985 0.157289 0.000000
0.417331 0.159576 0.000000
0.457899 0.161728 0.000000
0.496667 0.163700 0.000000
0.533691 0.165529 0.000000
0.569783 0.167273 0.000000
0.605109 0.168947 0.000000
0.639842 0.170566 0.000000
0.674154 0.172143 0.000000
0.708218 0.173689 0.000000
0.742214 0.175215 0.000000
0.776321 0.176731 0.000000
0.810908 0.178255 0.000000
0.845970 0.179788 0.000000
0.881127 0.181316 0.000000
0.915991 0.182821 0.000000
0.946083 0.184195 0.000000
0.946357 0.184852 0.000000
0.946617 0.185476 0.000000
0.946860 0.186060 0.000000
0.947083 0.186594 0.000000
0.947286 0.187083 0.000000
0.947475 0.187536 0.000000
0.947654 0.187966 0.000000
0.947827 0.188381 0.000000
0.947998 0.188793 0.000000
0.948162 0.189189 0.000000
0.948329 0.189590 0.000000
0.180327 0.167281 0.000000
0.219408 0.179639 0.000000
0.260832 0.182488 0.000000
0.302059 0.185133 0.000000
0.343095 0.187648 0.000000
0.384592 0.190073 0.000000
0.426223 0.192401 0.000000
0.467077 0.194618 0.000000
0.506176 0.196689 0.000000
0.543540 0.198627 0.000000
0.579967 0.200485 0.000000
0.615630 0.202277 0.000000
0.650702 0.204016 0.000000
0.685357 0.205717 0.000000
0.719772 0.207389 0.000000
0.754128 0.209045 0.000000
0.788608 0.210694 0.000000
0.823583 0.212357 0.000000
0.859051 0.214033 0.000000
0.894628 0.215707 0.000000
0.929920 0.217360 0.000000
0.960327 0.218863 0.000000
0.960600 0.219536 0.000000
0.960859 0.220175 0.000000
0.961100 0.220772 0.000000
0.961322 0.221319 0.000000
0.961524 0.221820 0.000000
0.961712 0.222285 0.000000
0.961890 0.222725 0.000000
0.962062 0.223150 0.000000
0.962232 0.223572 0.000000
0.962395 0.223975 0.000000
0.962561 0.224386 0.000000
0.187475 0.195767 0.000000
0.224986 0.210964 0.000000
0.267011 0.215436 0.000000
0.308706 0.218087 0.000000
0.350134 0.220617 0.000000
0.392037 0.223100 0.000000
0.434110 0.225527 0.000000
0.475395 0.227857 0.000000
0.514907 0.230045 0.000000
0.552667 0.232103 0.000000
0.589486 0.234084 0.000000
0.625538 0.236003 0.000000
0.661000 0.237872 0.000000
0.696049 0.239704 0.000000
0.730864 0.241512 0.000000
0.765628 0.243306 0.000000
0.800527 0.245098 0.000000
0.835938 0.246908 0.000000
0.871858 0.248736 0.000000
0.907899 0.250565 0.000000
0.943663 0.252375 0.000000
0.974421 0.254015 0.000000
0.974695 0.254705 0.000000
0.974955 0.255360 0.000000
0.975198 0.255972 0.000000
0.975422 0.256533 0.000000
0.975628 0.257046 0.000000
0.975821 0.257524 0.000000
0.976003 0.257975 0.000000
0.976181 0.258412 0.000000
0.976358 0.258846 0.000000
0.976526 0.259259 0.000000
0.976700 0.259682 0.000000
0.194354 0.224287 0.000000
0.230223 0.240783 0.000000
0.272264 0.248143 0.000000
0.314456 0.250847 0.000000
0.356378 0.253465 0.000000
0.398766 0.256051 0.000000
0.441320 0.258597 0.000000
0.483073 0.261053 0.000000
0.523034 0.263371 0.000000
0.561228 0.265561 0.000000
0.598474 0.267677 0.000000
0.634952 0.269732 0.000000
0.670839 0.271741 0.000000
0.706316 0.273715 0.000000
0.741564 0.275667 0.000000
0.776769 0.277608 0.000000
0.812119 0.279551 0.000000
0.847997 0.281517 0.000000
0.884402 0.283508 0.000000
0.921195 0.285581 0.000000
0.958086 0.287742 0.000000
0.989987 0.289744 0.000000
0.990322 0.290469 0.000000
0.990641 0.291157 0.000000
0.990939 0.291801 0.000000
0.991213 0.292390 0.000000
0.991463 0.292930 0.000000
0.991696 0.293431 0.000000
0.991916 0.293905 0.000000
0.992129 0.294364 0.000000
0.992341 0.294820 0.000000
0.992542 0.295251 0.000000
0.992748 0.295694 0.000000
0.200820 0.252622 0.000000
0.235402 0.269658 0.000000
0.276953 0.280548 0.000000
0.319687 0.283496 0.000000
0.362117 0.286223 0.000000
0.405011 0.288933 0.000000
0.448069 0.291614 0.000000
0.490317 0.294213 0.000000
0.530754 0.296676 0.000000
0.569409 0.299011 0.000000
0.607110 0.301273 0.000000
0.644040 0.303476 0.000000
0.680378 0.305635 0.000000
0.716308 0.307761 0.000000
0.752015 0.309867 0.000000
0.787687 0.311966 0.000000
0.823732 0.314153 0.000000
0.860666 0.316490 0.000000
0.898418 0.318939 0.000000
0.936494 0.321437 0.000000
0.974381 0.323924 0.000000
1.000000 0.326132 0.000000
1.000000 0.326878 0.000000
1.000000 0.327586 0.000000
1.000000 0.328247 0.000000
1.000000 0.328853 0.000000
1.000000 0.329407 0.000000
1.000000 0.329922 0.000000
1.000000 0.330409 0.000000
1.000000 0.330880 0.000000
1.000000 0.331347 0.000000
1.000000 0.331787 0.000000
1.000000 0.332242 0.000000
0.207005 0.281026 0.000000
0.240726 0.298280 0.000000
0.281333 0.311942 0.000000
0.324605 0.316354 0.000000
0.367559 0.319212 0.000000
0.410978 0.322066 0.000000
0.454563 0.324902 0.000000
0.497332 0.327662 0.000000
0.538271 0.330285 0.000000
0.577411 0.332779 0.000000
0.615593 0.335201 0.000000
0.653000 0.337566 0.000000
0.689815 0.339887 0.000000
0.726396 0.342258 0.000000
0.763076 0.344748 0.000000
0.799972 0.347323 0.000000
0.837205 0.349955 0.000000
0.875100 0.352636 0.000000
0.913567 0.355330 0.000000
0.952096 0.357976 0.000000
0.990163 0.360515 0.000000
1.000000 0.362697 0.000000
1.000000 0.363446 0.000000
1.000000 0.364157 0.000000
1.000000 0.364822 0.000000
1.000000 0.365430 0.000000
1.000000 0.365986 0.000000
1.000000 0.366502 0.000000
1.000000 0.366984 0.000000
1.000000 0.367438 0.000000
1.000000 0.367887 0.000000
1.000000 0.368325 0.000000
1.000000 0.368779 0.000000
0.213032 0.309619 0.000000
0.246197 0.326888 0.000000
0.285751 0.342537 0.000000
0.329324 0.349496 0.000000
0.372816 0.352507 0.000000
0.416778 0.355526 0.000000
0.460911 0.358536 0.000000
0.504222 0.361473 0.000000
0.545687 0.364273 0.000000
0.585335 0.366942 0.000000
0.624109 0.369591 0.000000
0.662415 0.372353 0.000000
0.700378 0.375184 0.000000
0.738105 0.378042 0.000000
0.775710 0.380898 0.000000
0.813307 0.383726 0.000000
0.851013 0.386508 0.000000
0.889146 0.389240 0.000000
0.927600 0.391887 0.000000
0.965854 0.394391 0.000000
1.000000 0.396701 0.000000
1.000000 0.398615 0.000000
1.000000 0.399349 0.000000
1.000000 0.400046 0.000000
1.000000 0.400682 0.000000
1.000000 0.401254 0.000000
1.000000 0.401776 0.000000
1.000000 0.402260 0.000000
1.000000 0.402719 0.000000
1.000000 0.403162 0.000000
1.000000 0.403601 0.000000
1.000000 0.404026 0.000000
1.000000 0.404470 0.000000
0.218956 0.338461 0.000000
0.251808 0.355644 0.000000
0.290379 0.372723 0.000000
0.333908 0.382829 0.000000
0.377970 0.386190 0.000000
0.422494 0.389393 0.000000
0.467194 0.392597 0.000000
0.511073 0.395734 0.000000
0.553326 0.398901 0.000000
0.594034 0.402108 0.000000
0.633972 0.405330 0.000000
0.673239 0.408519 0.000000
0.711940 0.411638 0.000000
0.750184 0.414661 0.000000
0.788082 0.417569 0.000000
0.825748 0.420346 0.000000
0.863293 0.422977 0.000000
0.901019 0.425460 0.000000
0.938809 0.427761 0.000000
0.976140 0.429828 0.000000
1.000000 0.431639 0.000000
1.000000 0.433168 0.000000
1.000000 0.433855 0.000000
1.000000 0.434508 0.000000
1.000000 0.435117 0.000000
1.000000 0.435675 0.000000
1.000000 0.436185 0.000000
1.000000 0.436659 0.000000
1.000000 0.437107 0.000000
1.000000 0.437540 0.000000
1.000000 0.437968 0.000000
1.000000 0.438385 0.000000
1.000000 0.438819 0.000000
0.224823 0.367618 0.000000
0.257549 0.384675 0.000000
0.295283 0.402793 0.000000
0.338420 0.415606 0.000000
0.383085 0.420349 0.000000
0.428209 0.423779 0.000000
0.473801 0.427467 0.000000
0.518854 0.431286 0.000000
0.562199 0.435030 0.000000
0.603752 0.438613 0.000000
0.644307 0.442051 0.000000
0.683965 0.445316 0.000000
0.722834 0.448386 0.000000
0.761023 0.451249 0.000000
0.798643 0.453895 0.000000
0.835803 0.456311 0.000000
0.872606 0.458487 0.000000
0.909356 0.460427 0.000000
0.946581 0.462241 0.000000
0.983753 0.463967 0.000000
1.000000 0.465595 0.000000
1.000000 0.466970 0.000000
1.000000 0.467652 0.000000
1.000000 0.468299 0.000000
1.000000 0.468904 0.000000
1.000000 0.469457 0.000000
1.000000 0.469963 0.000000
1.000000 0.470433 0.000000
1.000000 0.470877 0.000000
1.000000 0.471307 0.000000
1.000000 0.471731 0.000000
1.000000 0.472145 0.000000
1.000000 0.472575 0.000000
0.230675 0.397164 0.000000
0.263420 0.414085 0.000000
0.300482 0.432973 0.000000
0.343071 0.448018 0.000000
0.388533 0.455459 0.000000
0.434785 0.459639 0.000000
0.481425 0.463920 0.000000
0.527302 0.468100 0.000000
0.571215 0.471999 0.000000
0.613090 0.475569 0.000000
0.653734 0.478855 0.000000
0.693255 0.481844 0.000000
0.731761 0.484529 0.000000
0.769365 0.486908 0.000000
0.806177 0.488975 0.000000
0.842840 0.490853 0.000000
0.879531 0.492639 0.000000
0.916458 0.494359 0.000000
0.953595 0.496013 0.000000
0.990520 0.497583 0.000000
1.000000 0.499057 0.000000
1.000000 0.500281 0.000000
1.000000 0.500957 0.000000
1.000000 0.501598 0.000000
1.000000 0.502196 0.000000
1.000000 0.502744 0.000000
1.000000 0.503245 0.000000
1.000000 0.503710 0.000000
1.000000 0.504149 0.000000
1.000000 0.504575 0.000000
1.000000 0.504993 0.000000
1.000000 0.505402 0.000000
1.000000 0.505828 0.000000
0.236546 0.427175 0.000000
0.269425 0.443972 0.000000
0.306015 0.463501 0.000000
0.348546 0.481121 0.000000
0.394760 0.492028 0.000000
0.441832 0.496752 0.000000
0.489050 0.501149 0.000000
0.535254 0.505237 0.000000
0.579233 0.508874 0.000000
0.620931 0.512046 0.000000
0.661164 0.514813 0.000000
0.700044 0.517176 0.000000
0.738079 0.519230 0.000000
0.775622 0.521146 0.000000
0.812630 0.522949 0.000000
0.849290 0.524654 0.000000
0.885786 0.526274 0.000000
0.922493 0.527826 0.000000
0.959386 0.529310 0.000000
0.996046 0.530711 0.000000
1.000000 0.532016 0.000000
1.000000 0.533091 0.000000
1.000000 0.533757 0.000000
1.000000 0.534390 0.000000
1.000000 0.534981 0.000000
1.000000 0.535522 0.000000
1.000000 0.536017 0.000000
1.000000 0.536476 0.000000
1.000000 0.536910 0.000000
1.000000 0.537330 0.000000
1.000000 0.537743 0.000000
1.000000 0.538146 0.000000
1.000000 0.538567 0.000000
0.242468 0.457733 0.000000
0.275620 0.474515 0.000000
0.312375 0.495330 0.000000
0.354683 0.514944 0.000000
0.400892 0.528429 0.000000
0.448408 0.534142 0.000000
0.495738 0.538183 0.000000
0.541780 0.541734 0.000000
0.585337 0.544696 0.000000
0.626540 0.547111 0.000000
0.666754 0.549277 0.000000
0.705834 0.551277 0.000000
0.743974 0.553134 0.000000
0.781366 0.554865 0.000000
0.818201 0.556487 0.000000
0.854666 0.558011 0.000000
0.890945 0.559451 0.000000
0.927412 0.560821 0.000000
0.964039 0.562120 0.000000
1.000000 0.563337 0.000000
1.000000 0.564460 0.000000
1.000000 0.565387 0.000000
1.000000 0.566044 0.000000
1.000000 0.566668 0.000000
1.000000 0.567250 0.000000
1.000000 0.567783 0.000000
1.000000 0.568270 0.000000
1.000000 0.568722 0.000000
1.000000 0.569150 0.000000
1.000000 0.569564 0.000000
1.000000 0.569969 0.000000
1.000000 0.570367 0.000000
1.000000 0.570781 0.000000
0.248617 0.489339 0.000000
0.282519 0.506841 0.000000
0.319315 0.528437 0.000000
0.360942 0.549035 0.000000
0.406411 0.564047 0.000000
0.453779 0.571034 0.000000
0.500748 0.574245 0.000000
0.546698 0.576920 0.000000
0.590448 0.579301 0.000000
0.631922 0.581434 0.000000
0.672032 0.583385 0.000000
0.710981 0.585178 0.000000
0.748966 0.586831 0.000000
0.786182 0.588364 0.000000
0.822819 0.589788 0.000000
0.859064 0.591118 0.000000
0.895102 0.592361 0.000000
0.931303 0.593534 0.000000
0.967642 0.594634 0.000000
1.000000 0.595650 0.000000
1.000000 0.596575 0.000000
1.000000 0.597358 0.000000
1.000000 0.598004 0.000000
1.000000 0.598617 0.000000
1.000000 0.599189 0.000000
1.000000 0.599713 0.000000
1.000000 0.600191 0.000000
1.000000 0.600636 0.000000
1.000000 0.601056 0.000000
1.000000 0.601463 0.000000
1.000000 0.601860 0.000000
1.000000 0.602251 0.000000
1.000000 0.602658 0.000000
0.255398 0.522895 0.000000
0.289834 0.540600 0.000000
0.326323 0.562122 0.000000
0.366834 0.582714 0.000000
0.410956 0.598169 0.000000
0.458095 0.606371 0.000000
0.505452 0.609160 0.000000
0.551497 0.611553 0.000000
0.595169 0.613682 0.000000
0.636534 0.615576 0.000000
0.676509 0.617297 0.000000
0.715297 0.618866 0.000000
0.753099 0.620302 0.000000
0.790110 0.621619 0.000000
0.826521 0.622832 0.000000
0.862520 0.623950 0.000000
0.898291 0.624983 0.000000
0.934202 0.625942 0.000000
0.970228 0.626826 0.000000
1.000000 0.627627 0.000000
1.000000 0.628338 0.000000
1.000000 0.628981 0.000000
1.000000 0.629614 0.000000
1.000000 0.630215 0.000000
1.000000 0.630776 0.000000
1.000000 0.631289 0.000000
1.000000 0.631758 0.000000
1.000000 0.632194 0.000000
1.000000 0.632606 0.000000
1.000000 0.633004 0.000000
1.000000 0.633393 0.000000
1.000000 0.633776 0.000000
1.000000 0.634175 0.000000
0.262378 0.557458 0.000000
0.297030 0.574686 0.000000
0.333124 0.595438 0.000000
0.372670 0.615232 0.000000
0.415792 0.630694 0.000000
0.462323 0.640308 0.000000
0.509634 0.643590 0.000000
0.555598 0.645700 0.000000
0.599155 0.647562 0.000000
0.640378 0.649204 0.000000
0.680185 0.650681 0.000000
0.718783 0.652013 0.000000
0.756373 0.653216 0.000000
0.793153 0.654305 0.000000
0.829313 0.655292 0.000000
0.865042 0.656185 0.000000
0.900521 0.656994 0.000000
0.936118 0.657725 0.000000
0.971806 0.658379 0.000000
1.000000 0.658950 0.000000
1.000000 0.659431 0.000000
1.000000 0.659933 0.000000
1.000000 0.660551 0.000000
1.000000 0.661137 0.000000
1.000000 0.661684 0.000000
1.000000 0.662185 0.000000
1.000000 0.662643 0.000000
1.000000 0.663068 0.000000
1.000000 0.663470 0.000000
1.000000 0.663858 0.000000
1.000000 0.664236 0.000000
1.000000 0.664610 0.000000
1.000000 0.664998 0.000000
0.269508 0.591941 0.000000
0.304452 0.608314 0.000000
0.339854 0.627549 0.000000
0.378171 0.646370 0.000000
0.420294 0.662217 0.000000
0.466055 0.672953 0.000000
0.513169 0.677228 0.000000
0.559013 0.679043 0.000000
0.602420 0.680626 0.000000
0.643469 0.682003 0.000000
0.683078 0.683224 0.000000
0.721458 0.684306 0.000000
0.758811 0.685265 0.000000
0.795335 0.686114 0.000000
0.831220 0.686863 0.000000
0.866656 0.687520 0.000000
0.901822 0.688091 0.000000
0.937082 0.688583 0.000000
0.972389 0.688979 0.000000
1.000000 0.689275 0.000000
1.000000 0.689480 0.000000
1.000000 0.689847 0.000000
1.000000 0.690448 0.000000
1.000000 0.691019 0.000000
1.000000 0.691552 0.000000
1.000000 0.692040 0.000000
1.000000 0.692485 0.000000
1.000000 0.692899 0.000000
1.000000 0.693290 0.000000
1.000000 0.693669 0.000000
1.000000 0.694036 0.000000
1.000000 0.694400 0.000000
1.000000 0.694778 0.000000
0.276557 0.625226 0.000000
0.311058 0.640046 0.000000
0.345801 0.658080 0.000000
0.383350 0.676551 0.000000
0.424487 0.692578 0.000000
0.469362 0.704144 0.000000
0.516080 0.709726 0.000000
0.561768 0.711283 0.000000
0.604992 0.712577 0.000000
0.645838 0.713680 0.000000
0.685223 0.714634 0.000000
0.723360 0.715457 0.000000
0.760453 0.716162 0.000000
0.796698 0.716761 0.000000
0.832288 0.717263 0.000000
0.867397 0.717663 0.000000
0.902194 0.717959 0.000000
0.937048 0.718162 0.000000
0.971941 0.718281 0.000000
1.000000 0.718322 0.000000
1.000000 0.718293 0.000000
1.000000 0.718567 0.000000
1.000000 0.719154 0.000000
1.000000 0.719712 0.000000
1.000000 0.720232 0.000000
1.000000 0.720708 0.000000
1.000000 0.721144 0.000000
1.000000 0.721548 0.000000
1.000000 0.721930 0.000000
1.000000 0.722299 0.000000
1.000000 0.722658 0.000000
1.000000 0.723013 0.000000
1.000000 0.723383 0.000000
0.282617 0.656165 0.000000
0.316943 0.670108 0.000000
0.351340 0.687502 0.000000
0.388177 0.705547 0.000000
0.428363 0.721589 0.000000
0.472295 0.733733 0.000000
0.518416 0.740440 0.000000
0.563900 0.742147 0.000000
0.606913 0.743144 0.000000
0.647530 0.743965 0.000000
0.686668 0.744646 0.000000
0.724541 0.745203 0.000000
0.761347 0.745643 0.000000
0.797268 0.745959 0.000000
0.832502 0.746168 0.000000
0.867242 0.746284 0.000000
0.901678 0.746317 0.000000
0.936175 0.746277 0.000000
0.970718 0.746169 0.000000
1.000000 0.746003 0.000000
1.000000 0.745789 0.000000
1.000000 0.746007 0.000000
1.000000 0.746582 0.000000
1.000000 0.747128 0.000000
1.000000 0.747638 0.000000
1.000000 0.748105 0.000000
1.000000 0.748531 0.000000
1.000000 0.748927 0.000000
1.000000 0.749302 0.000000
1.000000 0.749664 0.000000
1.000000 0.750015 0.000000
1.000000 0.750363 0.000000
1.000000 0.750725 0.000000
0.288108 0.685444 0.000000
0.322375 0.698823 0.000000
0.356448 0.715578 0.000000
0.392631 0.733143 0.000000
0.431913 0.749069 0.000000
0.474886 0.761581 0.000000
0.520277 0.769153 0.000000
0.565457 0.771388 0.000000
0.608235 0.772085 0.000000
0.648602 0.772621 0.000000
0.687460 0.773009 0.000000
0.725016 0.773259 0.000000
0.761485 0.773395 0.000000
0.797075 0.773433 0.000000
0.831986 0.773390 0.000000
0.866411 0.773275 0.000000
0.900541 0.773097 0.000000
0.934739 0.772863 0.000000
0.968993 0.772578 0.000000
1.000000 0.772253 0.000000
1.000000 0.771899 0.000000
1.000000 0.772090 0.000000
1.000000 0.772656 0.000000
1.000000 0.773193 0.000000
1.000000 0.773695 0.000000
1.000000 0.774154 0.000000
1.000000 0.774574 0.000000
1.000000 0.774964 0.000000
1.000000 0.775332 0.000000
1.000000 0.775688 0.000000
1.000000 0.776032 0.000000
1.000000 0.776375 0.000000
1.000000 0.776732 0.000000
0.293149 0.713129 0.000000
0.327341 0.725963 0.000000
0.361113 0.742089 0.000000
0.396694 0.759143 0.000000
0.435129 0.774853 0.000000
0.477160 0.787560 0.000000
0.521747 0.795769 0.000000
0.566493 0.798791 0.000000
0.609000 0.799163 0.000000
0.649065 0.799369 0.000000
0.687611 0.799447 0.000000
0.724865 0.799420 0.000000
0.761041 0.799308 0.000000
0.796347 0.799123 0.000000
0.830983 0.798879 0.000000
0.865145 0.798583 0.000000
0.899022 0.798243 0.000000
0.932976 0.797861 0.000000
0.966998 0.797445 0.000000
1.000000 0.797006 0.000000
1.000000 0.796555 0.000000
1.000000 0.796744 0.000000
1.000000 0.797303 0.000000
1.000000 0.797834 0.000000
1.000000 0.798329 0.000000
1.000000 0.798783 0.000000
1.000000 0.799197 0.000000
1.000000 0.799582 0.000000
1.000000 0.799946 0.000000
1.000000 0.800298 0.000000
1.000000 0.800637 0.000000
1.000000 0.800976 0.000000
1.000000 0.801328 0.000000
0.297733 0.739016 0.000000
0.331836 0.751329 0.000000
0.365325 0.766845 0.000000
0.400357 0.783374 0.000000
0.438010 0.798797 0.000000
0.479135 0.811563 0.000000
0.522880 0.820205 0.000000
0.567037 0.823943 0.000000
0.609240 0.824152 0.000000
0.649026 0.824076 0.000000
0.687302 0.823904 0.000000
0.724294 0.823657 0.000000
0.760221 0.823349 0.000000
0.795288 0.822992 0.000000
0.829697 0.822594 0.000000
0.863644 0.822163 0.000000
0.897316 0.821704 0.000000
0.931078 0.821219 0.000000
0.964919 0.820714 0.000000
0.998475 0.820201 0.000000
1.000000 0.819692 0.000000
1.000000 0.819897 0.000000
1.000000 0.820451 0.000000
1.000000 0.820976 0.000000
1.000000 0.821468 0.000000
1.000000 0.821917 0.000000
1.000000 0.822328 0.000000
1.000000 0.822710 0.000000
1.000000 0.823070 0.000000
1.000000 0.823420 0.000000
1.000000 0.823755 0.000000
1.000000 0.824091 0.000000
1.000000 0.824440 0.000000
0.301916 0.763263 0.000000
0.335916 0.775077 0.000000
0.369138 0.790003 0.000000
0.403663 0.805999 0.000000
0.440590 0.821086 0.000000
0.480844 0.833789 0.000000
0.523706 0.842653 0.000000
0.567220 0.846971 0.000000
0.609111 0.847341 0.000000
0.648650 0.847037 0.000000
0.686691 0.846668 0.000000
0.723462 0.846249 0.000000
0.759177 0.845791 0.000000
0.794046 0.845305 0.000000
0.828269 0.844796 0.000000
0.862041 0.844270 0.000000
0.895552 0.843730 0.000000
0.929165 0.843179 0.000000
0.962870 0.842621 0.000000
0.996307 0.842069 0.000000
1.000000 0.841535 0.000000
1.000000 0.841767 0.000000
1.000000 0.842318 0.000000
1.000000 0.842841 0.000000
1.000000 0.843330 0.000000
1.000000 0.843777 0.000000
1.000000 0.844186 0.000000
