Fotico/Resources/LUTs/tezza_vintage.cube
TITLE "Tezza Vintage"
LUT_3D_SIZE 33
DOMAIN_MIN 0.0 0.0 0.0
DOMAIN_MAX 1.0 1.0 1.0
0.265978 0.091848 0.027531
0.302066 0.093045 0.027830
0.337059 0.094020 0.028076
0.371675 0.094912 0.028320
0.406566 0.095776 0.028573
0.442386 0.096650 0.028840
0.480417 0.097584 0.029136
0.519706 0.098559 0.029451
0.558506 0.099531 0.029770
0.595107 0.100454 0.030076
0.628011 0.101287 0.030354
0.657964 0.102048 0.030609
0.685892 0.102758 0.030849
0.712444 0.103435 0.031077
0.738258 0.104092 0.031299
0.763957 0.104746 0.031520
0.790156 0.105412 0.031746
0.816943 0.106092 0.031977
0.843867 0.106774 0.032209
0.870730 0.107453 0.032441
0.897336 0.108123 0.032669
0.923493 0.108779 0.032893
0.949013 0.109417 0.033111
0.973709 0.110032 0.033321
0.997400 0.110619 0.033522
1.000000 0.111176 0.033713
1.000000 0.111704 0.033894
1.000000 0.112211 0.034068
1.000000 0.112730 0.034245
1.000000 0.113246 0.034421
1.000000 0.113711 0.034548
1.000000 0.114079 0.034582
1.000000 0.114454 0.034616
0.263687 0.121457 0.029229
0.298807 0.123817 0.030434
0.333027 0.125750 0.031385
0.367352 0.127334 0.031917
0.402205 0.128699 0.032287
0.438132 0.129947 0.032596
0.476300 0.131161 0.032891
0.515723 0.132340 0.033183
0.554631 0.133453 0.033469
0.591307 0.134470 0.033740
0.624252 0.135365 0.033985
0.654220 0.136165 0.034210
0.682144 0.136901 0.034422
0.708674 0.137593 0.034624
0.734448 0.138258 0.034821
0.760092 0.138913 0.035019
0.786218 0.139574 0.035220
0.812913 0.140244 0.035427
0.839725 0.140910 0.035634
0.866459 0.141568 0.035842
0.892918 0.142213 0.036047
0.918914 0.142840 0.036248
0.944260 0.143446 0.036444
0.968772 0.144026 0.036633
0.992271 0.144577 0.036814
1.000000 0.145095 0.036986
1.000000 0.145586 0.037149
1.000000 0.146053 0.037305
1.000000 0.146549 0.037468
1.000000 0.147057 0.037634
1.000000 0.147513 0.037758
1.000000 0.147867 0.037793
1.000000 0.148228 0.037829
0.260567 0.146688 0.031736
0.296491 0.151106 0.032145
0.331517 0.153943 0.032387
0.364989 0.156152 0.033874
0.399209 0.158228 0.034965
0.434772 0.160116 0.035706
0.472727 0.161876 0.036264
0.512022 0.163488 0.036707
0.550846 0.164928 0.037070
0.587454 0.166180 0.037375
0.620334 0.167239 0.037631
0.650234 0.168157 0.037854
0.678083 0.168980 0.038056
0.704532 0.169737 0.038246
0.730215 0.170452 0.038428
0.755756 0.171145 0.038607
0.781763 0.171833 0.038788
0.808322 0.172520 0.038973
0.834983 0.173195 0.039158
0.861548 0.173852 0.039341
0.887827 0.174489 0.039522
0.913628 0.175101 0.039699
0.938769 0.175686 0.039871
0.963069 0.176241 0.040037
0.986350 0.176763 0.040195
1.000000 0.177250 0.040345
1.000000 0.177706 0.040487
1.000000 0.178137 0.040623
1.000000 0.178605 0.040767
1.000000 0.179117 0.040922
1.000000 0.179575 0.041040
1.000000 0.179916 0.041076
1.000000 0.180264 0.041113
0.265082 0.179698 0.029045
0.293469 0.175835 0.034764
0.328380 0.180412 0.035194
0.363694 0.183845 0.034896
0.398148 0.186295 0.035787
0.432852 0.188594 0.037401
0.470129 0.190886 0.038629
0.508936 0.193019 0.039524
0.547405 0.194898 0.040178
0.583742 0.196495 0.040663
0.616409 0.197809 0.041028
0.646128 0.198919 0.041319
0.673811 0.199891 0.041565
0.700099 0.200766 0.041782
0.725622 0.201575 0.041981
0.750997 0.202345 0.042169
0.776826 0.203097 0.042352
0.803193 0.203833 0.042534
0.829650 0.204543 0.042711
0.855999 0.205224 0.042883
0.882050 0.205873 0.043049
0.907614 0.206487 0.043210
0.932510 0.207066 0.043364
0.956560 0.207606 0.043511
0.979590 0.208108 0.043650
1.000000 0.208570 0.043780
1.000000 0.208997 0.043903
1.000000 0.209392 0.044020
1.000000 0.209812 0.044141
1.000000 0.210339 0.044286
1.000000 0.210806 0.044399
1.000000 0.211134 0.044435
1.000000 0.211468 0.044472
0.267118 0.214933 0.025611
0.297845 0.208166 0.032880
0.325590 0.205665 0.037691
0.359961 0.210255 0.038352
0.395838 0.214223 0.037818
0.431869 0.217098 0.038077
0.468922 0.219593 0.039471
0.506832 0.222046 0.041176
0.544610 0.224312 0.042403
0.580419 0.226266 0.043279
0.612678 0.227872 0.043903
0.642062 0.229217 0.044373
0.669452 0.230381 0.044747
0.695474 0.231414 0.045060
0.720743 0.232357 0.045331
0.745866 0.233239 0.045575
0.771439 0.234086 0.045802
0.797538 0.234903 0.046016
0.823718 0.235676 0.046216
0.849784 0.236405 0.046402
0.875545 0.237087 0.046576
0.900813 0.237721 0.046738
0.925409 0.238307 0.046889
0.949118 0.238836 0.047028
0.971756 0.239305 0.047153
0.993206 0.239719 0.047267
1.000000 0.240091 0.047371
1.000000 0.240427 0.047468
1.000000 0.240769 0.047566
1.000000 0.241326 0.047706
1.000000 0.241812 0.047818
1.000000 0.242125 0.047852
1.000000 0.242444 0.047888
0.267149 0.246363 0.027655
0.301946 0.246133 0.028389
0.329845 0.238909 0.036099
0.357378 0.236837 0.040585
0.391620 0.241332 0.041639
0.428418 0.245770 0.041055
0.466956 0.249200 0.040853
0.505628 0.251905 0.041653
0.542790 0.254279 0.043328
0.577770 0.256437 0.044844
0.609382 0.258268 0.045919
0.638236 0.259825 0.046718
0.665172 0.261178 0.047341
0.690786 0.262378 0.047847
0.715676 0.263468 0.048274
0.740433 0.264481 0.048645
0.765639 0.265444 0.048980
0.791366 0.266361 0.049282
0.817174 0.267219 0.049554
0.842844 0.268008 0.049795
0.868145 0.268714 0.050008
0.892906 0.269345 0.050196
0.916964 0.269907 0.050362
0.940164 0.270406 0.050510
0.962353 0.270849 0.050641
0.983410 0.271243 0.050758
1.000000 0.271597 0.050864
1.000000 0.271921 0.050961
1.000000 0.272222 0.051052
1.000000 0.272800 0.051194
1.000000 0.273321 0.051311
1.000000 0.273621 0.051344
1.000000 0.273926 0.051378
0.268235 0.277429 0.032929
0.302769 0.284597 0.026201
0.334985 0.279838 0.031417
0.361886 0.272841 0.038888
0.389252 0.270364 0.043418
0.423668 0.274583 0.045102
0.462302 0.279488 0.044625
0.502094 0.283376 0.044077
0.540474 0.286244 0.044281
0.575752 0.288474 0.045242
0.606774 0.290318 0.046657
0.634865 0.291946 0.047968
0.661140 0.293403 0.048996
0.686163 0.294717 0.049828
0.710507 0.295921 0.050526
0.734737 0.297043 0.051128
0.759371 0.298091 0.051658
0.784474 0.299065 0.052126
0.809621 0.299954 0.052534
0.834633 0.300762 0.052889
0.859337 0.301491 0.053197
0.883565 0.302149 0.053465
0.907156 0.302742 0.053699
0.929952 0.303276 0.053903
0.951799 0.303757 0.054082
0.972573 0.304190 0.054239
0.992398 0.304586 0.054380
1.000000 0.304954 0.054507
1.000000 0.305301 0.054626
1.000000 0.305874 0.054780
1.000000 0.306453 0.054916
1.000000 0.306741 0.054947
1.000000 0.307034 0.054978
0.270591 0.309234 0.039068
0.302492 0.319190 0.029413
0.336763 0.321805 0.027106
0.367239 0.315206 0.034135
0.394015 0.308288 0.041513
0.421571 0.305158 0.046184
0.457179 0.309068 0.048558
0.496377 0.314093 0.048315
0.535336 0.318158 0.047593
0.571489 0.321077 0.047318
0.603300 0.323168 0.047604
0.631680 0.324804 0.048309
0.657642 0.326185 0.049308
0.681916 0.327419 0.050498
0.705435 0.328566 0.051577
0.728850 0.329649 0.052511
0.752713 0.330688 0.053338
0.777101 0.331682 0.054074
0.801601 0.332616 0.054719
0.826037 0.333486 0.055281
0.850237 0.334293 0.055770
0.874038 0.335041 0.056245
0.897283 0.335735 0.056814
0.919801 0.336373 0.057327
0.941434 0.336962 0.057791
0.962052 0.337503 0.058211
0.981771 0.338006 0.058595
1.000000 0.338482 0.058951
1.000000 0.338939 0.059287
1.000000 0.339543 0.059636
1.000000 0.340201 0.059965
1.000000 0.340480 0.060147
1.000000 0.340764 0.060333
0.273640 0.340528 0.045242
0.303062 0.351083 0.034804
0.336055 0.358516 0.027429
0.369372 0.357121 0.029043
0.398961 0.349691 0.036890
0.426109 0.342774 0.044252
0.455047 0.339323 0.049108
0.491051 0.342898 0.051850
0.528919 0.347633 0.051854
0.565098 0.351539 0.051388
0.597234 0.354279 0.051082
0.625968 0.356239 0.051119
0.652272 0.357733 0.051489
0.676856 0.358952 0.052144
0.700382 0.360019 0.053049
0.723472 0.361017 0.054190
0.746737 0.362009 0.055542
0.770524 0.363007 0.056838
0.794497 0.363988 0.058008
0.818482 0.364939 0.059060
0.842307 0.365853 0.060006
0.865804 0.366728 0.060856
0.888807 0.367560 0.061619
0.911151 0.368350 0.062305
0.932672 0.369095 0.062920
0.953232 0.369797 0.063473
0.972940 0.370463 0.063975
0.992000 0.371103 0.064437
1.000000 0.371727 0.064871
1.000000 0.372424 0.065296
1.000000 0.373178 0.065689
1.000000 0.373455 0.065869
1.000000 0.373736 0.066053
0.276904 0.369764 0.051562
0.304424 0.380204 0.041298
0.335281 0.389194 0.032370
0.368713 0.393262 0.028422
0.401079 0.388869 0.033287
0.430415 0.381066 0.041784
0.458734 0.374117 0.049457
0.488728 0.371121 0.054506
0.523654 0.374353 0.057433
0.558406 0.378409 0.057838
0.590081 0.381725 0.057450
0.618813 0.384232 0.057023
0.645329 0.386148 0.056788
0.670227 0.387662 0.056804
0.694121 0.388919 0.057075
0.717611 0.390023 0.057599
0.741271 0.391053 0.058386
0.765192 0.392057 0.059436
0.788995 0.393055 0.060718
0.812645 0.394067 0.062096
0.836199 0.395084 0.063343
0.859495 0.396093 0.064464
0.882364 0.397085 0.065472
0.904636 0.398052 0.066376
0.926141 0.398987 0.067186
0.946735 0.399884 0.067912
0.966520 0.400749 0.068570
0.985694 0.401591 0.069174
1.000000 0.402421 0.069737
1.000000 0.403275 0.070275
1.000000 0.404134 0.070752
1.000000 0.404410 0.070931
1.000000 0.404692 0.071113
0.280294 0.395418 0.059381
0.306311 0.405443 0.049321
0.335196 0.414899 0.039669
0.367151 0.421823 0.032422
0.400556 0.421911 0.032291
0.432132 0.415225 0.039467
0.461954 0.407070 0.048319
0.490543 0.400516 0.055510
0.520579 0.398634 0.060122
0.553048 0.401515 0.062590
0.583616 0.404885 0.063020
0.611921 0.407826 0.062737
0.638386 0.410240 0.062308
0.663445 0.412210 0.061961
0.687629 0.413853 0.061786
0.711494 0.415274 0.061823
0.735598 0.416559 0.062100
0.760013 0.417756 0.062638
0.784340 0.418893 0.063429
0.808429 0.420004 0.064454
0.832140 0.421114 0.065684
0.855372 0.422243 0.067052
0.878193 0.423386 0.068324
0.900472 0.424528 0.069467
0.922031 0.425653 0.070493
0.942720 0.426750 0.071413
0.962613 0.427811 0.072243
0.981886 0.428837 0.073002
1.000000 0.429801 0.073536
1.000000 0.430713 0.073831
1.000000 0.431561 0.074026
1.000000 0.431750 0.073828
1.000000 0.431942 0.073627
0.283366 0.418443 0.066276
0.308292 0.427897 0.056559
0.335484 0.437271 0.046611
0.365700 0.445090 0.038044
0.398598 0.448728 0.033830
0.431732 0.445025 0.037616
0.463327 0.436878 0.046364
0.492831 0.428997 0.054921
0.520596 0.423355 0.061070
0.549634 0.422834 0.065162
0.578606 0.425420 0.067156
0.606070 0.428387 0.067619
0.632174 0.431144 0.067445
0.657178 0.433559 0.067064
0.681503 0.435658 0.066687
0.705650 0.437511 0.066416
0.730144 0.439189 0.066319
0.755033 0.440735 0.066442
0.779892 0.442166 0.066809
0.804550 0.443520 0.067418
0.828852 0.444830 0.068255
0.852656 0.446124 0.069290
0.875824 0.447416 0.070491
0.898198 0.448702 0.071810
0.919923 0.449917 0.072820
0.940870 0.451053 0.073519
0.960999 0.452149 0.074125
0.980502 0.453212 0.074657
0.999572 0.454247 0.075129
1.000000 0.455268 0.075555
1.000000 0.456134 0.075817
1.000000 0.456320 0.075614
1.000000 0.456510 0.075408
0.286118 0.439593 0.072510
0.310157 0.448323 0.063176
0.335988 0.457437 0.053179
0.364687 0.465635 0.043960
0.396473 0.471478 0.037175
0.430164 0.471168 0.037126
0.463427 0.464334 0.044346
0.494238 0.455857 0.053496
0.522366 0.448814 0.061152
0.548444 0.444378 0.065960
0.575265 0.444967 0.069631
0.601547 0.447373 0.071351
0.626990 0.450148 0.071866
0.651697 0.452856 0.071798
0.675985 0.455368 0.071485
0.700282 0.457680 0.071117
0.725075 0.459826 0.070806
0.750384 0.461823 0.070637
0.775750 0.463666 0.070668
0.800975 0.465386 0.070925
0.825870 0.467008 0.071408
0.850504 0.468453 0.071682
0.874469 0.469814 0.072092
0.897575 0.471118 0.072666
0.919672 0.472372 0.073369
0.940643 0.473579 0.074167
0.960711 0.474748 0.074946
0.980156 0.475885 0.075635
0.999172 0.476998 0.076253
1.000000 0.478095 0.076812
1.000000 0.478961 0.077137
1.000000 0.479145 0.076929
1.000000 0.479333 0.076718
0.288533 0.459326 0.078256
0.311929 0.467407 0.069340
0.336699 0.476229 0.059446
0.364109 0.484640 0.049858
0.394687 0.491619 0.041761
0.428145 0.494302 0.038386
0.462714 0.490024 0.042744
0.494993 0.481718 0.051656
0.524019 0.473841 0.060202
0.549949 0.467908 0.066671
0.573624 0.464763 0.070408
0.598504 0.465947 0.073748
0.623017 0.468286 0.075338
0.647187 0.471013 0.075922
0.671235 0.473794 0.075958
0.695525 0.476509 0.075722
0.720498 0.479133 0.075383
0.746144 0.481635 0.075069
0.772247 0.483875 0.074421
0.798248 0.485909 0.073910
0.823901 0.487761 0.073603
0.849012 0.489459 0.073506
0.873404 0.491027 0.073608
0.896911 0.492487 0.073889
0.919380 0.493853 0.074318
0.940689 0.495136 0.074865
0.960974 0.496357 0.075506
0.980459 0.497536 0.076226
0.999398 0.498691 0.076983
1.000000 0.499833 0.077679
1.000000 0.500682 0.078062
1.000000 0.500866 0.077849
1.000000 0.501052 0.077633
0.290750 0.478302 0.083708
0.313686 0.485815 0.075229
0.337620 0.494346 0.065537
0.363939 0.502877 0.055774
0.393396 0.510481 0.047014
0.426181 0.515550 0.041083
0.461496 0.514349 0.042103
0.495255 0.507114 0.049826
0.525419 0.498832 0.058795
0.551918 0.492024 0.066227
0.575012 0.487300 0.071421
0.597028 0.485231 0.074724
0.620400 0.486596 0.077698
0.643796 0.488956 0.079256
0.667391 0.491758 0.079930
0.691796 0.494663 0.079617
0.717109 0.497618 0.078985
0.743231 0.500489 0.078200
0.769589 0.503162 0.077408
0.795897 0.505606 0.076708
0.821901 0.507823 0.076158
0.847383 0.509829 0.075791
0.872147 0.511649 0.075613
0.896014 0.513307 0.075615
0.918822 0.514825 0.075777
0.940443 0.516220 0.076074
0.961013 0.517520 0.076483
0.980761 0.518752 0.076986
0.999908 0.519941 0.077573
1.000000 0.521105 0.078239
1.000000 0.521922 0.078639
1.000000 0.522105 0.078422
1.000000 0.522291 0.078201
0.292892 0.497149 0.089043
0.315507 0.504165 0.081018
0.338781 0.512422 0.071599
0.364175 0.521025 0.061802
0.392608 0.529144 0.052589
0.424545 0.535840 0.045045
0.460050 0.537661 0.042930
0.495209 0.532665 0.048282
0.526726 0.524569 0.057052
0.554070 0.517119 0.065187
0.577437 0.511471 0.071415
0.598469 0.507593 0.075700
0.619625 0.506057 0.078332
0.642332 0.507496 0.080686
0.665555 0.509905 0.081823
0.689530 0.512813 0.082139
0.714589 0.515966 0.081903
0.740634 0.519168 0.081318
0.767062 0.522236 0.080566
0.793547 0.525086 0.079787
0.819802 0.527687 0.079077
0.845577 0.530036 0.078496
0.870653 0.532148 0.078075
0.894836 0.534048 0.077822
0.917948 0.535758 0.077731
0.939855 0.537302 0.077782
0.960691 0.538714 0.077957
0.980685 0.540030 0.078238
1.000000 0.541277 0.078614
1.000000 0.542479 0.079078
1.000000 0.543271 0.079322
1.000000 0.543453 0.079112
1.000000 0.543638 0.078897
0.295073 0.516474 0.094426
0.317479 0.523056 0.086873
0.340238 0.531065 0.077789
0.364853 0.539720 0.068068
0.392361 0.548290 0.058569
0.423428 0.556014 0.050180
0.458705 0.560751 0.045217
0.495006 0.558870 0.047431
0.528013 0.551687 0.055289
0.556706 0.543745 0.063375
0.580978 0.537212 0.069825
0.602279 0.532194 0.074744
0.622167 0.528754 0.078048
0.642651 0.527754 0.080585
0.664908 0.529340 0.082872
0.688142 0.531854 0.084075
0.712683 0.534933 0.084485
0.738417 0.538287 0.084321
0.764719 0.541648 0.083793
0.791223 0.544860 0.083080
0.817602 0.547839 0.082318
0.843573 0.550550 0.081603
0.868888 0.552989 0.080993
0.893329 0.555169 0.080521
0.916704 0.557112 0.080196
0.938866 0.558844 0.080013
0.959945 0.560405 0.079957
0.980168 0.561837 0.080013
0.999759 0.563172 0.080171
1.000000 0.564440 0.080424
1.000000 0.565221 0.080522
1.000000 0.565401 0.080318
1.000000 0.565584 0.080110
0.297366 0.536516 0.099912
0.319667 0.542731 0.092846
0.342048 0.550531 0.084146
0.366027 0.559241 0.074596
0.392728 0.568228 0.064953
0.422975 0.576819 0.056009
0.457780 0.583900 0.048893
0.495176 0.585026 0.047311
0.530053 0.579487 0.052663
0.560065 0.571650 0.060421
0.585097 0.564610 0.067408
0.606863 0.558984 0.072975
0.626648 0.554560 0.077331
0.645618 0.551485 0.080318
0.665665 0.550676 0.082799
0.687895 0.552323 0.085132
0.711637 0.554944 0.086451
0.736792 0.558167 0.086963
0.762728 0.561631 0.086881
0.789047 0.565091 0.086419
0.815385 0.568392 0.085753
0.841419 0.571448 0.085015
0.866869 0.574222 0.084301
0.891489 0.576708 0.083668
0.915064 0.578916 0.083150
0.937434 0.580870 0.082757
0.958718 0.582615 0.082486
0.979141 0.584196 0.082325
0.998924 0.585651 0.082267
1.000000 0.587014 0.082305
1.000000 0.587798 0.082271
1.000000 0.587974 0.082073
1.000000 0.588153 0.081871
0.299798 0.557052 0.105431
0.322092 0.562979 0.098853
0.344229 0.570625 0.090567
0.367726 0.579409 0.081262
0.393978 0.588869 0.070987
0.423879 0.598267 0.060806
0.458449 0.606742 0.051746
0.495938 0.610580 0.047560
0.532005 0.607647 0.050329
0.563277 0.600456 0.057452
0.589278 0.593275 0.064591
0.611638 0.587108 0.070720
0.631758 0.582051 0.075737
0.650552 0.578006 0.079739
0.669038 0.575119 0.082573
0.689023 0.574341 0.085038
0.711724 0.576045 0.087482
0.736032 0.578752 0.088912
0.761344 0.582028 0.089514
0.787244 0.585533 0.089515
0.813338 0.589025 0.089124
0.839266 0.592350 0.088511
0.864710 0.595423 0.087807
0.889396 0.598204 0.087104
0.913081 0.600686 0.086459
0.935586 0.602880 0.085906
0.957017 0.604831 0.085454
0.977591 0.606587 0.085101
0.997526 0.608188 0.084844
1.000000 0.609670 0.084678
1.000000 0.610465 0.084534
1.000000 0.610636 0.084341
1.000000 0.610811 0.084145
0.302407 0.578005 0.110959
0.324870 0.583752 0.104414
0.347072 0.591416 0.095715
0.370521 0.600444 0.085825
0.396400 0.610216 0.075354
0.425664 0.620074 0.064957
0.459549 0.629363 0.055282
0.496786 0.635572 0.048842
0.533609 0.635282 0.049018
0.566171 0.629570 0.054675
0.593233 0.622595 0.061615
0.616339 0.616103 0.068078
0.636968 0.610555 0.073599
0.655997 0.605860 0.078267
0.674272 0.602027 0.082071
0.692710 0.599211 0.084856
0.713105 0.598429 0.087364
0.736345 0.600183 0.089906
0.760787 0.602903 0.091410
0.786028 0.606167 0.092091
0.811657 0.609644 0.092172
0.837284 0.613098 0.091854
0.862558 0.616381 0.091302
0.887171 0.619406 0.090642
0.910852 0.622137 0.089961
0.933398 0.624564 0.089318
0.954898 0.626726 0.088740
0.975559 0.628668 0.088237
0.995590 0.630430 0.087812
1.000000 0.632050 0.087466
1.000000 0.632852 0.087239
1.000000 0.633018 0.087050
1.000000 0.633187 0.086859
0.305647 0.599224 0.114774
0.328282 0.605014 0.108205
0.350480 0.612732 0.099805
0.373717 0.621811 0.090143
0.399172 0.631730 0.079756
0.427837 0.641926 0.069218
0.461028 0.651836 0.059079
0.497774 0.659773 0.051012
0.534933 0.661959 0.048763
0.568645 0.658407 0.052277
0.596752 0.651943 0.058712
0.620732 0.645446 0.065184
0.641942 0.639486 0.071120
0.661421 0.634352 0.076232
0.679865 0.629870 0.080692
0.698068 0.626130 0.084410
0.716901 0.623315 0.087203
0.737834 0.622589 0.089782
0.761214 0.624355 0.092353
0.785580 0.627038 0.093905
0.810529 0.630229 0.094650
0.835655 0.633610 0.094804
0.860581 0.636959 0.094560
0.884966 0.640133 0.094074
0.908511 0.643049 0.093466
0.930988 0.645674 0.092821
0.952464 0.648027 0.092187
0.973132 0.650147 0.091591
0.993191 0.652072 0.091046
1.000000 0.653837 0.090559
1.000000 0.654631 0.090275
1.000000 0.654791 0.090091
1.000000 0.654954 0.089902
0.309180 0.620606 0.118320
0.331900 0.626407 0.111994
0.354069 0.634085 0.103854
0.377114 0.643150 0.094409
0.402187 0.653144 0.084127
0.430296 0.663567 0.073507
0.462807 0.673944 0.063012
0.498933 0.682995 0.053899
0.536073 0.687408 0.049450
0.570564 0.686060 0.050767
0.599726 0.680753 0.056046
0.624589 0.674493 0.062280
0.646514 0.668403 0.068346
0.666465 0.662837 0.073889
0.685304 0.657948 0.078755
0.703623 0.653561 0.083120
0.722193 0.649830 0.086827
0.741494 0.647031 0.089600
0.762676 0.646444 0.092228
0.786010 0.648195 0.094788
0.810097 0.650797 0.096358
0.834539 0.653860 0.097149
0.858942 0.657086 0.097366
0.882942 0.660268 0.097193
0.906213 0.663272 0.096776
0.928501 0.666025 0.096228
0.949851 0.668524 0.095623
0.970436 0.670793 0.095004
0.990444 0.672863 0.094397
1.000000 0.674763 0.093817
1.000000 0.675525 0.093505
1.000000 0.675679 0.093323
1.000000 0.675835 0.093137
0.312803 0.641783 0.121833
0.335588 0.647551 0.115716
0.357733 0.655161 0.107812
0.380609 0.664173 0.098571
0.405341 0.674178 0.088405
0.432938 0.684735 0.077748
0.464797 0.695443 0.066985
0.500256 0.705120 0.057273
0.537105 0.711426 0.050925
0.572006 0.712112 0.050188
0.602104 0.708491 0.053765
0.627798 0.702679 0.059542
0.650470 0.696679 0.065512
0.671006 0.690908 0.071257
0.690242 0.685600 0.076539
0.708905 0.680816 0.081294
0.727537 0.676431 0.085649
0.746538 0.672727 0.089318
0.765991 0.670016 0.091987
0.787322 0.669633 0.094672
0.810426 0.671350 0.097176
0.834038 0.673833 0.098734
0.857768 0.676721 0.099550
0.881239 0.679741 0.099818
0.904105 0.682703 0.099710
0.926087 0.685488 0.099362
0.947206 0.688063 0.098874
0.967617 0.690430 0.098308
0.987491 0.692608 0.097706
1.000000 0.694611 0.097091
1.000000 0.695310 0.096774
1.000000 0.695459 0.096593
1.000000 0.695610 0.096408
0.316415 0.662424 0.125256
0.339256 0.668139 0.119322
0.361380 0.675660 0.111627
0.384107 0.684586 0.102576
0.408534 0.694551 0.092530
0.435663 0.705165 0.081870
0.466907 0.716090 0.070910
0.501702 0.726201 0.060749
0.538081 0.733853 0.053008
0.573087 0.736348 0.050408
0.603824 0.734394 0.052272
0.630334 0.729527 0.057080
0.653710 0.723767 0.062796
0.674871 0.717986 0.068542
0.694584 0.712422 0.074074
0.713598 0.707253 0.079208
0.732513 0.702460 0.083963
0.751515 0.698094 0.088284
0.770632 0.694510 0.091812
0.790101 0.691926 0.094326
0.811485 0.691819 0.097080
0.834180 0.693482 0.099488
0.857129 0.695817 0.101003
0.879957 0.698494 0.101821
0.902305 0.701268 0.102125
0.923876 0.703972 0.102073
0.944667 0.706531 0.101788
0.964803 0.708919 0.101352
0.984451 0.711142 0.100821
1.000000 0.713216 0.100234
1.000000 0.713864 0.099935
1.000000 0.714008 0.099753
1.000000 0.714154 0.099568
0.319934 0.682220 0.128538
0.342820 0.687867 0.122763
0.364924 0.695283 0.115252
0.387518 0.704098 0.106374
0.411673 0.713984 0.096448
0.438379 0.724592 0.085807
0.469053 0.735639 0.074707
0.503205 0.746054 0.064190
0.539025 0.754557 0.055517
0.573904 0.758609 0.051267
0.604997 0.758162 0.051548
0.632212 0.754583 0.055013
0.656224 0.749212 0.060314
0.677982 0.743558 0.065916
0.698216 0.737913 0.071518
0.717613 0.732447 0.076943
0.736853 0.727318 0.082024
0.756059 0.722516 0.086772
0.775111 0.718278 0.090943
0.794212 0.714866 0.094269
0.813563 0.712446 0.096577
0.834909 0.712689 0.099424
0.857024 0.714286 0.101695
0.879135 0.716451 0.103136
0.900881 0.718890 0.103933
0.921948 0.721383 0.104256
0.942321 0.723823 0.104248
0.962127 0.726165 0.104013
0.981514 0.728395 0.103622
1.000000 0.730516 0.103125
1.000000 0.731107 0.102857
1.000000 0.731247 0.102674
1.000000 0.731389 0.102488
0.323302 0.700978 0.131647
0.346224 0.706546 0.126008
0.368305 0.713844 0.118660
0.390781 0.722532 0.109937
0.414693 0.732310 0.100126
0.441017 0.742864 0.089520
0.471167 0.753959 0.078323
0.504711 0.764570 0.067526
0.539948 0.773529 0.058288
0.574535 0.778891 0.052603
0.605759 0.779765 0.051454
0.633449 0.777405 0.053615
0.658069 0.772781 0.058117
0.680363 0.767337 0.063482
0.701104 0.761735 0.069024
0.720931 0.756130 0.074576
0.740476 0.750673 0.079980
0.759975 0.745575 0.085011
0.779146 0.740883 0.089627
0.798118 0.736836 0.093579
0.817076 0.733643 0.096645
0.836177 0.731418 0.098705
0.857385 0.732070 0.101672
0.878738 0.733577 0.103773
0.899827 0.735545 0.105113
0.920350 0.737727 0.105870
0.940284 0.739978 0.106202
0.959735 0.742220 0.106229
0.978840 0.744415 0.106038
0.997754 0.746549 0.105688
1.000000 0.747077 0.105456
1.000000 0.747215 0.105271
1.000000 0.747355 0.105082
0.326525 0.718825 0.134602
0.349473 0.724304 0.129083
0.371532 0.731476 0.121879
0.393897 0.740023 0.113298
0.417588 0.749671 0.103597
0.443565 0.760136 0.093035
0.473231 0.771219 0.081773
0.506197 0.781944 0.070755
0.540858 0.791163 0.061124
0.575043 0.797517 0.054294
0.606229 0.799539 0.051858
0.634197 0.798279 0.052806
0.659336 0.794628 0.056250
0.682104 0.789492 0.061262
0.703311 0.784011 0.066653
0.723572 0.778381 0.072214
0.743472 0.772727 0.077802
0.763228 0.767311 0.083143
0.782629 0.762323 0.088041
0.801636 0.757805 0.092453
0.820404 0.753993 0.096126
0.839085 0.751043 0.098894
0.858098 0.749330 0.101013
0.878706 0.750082 0.103788
0.899146 0.751495 0.105708
0.919124 0.753292 0.106943
0.938606 0.755287 0.107665
