Fotico/Resources/LUTs/throwback.cube
TITLE "Throwback"
LUT_3D_SIZE 9
0.244267 0.207793 0.156612
0.296841 0.204047 0.148613
0.360503 0.200707 0.145690
0.448012 0.198035 0.142569
0.553654 0.196126 0.139603
0.632638 0.195371 0.137916
0.706473 0.195112 0.136727
0.780673 0.195251 0.135893
0.816021 0.195359 0.135237
0.244025 0.244247 0.163803
0.291179 0.247837 0.161835
0.363359 0.247176 0.151949
0.460794 0.240638 0.140999
0.567537 0.237893 0.139017
0.647356 0.237113 0.138054
0.721977 0.237051 0.137534
0.796970 0.237518 0.137367
0.834688 0.238031 0.137227
0.252119 0.291057 0.178156
0.294382 0.300094 0.173998
0.358925 0.306340 0.173085
0.459743 0.309993 0.161220
0.581431 0.305675 0.147745
0.670159 0.301512 0.140353
0.745872 0.301030 0.140745
0.821964 0.301435 0.141485
0.860806 0.302266 0.142017
0.275794 0.354793 0.207346
0.308618 0.375431 0.193639
0.369850 0.384214 0.194441
0.459974 0.394903 0.196088
0.583816 0.405151 0.184490
0.676375 0.406798 0.176359
0.762860 0.406339 0.169159
0.849729 0.404862 0.162299
0.890293 0.404861 0.159776
0.315833 0.441061 0.249939
0.341632 0.462894 0.237329
0.395855 0.490867 0.222388
0.483338 0.500767 0.230722
0.594212 0.516699 0.236502
0.688934 0.530453 0.229853
0.777515 0.537943 0.222663
0.865813 0.542128 0.215257
0.895680 0.544267 0.213081
0.351246 0.510055 0.285985
0.374673 0.532822 0.274159
0.422173 0.564064 0.258280
0.509680 0.586296 0.256202
0.616733 0.599357 0.265641
0.701494 0.612430 0.266977
0.789313 0.625722 0.259099
0.876837 0.634017 0.251011
0.899424 0.636622 0.248985
0.387051 0.577550 0.320732
0.408911 0.600934 0.308020
0.452056 0.632503 0.290549
0.534512 0.664711 0.276775
0.640568 0.676757 0.285281
0.718962 0.685344 0.291300
0.797778 0.697256 0.290721
0.884575 0.710222 0.282005
0.902709 0.713030 0.279896
0.421120 0.644884 0.351584
0.441723 0.667839 0.338402
0.481305 0.698801 0.320326
0.557057 0.740775 0.295372
0.662092 0.751802 0.302949
0.739712 0.759638 0.308283
0.811585 0.766663 0.313024
0.889997 0.778090 0.311006
0.905822 0.781135 0.308608
0.448392 0.700277 0.376252
0.468062 0.722851 0.362681
0.505159 0.753286 0.344102
0.575269 0.794681 0.318331
0.678591 0.813716 0.316435
0.755545 0.820912 0.321188
0.826794 0.827346 0.325393
0.897740 0.833537 0.329390
0.910663 0.834747 0.329065
0.242801 0.206444 0.180291
0.289356 0.204834 0.178134
0.352799 0.203051 0.175536
0.440364 0.201188 0.172523
0.546079 0.199762 0.169682
0.625121 0.199241 0.168084
0.699012 0.199150 0.166974
0.773269 0.199430 0.166217
0.809329 0.199614 0.165623
0.244060 0.243902 0.187501
0.291454 0.248006 0.184185
0.363676 0.244343 0.174372
0.453267 0.240822 0.171092
0.560087 0.239417 0.169227
0.639967 0.239253 0.168346
0.714646 0.239615 0.167899
0.789699 0.240416 0.167801
0.828022 0.241083 0.167716
0.258223 0.286907 0.205915
0.294450 0.301016 0.196887
0.359413 0.307168 0.195681
0.460299 0.308540 0.183907
0.581903 0.302470 0.170694
0.662949 0.301566 0.170791
0.738724 0.301776 0.171246
0.814880 0.302729 0.172044
0.854182 0.303802 0.172622
0.286102 0.350864 0.235332
0.311078 0.371538 0.221676
0.370196 0.385417 0.217608
0.460765 0.396200 0.218974
0.584696 0.404834 0.207461
0.677322 0.405433 0.199389
0.763872 0.404201 0.192240
0.850805 0.402109 0.185429
0.891373 0.401989 0.183187
0.328518 0.437414 0.278152
0.348424 0.459287 0.265582
0.396685 0.489338 0.248713
0.484042 0.502325 0.254165
0.595382 0.518470 0.259659
0.690246 0.531491 0.252851
0.778786 0.538155 0.245627
0.867044 0.541585 0.238189
0.897028 0.543491 0.235975
0.364945 0.506623 0.314331
0.383453 0.529433 0.302538
0.425531 0.560734 0.286699
0.510580 0.587969 0.279520
0.617573 0.600975 0.288909
0.702674 0.614166 0.289845
0.790452 0.626875 0.281936
0.877934 0.634509 0.273820
0.900761 0.636950 0.271747
0.401049 0.574280 0.348859
0.418579 0.597638 0.336124
0.456795 0.629170 0.318624
0.535295 0.666275 0.299973
0.641291 0.678267 0.308435
0.719639 0.686813 0.314424
0.798795 0.698858 0.313453
0.885550 0.711347 0.304712
0.904038 0.714066 0.302549
0.434965 0.641509 0.379592
0.451813 0.664435 0.366390
0.487002 0.695360 0.348290
0.558008 0.737435 0.323155
0.662697 0.753203 0.326001
0.740271 0.760998 0.331309
0.812102 0.767985 0.336027
0.890852 0.779553 0.333625
0.907144 0.782592 0.331164
0.462127 0.696809 0.404170
0.478419 0.719354 0.390582
0.511497 0.749749 0.371982
0.577118 0.791092 0.346184
0.679097 0.815024 0.339409
0.756005 0.822179 0.344140
0.827211 0.828576 0.348325
0.898114 0.834730 0.352306
0.911500 0.835952 0.352009
0.240707 0.208667 0.215127
0.283992 0.210322 0.216209
0.343756 0.212174 0.217679
0.431330 0.210344 0.216523
0.537065 0.208951 0.214597
0.616125 0.208451 0.213380
0.690034 0.208377 0.212518
0.764310 0.208672 0.211946
0.801362 0.208876 0.211459
0.246042 0.243773 0.217899
0.289561 0.246454 0.219303
0.353666 0.245365 0.217416
0.442208 0.244483 0.215360
0.549148 0.244224 0.213645
0.629121 0.244563 0.212870
0.703891 0.245270 0.212518
0.779035 0.246346 0.212511
0.818242 0.247152 0.212502
0.261243 0.288873 0.232134
0.294886 0.300630 0.232296
0.360139 0.307853 0.228928
0.461123 0.304841 0.217275
0.571226 0.302778 0.215333
0.652371 0.303214 0.215528
0.728239 0.304324 0.216069
0.804490 0.305970 0.216949
0.844460 0.307353 0.217593
0.292997 0.349554 0.261742
0.320479 0.365835 0.262924
0.370716 0.387210 0.251686
0.461939 0.397952 0.252636
0.586002 0.403686 0.241248
0.678730 0.402602 0.233264
0.765374 0.400191 0.226193
0.844640 0.400765 0.226890
0.881741 0.402466 0.228379
0.339703 0.431748 0.306966
0.363554 0.454007 0.307164
0.400253 0.484142 0.290369
0.485098 0.504647 0.288675
0.597122 0.521032 0.293756
0.692165 0.532748 0.286697
0.780645 0.538069 0.279423
0.868842 0.540311 0.271937
0.899011 0.541855 0.269666
0.379444 0.497527 0.345553
0.400881 0.524472 0.344335
0.433150 0.555872 0.328526
0.511896 0.590434 0.313848
0.618801 0.603358 0.323165
0.704397 0.616670 0.323511
0.792114 0.628410 0.315556
0.879534 0.634978 0.307396
0.902731 0.637153 0.305251
0.417832 0.563287 0.382074
0.436608 0.592780 0.377517
0.466239 0.624258 0.359974
0.536472 0.667110 0.335574
0.642343 0.680488 0.342530
0.720625 0.688974 0.348470
0.800276 0.701175 0.346922
0.886969 0.712888 0.338141
0.905995 0.715451 0.335891
0.452140 0.630970 0.413901
0.469982 0.659416 0.407623
0.497708 0.690285 0.389483
0.560662 0.732285 0.364298
0.663575 0.755263 0.359947
0.741081 0.762997 0.365210
0.812849 0.769929 0.369889
0.892091 0.781672 0.366918
0.909089 0.784686 0.364357
0.479609 0.686630 0.439229
0.496664 0.714196 0.431689
0.523019 0.744534 0.413053
0.581144 0.785799 0.387210
0.679827 0.816946 0.373237
0.756666 0.824041 0.377927
0.827809 0.830381 0.382076
0.898649 0.836480 0.386022
0.912730 0.837722 0.385759
0.244295 0.215672 0.257832
0.283546 0.211760 0.264542
0.342659 0.214455 0.266462
0.424311 0.218719 0.269639
0.524621 0.223004 0.273495
0.603818 0.222645 0.274308
0.677858 0.222701 0.274767
0.752267 0.223125 0.275196
0.790813 0.223442 0.275206
0.258859 0.252789 0.253606
0.287232 0.249870 0.269954
0.346952 0.253210 0.272482
0.429573 0.258268 0.276450
0.536596 0.258100 0.277510
0.616635 0.258502 0.277768
0.691467 0.259264 0.278055
0.766676 0.260392 0.278514
0.807089 0.261249 0.278749
0.260394 0.292273 0.267701
0.299150 0.300468 0.275286
0.357182 0.306862 0.281143
0.447092 0.307333 0.280341
0.555771 0.308710 0.280133
0.637061 0.310253 0.280462
0.713068 0.312074 0.281125
0.789459 0.314260 0.282122
0.830372 0.315897 0.282863
0.272968 0.372199 0.292699
0.323607 0.370714 0.300539
0.372555 0.386217 0.304743
0.463674 0.399746 0.301527
0.587932 0.399732 0.290318
0.674657 0.398954 0.288350
0.752217 0.400715 0.290228
0.830167 0.403309 0.292432
0.867776 0.405593 0.294003
0.320302 0.454969 0.328471
0.372183 0.454645 0.344799
0.414489 0.476648 0.350886
0.486672 0.508074 0.338816
0.599687 0.524556 0.343309
0.694927 0.533757 0.335835
0.783319 0.536815 0.328489
0.871426 0.537172 0.320932
0.901890 0.538155 0.318575
0.360515 0.521164 0.363734
0.413425 0.521701 0.383931
0.452621 0.548961 0.388822
0.513839 0.592542 0.365130
0.620562 0.606813 0.372906
0.706873 0.620146 0.372398
0.794499 0.630177 0.364376
0.881829 0.634964 0.356149
0.905590 0.636692 0.353894
0.402211 0.584001 0.399683
0.455908 0.584103 0.422223
0.487275 0.617110 0.420036
0.540823 0.659854 0.395553
0.643847 0.683707 0.392044
0.722030 0.692104 0.397911
0.802397 0.704420 0.395525
0.888998 0.714805 0.386680
0.908836 0.717084 0.384299
0.443404 0.644475 0.434825
0.495618 0.645191 0.458150
0.519777 0.682896 0.449326
0.568050 0.724786 0.424064
0.664823 0.758244 0.409245
0.742230 0.765889 0.414439
0.813905 0.772739 0.419054
0.893857 0.784651 0.415255
0.911913 0.787588 0.412541
0.476608 0.694122 0.463687
0.522513 0.700269 0.483154
0.545717 0.736940 0.472719
0.590542 0.778092 0.446805
0.680859 0.819725 0.422361
0.757597 0.826731 0.426984
0.828647 0.832989 0.431073
0.899394 0.839006 0.434961
0.914512 0.840278 0.434746
0.251815 0.225575 0.313398
0.283390 0.214956 0.326901
0.342249 0.216569 0.330193
0.424089 0.221043 0.333585
0.522980 0.227202 0.338404
0.596965 0.232309 0.342486
0.666159 0.237450 0.346652
0.736523 0.242176 0.350846
0.776982 0.242641 0.352045
0.267129 0.264446 0.309230
0.292937 0.260160 0.326032
0.346902 0.255662 0.336539
0.429630 0.261017 0.340751
0.529621 0.268223 0.346545
0.604439 0.274106 0.351344
0.675926 0.278488 0.355548
0.751317 0.279785 0.358087
0.793333 0.280787 0.359324
0.288870 0.302121 0.304874
0.316429 0.314221 0.323371
0.355849 0.311906 0.347050
0.439735 0.318180 0.352690
0.541258 0.326848 0.359816
0.621618 0.329514 0.363354
0.697732 0.331426 0.365620
0.774233 0.333698 0.367718
0.816271 0.335410 0.368981
0.284487 0.365724 0.340035
0.324187 0.374975 0.348608
0.378546 0.387856 0.360559
0.461036 0.399172 0.370573
0.572195 0.402821 0.372387
0.655349 0.406037 0.374197
0.733100 0.409405 0.376222
0.811245 0.413130 0.378570
0.849461 0.415852 0.380252
0.299756 0.480791 0.382833
0.346880 0.485348 0.388491
0.417995 0.485316 0.400145
0.489553 0.509221 0.408121
0.603284 0.528281 0.408123
0.698509 0.532497 0.400363
0.786782 0.531979 0.392923
0.869811 0.531901 0.390023
0.898001 0.533548 0.390142
0.335727 0.552304 0.409250
0.388758 0.552960 0.418533
0.461889 0.553456 0.437840
0.524519 0.583297 0.444214
0.622832 0.611329 0.438232
0.710076 0.624218 0.436607
0.797582 0.631199 0.428493
0.884791 0.633129 0.420177
0.909344 0.634151 0.417771
0.377877 0.614886 0.437501
0.431488 0.614916 0.449673
0.504183 0.614743 0.473854
0.556962 0.650289 0.474348
0.645776 0.687910 0.457077
0.723830 0.696190 0.462845
0.805131 0.708356 0.459360
0.891610 0.716495 0.450429
0.912566 0.718263 0.447867
0.418746 0.675053 0.466700
0.471974 0.674615 0.481426
0.544084 0.673821 0.508956
0.587708 0.714897 0.502581
0.666414 0.762133 0.473994
0.743688 0.769660 0.479093
0.815241 0.776401 0.483622
0.896121 0.788318 0.478733
0.915620 0.791048 0.475808
0.451672 0.724443 0.491661
0.504540 0.723608 0.508065
0.576123 0.722287 0.537612
0.612320 0.767927 0.525096
0.682910 0.816533 0.493544
0.758768 0.830234 0.491409
0.829694 0.836383 0.495413
0.900318 0.842292 0.499219
0.918084 0.844543 0.497878
0.257420 0.232549 0.352298
0.286081 0.222021 0.365873
0.342004 0.218094 0.374799
0.423977 0.222717 0.378338
0.523037 0.229051 0.383329
0.597153 0.234287 0.387537
0.666470 0.239547 0.391817
0.736159 0.245175 0.396441
0.775084 0.248520 0.399050
0.272957 0.271889 0.348165
0.298448 0.267459 0.365232
0.346909 0.257426 0.381369
0.429773 0.262931 0.385727
0.529937 0.270315 0.391690
0.604887 0.276329 0.396614
0.674988 0.282311 0.401556
0.745466 0.288661 0.406840
0.785670 0.292598 0.409992
0.295680 0.314424 0.343492
0.322657 0.323245 0.362679
0.359783 0.319647 0.386655
0.440225 0.320425 0.397963
0.541925 0.329272 0.405256
0.618031 0.336367 0.411159
0.689214 0.343352 0.417006
0.763917 0.347632 0.421795
0.806743 0.349441 0.423986
0.304877 0.367133 0.366491
0.344641 0.378225 0.375141
0.397711 0.396211 0.388525
0.459323 0.404438 0.418808
0.563195 0.415336 0.427938
0.645036 0.419920 0.432950
0.722836 0.423315 0.436241
0.801028 0.427063 0.439355
0.839560 0.429802 0.441347
0.310825 0.474057 0.418412
0.351873 0.484720 0.427499
0.408081 0.499498 0.439305
0.498978 0.507510 0.454334
0.605845 0.528872 0.453294
0.698481 0.529174 0.447856
0.777783 0.531632 0.448861
0.856790 0.534415 0.449667
0.885269 0.536355 0.449744
0.326933 0.565831 0.452446
0.374558 0.572029 0.458627
0.444939 0.575132 0.467269
0.545134 0.575285 0.495207
0.624389 0.614467 0.483890
0.712283 0.626399 0.481486
0.799703 0.630412 0.473308
0.886828 0.629944 0.464929
0.911967 0.630396 0.462413
0.360833 0.636464 0.475650
0.414383 0.636444 0.482297
0.486996 0.636204 0.495913
0.580012 0.641740 0.527246
0.647094 0.690828 0.502531
0.725056 0.699026 0.508230
0.807007 0.710741 0.503977
0.893400 0.716817 0.494984
0.915173 0.718103 0.492292
0.401473 0.696417 0.499107
0.454635 0.695929 0.508489
0.526658 0.695069 0.526350
0.611691 0.706737 0.556150
0.668782 0.757330 0.526588
0.744675 0.772275 0.524281
0.816141 0.778939 0.528748
0.897666 0.790636 0.523097
0.918210 0.793114 0.520022
0.434202 0.745627 0.520299
0.487001 0.744742 0.531589
0.558494 0.743355 0.552199
0.636905 0.760052 0.579065
0.688188 0.809275 0.548192
0.759552 0.832660 0.536435
0.830390 0.838732 0.540379
0.900928 0.844565 0.544124
0.920660 0.847507 0.541916
0.263124 0.239535 0.391082
0.290022 0.229098 0.404727
0.341797 0.219652 0.419265
0.423902 0.224423 0.422947
0.523132 0.230933 0.428108
0.597378 0.236298 0.432439
0.666819 0.241678 0.436833
0.736633 0.247425 0.441570
0.776747 0.250946 0.444348
0.278800 0.279153 0.386982
0.304256 0.274770 0.404312
0.347724 0.261587 0.423745
0.429953 0.264878 0.430557
0.530291 0.272441 0.436689
0.605373 0.278585 0.441735
0.675600 0.284689 0.446790
0.746204 0.291159 0.452184
0.787392 0.295258 0.455488
0.301854 0.324745 0.382611
0.328899 0.331477 0.401865
0.365272 0.327399 0.426136
0.440752 0.322703 0.443089
0.542629 0.331731 0.450548
0.618871 0.338958 0.456571
0.690182 0.346066 0.462529
0.761876 0.353538 0.468823
0.802563 0.358272 0.472685
0.325222 0.375969 0.392880
0.365050 0.389641 0.401606
0.404515 0.408009 0.428213
0.460659 0.408204 0.463323
0.564380 0.418255 0.473623
0.642250 0.426997 0.480995
0.715081 0.435507 0.488198
0.791308 0.441431 0.494360
0.830256 0.444143 0.496853
0.327532 0.465327 0.444058
0.368550 0.475997 0.453903
0.424723 0.490817 0.467559
0.502503 0.511895 0.486794
0.600598 0.531096 0.506151
0.685909 0.535038 0.507564
0.764951 0.538445 0.508384
0.843795 0.541705 0.509056
0.872584 0.543637 0.509091
0.340039 0.557990 0.487822
0.382096 0.569819 0.497210
0.439211 0.585763 0.508851
0.528120 0.596768 0.520192
0.625914 0.617575 0.529350
0.714453 0.627274 0.526170
0.801789 0.627321 0.517928
0.884477 0.626225 0.513653
0.908007 0.627295 0.513150
0.355497 0.646523 0.518792
0.402933 0.652376 0.524033
0.469851 0.657564 0.531311
0.569109 0.656792 0.548447
0.650233 0.687160 0.554202
0.726250 0.701831 0.553418
0.808847 0.712568 0.548401
0.895154 0.715996 0.539346
0.917767 0.716673 0.536521
0.385163 0.716779 0.539394
0.437338 0.717143 0.544616
0.509275 0.716216 0.554693
0.607665 0.714608 0.579471
0.677066 0.750273 0.581161
0.745630 0.774858 0.569273
0.817010 0.781446 0.573677
0.899175 0.792628 0.567269
0.920789 0.794721 0.564038
0.416775 0.766710 0.556159
0.469503 0.765776 0.563162
0.540906 0.764323 0.576295
0.638534 0.762007 0.605723
0.699418 0.802021 0.602610
0.760305 0.835055 0.581265
0.831056 0.841051 0.585146
0.901506 0.846807 0.588831
0.923225 0.850361 0.585756
0.269590 0.247382 0.434428
0.295200 0.237046 0.448149
0.342161 0.223334 0.467099
0.423863 0.226376 0.472794
0.523284 0.233083 0.478142
0.597677 0.238593 0.482611
0.667257 0.244106 0.487130
0.737211 0.249986 0.491992
0.778615 0.253703 0.494956
0.285369 0.287202 0.430362
0.310933 0.282982 0.447985
0.351212 0.269930 0.467527
0.430201 0.267102 0.480649
0.530733 0.274863 0.486967
0.605964 0.281154 0.492149
0.676331 0.287394 0.497329
0.747077 0.293999 0.502847
0.789327 0.298275 0.506318
0.308793 0.335155 0.426327
0.335914 0.340338 0.445655
0.372019 0.336105 0.470255
0.441388 0.325297 0.493510
0.543464 0.334527 0.501153
0.619857 0.341903 0.507311
0.691311 0.349148 0.513393
0.763150 0.356757 0.519808
0.804588 0.361644 0.523812
0.345611 0.390235 0.424652
0.373655 0.404300 0.444815
0.412161 0.419000 0.472563
0.465904 0.417588 0.508048
0.565754 0.421567 0.524670
0.643780 0.430460 0.532174
0.716758 0.439109 0.539498
0.790122 0.448118 0.547150
0.826728 0.453415 0.550750
0.350879 0.467325 0.474136
0.391978 0.479166 0.484067
0.448269 0.496330 0.497841
0.523524 0.524094 0.519814
0.600968 0.536366 0.558217
0.680326 0.545947 0.565160
0.754218 0.554221 0.571246
0.832874 0.557307 0.574122
0.861912 0.559049 0.574694
0.357674 0.546972 0.516941
0.399477 0.558595 0.527132
0.456478 0.574425 0.541039
0.534555 0.595814 0.559765
0.628566 0.620064 0.579894
0.713284 0.625320 0.579448
0.791611 0.627785 0.579668
0.869634 0.630238 0.579697
0.893786 0.631564 0.579154
0.371527 0.636186 0.556921
0.413194 0.647561 0.565784
0.469686 0.662787 0.577044
0.552052 0.678325 0.588637
0.668111 0.678981 0.611563
0.727552 0.704939 0.603847
0.810868 0.713269 0.597978
0.897078 0.712765 0.588854
0.920662 0.712604 0.585876
0.383551 0.723217 0.586622
0.428288 0.730731 0.592154
0.492206 0.737483 0.598621
0.588095 0.738097 0.609415
0.699712 0.741058 0.640545
0.746664 0.777718 0.619484
0.817947 0.784221 0.623816
0.900825 0.794225 0.616563
0.923665 0.795651 0.613156
0.404204 0.783457 0.602982
0.451279 0.787923 0.607657
0.521237 0.787711 0.614314
0.618731 0.785295 0.629932
0.723674 0.793036 0.662428
0.763103 0.829339 0.639476
0.831765 0.843614 0.635105
0.902238 0.849378 0.638605
0.926086 0.853369 0.634675
0.275396 0.254388 0.472934
0.300210 0.244142 0.486724
0.344482 0.230546 0.505769
0.423870 0.228151 0.517068
0.523461 0.235033 0.522582
0.597984 0.240671 0.527171
0.667688 0.246304 0.531802
0.737767 0.252302 0.536774
0.780283 0.256190 0.539901
0.291240 0.294333 0.468898
0.316969 0.290312 0.486781
0.355356 0.277377 0.506420
0.430462 0.269118 0.525140
0.531167 0.277057 0.531623
0.606531 0.283479 0.536925
0.677024 0.289839 0.542216
0.747897 0.296564 0.547844
0.791054 0.300996 0.551460
0.314993 0.343857 0.465159
0.342182 0.348078 0.484553
0.378272 0.343875 0.509445
0.442051 0.327868 0.538074
0.544248 0.337053 0.546100
0.620777 0.344561 0.552377
0.692359 0.351929 0.558568
0.764326 0.359660 0.565092
0.806396 0.364681 0.569218
0.352261 0.403235 0.463884
0.380378 0.415648 0.484114
0.418989 0.428040 0.511958
0.471902 0.425963 0.547776
0.567018 0.424554 0.570008
0.645183 0.433580 0.577630
0.718292 0.442354 0.585063
0.791907 0.451472 0.592531
0.828597 0.456727 0.596029
0.371638 0.474593 0.500869
0.412810 0.487928 0.510878
0.469206 0.507780 0.524757
0.531095 0.536589 0.559721
0.602700 0.539703 0.603379
0.681954 0.549140 0.610312
0.755389 0.557706 0.616482
0.828543 0.566021 0.622442
0.855773 0.569836 0.624584
0.378727 0.546226 0.543811
0.420478 0.558044 0.553953
0.477158 0.574067 0.567568
0.554762 0.596404 0.585955
0.642620 0.627090 0.612089
0.707493 0.632753 0.631235
0.780815 0.639924 0.636452
0.858585 0.642211 0.638116
0.883194 0.643313 0.637864
0.386731 0.626009 0.583370
0.428341 0.637329 0.593167
0.484758 0.652482 0.606219
0.561938 0.672896 0.623513
0.653989 0.696816 0.641927
0.728680 0.707676 0.648582
0.812632 0.710733 0.641958
0.890951 0.710565 0.640244
0.913257 0.711203 0.639204
0.398536 0.712818 0.619642
0.439755 0.723660 0.627908
0.495597 0.738165 0.638425
0.575832 0.753897 0.649588
0.687779 0.756297 0.662776
0.752310 0.771342 0.672722
0.818749 0.786660 0.668293
0.902259 0.794592 0.660290
0.926216 0.795105 0.656723
0.406958 0.784658 0.643342
0.447819 0.795088 0.649985
0.510618 0.801727 0.655806
0.601127 0.805942 0.664039
0.717266 0.802484 0.684934
0.774107 0.822011 0.693299
0.832364 0.845864 0.679420
0.903466 0.852078 0.682173
0.928623 0.855770 0.678065
