Fotico/Resources/LUTs/throwback.cube
TITLE "Throwback"
LUT_3D_SIZE 5
0.244267 0.207793 0.156612
0.360503 0.200707 0.145690
0.553654 0.196126 0.139603
0.706473 0.195112 0.136727
0.816021 0.195359 0.135237
0.252119 0.291057 0.178156
0.358925 0.306340 0.173085
0.581431 0.305675 0.147745
0.745872 0.301030 0.140745
0.860806 0.302266 0.142017
0.315833 0.441061 0.249939
0.395855 0.490867 0.222388
0.594212 0.516699 0.236502
0.777515 0.537943 0.222663
0.895680 0.544267 0.213081
0.387051 0.577550 0.320732
0.452056 0.632503 0.290549
0.640568 0.676757 0.285281
0.797778 0.697256 0.290721
0.902709 0.713030 0.279896
0.448392 0.700277 0.376252
0.505159 0.753286 0.344102
0.678591 0.813716 0.316435
0.826794 0.827346 0.325393
0.910663 0.834747 0.329065
0.240707 0.208667 0.215127
0.343756 0.212174 0.217679
0.537065 0.208951 0.214597
0.690034 0.208377 0.212518
0.801362 0.208876 0.211459
0.261243 0.288873 0.232134
0.360139 0.307853 0.228928
0.571226 0.302778 0.215333
0.728239 0.304324 0.216069
0.844460 0.307353 0.217593
0.339703 0.431748 0.306966
0.400253 0.484142 0.290369
0.597122 0.521032 0.293756
0.780645 0.538069 0.279423
0.899011 0.541855 0.269666
0.417832 0.563287 0.382074
0.466239 0.624258 0.359974
0.642343 0.680488 0.342530
0.800276 0.701175 0.346922
0.905995 0.715451 0.335891
0.479609 0.686630 0.439229
0.523019 0.744534 0.413053
0.679827 0.816946 0.373237
0.827809 0.830381 0.382076
0.912730 0.837722 0.385759
0.251815 0.225575 0.313398
0.342249 0.216569 0.330193
0.522980 0.227202 0.338404
0.666159 0.237450 0.346652
0.776982 0.242641 0.352045
0.288870 0.302121 0.304874
0.355849 0.311906 0.347050
0.541258 0.326848 0.359816
0.697732 0.331426 0.365620
0.816271 0.335410 0.368981
0.299756 0.480791 0.382833
0.417995 0.485316 0.400145
0.603284 0.528281 0.408123
0.786782 0.531979 0.392923
0.898001 0.533548 0.390142
0.377877 0.614886 0.437501
0.504183 0.614743 0.473854
0.645776 0.687910 0.457077
0.805131 0.708356 0.459360
0.912566 0.718263 0.447867
0.451672 0.724443 0.491661
0.576123 0.722287 0.537612
0.682910 0.816533 0.493544
0.829694 0.836383 0.495413
0.918084 0.844543 0.497878
0.263124 0.239535 0.391082
0.341797 0.219652 0.419265
0.523132 0.230933 0.428108
0.666819 0.241678 0.436833
0.776747 0.250946 0.444348
0.301854 0.324745 0.382611
0.365272 0.327399 0.426136
0.542629 0.331731 0.450548
0.690182 0.346066 0.462529
0.802563 0.358272 0.472685
0.327532 0.465327 0.444058
0.424723 0.490817 0.467559
0.600598 0.531096 0.506151
0.764951 0.538445 0.508384
0.872584 0.543637 0.509091
0.355497 0.646523 0.518792
0.469851 0.657564 0.531311
0.650233 0.687160 0.554202
0.808847 0.712568 0.548401
0.917767 0.716673 0.536521
0.416775 0.766710 0.556159
0.540906 0.764323 0.576295
0.699418 0.802021 0.602610
0.831056 0.841051 0.585146
0.923225 0.850361 0.585756
0.275396 0.254388 0.472934
0.344482 0.230546 0.505769
0.523461 0.235033 0.522582
0.667688 0.246304 0.531802
0.780283 0.256190 0.539901
0.314993 0.343857 0.465159
0.378272 0.343875 0.509445
0.544248 0.337053 0.546100
0.692359 0.351929 0.558568
0.806396 0.364681 0.569218
0.371638 0.474593 0.500869
0.469206 0.507780 0.524757
0.602700 0.539703 0.603379
0.755389 0.557706 0.616482
0.855773 0.569836 0.624584
0.386731 0.626009 0.583370
0.484758 0.652482 0.606219
0.653989 0.696816 0.641927
0.812632 0.710733 0.641958
0.913257 0.711203 0.639204
0.406958 0.784658 0.643342
0.510618 0.801727 0.655806
0.717266 0.802484 0.684934
0.832364 0.845864 0.679420
0.928623 0.855770 0.678065
