Fotico/Resources/LUTs/throwback.cube
TITLE "Throwback"
LUT_3D_SIZE 33
0.244267 0.207793 0.156612
0.257738 0.207373 0.154538
0.270572 0.206503 0.152578
0.283394 0.205383 0.150635
0.296841 0.204047 0.148613
0.310136 0.203111 0.147788
0.324903 0.202295 0.147148
0.341833 0.201486 0.146441
0.360503 0.200707 0.145690
0.380663 0.199968 0.144915
0.402108 0.199274 0.144127
0.424629 0.198628 0.143341
0.448012 0.198035 0.142569
0.472142 0.197495 0.141817
0.499372 0.196964 0.141022
0.527871 0.196489 0.140250
0.553654 0.196126 0.139603
0.575640 0.195863 0.139089
0.595784 0.195659 0.138649
0.614607 0.195498 0.138263
0.632638 0.195371 0.137916
0.650415 0.195271 0.137596
0.668483 0.195194 0.137293
0.687274 0.195140 0.137001
0.706473 0.195112 0.136727
0.725733 0.195110 0.136476
0.744735 0.195135 0.136252
0.763157 0.195183 0.136058
0.780673 0.195251 0.135893
0.796918 0.195332 0.135758
0.810865 0.195416 0.135655
0.815980 0.195414 0.135476
0.816021 0.195359 0.135237
0.242556 0.217046 0.159776
0.256050 0.217963 0.157734
0.268908 0.217934 0.155804
0.281753 0.217418 0.153890
0.295228 0.216560 0.151899
0.309985 0.215385 0.149736
0.326694 0.213862 0.147308
0.344706 0.212447 0.145646
0.363423 0.211479 0.144942
0.383633 0.210592 0.144216
0.405133 0.209786 0.143482
0.427713 0.209058 0.142751
0.451157 0.208406 0.142036
0.475351 0.207827 0.141342
0.502653 0.207272 0.140613
0.531229 0.206789 0.139910
0.557082 0.206429 0.139324
0.579127 0.206175 0.138863
0.599326 0.205984 0.138470
0.618200 0.205839 0.138129
0.636280 0.205729 0.137825
0.654106 0.205648 0.137547
0.672224 0.205592 0.137286
0.691066 0.205562 0.137038
0.710317 0.205560 0.136809
0.729630 0.205586 0.136603
0.748684 0.205640 0.136424
0.767157 0.205717 0.136272
0.784721 0.205813 0.136148
0.801012 0.205921 0.136050
0.814997 0.206029 0.135979
0.820762 0.206062 0.135837
0.820809 0.206040 0.135627
0.242486 0.225609 0.161459
0.254552 0.226650 0.160835
0.267432 0.227664 0.158934
0.280301 0.227894 0.157048
0.293800 0.227623 0.155086
0.308586 0.226940 0.152955
0.325328 0.225853 0.150563
0.344521 0.224340 0.147848
0.365685 0.222460 0.144888
0.386539 0.221153 0.143639
0.408091 0.220193 0.142954
0.430727 0.219347 0.142276
0.454229 0.218607 0.141614
0.478483 0.217964 0.140976
0.505855 0.217360 0.140309
0.534503 0.216846 0.139670
0.560422 0.216472 0.139143
0.582524 0.216215 0.138731
0.602775 0.216025 0.138383
0.621697 0.215886 0.138084
0.639823 0.215785 0.137820
0.657695 0.215715 0.137582
0.675860 0.215673 0.137361
0.694751 0.215660 0.137155
0.714052 0.215677 0.136968
0.733415 0.215724 0.136804
0.752519 0.215799 0.136667
0.771040 0.215899 0.136555
0.788650 0.216018 0.136470
0.804982 0.216149 0.136407
0.819005 0.216277 0.136367
0.825301 0.216339 0.136258
0.825354 0.216349 0.136075
0.243190 0.234658 0.162561
0.254333 0.235126 0.162873
0.266057 0.236291 0.162128
0.278949 0.237438 0.160271
0.292473 0.237884 0.158338
0.307287 0.237802 0.156238
0.324062 0.237242 0.153882
0.343294 0.236199 0.151208
0.364501 0.234727 0.148291
0.387398 0.232893 0.145180
0.411131 0.231013 0.142508
0.433822 0.230010 0.141881
0.457382 0.229150 0.141273
0.481697 0.228414 0.140690
0.509137 0.227736 0.140085
0.537858 0.227170 0.139510
0.563843 0.226766 0.139041
0.586001 0.226493 0.138678
0.606304 0.226295 0.138375
0.625275 0.226153 0.138118
0.643448 0.226054 0.137894
0.661365 0.225988 0.137695
0.679577 0.225954 0.137514
0.698517 0.225951 0.137349
0.717868 0.225981 0.137204
0.737280 0.226044 0.137083
0.756434 0.226137 0.136986
0.775003 0.226255 0.136915
0.792658 0.226393 0.136867
0.809033 0.226542 0.136840
0.823092 0.226687 0.136830
0.829838 0.226777 0.136754
0.829898 0.226817 0.136597
0.244025 0.244247 0.163803
0.255194 0.244748 0.164145
0.265841 0.245237 0.164483
0.277628 0.246490 0.163738
0.291179 0.247837 0.161835
0.306023 0.248508 0.159769
0.322833 0.248604 0.157450
0.342105 0.248145 0.154819
0.363359 0.247176 0.151949
0.386306 0.245774 0.148888
0.410715 0.244015 0.145673
0.436346 0.241970 0.142341
0.460794 0.240638 0.140999
0.485173 0.239776 0.140473
0.512686 0.238992 0.139932
0.541482 0.238347 0.139425
0.567537 0.237893 0.139017
0.589755 0.237590 0.138705
0.610112 0.237373 0.138450
0.629134 0.237219 0.138236
0.647356 0.237113 0.138054
0.665322 0.237045 0.137896
0.683583 0.237012 0.137757
0.702574 0.237013 0.137635
0.721977 0.237051 0.137534
0.741443 0.237125 0.137457
0.760648 0.237231 0.137405
0.779267 0.237364 0.137375
0.796970 0.237518 0.137367
0.813390 0.237683 0.137377
0.827487 0.237842 0.137398
0.834623 0.237957 0.137355
0.834688 0.238031 0.137227
0.245058 0.254901 0.165270
0.256254 0.255436 0.165644
0.266929 0.255959 0.166014
0.277599 0.256494 0.166396
0.289870 0.257797 0.165782
0.304748 0.259443 0.163752
0.321596 0.260387 0.161474
0.340914 0.260678 0.158890
0.362218 0.260355 0.156071
0.385222 0.259503 0.153065
0.409691 0.258216 0.149908
0.435386 0.256579 0.146637
0.462062 0.254670 0.143288
0.489115 0.252736 0.140333
0.516709 0.251803 0.139863
0.545590 0.251043 0.139430
0.571721 0.250512 0.139088
0.594004 0.250160 0.138833
0.614421 0.249909 0.138629
0.633500 0.249731 0.138464
0.651776 0.249608 0.138328
0.669795 0.249529 0.138215
0.688111 0.249488 0.138122
0.707158 0.249487 0.138048
0.726619 0.249527 0.137995
0.746143 0.249605 0.137967
0.765405 0.249719 0.137962
0.784080 0.249863 0.137979
0.801836 0.250029 0.138014
0.818305 0.250208 0.138065
0.832444 0.250380 0.138121
0.839909 0.250519 0.138112
0.839981 0.250629 0.138015
0.246396 0.266620 0.167605
0.257606 0.267746 0.167478
0.268313 0.268307 0.167884
0.279016 0.268880 0.168302
0.290249 0.269493 0.168753
0.303442 0.270806 0.168414
0.320335 0.272880 0.166184
0.339705 0.274168 0.163652
0.361067 0.274697 0.160892
0.384134 0.274571 0.157949
0.408672 0.273903 0.154858
0.434441 0.272797 0.151656
0.461194 0.271347 0.148378
0.488798 0.269627 0.145045
0.519945 0.267499 0.141342
0.550420 0.266018 0.139559
0.576639 0.265371 0.139293
0.598997 0.264942 0.139103
0.619483 0.264636 0.138958
0.638626 0.264416 0.138847
0.656964 0.264262 0.138764
0.675044 0.264158 0.138702
0.693421 0.264100 0.138661
0.712534 0.264085 0.138641
0.732061 0.264117 0.138644
0.751651 0.264192 0.138670
0.770979 0.264308 0.138720
0.789717 0.264457 0.138789
0.807533 0.264630 0.138874
0.824058 0.264819 0.138971
0.838245 0.265001 0.139066
0.845960 0.265163 0.139096
0.846040 0.265314 0.139033
0.248689 0.278158 0.172537
0.259349 0.282088 0.169755
0.270093 0.282693 0.170203
0.280834 0.283310 0.170661
0.292108 0.283969 0.171155
0.304462 0.284706 0.171710
0.319074 0.286011 0.171768
0.338504 0.288639 0.169298
0.359935 0.290309 0.166605
0.383076 0.291149 0.163734
0.407694 0.291302 0.160719
0.433548 0.290897 0.157597
0.460390 0.290051 0.154401
0.488086 0.288857 0.151151
0.519338 0.287233 0.147542
0.552042 0.285315 0.143829
0.581626 0.283445 0.140526
0.604942 0.282568 0.139575
0.625508 0.282175 0.139498
0.644725 0.281889 0.139450
0.663134 0.281682 0.139426
0.681285 0.281536 0.139424
0.699734 0.281442 0.139443
0.718921 0.281399 0.139485
0.738524 0.281409 0.139551
0.758190 0.281469 0.139641
0.777594 0.281576 0.139752
0.796405 0.281721 0.139882
0.814291 0.281895 0.140024
0.830880 0.282087 0.140173
0.845123 0.282274 0.140314
0.852964 0.282459 0.140385
0.853053 0.282658 0.140363
0.252119 0.291057 0.178156
0.261679 0.296094 0.174390
0.272278 0.298719 0.172953
0.283062 0.299384 0.173457
0.294382 0.300094 0.173998
0.306787 0.300886 0.174605
0.320842 0.301800 0.175310
0.337419 0.303213 0.175703
0.358925 0.306340 0.173085
0.382149 0.308409 0.170292
0.406855 0.309601 0.167362
0.432803 0.310081 0.164326
0.459743 0.309993 0.161220
0.487542 0.309455 0.158063
0.518910 0.308459 0.154557
0.551736 0.307102 0.150952
0.581431 0.305675 0.147745
0.606748 0.304348 0.145052
0.629942 0.303065 0.142616
0.651611 0.301821 0.140368
0.670159 0.301512 0.140353
0.688388 0.301300 0.140415
0.706916 0.301151 0.140500
0.726185 0.301060 0.140610
0.745872 0.301030 0.140745
0.765623 0.301059 0.140905
0.785110 0.301142 0.141084
0.804002 0.301271 0.141280
0.821964 0.301435 0.141485
0.838625 0.301622 0.141692
0.852928 0.301807 0.141882
0.860707 0.302013 0.141996
0.860806 0.302266 0.142017
0.256608 0.305225 0.184448
0.265226 0.310314 0.180736
0.274950 0.315175 0.177213
0.285732 0.316972 0.176709
0.297101 0.317737 0.177301
0.309563 0.318588 0.177964
0.323682 0.319570 0.178731
0.339878 0.320717 0.179633
0.358109 0.322284 0.180307
0.381422 0.325879 0.177600
0.406226 0.328357 0.174759
0.432275 0.329926 0.171818
0.459322 0.330767 0.168809
0.487232 0.331032 0.165752
0.518726 0.330800 0.162357
0.551684 0.330122 0.158868
0.581499 0.329229 0.155765
0.606918 0.328311 0.153160
0.630207 0.327370 0.150805
0.651964 0.326422 0.148632
0.672804 0.325464 0.146575
0.693348 0.324479 0.144571
0.714227 0.323446 0.142557
0.734304 0.323007 0.142053
0.754082 0.322916 0.142263
0.773924 0.322894 0.142497
0.793501 0.322936 0.142750
0.812480 0.323033 0.143016
0.830526 0.323174 0.143288
0.847263 0.323343 0.143557
0.861633 0.323518 0.143801
0.869112 0.323745 0.143957
0.869222 0.324057 0.144026
0.262088 0.320610 0.191413
0.269944 0.325755 0.187759
0.278768 0.330670 0.184291
0.288883 0.335591 0.180838
0.300301 0.336820 0.181088
0.312822 0.337735 0.181810
0.327011 0.338789 0.182644
0.343287 0.340018 0.183622
0.361246 0.341401 0.184726
0.380958 0.343161 0.185652
0.405865 0.347201 0.182907
0.432024 0.350089 0.180066
0.459186 0.352052 0.177160
0.487214 0.353281 0.174208
0.518844 0.353964 0.170933
0.551943 0.354096 0.167567
0.581886 0.353838 0.164575
0.607416 0.353402 0.162064
0.630805 0.352865 0.159795
0.652657 0.352266 0.157702
0.673587 0.351619 0.155721
0.694220 0.350923 0.153792
0.715190 0.350166 0.151854
0.736995 0.349335 0.149863
0.759270 0.348448 0.147855
0.781613 0.347526 0.145867
0.802764 0.346946 0.144783
0.821837 0.346993 0.145124
0.839972 0.347093 0.145468
0.856791 0.347232 0.145803
0.871232 0.347385 0.146103
0.878129 0.347638 0.146302
0.878251 0.348013 0.146421
0.268502 0.337154 0.199049
0.275739 0.342359 0.195457
0.283831 0.347331 0.192045
0.293075 0.352310 0.188649
0.304009 0.357259 0.185377
0.316595 0.358242 0.186162
0.330857 0.359372 0.187067
0.347219 0.360689 0.188126
0.365274 0.362167 0.189319
0.384779 0.363793 0.190636
0.405828 0.365777 0.191792
0.432104 0.370237 0.189057
0.459388 0.373531 0.186260
0.487543 0.375902 0.183419
0.519315 0.377663 0.180269
0.552565 0.378747 0.177032
0.582644 0.379232 0.174158
0.608290 0.379360 0.171746
0.631786 0.379292 0.169567
0.653738 0.379098 0.167558
0.674763 0.378813 0.165658
0.695491 0.378451 0.163807
0.716556 0.378013 0.161949
0.738461 0.377495 0.160041
0.760838 0.376909 0.158118
0.783284 0.376274 0.156214
0.805426 0.375609 0.154360
0.826889 0.374933 0.152586
0.847294 0.374266 0.150921
0.866217 0.373631 0.149395
0.881712 0.373373 0.148816
0.887704 0.373664 0.149055
0.887838 0.374106 0.149226
0.275794 0.354793 0.207346
0.282529 0.360061 0.203817
0.290023 0.365094 0.200465
0.298553 0.370133 0.197128
0.308618 0.375431 0.193639
0.320901 0.380018 0.191033
0.335242 0.381228 0.192012
0.351695 0.382636 0.193155
0.369850 0.384214 0.194441
0.389465 0.385948 0.195857
0.410341 0.387824 0.197396
0.432562 0.390050 0.198772
0.459974 0.394903 0.196088
0.488262 0.398604 0.193364
0.520185 0.401620 0.190344
0.553593 0.403808 0.187243
0.583816 0.405151 0.184490
0.609584 0.405928 0.182181
0.633192 0.406400 0.180097
0.655248 0.406670 0.178176
0.676375 0.406798 0.176359
0.697201 0.406817 0.174591
0.718367 0.406744 0.172816
0.740377 0.406581 0.170995
0.762860 0.406339 0.169159
0.785413 0.406029 0.167343
0.807661 0.405668 0.165575
0.829226 0.405273 0.163885
0.849729 0.404862 0.162299
0.868742 0.404456 0.160847
0.885063 0.404089 0.159613
0.890265 0.404313 0.159436
0.890293 0.404861 0.159776
0.283951 0.373540 0.216330
0.290278 0.378875 0.212866
0.297281 0.383972 0.209576
0.305223 0.389075 0.206299
0.314565 0.394440 0.202874
0.325980 0.400328 0.199136
0.340202 0.404364 0.197510
0.356751 0.405867 0.198741
0.375013 0.407550 0.200123
0.394743 0.409396 0.201643
0.415742 0.411391 0.203292
0.437806 0.413522 0.205056
0.460989 0.415976 0.206669
0.489417 0.421218 0.204065
0.521499 0.425680 0.201180
0.555072 0.429136 0.198220
0.585445 0.431464 0.195594
0.611342 0.432983 0.193392
0.635067 0.434071 0.191406
0.657233 0.434870 0.189576
0.678464 0.435468 0.187846
0.699394 0.435920 0.186163
0.720665 0.436258 0.184475
0.742784 0.436498 0.182743
0.765379 0.436643 0.180999
0.788044 0.436699 0.179274
0.810402 0.436681 0.177596
0.832075 0.436601 0.175993
0.852678 0.436477 0.174489
0.871786 0.436325 0.173112
0.888188 0.436170 0.171944
0.891508 0.436596 0.172015
0.891541 0.437205 0.172421
0.293946 0.395515 0.227063
0.299909 0.400928 0.223674
0.306470 0.406099 0.220453
0.313879 0.411278 0.217246
0.322564 0.416721 0.213892
0.333145 0.422695 0.210232
0.346468 0.429473 0.206105
0.363042 0.432982 0.205583
0.381428 0.434786 0.207075
0.401292 0.436761 0.208714
0.422434 0.438894 0.210488
0.444648 0.441167 0.212384
0.467721 0.443564 0.214387
0.491538 0.446075 0.216491
0.523512 0.452145 0.214039
0.557277 0.457208 0.211240
0.587824 0.460779 0.208758
0.613868 0.463234 0.206680
0.637728 0.465098 0.204805
0.660021 0.466560 0.203079
0.681373 0.467747 0.201449
0.702422 0.468740 0.199863
0.723815 0.469593 0.198274
0.746059 0.470335 0.196645
0.768783 0.470961 0.195004
0.791577 0.471473 0.193384
0.814062 0.471879 0.191809
0.835858 0.472190 0.190304
0.856579 0.472420 0.188895
0.875850 0.472592 0.187493
0.892439 0.472701 0.186163
0.892937 0.473329 0.186363
0.892961 0.473974 0.186605
0.305160 0.419215 0.238866
0.310828 0.424712 0.235554
0.317028 0.429963 0.232406
0.323996 0.435222 0.229270
0.332135 0.440748 0.225992
0.342019 0.446814 0.222413
0.354430 0.453696 0.218378
0.370241 0.461602 0.213774
0.388754 0.464027 0.214899
0.408762 0.466139 0.216663
0.430056 0.468417 0.218569
0.452430 0.470842 0.220603
0.475669 0.473395 0.222749
0.499658 0.476067 0.224999
0.526739 0.479126 0.227581
0.560184 0.485643 0.225452
0.590914 0.490658 0.223122
0.617116 0.494198 0.221172
0.641120 0.496958 0.219415
0.663546 0.499187 0.217798
0.685027 0.501053 0.216272
0.706203 0.502668 0.214789
0.727724 0.504113 0.213304
0.750102 0.505431 0.211782
0.773016 0.506613 0.210143
0.796069 0.507633 0.208297
0.818767 0.508473 0.206463
0.840727 0.509145 0.204674
0.861566 0.509667 0.202963
0.880858 0.510056 0.201368
0.894360 0.510400 0.200287
0.894382 0.510983 0.200487
0.894403 0.511564 0.200683
0.315833 0.441061 0.249939
0.321296 0.446635 0.246695
0.327237 0.451959 0.243612
0.333889 0.457291 0.240541
0.341632 0.462894 0.237329
0.351008 0.469042 0.233823
0.362752 0.476018 0.229870
0.377677 0.484032 0.225358
0.395855 0.490867 0.222388
0.415994 0.493103 0.224264
0.437427 0.495511 0.226289
0.459947 0.498073 0.228447
0.483338 0.500767 0.230722
0.507483 0.503584 0.233103
0.534738 0.506807 0.235833
0.563314 0.510262 0.238696
0.594212 0.516699 0.236502
0.620556 0.521304 0.234668
0.644690 0.524943 0.233016
0.667239 0.527923 0.231498
0.688934 0.530453 0.229853
0.710327 0.532647 0.228138
0.732028 0.534602 0.226385
0.754551 0.536375 0.224550
0.777515 0.537943 0.222663
0.800503 0.539294 0.220757
0.823137 0.540434 0.218866
0.845034 0.541373 0.217021
0.865813 0.542128 0.215257
0.885050 0.542718 0.213613
0.895644 0.543215 0.212768
0.895662 0.543742 0.212927
0.895680 0.544267 0.213081
0.325269 0.459910 0.259631
0.330592 0.465550 0.256445
0.336355 0.470938 0.253416
0.342785 0.476331 0.250399
0.350249 0.482000 0.247243
0.359266 0.488220 0.243799
0.370534 0.495277 0.239914
0.384827 0.503383 0.235480
0.402281 0.512340 0.230618
0.422483 0.516284 0.231021
0.444036 0.518804 0.233146
0.466681 0.521482 0.235409
0.490201 0.524296 0.237792
0.514479 0.527236 0.240285
0.541884 0.530597 0.243139
0.570574 0.534163 0.246173
0.597384 0.538075 0.248141
0.624004 0.543640 0.246022
0.648338 0.548015 0.244066
0.671027 0.551573 0.242225
0.692717 0.554567 0.240450
0.714060 0.557171 0.238689
0.735710 0.559506 0.236888
0.758179 0.561639 0.235004
0.781088 0.563542 0.233067
0.804020 0.565200 0.231112
0.826599 0.566617 0.229172
0.848443 0.567802 0.227280
0.869171 0.568773 0.225471
0.888360 0.569550 0.223785
0.896714 0.570121 0.223119
0.896730 0.570602 0.223243
0.896745 0.571080 0.223362
0.334206 0.477423 0.268745
0.339423 0.483124 0.265610
0.345049 0.488570 0.262631
0.351307 0.494021 0.259662
0.358553 0.499750 0.256557
0.367287 0.506036 0.253168
0.378180 0.513167 0.249345
0.391972 0.521357 0.244983
0.408785 0.530407 0.240198
0.428708 0.537756 0.237452
0.450371 0.540377 0.239669
0.473131 0.543161 0.242028
0.496770 0.546085 0.244509
0.521170 0.549138 0.247104
0.548756 0.552625 0.249977
0.577725 0.556263 0.252631
0.603850 0.559511 0.254998
0.627422 0.563270 0.255690
0.651705 0.568263 0.253685
0.674345 0.572337 0.251798
0.695988 0.575778 0.249980
0.717284 0.578782 0.248176
0.738886 0.581488 0.246332
0.761307 0.583972 0.244404
0.784164 0.586202 0.242421
0.807046 0.588161 0.240421
0.829574 0.589848 0.238436
0.851369 0.591275 0.236501
0.872050 0.592459 0.234651
0.891196 0.593419 0.232927
0.897679 0.594017 0.232408
0.897692 0.594456 0.232500
0.897705 0.594892 0.232586
0.342799 0.493994 0.277459
0.347934 0.499753 0.274372
0.353452 0.505254 0.271438
0.359572 0.510759 0.268515
0.366642 0.516545 0.265457
0.375146 0.522892 0.262119
0.385732 0.530093 0.258354
0.399111 0.538363 0.254057
0.415396 0.547500 0.249344
0.434770 0.557386 0.244285
0.456530 0.560734 0.245969
0.479398 0.563618 0.248418
0.503215 0.566642 0.250833
0.527839 0.569742 0.253090
0.555545 0.573197 0.255603
0.584446 0.576765 0.258193
0.610509 0.579950 0.260502
0.632669 0.582636 0.262445
0.654683 0.586380 0.262519
0.677278 0.590962 0.260590
0.698877 0.594842 0.258731
0.720129 0.598241 0.256888
0.741687 0.601312 0.255004
0.764061 0.604144 0.253034
0.786871 0.606697 0.251009
0.809705 0.608952 0.248966
0.832185 0.610908 0.246940
0.853934 0.612575 0.244964
0.874572 0.613969 0.243077
0.893677 0.615110 0.241318
0.898567 0.615700 0.240920
0.898578 0.616101 0.240982
0.898589 0.616498 0.241038
0.351246 0.510055 0.285985
0.356316 0.515871 0.282944
0.361745 0.521423 0.280053
0.367750 0.526982 0.277172
0.374673 0.532822 0.274159
0.382983 0.539229 0.270869
0.393309 0.546496 0.267159
0.406338 0.554843 0.262925
0.422173 0.564064 0.258280
0.440985 0.574040 0.253294
0.462745 0.580404 0.251925
0.485803 0.583312 0.254037
0.509680 0.586296 0.256202
0.534250 0.589340 0.258407
0.561894 0.592731 0.260860
0.590729 0.596231 0.263388
0.616733 0.599357 0.265641
0.638842 0.601991 0.267537
0.659047 0.604380 0.269254
0.679937 0.608109 0.268875
0.701494 0.612430 0.266977
0.722705 0.616224 0.265096
0.744220 0.619663 0.263174
0.766549 0.622843 0.261164
0.789313 0.625722 0.259099
0.812101 0.628276 0.257016
0.834537 0.630502 0.254949
0.856241 0.632410 0.252935
0.876837 0.634017 0.251011
0.895903 0.635342 0.249218
0.899406 0.635896 0.248924
0.899415 0.636260 0.248957
0.899424 0.636622 0.248985
0.359777 0.526069 0.294560
0.364793 0.531940 0.291563
0.370147 0.537545 0.288714
0.376054 0.543155 0.285875
0.382848 0.549050 0.282905
0.390990 0.555516 0.279664
0.401088 0.562850 0.276007
0.413824 0.571309 0.271703
0.429316 0.580699 0.266679
0.447700 0.590805 0.261241
0.469074 0.599726 0.257193
0.492083 0.602581 0.259256
0.515908 0.605511 0.261370
0.540425 0.608498 0.263522
0.568007 0.611826 0.265917
0.596778 0.615260 0.268384
0.622722 0.618326 0.270582
0.644780 0.620910 0.272432
0.664939 0.623253 0.274107
0.683732 0.625421 0.275654
0.703932 0.629130 0.274977
0.725101 0.633331 0.273059
0.746574 0.637148 0.271099
0.768859 0.640688 0.269050
0.791579 0.643903 0.266945
0.814321 0.646765 0.264822
0.836712 0.649270 0.262716
0.858373 0.651427 0.260665
0.878927 0.653254 0.258705
0.897955 0.654769 0.256879
0.900223 0.655263 0.256673
0.900229 0.655594 0.256678
0.900235 0.655921 0.256678
0.368649 0.542526 0.303446
0.373620 0.548454 0.300494
0.378909 0.554113 0.297687
0.384730 0.559776 0.294890
0.391385 0.565792 0.291708
0.399354 0.572375 0.288193
0.409231 0.579812 0.284204
0.421662 0.588315 0.279620
0.436731 0.597663 0.274552
0.454587 0.607722 0.269067
0.475370 0.618383 0.263219
0.498319 0.622001 0.264433
0.522092 0.624875 0.266495
0.546554 0.627805 0.268595
0.574073 0.631068 0.270931
0.602778 0.634436 0.273336
0.628661 0.637441 0.275479
0.650668 0.639974 0.277281
0.670780 0.642270 0.278913
0.689527 0.644394 0.280420
0.707446 0.646411 0.281849
0.727394 0.650093 0.281021
0.748824 0.654310 0.279023
0.771064 0.658230 0.276934
0.793738 0.661801 0.274789
0.816434 0.664990 0.272625
0.838779 0.667792 0.270480
0.860396 0.670214 0.268390
0.880908 0.672275 0.266394
0.899896 0.673992 0.264534
0.901040 0.674405 0.264406
0.901045 0.674701 0.264383
0.901049 0.674993 0.264353
0.377947 0.559869 0.312481
0.382802 0.565902 0.309268
0.387967 0.571641 0.306199
0.393650 0.577366 0.303124
0.400169 0.583360 0.299892
0.407962 0.589913 0.296344
0.417604 0.597315 0.292318
0.429719 0.605778 0.287692
0.444381 0.615081 0.282579
0.461731 0.625092 0.277046
0.481900 0.635701 0.271147
0.504631 0.641964 0.269667
0.528349 0.644780 0.271677
0.552753 0.647650 0.273722
0.580208 0.650847 0.275996
0.608843 0.654145 0.278337
0.634664 0.657088 0.280423
0.656617 0.659567 0.282176
0.676679 0.661814 0.283763
0.695380 0.663894 0.285229
0.713254 0.665867 0.286618
0.730838 0.667795 0.287973
0.751006 0.671462 0.287101
0.773199 0.675794 0.284971
0.795825 0.679749 0.282784
0.818473 0.683292 0.280579
0.840770 0.686414 0.278393
0.862341 0.689123 0.276263
0.882810 0.691437 0.274229
0.901757 0.693373 0.272335
0.901877 0.693682 0.272273
0.901879 0.693944 0.272221
0.901881 0.694202 0.272162
0.387051 0.577550 0.320732
0.391848 0.583556 0.317487
0.396935 0.589269 0.314387
0.402519 0.594968 0.311283
0.408911 0.600934 0.308020
0.416538 0.607456 0.304439
0.425958 0.614822 0.300376
0.437775 0.623245 0.295708
0.452056 0.632503 0.290549
0.468932 0.642464 0.284967
0.488528 0.653020 0.279017
0.510850 0.661953 0.274819
0.534512 0.664711 0.276775
0.558858 0.667521 0.278765
0.586246 0.670650 0.280977
0.614811 0.673878 0.283254
0.640568 0.676757 0.285281
0.662466 0.679182 0.286985
0.682479 0.681381 0.288527
0.701133 0.683414 0.289951
0.718962 0.685344 0.291300
0.736501 0.687229 0.292616
0.754289 0.689128 0.293939
0.775201 0.692897 0.292950
0.797778 0.697256 0.290721
0.820378 0.701170 0.288473
0.842627 0.704630 0.286246
0.864151 0.707642 0.284076
0.884575 0.710222 0.282005
0.902709 0.712317 0.280151
0.902709 0.712579 0.280067
0.902709 0.712807 0.279985
0.902709 0.713030 0.279896
0.395990 0.595034 0.328831
0.400731 0.601013 0.325554
0.405744 0.606701 0.322424
0.411234 0.612372 0.319290
0.417507 0.618311 0.315997
0.424979 0.624801 0.312383
0.434192 0.632132 0.308283
0.445731 0.640513 0.303574
0.459657 0.649725 0.298370
0.476092 0.659637 0.292740
0.495155 0.670141 0.286739
0.516908 0.681126 0.280425
0.540509 0.684437 0.281730
0.564796 0.687187 0.283665
0.592117 0.690249 0.285815
0.620612 0.693406 0.288028
0.646305 0.696223 0.289998
0.668149 0.698594 0.291653
0.688111 0.700743 0.293150
0.706718 0.702731 0.294532
0.724502 0.704617 0.295841
0.741997 0.706459 0.297118
0.759739 0.708315 0.298401
0.778149 0.710225 0.299720
0.799575 0.714118 0.298506
0.822126 0.718418 0.296217
0.844327 0.722228 0.293948
0.865805 0.725554 0.291739
0.886184 0.728411 0.289629
0.903530 0.730654 0.287813
0.903528 0.730879 0.287696
0.903526 0.731074 0.287585
0.903523 0.731265 0.287466
0.404693 0.612178 0.336713
0.409379 0.618130 0.333405
0.414323 0.623791 0.330245
0.419724 0.629436 0.327083
0.425886 0.635346 0.323759
0.433212 0.641805 0.320113
0.442232 0.649100 0.315977
0.453514 0.657440 0.311227
0.467110 0.666607 0.305978
0.483138 0.676470 0.300301
0.501709 0.686921 0.294250
0.522881 0.697851 0.287885
0.546293 0.703795 0.286504
0.570522 0.706486 0.288385
0.597776 0.709481 0.290474
0.626201 0.712569 0.292623
0.651831 0.715322 0.294536
0.673620 0.717641 0.296142
0.693532 0.719741 0.297595
0.712093 0.721684 0.298936
0.729832 0.723527 0.300205
0.747282 0.725326 0.301443
0.764980 0.727138 0.302687
0.783343 0.729005 0.303966
0.802061 0.730892 0.305256
0.823706 0.734904 0.303747
0.845860 0.739074 0.301438
0.867291 0.742722 0.299189
0.887627 0.745864 0.297042
