Fotico/Resources/LUTs/vhs.cube
# VHS
LUT_3D_SIZE 9
0.143465 0.158959 0.162030
0.203664 0.162146 0.164968
0.278283 0.166096 0.168611
0.351404 0.169967 0.172180
0.423499 0.173784 0.175698
0.494815 0.177560 0.179179
0.565503 0.181302 0.182630
0.635667 0.185017 0.186054
0.705381 0.188708 0.189457
0.159767 0.244937 0.174054
0.219965 0.248124 0.176992
0.294585 0.252075 0.180634
0.367706 0.255946 0.184203
0.439801 0.259763 0.187722
0.511116 0.263538 0.191203
0.581805 0.267281 0.194653
0.651969 0.270995 0.198078
0.721683 0.274686 0.201480
0.176310 0.332190 0.186255
0.236508 0.335377 0.189193
0.311128 0.339327 0.192835
0.384249 0.343198 0.196404
0.456344 0.347015 0.199923
0.527660 0.350791 0.203404
0.598348 0.354533 0.206854
0.668512 0.358248 0.210279
0.738226 0.361938 0.213682
0.192992 0.420174 0.198559
0.253190 0.423361 0.201497
0.327810 0.427312 0.205139
0.400930 0.431183 0.208708
0.473026 0.435000 0.212227
0.544341 0.438775 0.215708
0.615030 0.442518 0.219158
0.685194 0.446232 0.222583
0.754908 0.449923 0.225986
0.209772 0.508679 0.210936
0.269971 0.511866 0.213874
0.344590 0.515817 0.217516
0.417711 0.519688 0.221085
0.489806 0.523505 0.224604
0.561122 0.527280 0.228085
0.631810 0.531022 0.231535
0.701974 0.534737 0.234960
0.771688 0.538428 0.238362
0.226630 0.597589 0.223369
0.286828 0.600776 0.226307
0.361447 0.604726 0.229949
0.434568 0.608597 0.233518
0.506663 0.612414 0.237037
0.577979 0.616190 0.240518
0.648667 0.619932 0.243968
0.718831 0.623646 0.247393
0.788545 0.627337 0.250796
0.243550 0.686830 0.235848
0.303748 0.690017 0.238787
0.378367 0.693967 0.242429
0.451488 0.697838 0.245998
0.523583 0.701655 0.249517
0.594899 0.705431 0.252998
0.665588 0.709173 0.256448
0.735752 0.712888 0.259872
0.805465 0.716578 0.263275
0.260523 0.776352 0.248367
0.320721 0.779539 0.251305
0.395341 0.783490 0.254948
0.468462 0.787361 0.258517
0.540557 0.791177 0.262036
0.611873 0.794953 0.265516
0.682561 0.798695 0.268967
0.752725 0.802410 0.272391
0.822439 0.806101 0.275794
0.277543 0.866119 0.260920
0.337741 0.869306 0.263859
0.412360 0.873256 0.267501
0.485481 0.877127 0.271070
0.557576 0.880944 0.274589
0.628892 0.884720 0.278070
0.699581 0.888462 0.281520
0.769745 0.892177 0.284944
0.839459 0.895867 0.288347
0.145074 0.160246 0.238078
0.205272 0.163433 0.241016
0.279892 0.167383 0.244659
0.353013 0.171254 0.248228
0.425108 0.175071 0.251747
0.496424 0.178847 0.255227
0.567112 0.182589 0.258678
0.637276 0.186304 0.262102
0.706990 0.189994 0.265505
0.161376 0.246224 0.250102
0.221574 0.249411 0.253040
0.296193 0.253362 0.256682
0.369314 0.257233 0.260251
0.441409 0.261049 0.263770
0.512725 0.264825 0.267251
0.583414 0.268567 0.270701
0.653578 0.272282 0.274126
0.723291 0.275973 0.277528
0.177919 0.333477 0.262303
0.238117 0.336664 0.265241
0.312736 0.340614 0.268883
0.385857 0.344485 0.272452
0.457952 0.348302 0.275971
0.529268 0.352078 0.279452
0.599957 0.355820 0.282902
0.670121 0.359535 0.286327
0.739834 0.363225 0.289730
0.194600 0.421461 0.274607
0.254799 0.424648 0.277545
0.329418 0.428599 0.281187
0.402539 0.432470 0.284756
0.474634 0.436287 0.288275
0.545950 0.440062 0.291756
0.616638 0.443805 0.295206
0.686802 0.447519 0.298631
0.756516 0.451210 0.302034
0.211381 0.509966 0.286984
0.271579 0.513153 0.289922
0.346199 0.517103 0.293564
0.419320 0.520975 0.297133
0.491415 0.524791 0.300652
0.562730 0.528567 0.304133
0.633419 0.532309 0.307583
0.703583 0.536024 0.311008
0.773297 0.539715 0.314410
0.228238 0.598875 0.299417
0.288436 0.602062 0.302355
0.363056 0.606013 0.305997
0.436177 0.609884 0.309566
0.508272 0.613701 0.313085
0.579588 0.617476 0.316566
0.650276 0.621219 0.320016
0.720440 0.624933 0.323441
0.790154 0.628624 0.326844
0.245158 0.688117 0.311896
0.305357 0.691304 0.314835
0.379976 0.695254 0.318477
0.453097 0.699125 0.322046
0.525192 0.702942 0.325565
0.596508 0.706718 0.329046
0.667196 0.710460 0.332496
0.737360 0.714175 0.335920
0.807074 0.717865 0.339323
0.262132 0.777639 0.324415
0.322330 0.780826 0.327353
0.396949 0.784776 0.330996
0.470070 0.788648 0.334565
0.542165 0.792464 0.338084
0.613481 0.796240 0.341564
0.684170 0.799982 0.345015
0.754334 0.803697 0.348439
0.824047 0.807388 0.351842
0.279151 0.867406 0.336968
0.339350 0.870593 0.339907
0.413969 0.874543 0.343549
0.487090 0.878414 0.347118
0.559185 0.882231 0.350637
0.630501 0.886007 0.354118
0.701189 0.889749 0.357568
0.771353 0.893464 0.360992
0.841067 0.897154 0.364395
0.146728 0.161569 0.316284
0.206927 0.164756 0.319223
0.281546 0.168707 0.322865
0.354667 0.172578 0.326434
0.426762 0.176395 0.329953
0.498078 0.180170 0.333433
0.568766 0.183912 0.336884
0.638930 0.187627 0.340308
0.708644 0.191318 0.343711
0.163030 0.247548 0.328308
0.223228 0.250734 0.331246
0.297848 0.254685 0.334888
0.370969 0.258556 0.338457
0.443064 0.262373 0.341976
0.514379 0.266148 0.345457
0.585068 0.269891 0.348907
0.655232 0.273605 0.352332
0.724946 0.277296 0.355734
0.179573 0.334800 0.340509
0.239771 0.337987 0.343447
0.314391 0.341937 0.347089
0.387512 0.345809 0.350658
0.459607 0.349625 0.354177
0.530922 0.353401 0.357658
0.601611 0.357143 0.361109
0.671775 0.360858 0.364533
0.741489 0.364549 0.367936
0.196255 0.422785 0.352813
0.256453 0.425972 0.355751
0.331072 0.429922 0.359393
0.404193 0.433793 0.362962
0.476288 0.437610 0.366481
0.547604 0.441386 0.369962
0.618293 0.445128 0.373412
0.688457 0.448843 0.376837
0.758171 0.452533 0.380240
0.213035 0.511289 0.365190
0.273234 0.514476 0.368128
0.347853 0.518427 0.371770
0.420974 0.522298 0.375339
0.493069 0.526115 0.378858
0.564385 0.529890 0.382339
0.635073 0.533633 0.385789
0.705237 0.537347 0.389214
0.774951 0.541038 0.392616
0.229892 0.600199 0.377623
0.290091 0.603386 0.380561
0.364710 0.607336 0.384203
0.437831 0.611207 0.387772
0.509926 0.615024 0.391291
0.581242 0.618800 0.394772
0.651930 0.622542 0.398222
0.722094 0.626257 0.401647
0.791808 0.629948 0.405050
0.246813 0.689440 0.390102
0.307011 0.692627 0.393041
0.381630 0.696577 0.396683
0.454751 0.700449 0.400252
0.526846 0.704265 0.403771
0.598162 0.708041 0.407252
0.668850 0.711783 0.410702
0.739014 0.715498 0.414127
0.808728 0.719189 0.417529
0.263786 0.778962 0.402621
0.323984 0.782149 0.405560
0.398604 0.786100 0.409202
0.471725 0.789971 0.412771
0.543820 0.793788 0.416290
0.615135 0.797563 0.419771
0.685824 0.801306 0.423221
0.755988 0.805020 0.426645
0.825702 0.808711 0.430048
0.280806 0.868729 0.415174
0.341004 0.871916 0.418113
0.415623 0.875867 0.421755
0.488744 0.879738 0.425324
0.560839 0.883555 0.428843
0.632155 0.887330 0.432324
0.702844 0.891072 0.435774
0.773008 0.894787 0.439199
0.842721 0.898478 0.442601
0.148410 0.162914 0.395785
0.208608 0.166101 0.398724
0.283228 0.170052 0.402366
0.356349 0.173923 0.405935
0.428444 0.177740 0.409454
0.499760 0.181515 0.412935
0.570448 0.185258 0.416385
0.640612 0.188972 0.419809
0.710326 0.192663 0.423212
0.164712 0.248893 0.407809
0.224910 0.252080 0.410747
0.299529 0.256030 0.414389
0.372650 0.259901 0.417958
0.444745 0.263718 0.421477
0.516061 0.267494 0.424958
0.586750 0.271236 0.428408
0.656914 0.274951 0.431833
0.726627 0.278642 0.435235
0.181255 0.336145 0.420010
0.241453 0.339332 0.422948
0.316072 0.343283 0.426591
0.389193 0.347154 0.430160
0.461288 0.350971 0.433678
0.532604 0.354746 0.437159
0.603293 0.358489 0.440610
0.673457 0.362203 0.444034
0.743170 0.365894 0.447437
0.197936 0.424130 0.432314
0.258135 0.427317 0.435252
0.332754 0.431267 0.438894
0.405875 0.435139 0.442463
0.477970 0.438955 0.445982
0.549286 0.442731 0.449463
0.619974 0.446473 0.452913
0.690138 0.450188 0.456338
0.759852 0.453879 0.459741
0.214717 0.512635 0.444691
0.274915 0.515822 0.447629
0.349535 0.519772 0.451271
0.422656 0.523643 0.454840
0.494751 0.527460 0.458359
0.566066 0.531236 0.461840
0.636755 0.534978 0.465290
0.706919 0.538693 0.468715
0.776633 0.542383 0.472117
0.231574 0.601544 0.457124
0.291772 0.604731 0.460062
0.366392 0.608682 0.463704
0.439513 0.612553 0.467273
0.511608 0.616370 0.470792
0.582924 0.620145 0.474273
0.653612 0.623888 0.477723
0.723776 0.627602 0.481148
0.793490 0.631293 0.484551
0.248494 0.690785 0.469603
0.308692 0.693972 0.472542
0.383312 0.697923 0.476184
0.456433 0.701794 0.479753
0.528528 0.705611 0.483272
0.599844 0.709386 0.486753
0.670532 0.713129 0.490203
0.740696 0.716843 0.493628
0.810410 0.720534 0.497030
0.265468 0.780308 0.482122
0.325666 0.783495 0.485061
0.400285 0.787445 0.488703
0.473406 0.791316 0.492272
0.545501 0.795133 0.495791
0.616817 0.798909 0.499272
0.687506 0.802651 0.502722
0.757670 0.806366 0.506146
0.827383 0.810056 0.509549
0.282487 0.870074 0.494675
0.342686 0.873261 0.497614
0.417305 0.877212 0.501256
0.490426 0.881083 0.504825
0.562521 0.884900 0.508344
0.633837 0.888675 0.511825
0.704525 0.892418 0.515275
0.774689 0.896132 0.518700
0.844403 0.899823 0.522102
0.150112 0.164276 0.476223
0.210310 0.167463 0.479162
0.284929 0.171413 0.482804
0.358050 0.175284 0.486373
0.430145 0.179101 0.489892
0.501461 0.182877 0.493373
0.572150 0.186619 0.496823
0.642314 0.190334 0.500247
0.712027 0.194024 0.503650
0.166413 0.250254 0.488247
0.226611 0.253441 0.491185
0.301231 0.257391 0.494827
0.374352 0.261263 0.498396
0.446447 0.265079 0.501915
0.517763 0.268855 0.505396
0.588451 0.272597 0.508846
0.658615 0.276312 0.512271
0.728329 0.280003 0.515674
0.182956 0.337507 0.500448
0.243154 0.340694 0.503386
0.317774 0.344644 0.507029
0.390895 0.348515 0.510598
0.462990 0.352332 0.514116
0.534306 0.356108 0.517597
0.604994 0.359850 0.521048
0.675158 0.363564 0.524472
0.744872 0.367255 0.527875
0.199638 0.425491 0.512752
0.259836 0.428678 0.515690
0.334456 0.432629 0.519332
0.407577 0.436500 0.522901
0.479672 0.440317 0.526420
0.550987 0.444092 0.529901
0.621676 0.447835 0.533352
0.691840 0.451549 0.536776
0.761554 0.455240 0.540179
0.216418 0.513996 0.525129
0.276617 0.517183 0.528067
0.351236 0.521133 0.531709
0.424357 0.525005 0.535278
0.496452 0.528821 0.538797
0.567768 0.532597 0.542278
0.638456 0.536339 0.545728
0.708620 0.540054 0.549153
0.778334 0.543745 0.552556
0.233276 0.602905 0.537562
0.293474 0.606092 0.540500
0.368093 0.610043 0.544142
0.441214 0.613914 0.547711
0.513309 0.617731 0.551230
0.584625 0.621506 0.554711
0.655314 0.625249 0.558161
0.725478 0.628963 0.561586
0.795191 0.632654 0.564989
0.250196 0.692147 0.550041
0.310394 0.695334 0.552980
0.385013 0.699284 0.556622
0.458134 0.703155 0.560191
0.530229 0.706972 0.563710
0.601545 0.710748 0.567191
0.672234 0.714490 0.570641
0.742398 0.718204 0.574066
0.812111 0.721895 0.577468
0.267169 0.781669 0.562560
0.327367 0.784856 0.565499
0.401987 0.788806 0.569141
0.475108 0.792678 0.572710
0.547203 0.796494 0.576229
0.618519 0.800270 0.579710
0.689207 0.804012 0.583160
0.759371 0.807727 0.586585
0.829085 0.811418 0.589987
0.284189 0.871436 0.575113
0.344387 0.874623 0.578052
0.419006 0.878573 0.581694
0.492127 0.882444 0.585263
0.564222 0.886261 0.588782
0.635538 0.890037 0.592263
0.706227 0.893779 0.595713
0.776391 0.897494 0.599138
0.846105 0.901184 0.602540
0.151829 0.165649 0.557399
0.212027 0.168836 0.560337
0.286646 0.172787 0.563979
0.359767 0.176658 0.567548
0.431862 0.180475 0.571067
0.503178 0.184250 0.574548
0.573867 0.187993 0.577998
0.644031 0.191707 0.581423
0.713744 0.195398 0.584826
0.168130 0.251628 0.569422
0.228328 0.254815 0.572360
0.302948 0.258765 0.576002
0.376069 0.262636 0.579571
0.448164 0.266453 0.583090
0.519480 0.270229 0.586571
0.590168 0.273971 0.590022
0.660332 0.277686 0.593446
0.730046 0.281376 0.596849
0.184673 0.338880 0.581624
0.244871 0.342067 0.584562
0.319491 0.346018 0.588204
0.392612 0.349889 0.591773
0.464707 0.353706 0.595292
0.536023 0.357481 0.598773
0.606711 0.361224 0.602223
0.676875 0.364938 0.605648
0.746589 0.368629 0.609050
0.201355 0.426865 0.593927
0.261553 0.430052 0.596866
0.336173 0.434002 0.600508
0.409294 0.437874 0.604077
0.481389 0.441690 0.607596
0.552705 0.445466 0.611077
0.623393 0.449208 0.614527
0.693557 0.452923 0.617952
0.763271 0.456614 0.621354
0.218135 0.515370 0.606304
0.278334 0.518557 0.609242
0.352953 0.522507 0.612884
0.426074 0.526378 0.616453
0.498169 0.530195 0.619972
0.569485 0.533971 0.623453
0.640173 0.537713 0.626904
0.710337 0.541428 0.630328
0.780051 0.545118 0.633731
0.234993 0.604279 0.618737
0.295191 0.607466 0.621676
0.369810 0.611417 0.625318
0.442931 0.615288 0.628887
0.515026 0.619104 0.632406
0.586342 0.622880 0.635886
0.657031 0.626622 0.639337
0.727195 0.630337 0.642761
0.796908 0.634028 0.646164
0.251913 0.693520 0.631217
0.312111 0.696707 0.634155
0.386730 0.700658 0.637797
0.459851 0.704529 0.641366
0.531946 0.708346 0.644885
0.603262 0.712121 0.648366
0.673951 0.715864 0.651816
0.744115 0.719578 0.655241
0.813829 0.723269 0.658644
0.268886 0.783043 0.643736
0.329084 0.786230 0.646674
0.403704 0.790180 0.650316
0.476825 0.794051 0.653885
0.548920 0.797868 0.657404
0.620236 0.801644 0.660885
0.690924 0.805386 0.664335
0.761088 0.809101 0.667760
0.830802 0.812791 0.671163
0.285906 0.872809 0.656289
0.346104 0.875996 0.659227
0.420724 0.879947 0.662869
0.493845 0.883818 0.666438
0.565940 0.887635 0.669957
0.637255 0.891410 0.673438
0.707944 0.895153 0.676888
0.778108 0.898867 0.680313
0.847822 0.902558 0.683716
0.153559 0.167033 0.639183
0.213757 0.170220 0.642122
0.288376 0.174171 0.645764
0.361497 0.178042 0.649333
0.433592 0.181859 0.652852
0.504908 0.185634 0.656333
0.575597 0.189377 0.659783
0.645761 0.193091 0.663207
0.715474 0.196782 0.666610
0.169860 0.253012 0.651207
0.230058 0.256199 0.654145
0.304678 0.260149 0.657787
0.377799 0.264020 0.661356
0.449894 0.267837 0.664875
0.521210 0.271613 0.668356
0.591898 0.275355 0.671806
0.662062 0.279070 0.675231
0.731776 0.282760 0.678633
0.186403 0.340264 0.663408
0.246601 0.343451 0.666346
0.321221 0.347402 0.669989
0.394342 0.351273 0.673558
0.466437 0.355090 0.677076
0.537753 0.358865 0.680557
0.608441 0.362608 0.684008
0.678605 0.366322 0.687432
0.748319 0.370013 0.690835
0.203085 0.428249 0.675712
0.263283 0.431436 0.678650
0.337903 0.435386 0.682292
0.411024 0.439257 0.685861
0.483119 0.443074 0.689380
0.554435 0.446850 0.692861
0.625123 0.450592 0.696312
0.695287 0.454307 0.699736
0.765001 0.457998 0.703139
0.219865 0.516754 0.688089
0.280064 0.519941 0.691027
0.354683 0.523891 0.694669
0.427804 0.527762 0.698238
0.499899 0.531579 0.701757
0.571215 0.535355 0.705238
0.641903 0.539097 0.708688
0.712067 0.542812 0.712113
0.781781 0.546502 0.715515
0.236723 0.605663 0.700522
0.296921 0.608850 0.703460
0.371540 0.612801 0.707102
0.444661 0.616672 0.710671
0.516756 0.620488 0.714190
0.588072 0.624264 0.717671
0.658761 0.628006 0.721121
0.728925 0.631721 0.724546
0.798638 0.635412 0.727949
0.253643 0.694904 0.713001
0.313841 0.698091 0.715940
0.388460 0.702042 0.719582
0.461581 0.705913 0.723151
0.533676 0.709730 0.726670
0.604992 0.713505 0.730151
0.675681 0.717248 0.733601
0.745845 0.720962 0.737026
0.815559 0.724653 0.740428
0.270616 0.784427 0.725520
0.330814 0.787614 0.728459
0.405434 0.791564 0.732101
0.478555 0.795435 0.735670
0.550650 0.799252 0.739189
0.621966 0.803028 0.742670
0.692654 0.806770 0.746120
0.762818 0.810485 0.749545
0.832532 0.814175 0.752947
0.287636 0.874193 0.738073
0.347834 0.877380 0.741012
0.422454 0.881331 0.744654
0.495575 0.885202 0.748223
0.567670 0.889019 0.751742
0.638985 0.892794 0.755223
0.709674 0.896537 0.758673
0.779838 0.900251 0.762098
0.849552 0.903942 0.765500
0.155300 0.168426 0.721488
0.215498 0.171613 0.724426
0.290117 0.175564 0.728068
0.363238 0.179435 0.731637
0.435333 0.183252 0.735156
0.506649 0.187027 0.738637
0.577338 0.190769 0.742087
0.647502 0.194484 0.745512
0.717215 0.198175 0.748914
0.171601 0.254404 0.733511
0.231799 0.257591 0.736449
0.306419 0.261542 0.740091
0.379540 0.265413 0.743660
0.451635 0.269230 0.747179
0.522951 0.273005 0.750660
0.593639 0.276748 0.754110
0.663803 0.280462 0.757535
0.733517 0.284153 0.760938
0.188144 0.341657 0.745712
0.248342 0.344844 0.748651
0.322962 0.348794 0.752293
0.396083 0.352666 0.755862
0.468178 0.356482 0.759381
0.539494 0.360258 0.762862
0.610182 0.364000 0.766312
0.680346 0.367715 0.769737
0.750060 0.371406 0.773139
0.204826 0.429642 0.758016
0.265024 0.432829 0.760955
0.339644 0.436779 0.764597
0.412765 0.440650 0.768166
0.484860 0.444467 0.771685
0.556175 0.448243 0.775166
0.626864 0.451985 0.778616
0.697028 0.455700 0.782041
0.766742 0.459390 0.785443
0.221606 0.518146 0.770393
0.281805 0.521333 0.773331
0.356424 0.525284 0.776973
0.429545 0.529155 0.780542
0.501640 0.532972 0.784061
0.572956 0.536747 0.787542
0.643644 0.540490 0.790992
0.713808 0.544204 0.794417
0.783522 0.547895 0.797820
0.238464 0.607056 0.782826
0.298662 0.610243 0.785764
0.373281 0.614193 0.789407
0.446402 0.618064 0.792976
0.518497 0.621881 0.796494
0.589813 0.625657 0.799975
0.660502 0.629399 0.803426
0.730666 0.633114 0.806850
0.800379 0.636805 0.810253
0.255384 0.696297 0.795306
0.315582 0.699484 0.798244
0.390201 0.703434 0.801886
0.463322 0.707306 0.805455
0.535417 0.711122 0.808974
0.606733 0.714898 0.812455
0.677422 0.718640 0.815905
0.747586 0.722355 0.819330
0.817300 0.726046 0.822733
0.272357 0.785819 0.807825
0.332555 0.789006 0.810763
0.407175 0.792957 0.814405
0.480296 0.796828 0.817974
0.552391 0.800645 0.821493
0.623707 0.804420 0.824974
0.694395 0.808163 0.828424
0.764559 0.811877 0.831849
0.834273 0.815568 0.835252
0.289377 0.875586 0.820378
0.349575 0.878773 0.823316
0.424195 0.882724 0.826958
0.497315 0.886595 0.830527
0.569411 0.890411 0.834046
0.640726 0.894187 0.837527
0.711415 0.897929 0.840977
0.781579 0.901644 0.844402
0.851293 0.905335 0.847805
0.157050 0.169827 0.804246
0.217248 0.173014 0.807184
0.291868 0.176964 0.810826
0.364989 0.180835 0.814395
0.437084 0.184652 0.817914
0.508400 0.188428 0.821395
0.579088 0.192170 0.824845
0.649252 0.195885 0.828270
0.718966 0.199575 0.831672
0.173352 0.255805 0.816269
0.233550 0.258992 0.819207
0.308169 0.262942 0.822849
0.381290 0.266814 0.826418
0.453385 0.270630 0.829937
0.524701 0.274406 0.833418
0.595390 0.278148 0.836868
0.665554 0.281863 0.840293
0.735267 0.285554 0.843696
0.189895 0.343057 0.828470
0.250093 0.346244 0.831409
0.324712 0.350195 0.835051
0.397833 0.354066 0.838620
0.469928 0.357883 0.842139
0.541244 0.361658 0.845620
0.611933 0.365401 0.849070
0.682097 0.369115 0.852495
0.751810 0.372806 0.855897
0.206577 0.431042 0.840774
0.266775 0.434229 0.843713
0.341394 0.438180 0.847355
0.414515 0.442051 0.850924
0.486610 0.445868 0.854443
0.557926 0.449643 0.857924
0.628615 0.453385 0.861374
0.698779 0.457100 0.864798
0.768492 0.460791 0.868201
0.223357 0.519547 0.853151
0.283555 0.522734 0.856089
0.358175 0.526684 0.859731
0.431296 0.530555 0.863300
0.503391 0.534372 0.866819
0.574707 0.538148 0.870300
0.645395 0.541890 0.873750
0.715559 0.545605 0.877175
0.785273 0.549296 0.880578
0.240214 0.608456 0.865584
0.300412 0.611643 0.868522
0.375032 0.615594 0.872165
0.448153 0.619465 0.875734
0.520248 0.623282 0.879252
0.591564 0.627057 0.882733
0.662252 0.630800 0.886184
0.732416 0.634514 0.889608
0.802130 0.638205 0.893011
0.257134 0.697697 0.878064
0.317333 0.700884 0.881002
0.391952 0.704835 0.884644
0.465073 0.708706 0.888213
0.537168 0.712523 0.891732
0.608484 0.716298 0.895213
0.679172 0.720041 0.898663
0.749336 0.723755 0.902088
0.819050 0.727446 0.905491
0.274108 0.787220 0.890583
0.334306 0.790407 0.893521
0.408925 0.794357 0.897163
0.482046 0.798228 0.900732
0.554141 0.802045 0.904251
0.625457 0.805821 0.907732
0.696146 0.809563 0.911182
0.766310 0.813278 0.914607
0.836023 0.816969 0.918010
0.291127 0.876987 0.903136
0.351326 0.880174 0.906074
0.425945 0.884124 0.909716
0.499066 0.887995 0.913285
0.571161 0.891812 0.916804
0.642477 0.895587 0.920285
0.713165 0.899330 0.923735
0.783329 0.903044 0.927160
0.853043 0.906735 0.930563
