Fotico/Resources/LUTs/vhs.cube
# VHS
LUT_3D_SIZE 5
0.143465 0.158959 0.162030
0.278283 0.166096 0.168611
0.423499 0.173784 0.175698
0.565503 0.181302 0.182630
0.705381 0.188708 0.189457
0.176310 0.332190 0.186255
0.311128 0.339327 0.192835
0.456344 0.347015 0.199923
0.598348 0.354533 0.206854
0.738226 0.361938 0.213682
0.209772 0.508679 0.210936
0.344590 0.515817 0.217516
0.489806 0.523505 0.224604
0.631810 0.531022 0.231535
0.771688 0.538428 0.238362
0.243550 0.686830 0.235848
0.378367 0.693967 0.242429
0.523583 0.701655 0.249517
0.665588 0.709173 0.256448
0.805465 0.716578 0.263275
0.277543 0.866119 0.260920
0.412360 0.873256 0.267501
0.557576 0.880944 0.274589
0.699581 0.888462 0.281520
0.839459 0.895867 0.288347
0.146728 0.161569 0.316284
0.281546 0.168707 0.322865
0.426762 0.176395 0.329953
0.568766 0.183912 0.336884
0.708644 0.191318 0.343711
0.179573 0.334800 0.340509
0.314391 0.341937 0.347089
0.459607 0.349625 0.354177
0.601611 0.357143 0.361109
0.741489 0.364549 0.367936
0.213035 0.511289 0.365190
0.347853 0.518427 0.371770
0.493069 0.526115 0.378858
0.635073 0.533633 0.385789
0.774951 0.541038 0.392616
0.246813 0.689440 0.390102
0.381630 0.696577 0.396683
0.526846 0.704265 0.403771
0.668850 0.711783 0.410702
0.808728 0.719189 0.417529
0.280806 0.868729 0.415174
0.415623 0.875867 0.421755
0.560839 0.883555 0.428843
0.702844 0.891072 0.435774
0.842721 0.898478 0.442601
0.150112 0.164276 0.476223
0.284929 0.171413 0.482804
0.430145 0.179101 0.489892
0.572150 0.186619 0.496823
0.712027 0.194024 0.503650
0.182956 0.337507 0.500448
0.317774 0.344644 0.507029
0.462990 0.352332 0.514116
0.604994 0.359850 0.521048
0.744872 0.367255 0.527875
0.216418 0.513996 0.525129
0.351236 0.521133 0.531709
0.496452 0.528821 0.538797
0.638456 0.536339 0.545728
0.778334 0.543745 0.552556
0.250196 0.692147 0.550041
0.385013 0.699284 0.556622
0.530229 0.706972 0.563710
0.672234 0.714490 0.570641
0.812111 0.721895 0.577468
0.284189 0.871436 0.575113
0.419006 0.878573 0.581694
0.564222 0.886261 0.588782
0.706227 0.893779 0.595713
0.846105 0.901184 0.602540
0.153559 0.167033 0.639183
0.288376 0.174171 0.645764
0.433592 0.181859 0.652852
0.575597 0.189377 0.659783
0.715474 0.196782 0.666610
0.186403 0.340264 0.663408
0.321221 0.347402 0.669989
0.466437 0.355090 0.677076
0.608441 0.362608 0.684008
0.748319 0.370013 0.690835
0.219865 0.516754 0.688089
0.354683 0.523891 0.694669
0.499899 0.531579 0.701757
0.641903 0.539097 0.708688
0.781781 0.546502 0.715515
0.253643 0.694904 0.713001
0.388460 0.702042 0.719582
0.533676 0.709730 0.726670
0.675681 0.717248 0.733601
0.815559 0.724653 0.740428
0.287636 0.874193 0.738073
0.422454 0.881331 0.744654
0.567670 0.889019 0.751742
0.709674 0.896537 0.758673
0.849552 0.903942 0.765500
0.157050 0.169827 0.804246
0.291868 0.176964 0.810826
0.437084 0.184652 0.817914
0.579088 0.192170 0.824845
0.718966 0.199575 0.831672
0.189895 0.343057 0.828470
0.324712 0.350195 0.835051
0.469928 0.357883 0.842139
0.611933 0.365401 0.849070
0.751810 0.372806 0.855897
0.223357 0.519547 0.853151
0.358175 0.526684 0.859731
0.503391 0.534372 0.866819
0.645395 0.541890 0.873750
0.785273 0.549296 0.880578
0.257134 0.697697 0.878064
0.391952 0.704835 0.884644
0.537168 0.712523 0.891732
0.679172 0.720041 0.898663
0.819050 0.727446 0.905491
0.291127 0.876987 0.903136
0.425945 0.884124 0.909716
0.571161 0.891812 0.916804
0.713165 0.899330 0.923735
0.853043 0.906735 0.930563
