Fotico/Resources/LUTs/vhs.cube
# VHS
LUT_3D_SIZE 17
0.143465 0.158959 0.162030
0.165472 0.160124 0.163104
0.203664 0.162146 0.164968
0.241207 0.164133 0.166801
0.278283 0.166096 0.168611
0.314993 0.168040 0.170402
0.351404 0.169967 0.172180
0.387561 0.171882 0.173944
0.423499 0.173784 0.175698
0.459244 0.175677 0.177443
0.494815 0.177560 0.179179
0.530230 0.179435 0.180908
0.565503 0.181302 0.182630
0.600646 0.183163 0.184345
0.635667 0.185017 0.186054
0.670577 0.186865 0.187758
0.705381 0.188708 0.189457
0.151573 0.201721 0.168010
0.173579 0.202886 0.169084
0.211772 0.204908 0.170948
0.249315 0.206896 0.172781
0.286391 0.208859 0.174591
0.323101 0.210802 0.176382
0.359512 0.212730 0.178160
0.395669 0.214644 0.179924
0.431607 0.216547 0.181678
0.467351 0.218439 0.183423
0.502923 0.220322 0.185159
0.538338 0.222197 0.186888
0.573611 0.224065 0.188610
0.608754 0.225925 0.190325
0.643775 0.227779 0.192034
0.678685 0.229627 0.193738
0.713489 0.231470 0.195437
0.159767 0.244937 0.174054
0.181773 0.246102 0.175128
0.219965 0.248124 0.176992
0.257509 0.250112 0.178824
0.294585 0.252075 0.180634
0.331295 0.254018 0.182426
0.367706 0.255946 0.184203
0.403863 0.257860 0.185968
0.439801 0.259763 0.187722
0.475545 0.261655 0.189466
0.511116 0.263538 0.191203
0.546532 0.265413 0.192931
0.581805 0.267281 0.194653
0.616947 0.269141 0.196368
0.651969 0.270995 0.198078
0.686878 0.272843 0.199782
0.721683 0.274686 0.201480
0.168017 0.288452 0.180139
0.190023 0.289617 0.181213
0.228216 0.291639 0.183077
0.265759 0.293626 0.184909
0.302835 0.295589 0.186719
0.339545 0.297533 0.188511
0.375956 0.299460 0.190288
0.412113 0.301374 0.192053
0.448051 0.303277 0.193807
0.483795 0.305169 0.195552
0.519367 0.307053 0.197288
0.554782 0.308928 0.199016
0.590055 0.310795 0.200738
0.625198 0.312655 0.202453
0.660219 0.314510 0.204163
0.695129 0.316358 0.205867
0.729933 0.318200 0.207565
0.176310 0.332190 0.186255
0.198316 0.333355 0.187329
0.236508 0.335377 0.189193
0.274052 0.337364 0.191026
0.311128 0.339327 0.192835
0.347838 0.341271 0.194627
0.384249 0.343198 0.196404
0.420406 0.345113 0.198169
0.456344 0.347015 0.199923
0.492088 0.348907 0.201668
0.527660 0.350791 0.203404
0.563075 0.352666 0.205133
0.598348 0.354533 0.206854
0.633490 0.356394 0.208570
0.668512 0.358248 0.210279
0.703421 0.360096 0.211983
0.738226 0.361938 0.213682
0.184637 0.376107 0.192396
0.206643 0.377272 0.193471
0.244835 0.379294 0.195335
0.282379 0.381282 0.197167
0.319454 0.383245 0.198977
0.356165 0.385188 0.200769
0.392575 0.387116 0.202546
0.428733 0.389030 0.204311
0.464670 0.390933 0.206065
0.500415 0.392825 0.207809
0.535986 0.394708 0.209546
0.571402 0.396583 0.211274
0.606675 0.398450 0.212996
0.641817 0.400311 0.214711
0.676839 0.402165 0.216421
0.711748 0.404013 0.218125
0.746553 0.405856 0.219823
0.192992 0.420174 0.198559
0.214998 0.421339 0.199633
0.253190 0.423361 0.201497
0.290734 0.425349 0.203330
0.327810 0.427312 0.205139
0.364520 0.429255 0.206931
0.400930 0.431183 0.208708
0.437088 0.433097 0.210473
0.473026 0.435000 0.212227
0.508770 0.436892 0.213972
0.544341 0.438775 0.215708
0.579757 0.440650 0.217437
0.615030 0.442518 0.219158
0.650172 0.444378 0.220874
0.685194 0.446232 0.222583
0.720103 0.448080 0.224287
0.754908 0.449923 0.225986
0.201371 0.464370 0.204739
0.223377 0.465535 0.205813
0.261570 0.467557 0.207678
0.299113 0.469545 0.209510
0.336189 0.471508 0.211320
0.372899 0.473451 0.213112
0.409310 0.475379 0.214889
0.445467 0.477293 0.216654
0.481405 0.479196 0.218408
0.517149 0.481088 0.220152
0.552721 0.482971 0.221889
0.588136 0.484846 0.223617
0.623409 0.486714 0.225339
0.658552 0.488574 0.227054
0.693573 0.490428 0.228763
0.728483 0.492276 0.230467
0.763287 0.494119 0.232166
0.209772 0.508679 0.210936
0.231778 0.509844 0.212010
0.269971 0.511866 0.213874
0.307514 0.513854 0.215706
0.344590 0.515817 0.217516
0.381300 0.517760 0.219308
0.417711 0.519688 0.221085
0.453868 0.521602 0.222850
0.489806 0.523505 0.224604
0.525550 0.525397 0.226348
0.561122 0.527280 0.228085
0.596537 0.529155 0.229813
0.631810 0.531022 0.231535
0.666953 0.532883 0.233250
0.701974 0.534737 0.234960
0.736884 0.536585 0.236664
0.771688 0.538428 0.238362
0.218192 0.553088 0.217146
0.240198 0.554254 0.218220
0.278391 0.556275 0.220084
0.315934 0.558263 0.221917
0.353010 0.560226 0.223726
0.389720 0.562169 0.225518
0.426131 0.564097 0.227295
0.462288 0.566011 0.229060
0.498226 0.567914 0.230814
0.533970 0.569806 0.232559
0.569542 0.571689 0.234295
0.604957 0.573564 0.236024
0.640230 0.575432 0.237745
0.675373 0.577292 0.239461
0.710394 0.579146 0.241170
0.745304 0.580995 0.242874
0.780108 0.582837 0.244573
0.226630 0.597589 0.223369
0.248636 0.598754 0.224443
0.286828 0.600776 0.226307
0.324371 0.602763 0.228139
0.361447 0.604726 0.229949
0.398157 0.606670 0.231741
0.434568 0.608597 0.233518
0.470725 0.610511 0.235283
0.506663 0.612414 0.237037
0.542408 0.614306 0.238782
0.577979 0.616190 0.240518
0.613394 0.618064 0.242247
0.648667 0.619932 0.243968
0.683810 0.621792 0.245683
0.718831 0.623646 0.247393
0.753741 0.625495 0.249097
0.788545 0.627337 0.250796
0.235082 0.642171 0.229603
0.257088 0.643336 0.230677
0.295281 0.645358 0.232541
0.332824 0.647346 0.234374
0.369900 0.649309 0.236184
0.406610 0.651252 0.237975
0.443021 0.653180 0.239753
0.479178 0.655094 0.241517
0.515116 0.656997 0.243272
0.550860 0.658889 0.245016
0.586432 0.660772 0.246752
0.621847 0.662647 0.248481
0.657120 0.664515 0.250203
0.692263 0.666375 0.251918
0.727284 0.668229 0.253627
0.762194 0.670077 0.255331
0.796998 0.671920 0.257030
0.243550 0.686830 0.235848
0.265556 0.687995 0.236922
0.303748 0.690017 0.238787
0.341292 0.692004 0.240619
0.378367 0.693967 0.242429
0.415078 0.695911 0.244221
0.451488 0.697838 0.245998
0.487646 0.699752 0.247763
0.523583 0.701655 0.249517
0.559328 0.703547 0.251261
0.594899 0.705431 0.252998
0.630314 0.707306 0.254726
0.665588 0.709173 0.256448
0.700730 0.711034 0.258163
0.735752 0.712888 0.259872
0.770661 0.714736 0.261576
0.805465 0.716578 0.263275
0.252030 0.731558 0.242103
0.274036 0.732723 0.243177
0.312228 0.734745 0.245041
0.349772 0.736733 0.246874
0.386848 0.738696 0.248684
0.423558 0.740639 0.250475
0.459969 0.742567 0.252253
0.496126 0.744481 0.254017
0.532064 0.746384 0.255772
0.567808 0.748276 0.257516
0.603380 0.750159 0.259252
0.638795 0.752034 0.260981
0.674068 0.753902 0.262703
0.709210 0.755762 0.264418
0.744232 0.757616 0.266127
0.779141 0.759464 0.267831
0.813946 0.761307 0.269530
0.260523 0.776352 0.248367
0.282529 0.777517 0.249441
0.320721 0.779539 0.251305
0.358265 0.781527 0.253138
0.395341 0.783490 0.254948
0.432051 0.785433 0.256739
0.468462 0.787361 0.258517
0.504619 0.789275 0.260281
0.540557 0.791177 0.262036
0.576301 0.793070 0.263780
0.611873 0.794953 0.265516
0.647288 0.796828 0.267245
0.682561 0.798695 0.268967
0.717703 0.800556 0.270682
0.752725 0.802410 0.272391
0.787634 0.804258 0.274095
0.822439 0.806101 0.275794
0.269027 0.821207 0.254640
0.291034 0.822372 0.255714
0.329226 0.824394 0.257578
0.366769 0.826381 0.259411
0.403845 0.828344 0.261220
0.440555 0.830288 0.263012
0.476966 0.832215 0.264789
0.513123 0.834130 0.266554
0.549061 0.836032 0.268308
0.584805 0.837925 0.270053
0.620377 0.839808 0.271789
0.655792 0.841683 0.273518
0.691065 0.843550 0.275239
0.726208 0.845411 0.276955
0.761229 0.847265 0.278664
0.796139 0.849113 0.280368
0.830943 0.850955 0.282067
0.277543 0.866119 0.260920
0.299549 0.867284 0.261994
0.337741 0.869306 0.263859
0.375285 0.871293 0.265691
0.412360 0.873256 0.267501
0.449071 0.875200 0.269293
0.485481 0.877127 0.271070
0.521639 0.879042 0.272835
0.557576 0.880944 0.274589
0.593321 0.882837 0.276333
0.628892 0.884720 0.278070
0.664308 0.886595 0.279798
0.699581 0.888462 0.281520
0.734723 0.890323 0.283235
0.769745 0.892177 0.284944
0.804654 0.894025 0.286648
0.839459 0.895867 0.288347
0.144262 0.159596 0.199682
0.166268 0.160761 0.200756
0.204460 0.162783 0.202620
0.242004 0.164771 0.204452
0.279080 0.166733 0.206262
0.315790 0.168677 0.208054
0.352201 0.170605 0.209831
0.388358 0.172519 0.211596
0.424296 0.174421 0.213350
0.460040 0.176314 0.215095
0.495611 0.178197 0.216831
0.531027 0.180072 0.218559
0.566300 0.181939 0.220281
0.601442 0.183800 0.221996
0.636464 0.185654 0.223706
0.671373 0.187502 0.225410
0.706178 0.189345 0.227109
0.152370 0.202358 0.205662
0.174376 0.203523 0.206736
0.212568 0.205545 0.208600
0.250112 0.207533 0.210432
0.287187 0.209496 0.212242
0.323898 0.211439 0.214034
0.360308 0.213367 0.215811
0.396466 0.215281 0.217576
0.432403 0.217184 0.219330
0.468148 0.219076 0.221075
0.503719 0.220959 0.222811
0.539135 0.222834 0.224539
0.574408 0.224702 0.226261
0.609550 0.226562 0.227976
0.644572 0.228416 0.229686
0.679481 0.230264 0.231390
0.714285 0.232107 0.233088
0.160563 0.245574 0.211705
0.182569 0.246739 0.212779
0.220762 0.248761 0.214643
0.258305 0.250749 0.216476
0.295381 0.252712 0.218285
0.332091 0.254655 0.220077
0.368502 0.256583 0.221854
0.404659 0.258497 0.223619
0.440597 0.260400 0.225373
0.476341 0.262292 0.227118
0.511913 0.264175 0.228854
0.547328 0.266050 0.230583
0.582601 0.267918 0.232304
0.617744 0.269778 0.234020
0.652765 0.271632 0.235729
0.687675 0.273480 0.237433
0.722479 0.275323 0.239132
0.168814 0.289089 0.217790
0.190820 0.290254 0.218864
0.229012 0.292276 0.220728
0.266556 0.294263 0.222561
0.303631 0.296226 0.224370
0.340342 0.298170 0.226162
0.376752 0.300097 0.227939
0.412910 0.302012 0.229704
0.448847 0.303914 0.231458
0.484592 0.305807 0.233203
0.520163 0.307690 0.234939
0.555579 0.309565 0.236668
0.590852 0.311432 0.238390
0.625994 0.313293 0.240105
0.661016 0.315147 0.241814
0.695925 0.316995 0.243518
0.730730 0.318837 0.245217
0.177106 0.332827 0.223906
0.199112 0.333992 0.224981
0.237305 0.336014 0.226845
0.274848 0.338001 0.228677
0.311924 0.339964 0.230487
0.348634 0.341908 0.232279
0.385045 0.343835 0.234056
0.421202 0.345750 0.235821
0.457140 0.347652 0.237575
0.492884 0.349545 0.239319
0.528456 0.351428 0.241056
0.563871 0.353303 0.242784
0.599144 0.355170 0.244506
0.634287 0.357031 0.246221
0.669308 0.358885 0.247931
0.704218 0.360733 0.249635
0.739022 0.362576 0.251333
0.185433 0.376744 0.230048
0.207439 0.377909 0.231122
0.245631 0.379931 0.232986
0.283175 0.381919 0.234819
0.320251 0.383882 0.236628
0.356961 0.385825 0.238420
0.393372 0.387753 0.240197
0.429529 0.389667 0.241962
0.465467 0.391570 0.243716
0.501211 0.393462 0.245461
0.536783 0.395345 0.247197
0.572198 0.397220 0.248926
0.607471 0.399088 0.250647
0.642614 0.400948 0.252363
0.677635 0.402802 0.254072
0.712544 0.404650 0.255776
0.747349 0.406493 0.257475
0.193788 0.420812 0.236210
0.215794 0.421977 0.237284
0.253987 0.423999 0.239149
0.291530 0.425986 0.240981
0.328606 0.427949 0.242791
0.365316 0.429892 0.244583
0.401727 0.431820 0.246360
0.437884 0.433734 0.248125
0.473822 0.435637 0.249879
0.509566 0.437529 0.251623
0.545138 0.439413 0.253360
0.580553 0.441287 0.255088
0.615826 0.443155 0.256810
0.650969 0.445015 0.258525
0.685990 0.446869 0.260235
0.720900 0.448718 0.261938
0.755704 0.450560 0.263637
0.202168 0.465007 0.242391
0.224174 0.466172 0.243465
0.262366 0.468194 0.245329
0.299910 0.470182 0.247162
0.336986 0.472145 0.248971
0.373696 0.474088 0.250763
0.410106 0.476016 0.252540
0.446264 0.477930 0.254305
0.482202 0.479833 0.256059
0.517946 0.481725 0.257804
0.553517 0.483608 0.259540
0.588933 0.485483 0.261269
0.624206 0.487351 0.262990
0.659348 0.489211 0.264706
0.694370 0.491065 0.266415
0.729279 0.492914 0.268119
0.764084 0.494756 0.269818
0.210569 0.509316 0.248587
0.232575 0.510481 0.249661
0.270767 0.512503 0.251525
0.308311 0.514491 0.253358
0.345386 0.516454 0.255167
0.382097 0.518397 0.256959
0.418507 0.520325 0.258736
0.454665 0.522239 0.260501
0.490602 0.524142 0.262255
0.526347 0.526034 0.264000
0.561918 0.527917 0.265736
0.597334 0.529792 0.267465
0.632607 0.531660 0.269186
0.667749 0.533520 0.270902
0.702771 0.535374 0.272611
0.737680 0.537222 0.274315
0.772485 0.539065 0.276014
0.218989 0.553726 0.254797
0.240995 0.554891 0.255871
0.279187 0.556913 0.257736
0.316731 0.558900 0.259568
0.353806 0.560863 0.261378
0.390517 0.562807 0.263169
0.426927 0.564734 0.264947
0.463085 0.566648 0.266711
0.499022 0.568551 0.268466
0.534767 0.570443 0.270210
0.570338 0.572327 0.271946
0.605754 0.574202 0.273675
0.641027 0.576069 0.275397
0.676169 0.577929 0.277112
0.711191 0.579784 0.278821
0.746100 0.581632 0.280525
0.780905 0.583474 0.282224
0.227426 0.598226 0.261020
0.249432 0.599391 0.262094
0.287624 0.601413 0.263958
0.325168 0.603400 0.265791
0.362244 0.605363 0.267601
0.398954 0.607307 0.269392
0.435365 0.609234 0.271170
0.471522 0.611149 0.272934
0.507460 0.613051 0.274689
0.543204 0.614943 0.276433
0.578775 0.616827 0.278169
0.614191 0.618702 0.279898
0.649464 0.620569 0.281620
0.684606 0.622430 0.283335
0.719628 0.624284 0.285044
0.754537 0.626132 0.286748
0.789342 0.627974 0.288447
0.235879 0.642808 0.267255
0.257885 0.643973 0.268329
0.296077 0.645995 0.270193
0.333621 0.647983 0.272025
0.370696 0.649946 0.273835
0.407407 0.651889 0.275627
0.443817 0.653817 0.277404
0.479975 0.655731 0.279169
0.515912 0.657634 0.280923
0.551657 0.659526 0.282668
0.587228 0.661409 0.284404
0.622644 0.663284 0.286132
0.657917 0.665152 0.287854
0.693059 0.667012 0.289569
0.728081 0.668866 0.291279
0.762990 0.670714 0.292983
0.797795 0.672557 0.294682
0.244346 0.687467 0.273500
0.266352 0.688632 0.274574
0.304544 0.690654 0.276438
0.342088 0.692641 0.278271
0.379164 0.694604 0.280080
0.415874 0.696548 0.281872
0.452285 0.698475 0.283649
0.488442 0.700390 0.285414
0.524380 0.702292 0.287168
0.560124 0.704185 0.288913
0.595696 0.706068 0.290649
0.631111 0.707943 0.292378
0.666384 0.709810 0.294099
0.701526 0.711671 0.295815
0.736548 0.713525 0.297524
0.771457 0.715373 0.299228
0.806262 0.717216 0.300927
0.252827 0.732195 0.279755
0.274833 0.733360 0.280829
0.313025 0.735382 0.282693
0.350568 0.737370 0.284525
0.387644 0.739333 0.286335
0.424354 0.741276 0.288127
0.460765 0.743204 0.289904
0.496922 0.745118 0.291669
0.532860 0.747021 0.293423
0.568605 0.748913 0.295168
0.604176 0.750796 0.296904
0.639591 0.752671 0.298632
0.674865 0.754539 0.300354
0.710007 0.756399 0.302069
0.745029 0.758253 0.303779
0.779938 0.760101 0.305483
0.814742 0.761944 0.307182
0.261319 0.776989 0.286019
0.283325 0.778154 0.287093
0.321518 0.780176 0.288957
0.359061 0.782164 0.290789
0.396137 0.784127 0.292599
0.432847 0.786070 0.294391
0.469258 0.787998 0.296168
0.505415 0.789912 0.297933
0.541353 0.791815 0.299687
0.577097 0.793707 0.301432
0.612669 0.795590 0.303168
0.648084 0.797465 0.304897
0.683357 0.799333 0.306618
0.718500 0.801193 0.308333
0.753521 0.803047 0.310043
0.788431 0.804895 0.311747
0.823235 0.806738 0.313446
0.269824 0.821844 0.292291
0.291830 0.823009 0.293365
0.330022 0.825031 0.295230
0.367566 0.827019 0.297062
0.404642 0.828981 0.298872
0.441352 0.830925 0.300663
0.477763 0.832853 0.302441
0.513920 0.834767 0.304205
0.549858 0.836669 0.305960
0.585602 0.838562 0.307704
0.621173 0.840445 0.309440
0.656589 0.842320 0.311169
0.691862 0.844187 0.312891
0.727004 0.846048 0.314606
0.762026 0.847902 0.316315
0.796935 0.849750 0.318019
0.831740 0.851593 0.319718
0.278339 0.866756 0.298572
0.300345 0.867921 0.299646
0.338537 0.869943 0.301510
0.376081 0.871931 0.303343
0.413157 0.873893 0.305152
0.449867 0.875837 0.306944
0.486278 0.877765 0.308721
0.522435 0.879679 0.310486
0.558373 0.881581 0.312240
0.594117 0.883474 0.313985
0.629689 0.885357 0.315721
0.665104 0.887232 0.317450
0.700377 0.889099 0.319171
0.735520 0.890960 0.320887
0.770541 0.892814 0.322596
0.805450 0.894662 0.324300
0.840255 0.896505 0.325999
0.145074 0.160246 0.238078
0.167080 0.161411 0.239152
0.205272 0.163433 0.241016
0.242816 0.165420 0.242849
0.279892 0.167383 0.244659
0.316602 0.169327 0.246450
0.353013 0.171254 0.248228
0.389170 0.173169 0.249992
0.425108 0.175071 0.251747
0.460852 0.176964 0.253491
0.496424 0.178847 0.255227
0.531839 0.180722 0.256956
0.567112 0.182589 0.258678
0.602255 0.184450 0.260393
0.637276 0.186304 0.262102
0.672185 0.188152 0.263806
0.706990 0.189994 0.265505
0.153182 0.203008 0.244058
0.175188 0.204173 0.245132
0.213380 0.206195 0.246996
0.250924 0.208183 0.248829
0.288000 0.210146 0.250639
0.324710 0.212089 0.252430
0.361121 0.214017 0.254208
0.397278 0.215931 0.255972
0.433216 0.217834 0.257726
0.468960 0.219726 0.259471
0.504531 0.221609 0.261207
0.539947 0.223484 0.262936
0.575220 0.225351 0.264658
0.610362 0.227212 0.266373
0.645384 0.229066 0.268082
0.680293 0.230914 0.269786
0.715098 0.232757 0.271485
0.161376 0.246224 0.250102
0.183382 0.247389 0.251176
0.221574 0.249411 0.253040
0.259118 0.251399 0.254872
0.296193 0.253362 0.256682
0.332904 0.255305 0.258474
0.369314 0.257233 0.260251
0.405471 0.259147 0.262016
0.441409 0.261049 0.263770
0.477154 0.262942 0.265514
0.512725 0.264825 0.267251
0.548140 0.266700 0.268979
0.583414 0.268567 0.270701
0.618556 0.270428 0.272416
0.653578 0.272282 0.274126
0.688487 0.274130 0.275830
0.723291 0.275973 0.277528
0.169626 0.289738 0.256187
0.191632 0.290904 0.257261
0.229824 0.292925 0.259125
0.267368 0.294913 0.260957
0.304444 0.296876 0.262767
0.341154 0.298819 0.264559
0.377565 0.300747 0.266336
0.413722 0.302661 0.268101
0.449660 0.304564 0.269855
0.485404 0.306456 0.271600
0.520975 0.308339 0.273336
0.556391 0.310214 0.275064
0.591664 0.312082 0.276786
0.626806 0.313942 0.278501
0.661828 0.315796 0.280211
0.696737 0.317645 0.281915
0.731542 0.319487 0.283613
0.177919 0.333477 0.262303
0.199925 0.334642 0.263377
0.238117 0.336664 0.265241
0.275661 0.338651 0.267074
0.312736 0.340614 0.268883
0.349447 0.342558 0.270675
0.385857 0.344485 0.272452
0.422015 0.346399 0.274217
0.457952 0.348302 0.275971
0.493697 0.350194 0.277716
0.529268 0.352078 0.279452
0.564684 0.353953 0.281181
0.599957 0.355820 0.282902
0.635099 0.357680 0.284618
0.670121 0.359535 0.286327
0.705030 0.361383 0.288031
0.739834 0.363225 0.289730
0.186245 0.377394 0.268444
0.208251 0.378559 0.269519
0.246444 0.380581 0.271383
0.283987 0.382569 0.273215
0.321063 0.384532 0.275025
0.357773 0.386475 0.276817
0.394184 0.388403 0.278594
0.430341 0.390317 0.280359
0.466279 0.392219 0.282113
0.502023 0.394112 0.283857
0.537595 0.395995 0.285594
0.573010 0.397870 0.287322
0.608283 0.399737 0.289044
0.643426 0.401598 0.290759
0.678447 0.403452 0.292469
0.713357 0.405300 0.294173
0.748161 0.407143 0.295871
0.194600 0.421461 0.274607
0.216607 0.422626 0.275681
0.254799 0.424648 0.277545
0.292342 0.426636 0.279378
0.329418 0.428599 0.281187
0.366128 0.430542 0.282979
0.402539 0.432470 0.284756
0.438696 0.434384 0.286521
0.474634 0.436287 0.288275
0.510378 0.438179 0.290020
0.545950 0.440062 0.291756
0.581365 0.441937 0.293485
0.616638 0.443805 0.295206
0.651781 0.445665 0.296922
0.686802 0.447519 0.298631
0.721712 0.449367 0.300335
0.756516 0.451210 0.302034
0.202980 0.465657 0.280787
0.224986 0.466822 0.281861
0.263178 0.468844 0.283726
0.300722 0.470832 0.285558
0.337798 0.472795 0.287368
0.374508 0.474738 0.289160
0.410919 0.476666 0.290937
0.447076 0.478580 0.292702
0.483014 0.480483 0.294456
0.518758 0.482375 0.296200
0.554330 0.484258 0.297937
0.589745 0.486133 0.299665
0.625018 0.488001 0.301387
0.660160 0.489861 0.303102
0.695182 0.491715 0.304811
0.730091 0.493563 0.306515
0.764896 0.495406 0.308214
0.211381 0.509966 0.286984
0.233387 0.511131 0.288058
0.271579 0.513153 0.289922
0.309123 0.515141 0.291754
0.346199 0.517103 0.293564
0.382909 0.519047 0.295356
0.419320 0.520975 0.297133
0.455477 0.522889 0.298898
0.491415 0.524791 0.300652
0.527159 0.526684 0.302396
0.562730 0.528567 0.304133
0.598146 0.530442 0.305861
0.633419 0.532309 0.307583
0.668561 0.534170 0.309298
0.703583 0.536024 0.311008
0.738492 0.537872 0.312712
0.773297 0.539715 0.314410
0.219801 0.554375 0.293194
0.241807 0.555540 0.294268
0.279999 0.557562 0.296132
0.317543 0.559550 0.297965
0.354619 0.561513 0.299774
0.391329 0.563456 0.301566
0.427740 0.565384 0.303343
0.463897 0.567298 0.305108
0.499835 0.569201 0.306862
0.535579 0.571093 0.308607
0.571150 0.572976 0.310343
0.606566 0.574851 0.312072
0.641839 0.576719 0.313793
0.676981 0.578579 0.315509
0.712003 0.580433 0.317218
0.746912 0.582281 0.318922
0.781717 0.584124 0.320621
0.228238 0.598875 0.299417
0.250244 0.600040 0.300491
0.288436 0.602062 0.302355
0.325980 0.604050 0.304187
0.363056 0.606013 0.305997
0.399766 0.607956 0.307789
0.436177 0.609884 0.309566
0.472334 0.611798 0.311331
0.508272 0.613701 0.313085
0.544016 0.615593 0.314830
0.579588 0.617476 0.316566
0.615003 0.619351 0.318295
0.650276 0.621219 0.320016
0.685419 0.623079 0.321731
0.720440 0.624933 0.323441
0.755349 0.626782 0.325145
0.790154 0.628624 0.326844
0.236691 0.643458 0.305651
0.258697 0.644623 0.306725
0.296889 0.646645 0.308589
0.334433 0.648633 0.310422
0.371509 0.650596 0.312232
0.408219 0.652539 0.314023
0.444630 0.654467 0.315801
0.480787 0.656381 0.317565
0.516725 0.658284 0.319320
0.552469 0.660176 0.321064
0.588041 0.662059 0.322800
0.623456 0.663934 0.324529
0.658729 0.665801 0.326251
0.693871 0.667662 0.327966
0.728893 0.669516 0.329675
0.763802 0.671364 0.331379
0.798607 0.673207 0.333078
0.245158 0.688117 0.311896
0.267164 0.689282 0.312970
0.305357 0.691304 0.314835
0.342900 0.693291 0.316667
0.379976 0.695254 0.318477
0.416686 0.697198 0.320269
0.453097 0.699125 0.322046
0.489254 0.701039 0.323811
0.525192 0.702942 0.325565
0.560936 0.704834 0.327309
0.596508 0.706718 0.329046
0.631923 0.708593 0.330774
0.667196 0.710460 0.332496
0.702339 0.712320 0.334211
0.737360 0.714175 0.335920
0.772270 0.716023 0.337624
0.807074 0.717865 0.339323
0.253639 0.732845 0.318151
0.275645 0.734010 0.319225
0.313837 0.736032 0.321089
0.351381 0.738020 0.322922
0.388456 0.739983 0.324732
0.425167 0.741926 0.326523
0.461577 0.743854 0.328301
0.497735 0.745768 0.330065
0.533672 0.747671 0.331820
0.569417 0.749563 0.333564
0.604988 0.751446 0.335300
0.640404 0.753321 0.337029
0.675677 0.755189 0.338751
0.710819 0.757049 0.340466
0.745841 0.758903 0.342175
0.780750 0.760751 0.343879
0.815555 0.762594 0.345578
0.262132 0.777639 0.324415
0.284138 0.778804 0.325489
0.322330 0.780826 0.327353
0.359874 0.782814 0.329186
0.396949 0.784776 0.330996
0.433660 0.786720 0.332787
0.470070 0.788648 0.334565
0.506228 0.790562 0.336329
0.542165 0.792464 0.338084
0.577910 0.794357 0.339828
0.613481 0.796240 0.341564
0.648897 0.798115 0.343293
0.684170 0.799982 0.345015
0.719312 0.801843 0.346730
0.754334 0.803697 0.348439
0.789243 0.805545 0.350143
0.824047 0.807388 0.351842
0.270636 0.822494 0.330688
0.292642 0.823659 0.331762
0.330834 0.825681 0.333626
0.368378 0.827668 0.335459
0.405454 0.829631 0.337268
0.442164 0.831575 0.339060
0.478575 0.833502 0.340837
0.514732 0.835417 0.342602
0.550670 0.837319 0.344356
0.586414 0.839211 0.346101
0.621986 0.841095 0.347837
0.657401 0.842970 0.349566
0.692674 0.844837 0.351287
0.727816 0.846698 0.353003
0.762838 0.848552 0.354712
0.797747 0.850400 0.356416
0.832552 0.852242 0.358115
0.279151 0.867406 0.336968
0.301157 0.868571 0.338042
0.339350 0.870593 0.339907
0.376893 0.872580 0.341739
0.413969 0.874543 0.343549
0.450679 0.876487 0.345341
0.487090 0.878414 0.347118
0.523247 0.880328 0.348883
0.559185 0.882231 0.350637
0.594929 0.884123 0.352381
0.630501 0.886007 0.354118
0.665916 0.887882 0.355846
0.701189 0.889749 0.357568
0.736332 0.891610 0.359283
0.771353 0.893464 0.360992
0.806263 0.895312 0.362696
0.841067 0.897154 0.364395
0.145897 0.160904 0.276986
0.167903 0.162069 0.278060
0.206095 0.164091 0.279924
0.243639 0.166079 0.281756
0.280715 0.168042 0.283566
0.317425 0.169985 0.285358
0.353836 0.171913 0.287135
0.389993 0.173827 0.288900
0.425931 0.175730 0.290654
0.461675 0.177622 0.292399
0.497247 0.179505 0.294135
0.532662 0.181380 0.295863
0.567935 0.183247 0.297585
0.603078 0.185108 0.299300
0.638099 0.186962 0.301010
0.673008 0.188810 0.302714
0.707813 0.190653 0.304412
0.154005 0.203667 0.282966
0.176011 0.204832 0.284040
0.214203 0.206854 0.285904
0.251747 0.208841 0.287736
